assets/luts/bleach.cube
# Bleach — Studio filter "bleach"
# Generated by scripts/generate-filter-luts.mjs — do not edit by hand.
LUT_3D_SIZE 17
DOMAIN_MIN 0.0 0.0 0.0
DOMAIN_MAX 1.0 1.0 1.0
0.000843 0.000843 0.000843
0.030704 0.008063 0.008063
0.063059 0.015886 0.015886
0.097519 0.024218 0.024218
0.133693 0.032965 0.032965
0.171193 0.042032 0.042032
0.209627 0.051325 0.051325
0.248606 0.060750 0.060750
0.287740 0.070212 0.070212
0.326639 0.079618 0.079618
0.364914 0.088872 0.088872
0.402174 0.097882 0.097882
0.438030 0.106551 0.106551
0.472091 0.114787 0.114787
0.503969 0.122495 0.122495
0.533272 0.129580 0.129580
0.559612 0.135949 0.135949
0.025132 0.047773 0.025132
0.054993 0.054993 0.032352
0.087348 0.062816 0.040175
0.121808 0.071148 0.048508
0.157983 0.079895 0.057254
0.195482 0.088962 0.066321
0.233916 0.098255 0.075614
0.272895 0.107680 0.085039
0.312029 0.117142 0.094501
0.350928 0.126548 0.103907
0.389203 0.135802 0.113161
0.426463 0.144812 0.122171
0.462319 0.153481 0.130840
0.496380 0.161717 0.139076
0.528258 0.169425 0.146784
0.557561 0.176510 0.153869
0.583901 0.182879 0.160238
0.051450 0.098623 0.051450
0.081311 0.105843 0.058670
0.113666 0.113666 0.066493
0.148126 0.121999 0.074826
0.184301 0.130745 0.083572
0.221800 0.139812 0.092639
0.260234 0.149105 0.101932
0.299213 0.158530 0.111357
0.338347 0.167992 0.120819
0.377246 0.177398 0.130225
0.415521 0.186652 0.139480
0.452781 0.195662 0.148489
0.488637 0.204331 0.157158
0.522698 0.212567 0.165394
0.554576 0.220275 0.173102
0.583879 0.227360 0.180187
0.610219 0.233729 0.186556
0.079480 0.152780 0.079480
0.109341 0.160001 0.086700
0.141696 0.167824 0.094523
0.176156 0.176156 0.102855
0.212330 0.184903 0.111602
0.249830 0.193970 0.120669
0.288264 0.203263 0.129962
0.327242 0.212688 0.139387
0.366377 0.222150 0.148849
0.405276 0.231555 0.158255
0.443551 0.240810 0.167509
0.480811 0.249819 0.176519
0.516667 0.258489 0.185188
0.550728 0.266725 0.193424
0.582606 0.274432 0.201132
0.611909 0.281518 0.208217
0.638249 0.287887 0.214586
0.108904 0.209633 0.108904
0.138765 0.216853 0.116124
0.171121 0.224676 0.123948
0.205580 0.233008 0.132280
0.241755 0.241755 0.141027
0.279254 0.250822 0.150094
0.317688 0.260115 0.159387
0.356667 0.269540 0.168811
0.395801 0.279002 0.178274
0.434700 0.288408 0.187679
0.472975 0.297662 0.196934
0.510235 0.306671 0.205943
0.546091 0.315341 0.214613
0.580153 0.323577 0.222848
0.612030 0.331285 0.230556
0.641334 0.338370 0.237642
0.667673 0.344739 0.244010
0.139406 0.268567 0.139406
0.169267 0.275787 0.146626
0.201623 0.283610 0.154450
0.236082 0.291942 0.162782
0.272257 0.300689 0.171528
0.309756 0.309756 0.180595
0.348190 0.319049 0.189889
0.387169 0.328474 0.199313
0.426303 0.337936 0.208776
0.465202 0.347342 0.218181
0.503477 0.356596 0.227436
0.540737 0.365605 0.236445
0.576593 0.374275 0.245115
0.610655 0.382511 0.253350
0.642532 0.390219 0.261058
0.671836 0.397304 0.268144
0.698175 0.403673 0.274512
0.170669 0.328970 0.170669
0.200530 0.336190 0.177889
0.232885 0.344013 0.185712
0.267345 0.352346 0.194044
0.303519 0.361092 0.202791
0.341018 0.370159 0.211858
0.379452 0.379452 0.221151
0.418431 0.388877 0.230576
0.457565 0.398340 0.240038
0.496465 0.407745 0.249444
0.534739 0.417000 0.258698
0.572000 0.426009 0.267707
0.607855 0.434678 0.276377
0.641917 0.442914 0.284613
0.673794 0.450622 0.292321
0.703098 0.457707 0.299406
0.729438 0.464076 0.305775
0.202374 0.390230 0.202374
0.232235 0.397450 0.209594
0.264591 0.405273 0.217418
0.299051 0.413605 0.225750
0.335225 0.422352 0.234497
0.372724 0.431419 0.243564
0.411158 0.440712 0.252857
0.450137 0.450137 0.262281
0.489271 0.459599 0.271744
0.528170 0.469005 0.281149
0.566445 0.478259 0.290404
0.603705 0.487269 0.299413
0.639561 0.495938 0.308083
0.673623 0.504174 0.316319
0.705500 0.511882 0.324026
0.734804 0.518967 0.331112
0.761143 0.525336 0.337480
0.234206 0.451733 0.234206
0.264067 0.458954 0.241426
0.296423 0.466777 0.249250
0.330882 0.475109 0.257582
0.367057 0.483856 0.266328
0.404556 0.492923 0.275395
0.442990 0.502216 0.284688
0.481969 0.511641 0.294113
0.521103 0.521103 0.303576
0.560002 0.530508 0.312981
0.598277 0.539763 0.322236
0.635537 0.548772 0.331245
0.671393 0.557442 0.339915
0.705454 0.565678 0.348150
0.737332 0.573385 0.355858
0.766635 0.580471 0.362943
0.792975 0.586840 0.369312
0.265847 0.512868 0.265847
0.295708 0.520088 0.273067
0.328063 0.527912 0.280890
0.362523 0.536244 0.289223
0.398698 0.544990 0.297969
0.436197 0.554057 0.307036
0.474631 0.563350 0.316329
0.513610 0.572775 0.325754
0.552744 0.582238 0.335216
0.591643 0.591643 0.344622
0.629918 0.600898 0.353877
0.667178 0.609907 0.362886
0.703034 0.618577 0.371555
0.737095 0.626812 0.379791
0.768973 0.634520 0.387499
0.798276 0.641605 0.394584
0.824616 0.647974 0.400953
0.296980 0.573021 0.296980
0.326841 0.580241 0.304200
0.359196 0.588064 0.312023
0.393656 0.596397 0.320355
0.429830 0.605143 0.329102
0.467330 0.614210 0.338169
0.505764 0.623503 0.347462
0.544743 0.632928 0.356887
0.583877 0.642390 0.366349
0.622776 0.651796 0.375755
0.661051 0.661051 0.385009
0.698311 0.670060 0.394019
0.734167 0.678729 0.402688
0.768228 0.686965 0.410924
0.800106 0.694673 0.418632
0.829409 0.701758 0.425717
0.855749 0.708127 0.432086
0.327287 0.631580 0.327287
0.357148 0.638800 0.334508
0.389504 0.646623 0.342331
0.423964 0.654955 0.350663
0.460138 0.663702 0.359410
0.497637 0.672769 0.368477
0.536071 0.682062 0.377770
0.575050 0.691487 0.387195
0.614184 0.700949 0.396657
0.653084 0.710355 0.406062
0.691358 0.719609 0.415317
0.728618 0.728618 0.424326
0.764474 0.737288 0.432996
0.798536 0.745524 0.441232
0.830413 0.753232 0.448939
0.859717 0.760317 0.456025
0.886056 0.766686 0.462394
0.356453 0.687931 0.356453
0.386314 0.695151 0.363673
0.418669 0.702975 0.371496
0.453129 0.711307 0.379828
0.489303 0.720053 0.388575
0.526803 0.729120 0.397642
0.565237 0.738413 0.406935
0.604215 0.747838 0.416360
0.643350 0.757301 0.425822
0.682249 0.766706 0.435228
0.720523 0.775961 0.444482
0.757784 0.784970 0.453491
0.793639 0.793639 0.462161
0.827701 0.801875 0.470397
0.859579 0.809583 0.478105
0.888882 0.816668 0.485190
0.915222 0.823037 0.491559
0.384159 0.741463 0.384159
0.414020 0.748683 0.391379
0.446375 0.756506 0.399202
0.480835 0.764838 0.407534
0.517009 0.773585 0.416281
0.554508 0.782652 0.425348
0.592942 0.791945 0.434641
0.631921 0.801370 0.444066
0.671055 0.810832 0.453528
0.709955 0.820238 0.462934
0.748229 0.829492 0.472188
0.785490 0.838501 0.481197
0.821345 0.847171 0.489867
0.855407 0.855407 0.498103
0.887284 0.863115 0.505811
0.916588 0.870200 0.512896
0.942928 0.876569 0.519265
0.410088 0.791562 0.410088
0.439949 0.798782 0.417308
0.472304 0.806605 0.425131
0.506764 0.814937 0.433463
0.542939 0.823684 0.442210
0.580438 0.832751 0.451277
0.618872 0.842044 0.460570
0.657851 0.851469 0.469995
0.696985 0.860931 0.479457
0.735884 0.870337 0.488863
0.774159 0.879591 0.498117
0.811419 0.888600 0.507127
0.847275 0.897270 0.515796
0.881336 0.905506 0.524032
0.913214 0.913214 0.531740
0.942517 0.920299 0.538825
0.968857 0.926668 0.545194
0.433924 0.837615 0.433924
0.463785 0.844836 0.441144
0.496140 0.852659 0.448967
0.530600 0.860991 0.457299
0.566774 0.869738 0.466046
0.604273 0.878805 0.475113
0.642707 0.888098 0.484406
0.681686 0.897523 0.493831
0.720820 0.906985 0.503293
0.759720 0.916390 0.512699
0.797994 0.925645 0.521953
0.835254 0.934654 0.530962
0.871110 0.943324 0.539632
0.905172 0.951560 0.547868
0.937049 0.959267 0.555576
0.966353 0.966353 0.562661
0.992692 0.972722 0.569030
0.455348 0.879011 0.455348
0.485209 0.886231 0.462569
0.517565 0.894055 0.470392
0.552025 0.902387 0.478724
0.588199 0.911134 0.487471
0.625698 0.920201 0.496538
0.664132 0.929494 0.505831
0.703111 0.938918 0.515255
0.742245 0.948381 0.524718
0.781144 0.957786 0.534123
0.819419 0.967041 0.543378
0.856679 0.976050 0.552387
0.892535 0.984720 0.561057
0.926597 0.992955 0.569293
0.958474 1.000000 0.577000
0.987778 1.000000 0.584086
1.000000 1.000000 0.590454
0.003295 0.003295 0.025936
0.033156 0.010515 0.033156
0.065511 0.018338 0.040979
0.099971 0.026670 0.049311
0.136145 0.035417 0.058058
0.173645 0.044484 0.067125
0.212079 0.053777 0.076418
0.251058 0.063202 0.085843
0.290192 0.072664 0.095305
0.329091 0.082070 0.104711
0.367366 0.091324 0.113965
0.404626 0.100334 0.122974
0.440482 0.109003 0.131644
0.474543 0.117239 0.139880
0.506421 0.124947 0.147588
0.535724 0.132032 0.154673
0.562064 0.138401 0.161042
0.027584 0.050225 0.050225
0.057445 0.057445 0.057445
0.089800 0.065268 0.065268
0.124260 0.073600 0.073600
0.160435 0.082347 0.082347
0.197934 0.091414 0.091414
0.236368 0.100707 0.100707
0.275347 0.110132 0.110132
0.314481 0.119594 0.119594
0.353380 0.129000 0.129000
0.391655 0.138254 0.138254
0.428915 0.147264 0.147264
0.464771 0.155933 0.155933
0.498832 0.164169 0.164169
0.530710 0.171877 0.171877
0.560013 0.178962 0.178962
0.586353 0.185331 0.185331
0.053902 0.101075 0.076543
0.083763 0.108295 0.083763
0.116118 0.116118 0.091586
0.150578 0.124451 0.099918
0.186753 0.133197 0.108665
0.224252 0.142264 0.117732
0.262686 0.151557 0.127025
0.301665 0.160982 0.136450
0.340799 0.170444 0.145912
0.379698 0.179850 0.155318
0.417973 0.189104 0.164572
0.455233 0.198114 0.173582
0.491089 0.206783 0.182251
0.525150 0.215019 0.190487
0.557028 0.222727 0.198195
0.586331 0.229812 0.205280
0.612671 0.236181 0.211649
0.081932 0.155232 0.104573
0.111793 0.162453 0.111793
0.144148 0.170276 0.119616
0.178608 0.178608 0.127948
0.214782 0.187355 0.136695
0.252282 0.196422 0.145762
0.290716 0.205715 0.155055
0.329695 0.215140 0.164480
0.368829 0.224602 0.173942
0.407728 0.234007 0.183348
0.446003 0.243262 0.192602
0.483263 0.252271 0.201611
0.519119 0.260941 0.210281
0.553180 0.269177 0.218517
0.585058 0.276884 0.226225
0.614361 0.283970 0.233310
0.640701 0.290339 0.239679
0.111356 0.212085 0.133997
0.141217 0.219305 0.141217
0.173573 0.227128 0.149041
0.208032 0.235460 0.157373
0.244207 0.244207 0.166119
0.281706 0.253274 0.175186
0.320140 0.262567 0.184479
0.359119 0.271992 0.193904
0.398253 0.281454 0.203367
0.437152 0.290860 0.212772
0.475427 0.300114 0.222027
0.512687 0.309123 0.231036
0.548543 0.317793 0.239706
0.582605 0.326029 0.247941
0.614482 0.333737 0.255649
0.643786 0.340822 0.262734
0.670125 0.347191 0.269103
0.141858 0.271019 0.164499
0.171719 0.278239 0.171719
0.204075 0.286062 0.179543
0.238534 0.294394 0.187875
0.274709 0.303141 0.196621
0.312208 0.312208 0.205688
0.350642 0.321501 0.214981
0.389621 0.330926 0.224406
0.428755 0.340388 0.233869
0.467654 0.349794 0.243274
0.505929 0.359048 0.252529
0.543189 0.368057 0.261538
0.579045 0.376727 0.270208
0.613107 0.384963 0.278443
0.644984 0.392671 0.286151
0.674288 0.399756 0.293236
0.700627 0.406125 0.299605
0.173121 0.331422 0.195761
0.202982 0.338642 0.202982
0.235337 0.346466 0.210805
0.269797 0.354798 0.219137
0.305971 0.363544 0.227884
0.343470 0.372611 0.236951
0.381904 0.381904 0.246244
0.420883 0.391329 0.255669
0.460017 0.400792 0.265131
0.498917 0.410197 0.274536
0.537191 0.419452 0.283791
0.574452 0.428461 0.292800
0.610307 0.437130 0.301470
0.644369 0.445366 0.309706
0.676246 0.453074 0.317413
0.705550 0.460159 0.324499
0.731890 0.466528 0.330868
0.204826 0.392682 0.227467
0.234687 0.399902 0.234687
0.267043 0.407725 0.242511
0.301503 0.416057 0.250843
0.337677 0.424804 0.259589
0.375176 0.433871 0.268656
0.413610 0.443164 0.277949
0.452589 0.452589 0.287374
0.491723 0.462051 0.296837
0.530622 0.471457 0.306242
0.568897 0.480711 0.315497
0.606157 0.489721 0.324506
0.642013 0.498390 0.333176
0.676075 0.506626 0.341411
0.707952 0.514334 0.349119
0.737256 0.521419 0.356205
0.763595 0.527788 0.362573
0.236658 0.454185 0.259299
0.266519 0.461406 0.266519
0.298875 0.469229 0.274342
0.333334 0.477561 0.282675
0.369509 0.486308 0.291421
0.407008 0.495375 0.300488
0.445442 0.504668 0.309781
0.484421 0.514093 0.319206
0.523555 0.523555 0.328668
0.562454 0.532960 0.338074
0.600729 0.542215 0.347329
0.637989 0.551224 0.356338
0.673845 0.559894 0.365007
0.707906 0.568130 0.373243
0.739784 0.575837 0.380951
0.769087 0.582923 0.388036
0.795427 0.589292 0.394405
0.268299 0.515320 0.290940
0.298160 0.522540 0.298160
0.330515 0.530364 0.305983
0.364975 0.538696 0.314315
0.401150 0.547442 0.323062
0.438649 0.556509 0.332129
0.477083 0.565802 0.341422
0.516062 0.575227 0.350847
0.555196 0.584690 0.360309
0.594095 0.594095 0.369715
0.632370 0.603350 0.378969
0.669630 0.612359 0.387979
0.705486 0.621029 0.396648
0.739547 0.629264 0.404884
0.771425 0.636972 0.412592
0.800728 0.644057 0.419677
0.827068 0.650426 0.426046
0.299432 0.575473 0.322073
0.329293 0.582693 0.329293
0.361648 0.590516 0.337116
0.396108 0.598849 0.345448
0.432283 0.607595 0.354195
0.469782 0.616662 0.363262
0.508216 0.625955 0.372555
0.547195 0.635380 0.381980
0.586329 0.644843 0.391442
0.625228 0.654248 0.400848
0.663503 0.663503 0.410102
0.700763 0.672512 0.419111
0.736619 0.681181 0.427781
0.770680 0.689417 0.436017
0.802558 0.697125 0.443725
0.831861 0.704210 0.450810
0.858201 0.710579 0.457179
0.329739 0.634032 0.352380
0.359600 0.641252 0.359600
0.391956 0.649075 0.367424
0.426416 0.657407 0.375756
0.462590 0.666154 0.384503
0.500089 0.675221 0.393570
0.538523 0.684514 0.402863
0.577502 0.693939 0.412287
0.616636 0.703401 0.421750
0.655536 0.712807 0.431155
0.693810 0.722061 0.440410
0.731070 0.731070 0.449419
0.766926 0.739740 0.458089
0.800988 0.747976 0.466325
0.832865 0.755684 0.474032
0.862169 0.762769 0.481118
0.888508 0.769138 0.487486
0.358905 0.690383 0.381546
0.388766 0.697603 0.388766
0.421121 0.705427 0.396589
0.455581 0.713759 0.404921
0.491755 0.722505 0.413668
0.529255 0.731572 0.422735
0.567689 0.740865 0.432028
0.606667 0.750290 0.441453
0.645802 0.759753 0.450915
0.684701 0.769158 0.460321
0.722975 0.778413 0.469575
0.760236 0.787422 0.478584
0.796091 0.796091 0.487254
0.830153 0.804327 0.495490
0.862031 0.812035 0.503198
0.891334 0.819120 0.510283
0.917674 0.825489 0.516652
0.386611 0.743915 0.409251
0.416472 0.751135 0.416472
0.448827 0.758958 0.424295
0.483287 0.767290 0.432627
0.519461 0.776037 0.441374
0.556960 0.785104 0.450441
0.595394 0.794397 0.459734
0.634373 0.803822 0.469159
0.673507 0.813284 0.478621
0.712407 0.822690 0.488026
0.750681 0.831944 0.497281
0.787942 0.840953 0.506290
0.823797 0.849623 0.514960
0.857859 0.857859 0.523196
0.889736 0.865567 0.530903
0.919040 0.872652 0.537989
0.945380 0.879021 0.544358
0.412540 0.794014 0.435181
0.442401 0.801234 0.442401
0.474756 0.809057 0.450224
0.509216 0.817389 0.458556
0.545391 0.826136 0.467303
0.582890 0.835203 0.476370
0.621324 0.844496 0.485663
0.660303 0.853921 0.495088
0.699437 0.863383 0.504550
0.738336 0.872789 0.513956
0.776611 0.882043 0.523210
0.813871 0.891052 0.532220
0.849727 0.899722 0.540889
0.883788 0.907958 0.549125
0.915666 0.915666 0.556833
0.944969 0.922751 0.563918
0.971309 0.929120 0.570287
0.436376 0.840067 0.459016
0.466237 0.847288 0.466237
0.498592 0.855111 0.474060
0.533052 0.863443 0.482392
0.569226 0.872190 0.491139
0.606725 0.881257 0.500206
0.645159 0.890550 0.509499
0.684138 0.899975 0.518924
0.723272 0.909437 0.528386
0.762172 0.918842 0.537791
0.800446 0.928097 0.547046
0.837706 0.937106 0.556055
0.873562 0.945776 0.564725
0.907624 0.954012 0.572961
0.939501 0.961719 0.580668
0.968805 0.968805 0.587754
0.995144 0.975174 0.594122
0.457800 0.881463 0.480441
0.487661 0.888683 0.487661
0.520017 0.896507 0.495485
0.554477 0.904839 0.503817
0.590651 0.913586 0.512564
0.628150 0.922653 0.521631
0.666584 0.931946 0.530924
0.705563 0.941370 0.540348
0.744697 0.950833 0.549811
0.783596 0.960238 0.559216
0.821871 0.969493 0.568471
0.859131 0.978502 0.577480
0.894987 0.987172 0.586150
0.929049 0.995407 0.594385
0.960926 1.000000 0.602093
0.990230 1.000000 0.609179
1.000000 1.000000 0.615547
0.005952 0.005952 0.053125
0.035813 0.013172 0.060345
0.068168 0.020995 0.068168
0.102628 0.029327 0.076500
0.138802 0.038074 0.085247
0.176301 0.047141 0.094314
0.214735 0.056434 0.103607
0.253714 0.065859 0.113032
0.292848 0.075321 0.122494
0.331748 0.084727 0.131900
0.370022 0.093981 0.141154
0.407283 0.102990 0.150163
0.443138 0.111660 0.158833
0.477200 0.119896 0.167069
0.509077 0.127604 0.174777
0.538381 0.134689 0.181862
0.564721 0.141058 0.188231
0.030241 0.052882 0.077414
0.060102 0.060102 0.084634
0.092457 0.067925 0.092457
0.126917 0.076257 0.100789
0.163091 0.085004 0.109536
0.200591 0.094071 0.118603
0.239025 0.103364 0.127896
0.278003 0.112789 0.137321
0.317138 0.122251 0.146783
0.356037 0.131657 0.156189
0.394312 0.140911 0.165443
0.431572 0.149920 0.174453
0.467428 0.158590 0.183122
0.501489 0.166826 0.191358
0.533367 0.174534 0.199066
0.562670 0.181619 0.206151
0.589010 0.187988 0.212520
0.056559 0.103732 0.103732
0.086420 0.110952 0.110952
0.118775 0.118775 0.118775
0.153235 0.127107 0.127107
0.189409 0.135854 0.135854
0.226909 0.144921 0.144921
0.265343 0.154214 0.154214
0.304322 0.163639 0.163639
0.343456 0.173101 0.173101
0.382355 0.182507 0.182507
0.420630 0.191761 0.191761
0.457890 0.200771 0.200771
0.493746 0.209440 0.209440
0.527807 0.217676 0.217676
0.559685 0.225384 0.225384
0.588988 0.232469 0.232469
0.615328 0.238838 0.238838
0.084589 0.157889 0.131762
0.114450 0.165109 0.138982
0.146805 0.172933 0.146805
0.181265 0.181265 0.155137
0.217439 0.190012 0.163884
0.254938 0.199079 0.172951
0.293372 0.208372 0.182244
0.332351 0.217796 0.191669
0.371485 0.227259 0.201131
0.410385 0.236664 0.210537
0.448659 0.245919 0.219791
0.485920 0.254928 0.228800
0.521775 0.263598 0.237470
0.555837 0.271834 0.245706
0.587714 0.279541 0.253414
0.617018 0.286627 0.260499
0.643358 0.292995 0.266868
0.114013 0.214741 0.161186
0.143874 0.221962 0.168406
0.176229 0.229785 0.176229
0.210689 0.238117 0.184562
0.246864 0.246864 0.193308
0.284363 0.255931 0.202375
0.322797 0.265224 0.211668
0.361776 0.274649 0.221093
0.400910 0.284111 0.230555
0.439809 0.293516 0.239961
0.478084 0.302771 0.249216
0.515344 0.311780 0.258225
0.551200 0.320450 0.266894
0.585261 0.328686 0.275130
0.617139 0.336393 0.282838
0.646442 0.343479 0.289923
0.672782 0.349848 0.296292
0.144515 0.273676 0.191688
0.174376 0.280896 0.198908
0.206731 0.288719 0.206731
0.241191 0.297051 0.215064
0.277366 0.305798 0.223810
0.314865 0.314865 0.232877
0.353299 0.324158 0.242170
0.392278 0.333583 0.251595
0.431412 0.343045 0.261057
0.470311 0.352451 0.270463
0.508586 0.361705 0.279718
0.545846 0.370714 0.288727
0.581702 0.379384 0.297396
0.615763 0.387620 0.305632
0.647641 0.395328 0.313340
0.676944 0.402413 0.320425
0.703284 0.408782 0.326794
0.175777 0.334079 0.222950
0.205638 0.341299 0.230171
0.237994 0.349122 0.237994
0.272454 0.357454 0.246326
0.308628 0.366201 0.255073
0.346127 0.375268 0.264140
0.384561 0.384561 0.273433
0.423540 0.393986 0.282858
0.462674 0.403448 0.292320
0.501574 0.412854 0.301725
0.539848 0.422108 0.310980
0.577108 0.431118 0.319989
0.612964 0.439787 0.328659
0.647026 0.448023 0.336895
0.678903 0.455731 0.344602
0.708207 0.462816 0.351688
0.734546 0.469185 0.358056
0.207483 0.395339 0.254656
0.237344 0.402559 0.261876
0.269700 0.410382 0.269700
0.304159 0.418714 0.278032
0.340334 0.427461 0.286778
0.377833 0.436528 0.295845
0.416267 0.445821 0.305138
0.455246 0.455246 0.314563
0.494380 0.464708 0.324026
0.533279 0.474114 0.333431
0.571554 0.483368 0.342686
0.608814 0.492377 0.351695
0.644670 0.501047 0.360365
0.678731 0.509283 0.368600
0.710609 0.516991 0.376308
0.739912 0.524076 0.383393
0.766252 0.530445 0.389762
0.239315 0.456842 0.286488
0.269176 0.464062 0.293708
0.301531 0.471886 0.301531
0.335991 0.480218 0.309864
0.372166 0.488965 0.318610
0.409665 0.498032 0.327677
0.448099 0.507325 0.336970
0.487078 0.516749 0.346395
0.526212 0.526212 0.355857
0.565111 0.535617 0.365263
0.603386 0.544872 0.374517
0.640646 0.553881 0.383527
0.676502 0.562551 0.392196
0.710563 0.570787 0.400432
0.742441 0.578494 0.408140
0.771744 0.585580 0.415225
0.798084 0.591948 0.421594
0.270956 0.517977 0.318129
0.300817 0.525197 0.325349
0.333172 0.533020 0.333172
0.367632 0.541352 0.341504
0.403807 0.550099 0.350251
0.441306 0.559166 0.359318
0.479740 0.568459 0.368611
0.518719 0.577884 0.378036
0.557853 0.587346 0.387498
0.596752 0.596752 0.396904
0.635027 0.606006 0.406158
0.672287 0.615016 0.415168
0.708143 0.623685 0.423837
0.742204 0.631921 0.432073
0.774082 0.639629 0.439781
0.803385 0.646714 0.446866
0.829725 0.653083 0.453235
0.302089 0.578130 0.349262
0.331950 0.585350 0.356482
0.364305 0.593173 0.364305
0.398765 0.601505 0.372637
0.434939 0.610252 0.381384
0.472438 0.619319 0.390451
0.510872 0.628612 0.399744
0.549851 0.638037 0.409169
0.588985 0.647499 0.418631
0.627885 0.656905 0.428037
0.666159 0.666159 0.437291
0.703420 0.675169 0.446300
0.739275 0.683838 0.454970
0.773337 0.692074 0.463206
0.805214 0.699782 0.470914
0.834518 0.706867 0.477999
0.860858 0.713236 0.484368
0.332396 0.636688 0.379569
0.362257 0.643909 0.386789
0.394613 0.651732 0.394613
0.429073 0.660064 0.402945
0.465247 0.668811 0.411692
0.502746 0.677878 0.420759
0.541180 0.687171 0.430052
0.580159 0.696596 0.439476
0.619293 0.706058 0.448939
0.658192 0.715463 0.458344
0.696467 0.724718 0.467599
0.733727 0.733727 0.476608
0.769583 0.742397 0.485278
0.803645 0.750633 0.493514
0.835522 0.758340 0.501221
0.864826 0.765426 0.508307
0.891165 0.771795 0.514675
0.361562 0.693040 0.408735
0.391423 0.700260 0.415955
0.423778 0.708083 0.423778
0.458238 0.716415 0.432110
0.494412 0.725162 0.440857
0.531911 0.734229 0.449924
0.570345 0.743522 0.459217
0.609324 0.752947 0.468642
0.648458 0.762409 0.478104
0.687358 0.771815 0.487510
0.725632 0.781069 0.496764
0.762892 0.790079 0.505773
0.798748 0.798748 0.514443
0.832810 0.806984 0.522679
0.864687 0.814692 0.530387
0.893991 0.821777 0.537472
0.920331 0.828146 0.543841
0.389267 0.746571 0.436440
0.419128 0.753792 0.443661
0.451484 0.761615 0.451484
0.485944 0.769947 0.459816
0.522118 0.778694 0.468563
0.559617 0.787761 0.477630
0.598051 0.797054 0.486923
0.637030 0.806479 0.496348
0.676164 0.815941 0.505810
0.715064 0.825347 0.515215
0.753338 0.834601 0.524470
0.790598 0.843610 0.533479
0.826454 0.852280 0.542149
0.860516 0.860516 0.550385
0.892393 0.868223 0.558092
0.921697 0.875309 0.565178
0.948036 0.881678 0.571546
0.415197 0.796671 0.462370
0.445058 0.803891 0.469590
0.477413 0.811714 0.477413
0.511873 0.820046 0.485745
0.548047 0.828793 0.494492
0.585547 0.837860 0.503559
0.623981 0.847153 0.512852
0.662959 0.856578 0.522277
0.702094 0.866040 0.531739
0.740993 0.875446 0.541145
0.779267 0.884700 0.550399
0.816528 0.893709 0.559408
0.852383 0.902379 0.568078
0.886445 0.910615 0.576314
0.918323 0.918323 0.584022
0.947626 0.925408 0.591107
0.973966 0.931777 0.597476
0.439032 0.842724 0.486205
0.468893 0.849944 0.493425
0.501249 0.857768 0.501249
0.535709 0.866100 0.509581
0.571883 0.874847 0.518328
0.609382 0.883914 0.527395
0.647816 0.893207 0.536688
0.686795 0.902631 0.546112
0.725929 0.912094 0.555575
0.764828 0.921499 0.564980
0.803103 0.930754 0.574235
0.840363 0.939763 0.583244
0.876219 0.948433 0.591914
0.910281 0.956669 0.600150
0.942158 0.964376 0.607857
0.971462 0.971462 0.614943
0.997801 0.977830 0.621311
0.460457 0.884120 0.507630
0.490318 0.891340 0.514850
0.522674 0.899164 0.522674
0.557133 0.907496 0.531006
0.593308 0.916242 0.539752
0.630807 0.925309 0.548819
0.669241 0.934602 0.558112
0.708220 0.944027 0.567537
0.747354 0.953490 0.577000
0.786253 0.962895 0.586405
0.824528 0.972150 0.595660
0.861788 0.981159 0.604669
0.897644 0.989828 0.613339
0.931705 0.998064 0.621574
0.963583 1.000000 0.629282
0.992886 1.000000 0.636368
1.000000 1.000000 0.642736
0.008781 0.008781 0.082082
0.038642 0.016001 0.089302
0.070998 0.023825 0.097125
0.105458 0.032157 0.105458
0.141632 0.040904 0.114204
0.179131 0.049971 0.123271
0.217565 0.059264 0.132564
0.256544 0.068688 0.141989
0.295678 0.078151 0.151451
0.334577 0.087556 0.160857
0.372852 0.096811 0.170111
0.410112 0.105820 0.179121
0.445968 0.114490 0.187790
0.480030 0.122726 0.196026
0.511907 0.130433 0.203734
