assets/luts/bleach.cube
# Bleach — Studio filter "bleach"
# Generated by scripts/generate-filter-luts.mjs — do not edit by hand.
LUT_3D_SIZE 5
DOMAIN_MIN 0.0 0.0 0.0
DOMAIN_MAX 1.0 1.0 1.0
0.000843 0.000843 0.000843
0.133693 0.032965 0.032965
0.287740 0.070212 0.070212
0.438030 0.106551 0.106551
0.559612 0.135949 0.135949
0.108904 0.209633 0.108904
0.241755 0.241755 0.141027
0.395801 0.279002 0.178274
0.546091 0.315341 0.214613
0.667673 0.344739 0.244010
0.234206 0.451733 0.234206
0.367057 0.483856 0.266328
0.521103 0.521103 0.303576
0.671393 0.557442 0.339915
0.792975 0.586840 0.369312
0.356453 0.687931 0.356453
0.489303 0.720053 0.388575
0.643350 0.757301 0.425822
0.793639 0.793639 0.462161
0.915222 0.823037 0.491559
0.455348 0.879011 0.455348
0.588199 0.911134 0.487471
0.742245 0.948381 0.524718
0.892535 0.984720 0.561057
1.000000 1.000000 0.590454
0.011752 0.011752 0.112480
0.144602 0.043874 0.144602
0.298648 0.081121 0.181850
0.448938 0.117460 0.218189
0.570521 0.146858 0.247586
0.119813 0.220541 0.220541
0.252664 0.252664 0.252664
0.406710 0.289911 0.289911
0.557000 0.326250 0.326250
0.678582 0.355648 0.355648
0.245115 0.462642 0.345843
0.377966 0.494765 0.377966
0.532012 0.532012 0.415213
0.682302 0.568351 0.451552
0.803884 0.597748 0.480949
0.367362 0.698840 0.468090
0.500212 0.730962 0.500212
0.654258 0.768209 0.537459
0.804548 0.804548 0.573798
0.926131 0.833946 0.603196
0.466257 0.889920 0.566986
0.599108 0.922042 0.599108
0.753154 0.959290 0.636355
0.903444 0.995629 0.672694
1.000000 1.000000 0.702092
0.024401 0.024401 0.241928
0.157252 0.056523 0.274051
0.311298 0.093770 0.311298
0.461588 0.130109 0.347637
0.583170 0.159507 0.377034
0.132462 0.233191 0.349990
0.265313 0.265313 0.382112
0.419359 0.302560 0.419359
0.569649 0.338899 0.455698
0.691231 0.368297 0.485096
0.257764 0.475292 0.475292
0.390615 0.507414 0.507414
0.544661 0.544661 0.544661
0.694951 0.581000 0.581000
0.816533 0.610398 0.610398
0.380011 0.711489 0.597538
0.512862 0.743612 0.629661
0.666908 0.780859 0.666908
0.817198 0.817198 0.703247
0.938780 0.846595 0.732644
0.478907 0.902569 0.696434
0.611757 0.934692 0.728556
0.765803 0.971939 0.765803
0.916093 1.000000 0.802142
1.000000 1.000000 0.831540
0.036742 0.036742 0.368220
0.169593 0.068864 0.400342
0.323639 0.106111 0.437590
0.473929 0.142450 0.473929
0.595511 0.171848 0.503326
0.144803 0.245532 0.476282
0.277654 0.277654 0.508404
0.431700 0.314901 0.545651
0.581990 0.351240 0.581990
0.703572 0.380638 0.611388
0.270105 0.487633 0.601584
0.402956 0.519755 0.633706
0.557002 0.557002 0.670953
0.707292 0.593341 0.707292
0.828874 0.622739 0.736690
0.392352 0.723830 0.723830
0.525203 0.755952 0.755952
0.679249 0.793200 0.793200
0.829539 0.829539 0.829539
0.951121 0.858936 0.858936
0.491247 0.914910 0.822726
0.624098 0.947033 0.854848
0.778144 0.984280 0.892095
0.928434 1.000000 0.928434
1.000000 1.000000 0.957832
0.046725 0.046725 0.470388
0.179576 0.078848 0.502511
0.333622 0.116095 0.539758
0.483912 0.152434 0.576097
0.605494 0.181832 0.605494
0.154787 0.255515 0.578450
0.287638 0.287638 0.610572
0.441684 0.324885 0.647819
0.591974 0.361224 0.684158
0.713556 0.390621 0.713556
0.280089 0.497616 0.703752
0.412939 0.529738 0.735874
0.566986 0.566986 0.773121
0.717276 0.603325 0.809460
0.838858 0.632722 0.838858
0.402335 0.733814 0.825998
0.535186 0.765936 0.858121
0.689232 0.803183 0.895368
0.839522 0.839522 0.931707
0.961104 0.868920 0.961104
0.501231 0.924894 0.924894
0.634082 0.957016 0.957016
0.788128 0.994263 0.994263
0.938418 1.000000 1.000000
1.000000 1.000000 1.000000
