assets/luts/bleach.cube
# Bleach — Studio filter "bleach"
# Generated by scripts/generate-filter-luts.mjs — do not edit by hand.
LUT_3D_SIZE 9
DOMAIN_MIN 0.0 0.0 0.0
DOMAIN_MAX 1.0 1.0 1.0
0.000843 0.000843 0.000843
0.063059 0.015886 0.015886
0.133693 0.032965 0.032965
0.209627 0.051325 0.051325
0.287740 0.070212 0.070212
0.364914 0.088872 0.088872
0.438030 0.106551 0.106551
0.503969 0.122495 0.122495
0.559612 0.135949 0.135949
0.051450 0.098623 0.051450
0.113666 0.113666 0.066493
0.184301 0.130745 0.083572
0.260234 0.149105 0.101932
0.338347 0.167992 0.120819
0.415521 0.186652 0.139480
0.488637 0.204331 0.157158
0.554576 0.220275 0.173102
0.610219 0.233729 0.186556
0.108904 0.209633 0.108904
0.171121 0.224676 0.123948
0.241755 0.241755 0.141027
0.317688 0.260115 0.159387
0.395801 0.279002 0.178274
0.472975 0.297662 0.196934
0.546091 0.315341 0.214613
0.612030 0.331285 0.230556
0.667673 0.344739 0.244010
0.170669 0.328970 0.170669
0.232885 0.344013 0.185712
0.303519 0.361092 0.202791
0.379452 0.379452 0.221151
0.457565 0.398340 0.240038
0.534739 0.417000 0.258698
0.607855 0.434678 0.276377
0.673794 0.450622 0.292321
0.729438 0.464076 0.305775
0.234206 0.451733 0.234206
0.296423 0.466777 0.249250
0.367057 0.483856 0.266328
0.442990 0.502216 0.284688
0.521103 0.521103 0.303576
0.598277 0.539763 0.322236
0.671393 0.557442 0.339915
0.737332 0.573385 0.355858
0.792975 0.586840 0.369312
0.296980 0.573021 0.296980
0.359196 0.588064 0.312023
0.429830 0.605143 0.329102
0.505764 0.623503 0.347462
0.583877 0.642390 0.366349
0.661051 0.661051 0.385009
0.734167 0.678729 0.402688
0.800106 0.694673 0.418632
0.855749 0.708127 0.432086
0.356453 0.687931 0.356453
0.418669 0.702975 0.371496
0.489303 0.720053 0.388575
0.565237 0.738413 0.406935
0.643350 0.757301 0.425822
0.720523 0.775961 0.444482
0.793639 0.793639 0.462161
0.859579 0.809583 0.478105
0.915222 0.823037 0.491559
0.410088 0.791562 0.410088
0.472304 0.806605 0.425131
0.542939 0.823684 0.442210
0.618872 0.842044 0.460570
0.696985 0.860931 0.479457
0.774159 0.879591 0.498117
0.847275 0.897270 0.515796
0.913214 0.913214 0.531740
0.968857 0.926668 0.545194
0.455348 0.879011 0.455348
0.517565 0.894055 0.470392
0.588199 0.911134 0.487471
0.664132 0.929494 0.505831
0.742245 0.948381 0.524718
0.819419 0.967041 0.543378
0.892535 0.984720 0.561057
0.958474 1.000000 0.577000
1.000000 1.000000 0.590454
0.005952 0.005952 0.053125
0.068168 0.020995 0.068168
0.138802 0.038074 0.085247
0.214735 0.056434 0.103607
0.292848 0.075321 0.122494
0.370022 0.093981 0.141154
0.443138 0.111660 0.158833
0.509077 0.127604 0.174777
0.564721 0.141058 0.188231
0.056559 0.103732 0.103732
0.118775 0.118775 0.118775
0.189409 0.135854 0.135854
0.265343 0.154214 0.154214
0.343456 0.173101 0.173101
0.420630 0.191761 0.191761
0.493746 0.209440 0.209440
0.559685 0.225384 0.225384
0.615328 0.238838 0.238838
0.114013 0.214741 0.161186
0.176229 0.229785 0.176229
0.246864 0.246864 0.193308
0.322797 0.265224 0.211668
0.400910 0.284111 0.230555
0.478084 0.302771 0.249216
0.551200 0.320450 0.266894
0.617139 0.336393 0.282838
0.672782 0.349848 0.296292
0.175777 0.334079 0.222950
0.237994 0.349122 0.237994
0.308628 0.366201 0.255073
0.384561 0.384561 0.273433
0.462674 0.403448 0.292320
0.539848 0.422108 0.310980
0.612964 0.439787 0.328659
0.678903 0.455731 0.344602
0.734546 0.469185 0.358056
0.239315 0.456842 0.286488
0.301531 0.471886 0.301531
0.372166 0.488965 0.318610
0.448099 0.507325 0.336970
0.526212 0.526212 0.355857
0.603386 0.544872 0.374517
0.676502 0.562551 0.392196
0.742441 0.578494 0.408140
0.798084 0.591948 0.421594
0.302089 0.578130 0.349262
0.364305 0.593173 0.364305
0.434939 0.610252 0.381384
0.510872 0.628612 0.399744
0.588985 0.647499 0.418631
0.666159 0.666159 0.437291
0.739275 0.683838 0.454970
0.805214 0.699782 0.470914
0.860858 0.713236 0.484368
0.361562 0.693040 0.408735
0.423778 0.708083 0.423778
0.494412 0.725162 0.440857
0.570345 0.743522 0.459217
0.648458 0.762409 0.478104
0.725632 0.781069 0.496764
0.798748 0.798748 0.514443
0.864687 0.814692 0.530387
0.920331 0.828146 0.543841
0.415197 0.796671 0.462370
0.477413 0.811714 0.477413
0.548047 0.828793 0.494492
0.623981 0.847153 0.512852
0.702094 0.866040 0.531739
0.779267 0.884700 0.550399
0.852383 0.902379 0.568078
0.918323 0.918323 0.584022
0.973966 0.931777 0.597476
0.460457 0.884120 0.507630
0.522674 0.899164 0.522674
0.593308 0.916242 0.539752
0.669241 0.934602 0.558112
0.747354 0.953490 0.577000
0.824528 0.972150 0.595660
0.897644 0.989828 0.613339
0.963583 1.000000 0.629282
1.000000 1.000000 0.642736
0.011752 0.011752 0.112480
0.073968 0.026795 0.127524
0.144602 0.043874 0.144602
0.220535 0.062234 0.162962
0.298648 0.081121 0.181850
0.375822 0.099781 0.200510
0.448938 0.117460 0.218189
0.514877 0.133404 0.234132
0.570521 0.146858 0.247586
0.062359 0.109532 0.163087
0.124575 0.124575 0.178131
0.195210 0.141654 0.195210
0.271143 0.160014 0.213570
0.349256 0.178901 0.232457
0.426430 0.197561 0.251117
0.499546 0.215240 0.268796
0.565485 0.231184 0.284739
0.621128 0.244638 0.298193
0.119813 0.220541 0.220541
0.182030 0.235585 0.235585
0.252664 0.252664 0.252664
0.328597 0.271024 0.271024
0.406710 0.289911 0.289911
0.483884 0.308571 0.308571
0.557000 0.326250 0.326250
0.622939 0.342193 0.342193
0.678582 0.355648 0.355648
0.181577 0.339879 0.282306
0.243794 0.354922 0.297349
0.314428 0.372001 0.314428
0.390361 0.390361 0.332788
0.468474 0.409248 0.351675
0.545648 0.427908 0.370335
0.618764 0.445587 0.388014
0.684703 0.461531 0.403958
0.740346 0.474985 0.417412
0.245115 0.462642 0.345843
0.307331 0.477686 0.360887
0.377966 0.494765 0.377966
0.453899 0.513125 0.396326
0.532012 0.532012 0.415213
0.609186 0.550672 0.433873
0.682302 0.568351 0.451552
0.748241 0.584294 0.467495
0.803884 0.597748 0.480949
0.307889 0.583930 0.408617
0.370105 0.598973 0.423661
0.440739 0.616052 0.440739
0.516672 0.634412 0.459099
0.594785 0.653299 0.477987
0.671959 0.671959 0.496647
0.745075 0.689638 0.514326
0.811014 0.705582 0.530269
0.866658 0.719036 0.543723
0.367362 0.698840 0.468090
0.429578 0.713883 0.483133
0.500212 0.730962 0.500212
0.576145 0.749322 0.518572
0.654258 0.768209 0.537459
0.731432 0.786869 0.556120
0.804548 0.804548 0.573798
0.870487 0.820492 0.589742
0.926131 0.833946 0.603196
0.420997 0.802471 0.521725
0.483213 0.817514 0.536769
0.553847 0.834593 0.553847
0.629781 0.852953 0.572208
0.707894 0.871840 0.591095
0.785068 0.890500 0.609755
0.858184 0.908179 0.627434
0.924123 0.924123 0.643377
0.979766 0.937577 0.656831
0.466257 0.889920 0.566986
0.528474 0.904964 0.582029
0.599108 0.922042 0.599108
0.675041 0.940402 0.617468
0.753154 0.959290 0.636355
0.830328 0.977950 0.655015
0.903444 0.995629 0.672694
0.969383 1.000000 0.688638
1.000000 1.000000 0.702092
0.017987 0.017987 0.176288
0.080203 0.033030 0.191332
0.150838 0.050109 0.208411
0.226771 0.068469 0.226771
0.304884 0.087356 0.245658
0.382058 0.106016 0.264318
0.455174 0.123695 0.281997
0.521113 0.139639 0.297940
0.576756 0.153093 0.311394
0.068594 0.115767 0.226895
0.130810 0.130810 0.241939
0.201445 0.147889 0.259018
0.277378 0.166249 0.277378
0.355491 0.185136 0.296265
0.432665 0.203797 0.314925
0.505781 0.221475 0.332604
0.571720 0.237419 0.348547
0.627363 0.250873 0.362002
0.126048 0.226777 0.284350
0.188265 0.241820 0.299393
0.258899 0.258899 0.316472
0.334832 0.277259 0.334832
0.412945 0.296146 0.353719
0.490119 0.314806 0.372379
0.563235 0.332485 0.390058
0.629174 0.348429 0.406002
0.684817 0.361883 0.419456
0.187813 0.346114 0.346114
0.250029 0.361158 0.361158
0.320663 0.378236 0.378236
0.396596 0.396596 0.396596
0.474709 0.415484 0.415484
0.551883 0.434144 0.434144
0.624999 0.451823 0.451823
0.690938 0.467766 0.467766
0.746582 0.481220 0.481220
0.251350 0.468877 0.409652
0.313567 0.483921 0.424695
0.384201 0.501000 0.441774
0.460134 0.519360 0.460134
0.538247 0.538247 0.479021
0.615421 0.556907 0.497681
0.688537 0.574586 0.515360
0.754476 0.590529 0.531304
0.810119 0.603984 0.544758
0.314124 0.590165 0.472425
0.376340 0.605209 0.487469
0.446975 0.622287 0.504548
0.522908 0.640647 0.522908
0.601021 0.659535 0.541795
0.678195 0.678195 0.560455
0.751311 0.695874 0.578134
0.817250 0.711817 0.594077
0.872893 0.725271 0.607531
0.373597 0.705075 0.531898
0.435813 0.720119 0.546942
0.506447 0.737197 0.564021
0.582381 0.755557 0.582381
0.660494 0.774445 0.601268
0.737668 0.793105 0.619928
0.810784 0.810784 0.637607
0.876723 0.826727 0.653550
0.932366 0.840181 0.667004
0.427232 0.808706 0.585533
0.489448 0.823749 0.600577
0.560083 0.840828 0.617656
0.636016 0.859188 0.636016
0.714129 0.878075 0.654903
0.791303 0.896735 0.673563
0.864419 0.914414 0.691242
0.930358 0.930358 0.707185
0.986001 0.943812 0.720639
0.472492 0.896155 0.630794
0.534709 0.911199 0.645837
0.605343 0.928278 0.662916
0.681276 0.946638 0.681276
0.759389 0.965525 0.700163
0.836563 0.984185 0.718823
0.909679 1.000000 0.736502
0.975618 1.000000 0.752446
1.000000 1.000000 0.765900
0.024401 0.024401 0.241928
0.086617 0.039444 0.256972
0.157252 0.056523 0.274051
0.233185 0.074883 0.292411
0.311298 0.093770 0.311298
0.388472 0.112431 0.329958
0.461588 0.130109 0.347637
0.527527 0.146053 0.363580
0.583170 0.159507 0.377034
0.075008 0.122181 0.292535
0.137225 0.137225 0.307579
0.207859 0.154303 0.324658
0.283792 0.172663 0.343018
0.361905 0.191551 0.361905
0.439079 0.210211 0.380565
0.512195 0.227890 0.398244
0.578134 0.243833 0.414187
0.633777 0.257287 0.427642
0.132462 0.233191 0.349990
0.194679 0.248234 0.365033
0.265313 0.265313 0.382112
0.341246 0.283673 0.400472
0.419359 0.302560 0.419359
0.496533 0.321220 0.438019
0.569649 0.338899 0.455698
0.635588 0.354843 0.471642
0.691231 0.368297 0.485096
0.194227 0.352528 0.411754
0.256443 0.367572 0.426798
0.327077 0.384651 0.443876
0.403011 0.403011 0.462236
0.481124 0.421898 0.481124
0.558298 0.440558 0.499784
0.631414 0.458237 0.517463
0.697353 0.474180 0.533406
0.752996 0.487634 0.546860
0.257764 0.475292 0.475292
0.319981 0.490335 0.490335
0.390615 0.507414 0.507414
0.466548 0.525774 0.525774
0.544661 0.544661 0.544661
0.621835 0.563321 0.563321
0.694951 0.581000 0.581000
0.760890 0.596944 0.596944
0.816533 0.610398 0.610398
0.320538 0.596579 0.538065
0.382754 0.611623 0.553109
0.453389 0.628702 0.570188
0.529322 0.647062 0.588548
0.607435 0.665949 0.607435
0.684609 0.684609 0.626095
0.757725 0.702288 0.643774
0.823664 0.718231 0.659717
0.879307 0.731685 0.673171
0.380011 0.711489 0.597538
0.442227 0.726533 0.612582
0.512862 0.743612 0.629661
0.588795 0.761972 0.648021
0.666908 0.780859 0.666908
0.744082 0.799519 0.685568
0.817198 0.817198 0.703247
0.883137 0.833141 0.719190
0.938780 0.846595 0.732644
0.433646 0.815120 0.651173
0.495863 0.830163 0.666217
0.566497 0.847242 0.683296
0.642430 0.865602 0.701656
0.720543 0.884489 0.720543
0.797717 0.903149 0.739203
0.870833 0.920828 0.756882
0.936772 0.936772 0.772825
0.992415 0.950226 0.786280
0.478907 0.902569 0.696434
0.541123 0.917613 0.711477
0.611757 0.934692 0.728556
0.687690 0.953052 0.746916
0.765803 0.971939 0.765803
0.842977 0.990599 0.784463
0.916093 1.000000 0.802142
0.982032 1.000000 0.818086
1.000000 1.000000 0.831540
0.030738 0.030738 0.306779
0.092954 0.045782 0.321823
0.163589 0.062860 0.338902
0.239522 0.081220 0.357262
0.317635 0.100108 0.376149
0.394809 0.118768 0.394809
0.467925 0.136446 0.412488
0.533864 0.152390 0.428431
0.589507 0.165844 0.441885
0.081345 0.128518 0.357386
0.143562 0.143562 0.372430
0.214196 0.160640 0.389509
0.290129 0.179001 0.407869
0.368242 0.197888 0.426756
0.445416 0.216548 0.445416
0.518532 0.234227 0.463095
0.584471 0.250170 0.479038
0.640114 0.263624 0.492493
0.138799 0.239528 0.414841
0.201016 0.254571 0.429884
0.271650 0.271650 0.446963
0.347583 0.290010 0.465323
0.425696 0.308897 0.484210
0.502870 0.327557 0.502870
0.575986 0.345236 0.520549
0.641925 0.361180 0.536493
0.697568 0.374634 0.549947
0.200564 0.358865 0.476605
0.262780 0.373909 0.491649
0.333415 0.390988 0.508727
0.409348 0.409348 0.527087
0.487461 0.428235 0.545975
0.564635 0.446895 0.564635
0.637751 0.464574 0.582314
0.703690 0.480517 0.598257
0.759333 0.493971 0.611711
0.264101 0.481629 0.540143
0.326318 0.496672 0.555186
0.396952 0.513751 0.572265
0.472885 0.532111 0.590625
0.550998 0.550998 0.609512
0.628172 0.569658 0.628172
0.701288 0.587337 0.645851
0.767227 0.603281 0.661795
0.822870 0.616735 0.675249
0.326875 0.602916 0.602916
0.389092 0.617960 0.617960
0.459726 0.635039 0.635039
0.535659 0.653399 0.653399
0.613772 0.672286 0.672286
0.690946 0.690946 0.690946
0.764062 0.708625 0.708625
0.830001 0.724568 0.724568
0.885644 0.738022 0.738022
0.386348 0.717826 0.662389
0.448564 0.732870 0.677433
0.519199 0.749949 0.694511
0.595132 0.768309 0.712872
0.673245 0.787196 0.731759
0.750419 0.805856 0.750419
0.823535 0.823535 0.768098
0.889474 0.839478 0.784041
0.945117 0.852932 0.797495
0.439983 0.821457 0.716024
0.502200 0.836500 0.731068
0.572834 0.853579 0.748147
0.648767 0.871939 0.766507
0.726880 0.890826 0.785394
0.804054 0.909487 0.804054
0.877170 0.927165 0.821733
0.943109 0.943109 0.837676
0.998752 0.956563 0.851130
0.485244 0.908906 0.761285
0.547460 0.923950 0.776328
0.618094 0.941029 0.793407
0.694027 0.959389 0.811767
0.772140 0.978276 0.830654
0.849314 0.996936 0.849314
0.922430 1.000000 0.866993
0.988369 1.000000 0.882937
1.000000 1.000000 0.896391
0.036742 0.036742 0.368220
0.098958 0.051785 0.383264
0.169593 0.068864 0.400342
0.245526 0.087224 0.418703
0.323639 0.106111 0.437590
0.400813 0.124771 0.456250
0.473929 0.142450 0.473929
0.539868 0.158394 0.489872
0.595511 0.171848 0.503326
0.087349 0.134522 0.418827
0.149566 0.149566 0.433871
0.220200 0.166644 0.450950
0.296133 0.185004 0.469310
0.374246 0.203892 0.488197
0.451420 0.222552 0.506857
0.524536 0.240230 0.524536
0.590475 0.256174 0.540479
0.646118 0.269628 0.553933
0.144803 0.245532 0.476282
0.207020 0.260575 0.491325
0.277654 0.277654 0.508404
0.353587 0.296014 0.526764
0.431700 0.314901 0.545651
0.508874 0.333561 0.564311
0.581990 0.351240 0.581990
0.647929 0.367184 0.597934
0.703572 0.380638 0.611388
0.206568 0.364869 0.538046
0.268784 0.379913 0.553089
0.339418 0.396991 0.570168
0.415351 0.415351 0.588528
0.493464 0.434239 0.607415
0.570638 0.452899 0.626076
0.643754 0.470578 0.643754
0.709693 0.486521 0.659698
0.765337 0.499975 0.673152
0.270105 0.487633 0.601584
0.332322 0.502676 0.616627
0.402956 0.519755 0.633706
0.478889 0.538115 0.652066
0.557002 0.557002 0.670953
0.634176 0.575662 0.689613
0.707292 0.593341 0.707292
0.773231 0.609285 0.723236
0.828874 0.622739 0.736690
0.332879 0.608920 0.664357
0.395095 0.623964 0.679401
0.465730 0.641042 0.696480
0.541663 0.659402 0.714840
0.619776 0.678290 0.733727
0.696950 0.696950 0.752387
0.770066 0.714629 0.770066
0.836005 0.730572 0.786009
0.891648 0.744026 0.799463
0.392352 0.723830 0.723830
0.454568 0.738874 0.738874
0.525203 0.755952 0.755952
0.601136 0.774312 0.774312
0.679249 0.793200 0.793200
0.756423 0.811860 0.811860
0.829539 0.829539 0.829539
0.895478 0.845482 0.845482
0.951121 0.858936 0.858936
0.445987 0.827461 0.777465
0.508203 0.842504 0.792509
0.578838 0.859583 0.809588
0.654771 0.877943 0.827948
0.732884 0.896830 0.846835
0.810058 0.915490 0.865495
0.883174 0.933169 0.883174
0.949113 0.949113 0.899117
1.000000 0.962567 0.912571
0.491247 0.914910 0.822726
0.553464 0.929954 0.837769
0.624098 0.947033 0.854848
0.700031 0.965393 0.873208
0.778144 0.984280 0.892095
0.855318 1.000000 0.910755
0.928434 1.000000 0.928434
0.994373 1.000000 0.944378
1.000000 1.000000 0.957832
0.042156 0.042156 0.423630
0.104373 0.057200 0.438674
0.175007 0.074279 0.455752
0.250940 0.092639 0.474113
0.329053 0.111526 0.493000
0.406227 0.130186 0.511660
0.479343 0.147865 0.529339
0.545282 0.163808 0.545282
0.600925 0.177262 0.558736
0.092764 0.139937 0.474237
0.154980 0.154980 0.489281
0.225614 0.172059 0.506360
0.301547 0.190419 0.524720
0.379660 0.209306 0.543607
0.456834 0.227966 0.562267
0.529950 0.245645 0.579946
0.595889 0.261589 0.595889
0.651533 0.275043 0.609343
0.150218 0.250946 0.531692
0.212434 0.265990 0.546735
0.283069 0.283069 0.563814
0.359002 0.301429 0.582174
0.437115 0.320316 0.601061
0.514289 0.338976 0.619721
0.587405 0.356655 0.637400
0.653344 0.372598 0.653344
0.708987 0.386052 0.666798
0.211982 0.370284 0.593456
0.274199 0.385327 0.608499
0.344833 0.402406 0.625578
0.420766 0.420766 0.643938
0.498879 0.439653 0.662825
0.576053 0.458313 0.681486
0.649169 0.475992 0.699164
0.715108 0.491936 0.715108
0.770751 0.505390 0.728562
0.275520 0.493047 0.656994
0.337736 0.508091 0.672037
0.408370 0.525169 0.689116
0.484304 0.543529 0.707476
0.562417 0.562417 0.726363
0.639590 0.581077 0.745023
0.712706 0.598755 0.762702
0.778646 0.614699 0.778646
0.834289 0.628153 0.792100
0.338293 0.614335 0.719767
0.400510 0.629378 0.734811
0.471144 0.646457 0.751890
0.547077 0.664817 0.770250
0.625190 0.683704 0.789137
0.702364 0.702364 0.807797
0.775480 0.720043 0.825476
0.841419 0.735987 0.841419
0.897062 0.749441 0.854873
0.397766 0.729245 0.779240
0.459983 0.744288 0.794284
0.530617 0.761367 0.811362
0.606550 0.779727 0.829722
0.684663 0.798614 0.848610
0.761837 0.817274 0.867270
0.834953 0.834953 0.884949
0.900892 0.850897 0.900892
0.956535 0.864351 0.914346
0.451402 0.832875 0.832875
0.513618 0.847919 0.847919
0.584252 0.864998 0.864998
0.660185 0.883358 0.883358
0.738298 0.902245 0.902245
0.815472 0.920905 0.920905
0.888588 0.938584 0.938584
0.954527 0.954527 0.954527
1.000000 0.967981 0.967981
0.496662 0.920325 0.878136
0.558878 0.935368 0.893179
0.629513 0.952447 0.910258
0.705446 0.970807 0.928618
0.783559 0.989694 0.947505
0.860733 1.000000 0.966165
0.933849 1.000000 0.983844
0.999788 1.000000 0.999788
1.000000 1.000000 1.000000
0.046725 0.046725 0.470388
0.108942 0.061769 0.485432
0.179576 0.078848 0.502511
0.255509 0.097208 0.520871
0.333622 0.116095 0.539758
0.410796 0.134755 0.558418
0.483912 0.152434 0.576097
0.549851 0.168377 0.592040
0.605494 0.181832 0.605494
0.097333 0.144506 0.520996
0.159549 0.159549 0.536039
0.230183 0.176628 0.553118
0.306116 0.194988 0.571478
0.384229 0.213875 0.590365
0.461403 0.232535 0.609025
0.534519 0.250214 0.626704
0.600458 0.266158 0.642648
0.656102 0.279612 0.656102
0.154787 0.255515 0.578450
0.217003 0.270559 0.593493
0.287638 0.287638 0.610572
0.363571 0.305998 0.628932
0.441684 0.324885 0.647819
0.518858 0.343545 0.666479
0.591974 0.361224 0.684158
0.657913 0.377167 0.700102
0.713556 0.390621 0.713556
0.216551 0.374853 0.640214
0.278768 0.389896 0.655258
0.349402 0.406975 0.672336
0.425335 0.425335 0.690696
0.503448 0.444222 0.709584
0.580622 0.462882 0.728244
0.653738 0.480561 0.745923
0.719677 0.496505 0.761866
0.775320 0.509959 0.775320
0.280089 0.497616 0.703752
0.342305 0.512660 0.718795
0.412939 0.529738 0.735874
0.488873 0.548098 0.754234
0.566986 0.566986 0.773121
0.644160 0.585646 0.791781
0.717276 0.603325 0.809460
0.783215 0.619268 0.825404
0.838858 0.632722 0.838858
0.342863 0.618904 0.766525
0.405079 0.633947 0.781569
0.475713 0.651026 0.798648
0.551646 0.669386 0.817008
0.629759 0.688273 0.835895
0.706933 0.706933 0.854555
0.780049 0.724612 0.872234
0.845988 0.740556 0.888177
0.901631 0.754010 0.901631
0.402335 0.733814 0.825998
0.464552 0.748857 0.841042
0.535186 0.765936 0.858121
0.611119 0.784296 0.876481
0.689232 0.803183 0.895368
0.766406 0.821843 0.914028
0.839522 0.839522 0.931707
0.905461 0.855466 0.947650
0.961104 0.868920 0.961104
0.455971 0.837444 0.879633
0.518187 0.852488 0.894677
0.588821 0.869567 0.911756
0.664754 0.887927 0.930116
0.742867 0.906814 0.949003
0.820041 0.925474 0.967663
0.893157 0.943153 0.985342
0.959096 0.959096 1.000000
1.000000 0.972550 1.000000
0.501231 0.924894 0.924894
0.563447 0.939937 0.939937
0.634082 0.957016 0.957016
0.710015 0.975376 0.975376
0.788128 0.994263 0.994263
0.865302 1.000000 1.000000
0.938418 1.000000 1.000000
1.000000 1.000000 1.000000
1.000000 1.000000 1.000000
