assets/luts/blockbuster.cube
# Blockbuster — Studio filter "blockbuster"
# Generated by scripts/generate-filter-luts.mjs — do not edit by hand.
LUT_3D_SIZE 5
DOMAIN_MIN 0.0 0.0 0.0
DOMAIN_MAX 1.0 1.0 1.0
0.000000 0.000000 0.052000
0.210778 0.000000 0.042227
0.526356 0.000000 0.032454
0.841934 0.000000 0.022681
1.000000 0.000000 0.016283
0.000000 0.244911 0.020935
0.214311 0.238867 0.012695
0.529174 0.232924 0.003688
0.844036 0.226982 0.000000
1.000000 0.220691 0.000000
0.000000 0.538623 0.000000
0.218559 0.532476 0.000000
0.533422 0.526533 0.000000
0.848284 0.520591 0.000000
1.000000 0.514403 0.000000
0.000000 0.832334 0.000000
0.222807 0.826085 0.000000
0.537670 0.820142 0.000000
0.852532 0.814200 0.000000
1.000000 0.808114 0.000000
0.007343 1.000000 0.000000
0.223937 1.000000 0.000000
0.539516 1.000000 0.000000
0.855094 1.000000 0.000000
1.000000 1.000000 0.000000
0.000000 0.000000 0.359804
0.211353 0.000000 0.343043
0.526859 0.000000 0.326204
0.842365 0.000000 0.309365
1.000000 0.000000 0.295823
0.000000 0.242865 0.305229
0.214400 0.236800 0.290000
0.529191 0.230847 0.273927
0.843981 0.224894 0.257855
1.000000 0.218604 0.244313
0.000000 0.536542 0.250393
0.218405 0.530374 0.235931
0.533196 0.524422 0.219858
0.847986 0.518469 0.203786
1.000000 0.512281 0.189478
0.000000 0.830218 0.195558
0.222410 0.823949 0.181862
0.537201 0.817996 0.165789
0.851991 0.812043 0.149717
1.000000 0.805957 0.134643
0.009517 1.000000 0.144569
0.223541 1.000000 0.130872
0.539047 1.000000 0.114034
0.854553 1.000000 0.097195
1.000000 1.000000 0.080588
0.000000 0.000000 0.667608
0.212000 0.000000 0.650924
0.527506 0.000000 0.634085
0.843012 0.000000 0.617246
1.000000 0.000000 0.603627
0.000000 0.240854 0.613293
0.214804 0.234778 0.598142
0.529595 0.228826 0.582069
0.844385 0.222873 0.565997
1.000000 0.216593 0.552378
0.000000 0.534531 0.558458
0.218809 0.528353 0.544073
0.533600 0.522400 0.528000
0.848391 0.516447 0.511927
1.000000 0.510269 0.497542
0.000000 0.828207 0.503622
0.222815 0.821927 0.490003
0.537605 0.815974 0.473931
0.852396 0.810022 0.457858
1.000000 0.803946 0.442707
0.012662 1.000000 0.452373
0.224188 1.000000 0.438754
0.539694 1.000000 0.421915
0.855200 1.000000 0.405076
1.000000 1.000000 0.388392
0.000000 0.000000 0.975412
0.212647 0.000000 0.958805
0.528153 0.000000 0.941966
0.843659 0.000000 0.925128
1.000000 0.000000 0.911431
0.000000 0.238843 0.921357
0.215209 0.232757 0.906283
0.529999 0.226804 0.890211
0.844790 0.220851 0.874138
1.000000 0.214582 0.860442
0.000000 0.532519 0.866522
0.219214 0.526331 0.852214
0.534004 0.520378 0.836142
0.848795 0.514426 0.820069
1.000000 0.508258 0.805607
0.000000 0.826196 0.811687
0.223219 0.819906 0.798145
0.538009 0.813953 0.782073
0.852800 0.808000 0.766000
1.000000 0.801935 0.750771
0.015808 1.000000 0.760177
0.224835 1.000000 0.746635
0.540341 1.000000 0.729796
0.855847 1.000000 0.712957
1.000000 1.000000 0.696196
0.000000 0.000000 1.000000
0.212106 0.000000 1.000000
0.527684 0.000000 1.000000
0.843263 0.000000 1.000000
1.000000 0.000000 1.000000
0.000000 0.236686 1.000000
0.214668 0.230600 1.000000
0.529530 0.224658 1.000000
0.844393 0.218715 1.000000
1.000000 0.212466 1.000000
0.000000 0.530397 1.000000
0.218916 0.524209 1.000000
0.533778 0.518267 1.000000
0.848641 0.512324 1.000000
1.000000 0.506177 1.000000
0.000000 0.824109 1.000000
0.223164 0.817818 1.000000
0.538026 0.811876 1.000000
0.852889 0.805933 1.000000
1.000000 0.799889 1.000000
0.018664 1.000000 1.000000
0.225266 1.000000 1.000000
0.540844 1.000000 1.000000
0.856422 1.000000 1.000000
1.000000 1.000000 1.000000
