assets/luts/blockbuster.cube
# Blockbuster — Studio filter "blockbuster"
# Generated by scripts/generate-filter-luts.mjs — do not edit by hand.
LUT_3D_SIZE 9
DOMAIN_MIN 0.0 0.0 0.0
DOMAIN_MAX 1.0 1.0 1.0
0.000000 0.000000 0.052000
0.052989 0.000000 0.047114
0.210778 0.000000 0.042227
0.368567 0.000000 0.037341
0.526356 0.000000 0.032454
0.684145 0.000000 0.027568
0.841934 0.000000 0.022681
0.999723 0.000000 0.017795
1.000000 0.000000 0.016283
0.000000 0.098056 0.036468
0.054755 0.095033 0.032347
0.212187 0.092062 0.027844
0.369618 0.089091 0.023341
0.527050 0.086120 0.018838
0.684481 0.083148 0.014334
0.841912 0.080177 0.009831
0.999344 0.077206 0.005328
1.000000 0.073836 0.003816
0.000000 0.244911 0.020935
0.056879 0.241838 0.017198
0.214311 0.238867 0.012695
0.371742 0.235895 0.008192
0.529174 0.232924 0.003688
0.686605 0.229953 0.000000
0.844036 0.226982 0.000000
1.000000 0.224010 0.000000
1.000000 0.220691 0.000000
0.000000 0.391767 0.005403
0.059003 0.388642 0.002049
0.216435 0.385671 0.000000
0.373866 0.382700 0.000000
0.531298 0.379729 0.000000
0.688729 0.376757 0.000000
0.846160 0.373786 0.000000
1.000000 0.370815 0.000000
1.000000 0.367547 0.000000
0.000000 0.538623 0.000000
0.061127 0.535447 0.000000
0.218559 0.532476 0.000000
0.375990 0.529504 0.000000
0.533422 0.526533 0.000000
0.690853 0.523562 0.000000
0.848284 0.520591 0.000000
1.000000 0.517620 0.000000
1.000000 0.514403 0.000000
0.000000 0.685478 0.000000
0.063251 0.682252 0.000000
0.220683 0.679280 0.000000
0.378114 0.676309 0.000000
0.535546 0.673338 0.000000
0.692977 0.670367 0.000000
0.850408 0.667395 0.000000
1.000000 0.664424 0.000000
1.000000 0.661258 0.000000
0.000000 0.832334 0.000000
0.065375 0.829056 0.000000
0.222807 0.826085 0.000000
0.380238 0.823114 0.000000
0.537670 0.820142 0.000000
0.695101 0.817171 0.000000
0.852532 0.814200 0.000000
1.000000 0.811229 0.000000
1.000000 0.808114 0.000000
0.000000 0.979189 0.000000
0.067499 0.975861 0.000000
0.224931 0.972889 0.000000
0.382362 0.969918 0.000000
0.539794 0.966947 0.000000
0.697225 0.963976 0.000000
0.854656 0.961004 0.000000
1.000000 0.958033 0.000000
1.000000 0.954970 0.000000
0.007343 1.000000 0.000000
0.066148 1.000000 0.000000
0.223937 1.000000 0.000000
0.381727 1.000000 0.000000
0.539516 1.000000 0.000000
0.697305 1.000000 0.000000
0.855094 1.000000 0.000000
1.000000 1.000000 0.000000
1.000000 1.000000 0.000000
0.000000 0.000000 0.205902
0.053277 0.000000 0.197521
0.211029 0.000000 0.189102
0.368782 0.000000 0.180682
0.526535 0.000000 0.172263
0.684288 0.000000 0.163843
0.842041 0.000000 0.155424
0.999794 0.000000 0.147005
1.000000 0.000000 0.141921
0.000000 0.097033 0.178614
0.054800 0.094000 0.171000
0.212195 0.091024 0.162964
0.369591 0.088047 0.154927
0.526986 0.085071 0.146891
0.684381 0.082094 0.138855
0.841776 0.079118 0.130819
0.999172 0.076142 0.122782
1.000000 0.072771 0.117699
0.000000 0.243871 0.151197
0.056803 0.240787 0.143965
0.214198 0.237811 0.135929
0.371593 0.234834 0.127893
0.528988 0.231858 0.119857
0.686384 0.228882 0.111820
0.843779 0.225905 0.103784
1.000000 0.222929 0.095748
1.000000 0.219610 0.090281
0.000000 0.390709 0.123779
0.058805 0.387574 0.116931
0.216200 0.384598 0.108895
0.373596 0.381622 0.100858
0.530991 0.378645 0.092822
0.688386 0.375669 0.084786
0.845782 0.372692 0.076749
1.000000 0.369716 0.068713
1.000000 0.366448 0.062864
0.000000 0.537548 0.096361
0.060808 0.534362 0.089896
0.218203 0.531385 0.081860
0.375598 0.528409 0.073824
0.532994 0.525432 0.065787
0.690389 0.522456 0.057751
0.847784 0.519480 0.049715
1.000000 0.516503 0.041679
1.000000 0.513286 0.035446
0.000000 0.684386 0.068944
0.062810 0.681149 0.062862
0.220206 0.678172 0.054825
0.377601 0.675196 0.046789
0.534996 0.672220 0.038753
0.692391 0.669243 0.030717
0.849787 0.666267 0.022680
1.000000 0.663290 0.014644
1.000000 0.660125 0.008028
0.000000 0.831224 0.041526
0.064813 0.827936 0.035827
0.222208 0.824960 0.027791
0.379603 0.821983 0.019755
0.536999 0.819007 0.011718
0.694394 0.816030 0.003682
0.851789 0.813054 0.000000
1.000000 0.810078 0.000000
1.000000 0.806963 0.000000
0.000000 0.978062 0.014108
0.066815 0.974723 0.008793
0.224211 0.971747 0.000756
0.381606 0.968770 0.000000
0.539001 0.965794 0.000000
0.696396 0.962818 0.000000
0.853792 0.959841 0.000000
1.000000 0.956865 0.000000
1.000000 0.953801 0.000000
0.007944 1.000000 0.000000
0.065464 1.000000 0.000000
0.223217 1.000000 0.000000
0.380970 1.000000 0.000000
0.538723 1.000000 0.000000
0.696476 1.000000 0.000000
0.854229 1.000000 0.000000
1.000000 1.000000 0.000000
1.000000 1.000000 0.000000
0.000000 0.000000 0.359804
0.053600 0.000000 0.351462
0.211353 0.000000 0.343043
0.369106 0.000000 0.334623
0.526859 0.000000 0.326204
0.684612 0.000000 0.317784
0.842365 0.000000 0.309365
1.000000 0.000000 0.300945
1.000000 0.000000 0.295823
0.000000 0.096027 0.332647
0.055002 0.092989 0.325071
0.212397 0.090013 0.317035
0.369793 0.087036 0.308998
0.527188 0.084060 0.300962
0.684583 0.081084 0.292926
0.841979 0.078107 0.284889
0.999374 0.075131 0.276853
1.000000 0.071766 0.271731
0.000000 0.242865 0.305229
0.057005 0.239776 0.298036
0.214400 0.236800 0.290000
0.371795 0.233824 0.281964
0.529191 0.230847 0.273927
0.686586 0.227871 0.265891
0.843981 0.224894 0.257855
1.000000 0.221918 0.249819
1.000000 0.218604 0.244313
0.000000 0.389704 0.277811
0.059007 0.386564 0.271002
0.216403 0.383587 0.262965
0.373798 0.380611 0.254929
0.531193 0.377634 0.246893
0.688588 0.374658 0.238857
0.845984 0.371682 0.230820
1.000000 0.368705 0.222784
1.000000 0.365442 0.216896
0.000000 0.536542 0.250393
0.061010 0.533351 0.243967
0.218405 0.530374 0.235931
0.375800 0.527398 0.227895
0.533196 0.524422 0.219858
0.690591 0.521445 0.211822
0.847986 0.518469 0.203786
1.000000 0.515492 0.195749
1.000000 0.512281 0.189478
0.000000 0.683380 0.222976
0.063012 0.680138 0.216933
0.220408 0.677162 0.208896
0.377803 0.674185 0.200860
0.535198 0.671209 0.192824
0.692594 0.668232 0.184787
0.849989 0.665256 0.176751
1.000000 0.662280 0.168715
1.000000 0.659119 0.162060
0.000000 0.830218 0.195558
0.065015 0.826925 0.189898
0.222410 0.823949 0.181862
0.379806 0.820972 0.173825
0.537201 0.817996 0.165789
0.694596 0.815020 0.157753
0.851991 0.812043 0.149717
1.000000 0.809067 0.141680
1.000000 0.805957 0.134643
0.000000 0.977057 0.168140
0.067018 0.973712 0.162863
0.224413 0.970736 0.154827
0.381808 0.967760 0.146791
0.539203 0.964783 0.138755
0.696599 0.961807 0.130718
0.853994 0.958830 0.122682
1.000000 0.955854 0.114646
1.000000 0.952796 0.107225
0.009517 1.000000 0.144569
0.065788 1.000000 0.139292
0.223541 1.000000 0.130872
0.381294 1.000000 0.122453
0.539047 1.000000 0.114034
0.696800 1.000000 0.105614
0.854553 1.000000 0.097195
1.000000 1.000000 0.088775
1.000000 1.000000 0.080588
0.000000 0.000000 0.513706
0.053924 0.000000 0.505403
0.211677 0.000000 0.496983
0.369430 0.000000 0.488564
0.527182 0.000000 0.480144
0.684935 0.000000 0.471725
0.842688 0.000000 0.463305
1.000000 0.000000 0.454886
1.000000 0.000000 0.449725
0.000000 0.095021 0.486679
0.055204 0.091978 0.479142
0.212600 0.089002 0.471105
0.369995 0.086026 0.463069
0.527390 0.083049 0.455033
0.684785 0.080073 0.446997
0.842181 0.077096 0.438960
0.999576 0.074120 0.430924
1.000000 0.070760 0.425763
0.000000 0.241860 0.459261
0.057207 0.238766 0.452107
0.214602 0.235789 0.444071
0.371997 0.232813 0.436035
0.529393 0.229836 0.427998
0.686788 0.226860 0.419962
0.844183 0.223884 0.411926
1.000000 0.220907 0.403889
1.000000 0.217598 0.398346
0.000000 0.388698 0.431843
0.059209 0.385553 0.425073
0.216605 0.382576 0.417036
0.374000 0.379600 0.409000
0.531395 0.376624 0.400964
0.688791 0.373647 0.392927
0.846186 0.370671 0.384891
1.000000 0.367694 0.376855
1.000000 0.364437 0.370928
0.000000 0.535536 0.404426
0.061212 0.532340 0.398038
0.218607 0.529364 0.390002
0.376003 0.526387 0.381965
0.533398 0.523411 0.373929
0.690793 0.520434 0.365893
0.848188 0.517458 0.357857
1.000000 0.514482 0.349820
1.000000 0.511275 0.343510
0.000000 0.682375 0.377008
0.063215 0.679127 0.371003
0.220610 0.676151 0.362967
0.378005 0.673174 0.354931
0.535400 0.670198 0.346895
0.692796 0.667222 0.338858
0.850191 0.664245 0.330822
1.000000 0.661269 0.322786
1.000000 0.658113 0.316092
0.000000 0.829213 0.349590
0.065217 0.825914 0.343969
0.222612 0.822938 0.335933
0.380008 0.819962 0.327896
0.537403 0.816985 0.319860
0.694798 0.814009 0.311824
0.852194 0.811032 0.303787
1.000000 0.808056 0.295751
1.000000 0.804952 0.288675
0.000182 0.976051 0.322172
0.067220 0.972702 0.316934
0.224615 0.969725 0.308898
0.382010 0.966749 0.300862
0.539406 0.963772 0.292825
0.696801 0.960796 0.284789
0.854196 0.957820 0.276753
1.000000 0.954843 0.268717
1.000000 0.951790 0.261257
0.011090 1.000000 0.298471
0.066112 1.000000 0.293233
0.223865 1.000000 0.284813
0.381617 1.000000 0.276394
0.539370 1.000000 0.267974
0.697123 1.000000 0.259555
0.854876 1.000000 0.251135
1.000000 1.000000 0.242716
1.000000 1.000000 0.234490
0.000000 0.000000 0.667608
0.054247 0.000000 0.659343
0.212000 0.000000 0.650924
0.369753 0.000000 0.642505
0.527506 0.000000 0.634085
0.685259 0.000000 0.625666
0.843012 0.000000 0.617246
1.000000 0.000000 0.608827
1.000000 0.000000 0.603627
0.000000 0.094016 0.640711
0.055406 0.090968 0.633213
0.212802 0.087991 0.625176
0.370197 0.085015 0.617140
0.527592 0.082038 0.609104
0.684988 0.079062 0.601067
0.842383 0.076086 0.593031
0.999778 0.073109 0.584995
1.000000 0.069755 0.579795
0.000000 0.240854 0.613293
0.057409 0.237755 0.606178
0.214804 0.234778 0.598142
0.372200 0.231802 0.590105
0.529595 0.228826 0.582069
0.686990 0.225849 0.574033
0.844385 0.222873 0.565997
1.000000 0.219896 0.557960
1.000000 0.216593 0.552378
0.000000 0.387692 0.585875
0.059412 0.384542 0.579143
0.216807 0.381566 0.571107
0.374202 0.378589 0.563071
0.531597 0.375613 0.555035
0.688993 0.372636 0.546998
0.846388 0.369660 0.538962
1.000000 0.366684 0.530926
1.000000 0.363431 0.524960
0.000000 0.534531 0.558458
0.061414 0.531329 0.552109
0.218809 0.528353 0.544073
0.376205 0.525376 0.536036
0.533600 0.522400 0.528000
0.690995 0.519424 0.519964
0.848391 0.516447 0.511927
1.000000 0.513471 0.503891
1.000000 0.510269 0.497542
0.000000 0.681369 0.531040
0.063417 0.678116 0.525074
0.220812 0.675140 0.517038
0.378207 0.672164 0.509002
0.535603 0.669187 0.500965
0.692998 0.666211 0.492929
0.850393 0.663234 0.484893
1.000000 0.660258 0.476857
1.000000 0.657108 0.470125
0.000000 0.828207 0.503622
0.065419 0.824904 0.498040
0.222815 0.821927 0.490003
0.380210 0.818951 0.481967
0.537605 0.815974 0.473931
0.695000 0.812998 0.465895
0.852396 0.810022 0.457858
1.000000 0.807045 0.449822
1.000000 0.803946 0.442707
0.001634 0.975045 0.476205
0.067422 0.971691 0.471005
0.224817 0.968714 0.462969
0.382212 0.965738 0.454933
0.539608 0.962762 0.446896
0.697003 0.959785 0.438860
0.854398 0.956809 0.430824
1.000000 0.953832 0.422787
1.000000 0.950784 0.415289
0.012662 1.000000 0.452373
0.066435 1.000000 0.447173
0.224188 1.000000 0.438754
0.381941 1.000000 0.430334
0.539694 1.000000 0.421915
0.697447 1.000000 0.413495
0.855200 1.000000 0.405076
1.000000 1.000000 0.396657
1.000000 1.000000 0.388392
0.000000 0.000000 0.821510
0.054571 0.000000 0.813284
0.212324 0.000000 0.804865
0.370077 0.000000 0.796445
0.527830 0.000000 0.788026
0.685583 0.000000 0.779606
0.843335 0.000000 0.771187
1.000000 0.000000 0.762767
1.000000 0.000000 0.757529
0.000000 0.093010 0.794743
0.055609 0.089957 0.787283
0.213004 0.086980 0.779247
0.370399 0.084004 0.771211
0.527794 0.081028 0.763175
0.685190 0.078051 0.755138
0.842585 0.075075 0.747102
0.999980 0.072098 0.739066
1.000000 0.068749 0.733828
0.000000 0.239848 0.767325
0.057611 0.236744 0.760249
0.215006 0.233768 0.752213
0.372402 0.230791 0.744176
0.529797 0.227815 0.736140
0.687192 0.224838 0.728104
0.844588 0.221862 0.720067
1.000000 0.218886 0.712031
1.000000 0.215587 0.706410
0.000000 0.386687 0.739908
0.059614 0.383531 0.733214
0.217009 0.380555 0.725178
0.374404 0.377578 0.717142
0.531800 0.374602 0.709105
0.689195 0.371626 0.701069
0.846590 0.368649 0.693033
1.000000 0.365673 0.684997
1.000000 0.362425 0.678992
0.000000 0.533525 0.712490
0.061616 0.530318 0.706180
0.219012 0.527342 0.698143
0.376407 0.524366 0.690107
0.533802 0.521389 0.682071
0.691197 0.518413 0.674035
0.848593 0.515436 0.665998
1.000000 0.512460 0.657962
1.000000 0.509264 0.651574
0.000000 0.680363 0.685072
0.063619 0.677106 0.679145
0.221014 0.674129 0.671109
0.378409 0.671153 0.663073
0.535805 0.668176 0.655036
0.693200 0.665200 0.647000
0.850595 0.662224 0.638964
1.000000 0.659247 0.630927
1.000000 0.656102 0.624157
0.000000 0.827202 0.657654
0.065621 0.823893 0.652111
0.223017 0.820916 0.644074
0.380412 0.817940 0.636038
0.537807 0.814964 0.628002
0.695203 0.811987 0.619965
0.852598 0.809011 0.611929
1.000000 0.806034 0.603893
1.000000 0.802940 0.596739
0.003085 0.974040 0.630237
0.067624 0.970680 0.625076
0.225019 0.967704 0.617040
0.382415 0.964727 0.609003
0.539810 0.961751 0.600967
0.697205 0.958774 0.592931
0.854600 0.955798 0.584895
1.000000 0.952822 0.576858
1.000000 0.949779 0.569321
0.014235 1.000000 0.606275
0.066759 1.000000 0.601114
0.224512 1.000000 0.592695
0.382265 1.000000 0.584275
0.540018 1.000000 0.575856
0.697770 1.000000 0.567436
0.855523 1.000000 0.559017
1.000000 1.000000 0.550597
1.000000 1.000000 0.542294
0.000000 0.000000 0.975412
0.054895 0.000000 0.967225
0.212647 0.000000 0.958805
0.370400 0.000000 0.950386
0.528153 0.000000 0.941966
0.685906 0.000000 0.933547
0.843659 0.000000 0.925128
1.000000 0.000000 0.916708
1.000000 0.000000 0.911431
0.000000 0.092004 0.948775
0.055811 0.088946 0.941354
0.213206 0.085970 0.933318
0.370601 0.082993 0.925282
0.527997 0.080017 0.917245
0.685392 0.077040 0.909209
0.842787 0.074064 0.901173
1.000000 0.071088 0.893137
1.000000 0.067743 0.887860
0.000000 0.238843 0.921357
0.057813 0.235733 0.914320
0.215209 0.232757 0.906283
0.372604 0.229780 0.898247
0.529999 0.226804 0.890211
0.687394 0.223828 0.882175
0.844790 0.220851 0.874138
1.000000 0.217875 0.866102
1.000000 0.214582 0.860442
0.000000 0.385681 0.893940
0.059816 0.382520 0.887285
0.217211 0.379544 0.879249
0.374606 0.376568 0.871213
0.532002 0.373591 0.863176
0.689397 0.370615 0.855140
0.846792 0.367638 0.847104
1.000000 0.364662 0.839067
1.000000 0.361420 0.833024
0.000000 0.532519 0.866522
0.061818 0.529308 0.860251
0.219214 0.526331 0.852214
0.376609 0.523355 0.844178
0.534004 0.520378 0.836142
0.691400 0.517402 0.828105
0.848795 0.514426 0.820069
1.000000 0.511449 0.812033
1.000000 0.508258 0.805607
0.000000 0.679358 0.839104
0.063821 0.676095 0.833216
0.221216 0.673118 0.825180
0.378612 0.670142 0.817143
0.536007 0.667166 0.809107
0.693402 0.664189 0.801071
0.850797 0.661213 0.793035
1.000000 0.658236 0.784998
1.000000 0.655096 0.778189
0.000000 0.826196 0.811687
0.065824 0.822882 0.806181
0.223219 0.819906 0.798145
0.380614 0.816929 0.790109
0.538009 0.813953 0.782073
0.695405 0.810976 0.774036
0.852800 0.808000 0.766000
1.000000 0.805024 0.757964
1.000000 0.801935 0.750771
0.004536 0.973034 0.784269
0.067826 0.969669 0.779147
0.225221 0.966693 0.771111
0.382617 0.963716 0.763074
0.540012 0.960740 0.755038
0.697407 0.957764 0.747002
0.854803 0.954787 0.738965
1.000000 0.951811 0.730929
1.000000 0.948773 0.723353
0.015808 1.000000 0.760177
0.067082 1.000000 0.755055
0.224835 1.000000 0.746635
0.382588 1.000000 0.738216
0.540341 1.000000 0.729796
0.698094 1.000000 0.721377
0.855847 1.000000 0.712957
1.000000 1.000000 0.704538
1.000000 1.000000 0.696196
0.000000 0.000000 1.000000
0.055218 0.000000 1.000000
0.212971 0.000000 1.000000
0.370724 0.000000 1.000000
0.528477 0.000000 1.000000
0.686230 0.000000 1.000000
0.843983 0.000000 1.000000
1.000000 0.000000 1.000000
1.000000 0.000000 1.000000
0.000000 0.090999 1.000000
0.056013 0.087935 1.000000
0.213408 0.084959 1.000000
0.370804 0.081982 1.000000
0.528199 0.079006 1.000000
0.685594 0.076030 1.000000
0.842989 0.073053 1.000000
1.000000 0.070077 1.000000
1.000000 0.066738 1.000000
0.000000 0.237837 1.000000
0.058016 0.234722 1.000000
0.215411 0.231746 1.000000
0.372806 0.228770 1.000000
0.530201 0.225793 1.000000
0.687597 0.222817 1.000000
0.844992 0.219840 1.000000
1.000000 0.216864 1.000000
1.000000 0.213576 1.000000
0.000000 0.384675 1.000000
0.060018 0.381510 1.000000
0.217413 0.378533 1.000000
0.374809 0.375557 1.000000
0.532204 0.372580 1.000000
0.689599 0.369604 1.000000
0.846994 0.366628 1.000000
1.000000 0.363651 0.993138
1.000000 0.360414 0.987056
0.000000 0.531514 1.000000
0.062021 0.528297 1.000000
0.219416 0.525320 1.000000
0.376811 0.522344 0.998249
0.534206 0.519368 0.990213
0.691602 0.516391 0.982176
0.848997 0.513415 0.974140
1.000000 0.510438 0.966104
1.000000 0.507252 0.959639
0.000000 0.678352 0.993136
0.064023 0.675084 0.987287
0.221418 0.672108 0.979251
0.378814 0.669131 0.971214
0.536209 0.666155 0.963178
0.693604 0.663178 0.955142
0.851000 0.660202 0.947105
1.000000 0.657226 0.939069
1.000000 0.654091 0.932221
0.000000 0.825190 0.965719
0.066026 0.821871 0.960252
0.223421 0.818895 0.952216
0.380816 0.815918 0.944180
0.538212 0.812942 0.936143
0.695607 0.809966 0.928107
0.853002 0.806989 0.920071
1.000000 0.804013 0.912035
1.000000 0.800929 0.904803
0.005987 0.972029 0.938301
0.068028 0.968658 0.933218
0.225424 0.965682 0.925181
0.382819 0.962706 0.917145
0.540214 0.959729 0.909109
0.697609 0.956753 0.901073
0.855005 0.953776 0.893036
1.000000 0.950800 0.885000
1.000000 0.947767 0.877386
0.017380 1.000000 0.914079
0.067406 1.000000 0.908995
0.225159 1.000000 0.900576
0.382912 1.000000 0.892157
0.540665 1.000000 0.883737
0.698418 1.000000 0.875318
0.856171 1.000000 0.866898
1.000000 1.000000 0.858479
1.000000 1.000000 0.850098
0.000000 0.000000 1.000000
0.054317 0.000000 1.000000
0.212106 0.000000 1.000000
0.369895 0.000000 1.000000
0.527684 0.000000 1.000000
0.685473 0.000000 1.000000
0.843263 0.000000 1.000000
1.000000 0.000000 1.000000
1.000000 0.000000 1.000000
0.000000 0.089830 1.000000
0.055112 0.086767 1.000000
0.212544 0.083796 1.000000
0.369975 0.080824 1.000000
0.527406 0.077853 1.000000
0.684838 0.074882 1.000000
0.842269 0.071911 1.000000
0.999701 0.068939 1.000000
1.000000 0.065611 1.000000
0.000000 0.236686 1.000000
0.057236 0.233571 1.000000
0.214668 0.230600 1.000000
0.372099 0.227629 1.000000
0.529530 0.224658 1.000000
0.686962 0.221686 1.000000
0.844393 0.218715 1.000000
1.000000 0.215744 1.000000
1.000000 0.212466 1.000000
0.000000 0.383542 1.000000
0.059360 0.380376 1.000000
0.216792 0.377405 1.000000
0.374223 0.374433 1.000000
0.531654 0.371462 1.000000
0.689086 0.368491 1.000000
0.846517 0.365520 1.000000
1.000000 0.362548 1.000000
1.000000 0.359322 1.000000
0.000000 0.530397 1.000000
0.061484 0.527180 1.000000
0.218916 0.524209 1.000000
0.376347 0.521238 1.000000
0.533778 0.518267 1.000000
0.691210 0.515296 1.000000
0.848641 0.512324 1.000000
1.000000 0.509353 1.000000
1.000000 0.506177 1.000000
0.000000 0.677253 1.000000
0.063608 0.673985 1.000000
0.221040 0.671014 1.000000
0.378471 0.668043 1.000000
0.535902 0.665071 1.000000
0.693334 0.662100 1.000000
0.850765 0.659129 1.000000
1.000000 0.656158 1.000000
1.000000 0.653033 1.000000
0.000000 0.824109 1.000000
0.065732 0.820790 1.000000
0.223164 0.817818 1.000000
0.380595 0.814847 1.000000
0.538026 0.811876 1.000000
0.695458 0.808905 1.000000
0.852889 0.805933 1.000000
1.000000 0.802962 1.000000
1.000000 0.799889 1.000000
0.007028 0.970964 1.000000
0.067856 0.967594 1.000000
0.225288 0.964623 1.000000
0.382719 0.961652 1.000000
0.540150 0.958680 1.000000
0.697582 0.955709 1.000000
0.855013 0.952738 1.000000
1.000000 0.949767 1.000000
1.000000 0.946744 1.000000
0.018664 1.000000 1.000000
0.067477 1.000000 1.000000
0.225266 1.000000 1.000000
0.383055 1.000000 1.000000
0.540844 1.000000 1.000000
0.698633 1.000000 1.000000
0.856422 1.000000 1.000000
1.000000 1.000000 1.000000
1.000000 1.000000 1.000000
