assets/luts/blockbuster.cube
# Blockbuster — Studio filter "blockbuster"
# Generated by scripts/generate-filter-luts.mjs — do not edit by hand.
LUT_3D_SIZE 17
DOMAIN_MIN 0.0 0.0 0.0
DOMAIN_MAX 1.0 1.0 1.0
0.000000 0.000000 0.052000
0.000000 0.000000 0.049557
0.052989 0.000000 0.047114
0.131884 0.000000 0.044670
0.210778 0.000000 0.042227
0.289673 0.000000 0.039784
0.368567 0.000000 0.037341
0.447462 0.000000 0.034897
0.526356 0.000000 0.032454
0.605251 0.000000 0.030011
0.684145 0.000000 0.027568
0.763040 0.000000 0.025125
0.841934 0.000000 0.022681
0.920829 0.000000 0.020238
0.999723 0.000000 0.017795
1.000000 0.000000 0.016283
1.000000 0.000000 0.016283
0.000000 0.024628 0.044234
0.000000 0.023117 0.042174
0.053693 0.021631 0.039922
0.132409 0.020145 0.037670
0.211125 0.018660 0.035419
0.289840 0.017174 0.033167
0.368556 0.015689 0.030915
0.447272 0.014203 0.028664
0.525988 0.012717 0.026412
0.604703 0.011232 0.024161
0.683419 0.009746 0.021909
0.762135 0.008260 0.019657
0.840850 0.006775 0.017406
0.919566 0.005289 0.015154
0.998282 0.003804 0.012902
1.000000 0.002219 0.011391
1.000000 0.000408 0.011582
0.000000 0.098056 0.036468
0.000000 0.096519 0.034599
0.054755 0.095033 0.032347
0.133471 0.093548 0.030096
0.212187 0.092062 0.027844
0.290902 0.090576 0.025592
0.369618 0.089091 0.023341
0.448334 0.087605 0.021089
0.527050 0.086120 0.018838
0.605765 0.084634 0.016586
0.684481 0.083148 0.014334
0.763197 0.081663 0.012083
0.841912 0.080177 0.009831
0.920628 0.078691 0.007579
0.999344 0.077206 0.005328
1.000000 0.075647 0.003624
1.000000 0.073836 0.003816
0.000000 0.171483 0.028701
0.000000 0.169921 0.027024
0.055817 0.168436 0.024773
0.134533 0.166950 0.022521
0.213249 0.165464 0.020269
0.291964 0.163979 0.018018
0.370680 0.162493 0.015766
0.449396 0.161007 0.013515
0.528112 0.159522 0.011263
0.606827 0.158036 0.009011
0.685543 0.156551 0.006760
0.764259 0.155065 0.004508
0.842974 0.153579 0.002256
0.921690 0.152094 0.000005
1.000000 0.150608 0.000000
1.000000 0.149075 0.000000
1.000000 0.147264 0.000000
0.000000 0.244911 0.020935
0.000000 0.243323 0.019450
0.056879 0.241838 0.017198
0.135595 0.240352 0.014946
0.214311 0.238867 0.012695
0.293026 0.237381 0.010443
0.371742 0.235895 0.008192
0.450458 0.234410 0.005940
0.529174 0.232924 0.003688
0.607889 0.231439 0.001437
0.686605 0.229953 0.000000
0.765321 0.228467 0.000000
0.844036 0.226982 0.000000
0.922752 0.225496 0.000000
1.000000 0.224010 0.000000
1.000000 0.222503 0.000000
1.000000 0.220691 0.000000
0.000000 0.318339 0.013169
0.000000 0.316726 0.011875
0.057941 0.315240 0.009623
0.136657 0.313755 0.007372
0.215373 0.312269 0.005120
0.294088 0.310783 0.002868
0.372804 0.309298 0.000617
0.451520 0.307812 0.000000
0.530236 0.306326 0.000000
0.608951 0.304841 0.000000
0.687667 0.303355 0.000000
0.766383 0.301870 0.000000
0.845098 0.300384 0.000000
0.923814 0.298898 0.000000
1.000000 0.297413 0.000000
1.000000 0.295927 0.000000
1.000000 0.294119 0.000000
0.000000 0.391767 0.005403
0.000000 0.390128 0.004300
0.059003 0.388642 0.002049
0.137719 0.387157 0.000000
0.216435 0.385671 0.000000
0.295150 0.384186 0.000000
0.373866 0.382700 0.000000
0.452582 0.381214 0.000000
0.531298 0.379729 0.000000
0.610013 0.378243 0.000000
0.688729 0.376757 0.000000
0.767445 0.375272 0.000000
0.846160 0.373786 0.000000
0.924876 0.372301 0.000000
1.000000 0.370815 0.000000
1.000000 0.369329 0.000000
1.000000 0.367547 0.000000
0.000000 0.465195 0.000000
0.000000 0.463530 0.000000
0.060065 0.462045 0.000000
0.138781 0.460559 0.000000
0.217497 0.459073 0.000000
0.296212 0.457588 0.000000
0.374928 0.456102 0.000000
0.453644 0.454617 0.000000
0.532360 0.453131 0.000000
0.611075 0.451645 0.000000
0.689791 0.450160 0.000000
0.768507 0.448674 0.000000
0.847222 0.447188 0.000000
0.925938 0.445703 0.000000
1.000000 0.444217 0.000000
1.000000 0.442732 0.000000
1.000000 0.440975 0.000000
0.000000 0.538623 0.000000
0.000000 0.536933 0.000000
0.061127 0.535447 0.000000
0.139843 0.533961 0.000000
0.218559 0.532476 0.000000
0.297275 0.530990 0.000000
0.375990 0.529504 0.000000
0.454706 0.528019 0.000000
0.533422 0.526533 0.000000
0.612137 0.525048 0.000000
0.690853 0.523562 0.000000
0.769569 0.522076 0.000000
0.848284 0.520591 0.000000
0.927000 0.519105 0.000000
1.000000 0.517620 0.000000
1.000000 0.516134 0.000000
1.000000 0.514403 0.000000
0.000000 0.612050 0.000000
0.000000 0.610335 0.000000
0.062189 0.608849 0.000000
0.140905 0.607364 0.000000
0.219621 0.605878 0.000000
0.298337 0.604392 0.000000
0.377052 0.602907 0.000000
0.455768 0.601421 0.000000
0.534484 0.599936 0.000000
0.613199 0.598450 0.000000
0.691915 0.596964 0.000000
0.770631 0.595479 0.000000
0.849346 0.593993 0.000000
0.928062 0.592507 0.000000
1.000000 0.591022 0.000000
1.000000 0.589536 0.000000
1.000000 0.587830 0.000000
0.000000 0.685478 0.000000
0.000000 0.683737 0.000000
0.063251 0.682252 0.000000
0.141967 0.680766 0.000000
0.220683 0.679280 0.000000
0.299399 0.677795 0.000000
0.378114 0.676309 0.000000
0.456830 0.674823 0.000000
0.535546 0.673338 0.000000
0.614261 0.671852 0.000000
0.692977 0.670367 0.000000
0.771693 0.668881 0.000000
0.850408 0.667395 0.000000
0.929124 0.665910 0.000000
1.000000 0.664424 0.000000
1.000000 0.662938 0.000000
1.000000 0.661258 0.000000
0.000000 0.758906 0.000000
0.000000 0.757139 0.000000
0.064313 0.755654 0.000000
0.143029 0.754168 0.000000
0.221745 0.752683 0.000000
0.300461 0.751197 0.000000
0.379176 0.749711 0.000000
0.457892 0.748226 0.000000
0.536608 0.746740 0.000000
0.615323 0.745254 0.000000
0.694039 0.743769 0.000000
0.772755 0.742283 0.000000
0.851470 0.740798 0.000000
0.930186 0.739312 0.000000
1.000000 0.737826 0.000000
1.000000 0.736341 0.000000
1.000000 0.734686 0.000000
0.000000 0.832334 0.000000
0.000000 0.830542 0.000000
0.065375 0.829056 0.000000
0.144091 0.827570 0.000000
0.222807 0.826085 0.000000
0.301523 0.824599 0.000000
0.380238 0.823114 0.000000
0.458954 0.821628 0.000000
0.537670 0.820142 0.000000
0.616385 0.818657 0.000000
0.695101 0.817171 0.000000
0.773817 0.815685 0.000000
0.852532 0.814200 0.000000
0.931248 0.812714 0.000000
1.000000 0.811229 0.000000
1.000000 0.809743 0.000000
1.000000 0.808114 0.000000
0.000000 0.905762 0.000000
0.000000 0.903950 0.000000
0.066437 0.902458 0.000000
0.145153 0.900973 0.000000
0.223869 0.899487 0.000000
0.302585 0.898001 0.000000
0.381300 0.896516 0.000000
0.460016 0.895030 0.000000
0.538732 0.893545 0.000000
0.617447 0.892059 0.000000
0.696163 0.890573 0.000000
0.774879 0.889088 0.000000
0.853594 0.887602 0.000000
0.932310 0.886116 0.000000
1.000000 0.884631 0.000000
1.000000 0.883145 0.000000
1.000000 0.881542 0.000000
0.000000 0.979189 0.000000
0.000000 0.977378 0.000000
0.067499 0.975861 0.000000
0.146215 0.974375 0.000000
0.224931 0.972889 0.000000
0.303647 0.971404 0.000000
0.382362 0.969918 0.000000
0.461078 0.968433 0.000000
0.539794 0.966947 0.000000
0.618509 0.965461 0.000000
0.697225 0.963976 0.000000
0.775941 0.962490 0.000000
0.854656 0.961004 0.000000
0.933372 0.959519 0.000000
1.000000 0.958033 0.000000
1.000000 0.956548 0.000000
1.000000 0.954970 0.000000
0.003927 1.000000 0.000000
0.003749 1.000000 0.000000
0.068561 1.000000 0.000000
0.147277 1.000000 0.000000
0.225993 1.000000 0.000000
0.304709 1.000000 0.000000
0.383424 1.000000 0.000000
0.462140 1.000000 0.000000
0.540856 1.000000 0.000000
0.619571 1.000000 0.000000
0.698287 1.000000 0.000000
0.777003 1.000000 0.000000
0.855718 1.000000 0.000000
0.934434 1.000000 0.000000
1.000000 1.000000 0.000000
1.000000 1.000000 0.000000
1.000000 1.000000 0.000000
0.007343 1.000000 0.000000
0.007343 1.000000 0.000000
0.066148 1.000000 0.000000
0.145043 1.000000 0.000000
0.223937 1.000000 0.000000
0.302832 1.000000 0.000000
0.381727 1.000000 0.000000
0.460621 1.000000 0.000000
0.539516 1.000000 0.000000
0.618410 1.000000 0.000000
0.697305 1.000000 0.000000
0.776199 1.000000 0.000000
0.855094 1.000000 0.000000
0.933988 1.000000 0.000000
1.000000 1.000000 0.000000
1.000000 1.000000 0.000000
1.000000 1.000000 0.000000
0.000000 0.000000 0.128951
0.000000 0.000000 0.124761
0.053115 0.000000 0.120551
0.131991 0.000000 0.116341
0.210868 0.000000 0.112131
0.289744 0.000000 0.107922
0.368621 0.000000 0.103712
0.447497 0.000000 0.099502
0.526373 0.000000 0.095293
0.605250 0.000000 0.091083
0.684126 0.000000 0.086873
0.763003 0.000000 0.082663
0.841879 0.000000 0.078454
0.920756 0.000000 0.074244
0.999632 0.000000 0.070034
1.000000 0.000000 0.066737
1.000000 0.000000 0.064970
0.000000 0.024116 0.115307
0.000000 0.022600 0.111500
0.053698 0.021112 0.107482
0.132395 0.019624 0.103464
0.211093 0.018135 0.099446
0.289791 0.016647 0.095427
0.368488 0.015159 0.091409
0.447186 0.013671 0.087391
0.525883 0.012183 0.083373
0.604581 0.010694 0.079355
0.683279 0.009206 0.075337
0.761976 0.007718 0.071319
0.840674 0.006230 0.067300
0.919372 0.004742 0.063282
0.998069 0.003253 0.059264
1.000000 0.001669 0.055967
1.000000 0.000000 0.054392
0.000000 0.097535 0.101598
0.000000 0.095994 0.097983
0.054699 0.094505 0.093965
0.133397 0.093017 0.089946
0.212094 0.091529 0.085928
0.290792 0.090041 0.081910
0.369489 0.088553 0.077892
0.448187 0.087064 0.073874
0.526885 0.085576 0.069856
0.605582 0.084088 0.065838
0.684280 0.082600 0.061819
0.762978 0.081112 0.057801
0.841675 0.079623 0.053783
0.920373 0.078135 0.049765
0.999071 0.076647 0.045747
1.000000 0.075088 0.042258
1.000000 0.073274 0.040683
0.000000 0.170955 0.087889
0.000000 0.169387 0.084465
0.055700 0.167899 0.080447
0.134398 0.166411 0.076429
0.213095 0.164923 0.072411
0.291793 0.163434 0.068393
0.370491 0.161946 0.064375
0.449188 0.160458 0.060357
0.527886 0.158970 0.056338
0.606584 0.157482 0.052320
0.685281 0.155993 0.048302
0.763979 0.154505 0.044284
0.842677 0.153017 0.040266
0.921374 0.151529 0.036248
1.000000 0.150041 0.032230
1.000000 0.148507 0.028549
1.000000 0.146693 0.026974
0.000000 0.244374 0.074181
0.000000 0.242781 0.070948
0.056701 0.241293 0.066930
0.135399 0.239804 0.062912
0.214097 0.238316 0.058894
0.292794 0.236828 0.054876
0.371492 0.235340 0.050857
0.450190 0.233852 0.046839
0.528887 0.232363 0.042821
0.607585 0.230875 0.038803
0.686283 0.229387 0.034785
0.764980 0.227899 0.030767
0.843678 0.226411 0.026749
0.922376 0.224922 0.022730
1.000000 0.223434 0.018712
1.000000 0.221927 0.014840
1.000000 0.220113 0.013265
0.000000 0.317793 0.060472
0.000000 0.316174 0.057431
0.057703 0.314686 0.053413
0.136400 0.313198 0.049395
0.215098 0.311710 0.045376
0.293796 0.310222 0.041358
0.372493 0.308733 0.037340
0.451191 0.307245 0.033322
0.529889 0.305757 0.029304
0.608586 0.304269 0.025286
0.687284 0.302781 0.021268
0.765982 0.301292 0.017249
0.844679 0.299804 0.013231
0.923377 0.298316 0.009213
1.000000 0.296828 0.005195
1.000000 0.295340 0.001177
1.000000 0.293532 0.000000
0.000000 0.391212 0.046763
0.000000 0.389568 0.043914
0.058704 0.388080 0.039895
0.137402 0.386592 0.035877
0.216099 0.385103 0.031859
0.294797 0.383615 0.027841
0.373495 0.382127 0.023823
0.452192 0.380639 0.019805
0.530890 0.379151 0.015787
0.609588 0.377662 0.011768
0.688285 0.376174 0.007750
0.766983 0.374686 0.003732
0.845680 0.373198 0.000000
0.924378 0.371710 0.000000
1.000000 0.370221 0.000000
1.000000 0.368733 0.000000
1.000000 0.366951 0.000000
0.000000 0.464631 0.033054
0.000000 0.462962 0.030396
0.059705 0.461473 0.026378
0.138403 0.459985 0.022360
0.217101 0.458497 0.018342
0.295798 0.457009 0.014324
0.374496 0.455521 0.010306
0.453194 0.454032 0.006287
0.531891 0.452544 0.002269
0.610589 0.451056 0.000000
0.689286 0.449568 0.000000
0.767984 0.448080 0.000000
0.846682 0.446591 0.000000
0.925379 0.445103 0.000000
1.000000 0.443615 0.000000
1.000000 0.442127 0.000000
1.000000 0.440370 0.000000
0.000000 0.538050 0.019345
0.000000 0.536355 0.016879
0.060707 0.534867 0.012861
0.139404 0.533379 0.008843
0.218102 0.531891 0.004825
0.296800 0.530402 0.000806
0.375497 0.528914 0.000000
0.454195 0.527426 0.000000
0.532892 0.525938 0.000000
0.611590 0.524450 0.000000
0.690288 0.522961 0.000000
0.768985 0.521473 0.000000
0.847683 0.519985 0.000000
0.926381 0.518497 0.000000
1.000000 0.517009 0.000000
1.000000 0.515520 0.000000
1.000000 0.513789 0.000000
0.000000 0.611469 0.005636
0.000000 0.609749 0.003362
0.061708 0.608261 0.000000
0.140406 0.606772 0.000000
0.219103 0.605284 0.000000
0.297801 0.603796 0.000000
0.376498 0.602308 0.000000
0.455196 0.600820 0.000000
0.533894 0.599331 0.000000
0.612591 0.597843 0.000000
0.691289 0.596355 0.000000
0.769987 0.594867 0.000000
0.848684 0.593379 0.000000
0.927382 0.591890 0.000000
1.000000 0.590404 0.000000
1.000000 0.588918 0.000000
1.000000 0.587215 0.000000
0.000000 0.684889 0.000000
0.000000 0.683142 0.000000
0.062709 0.681654 0.000000
0.141407 0.680166 0.000000
0.220104 0.678678 0.000000
0.298802 0.677190 0.000000
0.377500 0.675701 0.000000
0.456197 0.674213 0.000000
0.534895 0.672725 0.000000
0.613593 0.671237 0.000000
0.692292 0.669749 0.000000
0.771007 0.668263 0.000000
0.849723 0.666778 0.000000
0.928439 0.665292 0.000000
1.000000 0.663806 0.000000
1.000000 0.662321 0.000000
1.000000 0.660643 0.000000
0.000000 0.758308 0.000000
0.000000 0.756536 0.000000
0.063710 0.755048 0.000000
0.142408 0.753560 0.000000
0.221106 0.752071 0.000000
0.299803 0.750583 0.000000
0.378501 0.749095 0.000000
0.457207 0.747608 0.000000
0.535922 0.746122 0.000000
0.614638 0.744637 0.000000
0.693354 0.743151 0.000000
0.772069 0.741665 0.000000
0.850785 0.740180 0.000000
0.929501 0.738694 0.000000
1.000000 0.737209 0.000000
1.000000 0.735723 0.000000
1.000000 0.734071 0.000000
0.000000 0.831727 0.000000
0.000000 0.829930 0.000000
0.064712 0.828441 0.000000
0.143409 0.826953 0.000000
0.222122 0.825467 0.000000
0.300837 0.823981 0.000000
0.379553 0.822496 0.000000
0.458269 0.821010 0.000000
0.536984 0.819525 0.000000
0.615700 0.818039 0.000000
0.694416 0.816553 0.000000
0.773131 0.815068 0.000000
0.851847 0.813582 0.000000
0.930563 0.812096 0.000000
1.000000 0.810611 0.000000
1.000000 0.809125 0.000000
1.000000 0.807499 0.000000
0.000000 0.905147 0.000000
0.000000 0.903335 0.000000
0.065752 0.901841 0.000000
0.144468 0.900355 0.000000
0.223184 0.898869 0.000000
0.301899 0.897384 0.000000
0.380615 0.895898 0.000000
0.459331 0.894412 0.000000
0.538046 0.892927 0.000000
0.616762 0.891441 0.000000
0.695478 0.889956 0.000000
0.774193 0.888470 0.000000
0.852909 0.886984 0.000000
0.931625 0.885499 0.000000
1.000000 0.884013 0.000000
1.000000 0.882528 0.000000
1.000000 0.880927 0.000000
0.000000 0.978574 0.000000
0.000000 0.976763 0.000000
0.066814 0.975243 0.000000
0.145530 0.973757 0.000000
0.224246 0.972272 0.000000
0.302961 0.970786 0.000000
0.381677 0.969300 0.000000
0.460393 0.967815 0.000000
0.539108 0.966329 0.000000
0.617824 0.964844 0.000000
0.696540 0.963358 0.000000
0.775255 0.961872 0.000000
0.853971 0.960387 0.000000
0.932687 0.958901 0.000000
1.000000 0.957415 0.000000
1.000000 0.955930 0.000000
1.000000 0.954354 0.000000
0.003867 1.000000 0.000000
0.003688 1.000000 0.000000
0.067876 1.000000 0.000000
0.146592 1.000000 0.000000
0.225308 1.000000 0.000000
0.304023 1.000000 0.000000
0.382739 1.000000 0.000000
0.461455 1.000000 0.000000
0.540170 1.000000 0.000000
0.618886 1.000000 0.000000
0.697602 1.000000 0.000000
0.776317 1.000000 0.000000
0.855033 1.000000 0.000000
0.933749 1.000000 0.000000
1.000000 1.000000 0.000000
1.000000 1.000000 0.000000
1.000000 1.000000 0.000000
0.007343 1.000000 0.000000
0.007343 1.000000 0.000000
0.065524 1.000000 0.000000
0.144418 1.000000 0.000000
0.223313 1.000000 0.000000
0.302207 1.000000 0.000000
0.381102 1.000000 0.000000
0.459996 1.000000 0.000000
0.538891 1.000000 0.000000
0.617785 1.000000 0.000000
0.696680 1.000000 0.000000
0.775574 1.000000 0.000000
0.854469 1.000000 0.000000
0.933363 1.000000 0.000000
1.000000 1.000000 0.000000
1.000000 1.000000 0.000000
1.000000 1.000000 0.000000
0.000000 0.000000 0.205902
0.000000 0.000000 0.201731
0.053277 0.000000 0.197521
0.132153 0.000000 0.193312
0.211029 0.000000 0.189102
0.289906 0.000000 0.184892
0.368782 0.000000 0.180682
0.447659 0.000000 0.176473
0.526535 0.000000 0.172263
0.605412 0.000000 0.168053
0.684288 0.000000 0.163843
0.763165 0.000000 0.159634
0.842041 0.000000 0.155424
0.920917 0.000000 0.151214
0.999794 0.000000 0.147005
1.000000 0.000000 0.143688
1.000000 0.000000 0.141921
0.000000 0.023614 0.192323
0.000000 0.022095 0.188535
0.053799 0.020606 0.184517
0.132496 0.019118 0.180499
0.211194 0.017630 0.176481
0.289892 0.016142 0.172463
0.368589 0.014654 0.168445
0.447287 0.013165 0.164427
0.525985 0.011677 0.160408
0.604682 0.010189 0.156390
0.683380 0.008701 0.152372
0.762077 0.007213 0.148354
0.840775 0.005724 0.144336
0.919473 0.004236 0.140318
0.998170 0.002748 0.136300
1.000000 0.001166 0.132983
1.000000 0.000000 0.131408
0.000000 0.097033 0.178614
0.000000 0.095488 0.175018
0.054800 0.094000 0.171000
0.133498 0.092512 0.166982
0.212195 0.091024 0.162964
0.290893 0.089535 0.158946
0.369591 0.088047 0.154927
0.448288 0.086559 0.150909
0.526986 0.085071 0.146891
0.605683 0.083583 0.142873
0.684381 0.082094 0.138855
0.763079 0.080606 0.134837
0.841776 0.079118 0.130819
0.920474 0.077630 0.126800
0.999172 0.076142 0.122782
1.000000 0.074585 0.119274
1.000000 0.072771 0.117699
0.000000 0.170452 0.164906
0.000000 0.168882 0.161501
0.055801 0.167394 0.157483
0.134499 0.165905 0.153465
0.213197 0.164417 0.149446
0.291894 0.162929 0.145428
0.370592 0.161441 0.141410
0.449289 0.159953 0.137392
0.527987 0.158464 0.133374
0.606685 0.156976 0.129356
0.685382 0.155488 0.125338
0.764080 0.154000 0.121319
0.842778 0.152512 0.117301
0.921475 0.151023 0.113283
1.000000 0.149535 0.109265
1.000000 0.148005 0.105565
1.000000 0.146191 0.103990
0.000000 0.243871 0.151197
0.000000 0.242275 0.147984
0.056803 0.240787 0.143965
0.135500 0.239299 0.139947
0.214198 0.237811 0.135929
0.292895 0.236323 0.131911
0.371593 0.234834 0.127893
0.450291 0.233346 0.123875
0.528988 0.231858 0.119857
0.607686 0.230370 0.115838
0.686384 0.228882 0.111820
0.765081 0.227393 0.107802
0.843779 0.225905 0.103784
0.922477 0.224417 0.099766
1.000000 0.222929 0.095748
1.000000 0.221424 0.091856
1.000000 0.219610 0.090281
0.000000 0.317290 0.137488
0.000000 0.315669 0.134466
0.057804 0.314181 0.130448
0.136501 0.312693 0.126430
0.215199 0.311204 0.122412
0.293897 0.309716 0.118394
0.372594 0.308228 0.114376
0.451292 0.306740 0.110357
0.529990 0.305252 0.106339
0.608687 0.303763 0.102321
0.687385 0.302275 0.098303
0.766083 0.300787 0.094285
0.844780 0.299299 0.090267
0.923478 0.297811 0.086249
1.000000 0.296322 0.082230
1.000000 0.294834 0.078212
1.000000 0.293029 0.076572
0.000000 0.390709 0.123779
0.000000 0.389063 0.120949
0.058805 0.387574 0.116931
0.137503 0.386086 0.112913
0.216200 0.384598 0.108895
0.294898 0.383110 0.104876
0.373596 0.381622 0.100858
0.452293 0.380133 0.096840
0.530991 0.378645 0.092822
0.609689 0.377157 0.088804
0.688386 0.375669 0.084786
0.767084 0.374181 0.080768
0.845782 0.372692 0.076749
0.924479 0.371204 0.072731
1.000000 0.369716 0.068713
1.000000 0.368228 0.064695
1.000000 0.366448 0.062864
0.000000 0.464128 0.110070
0.000000 0.462456 0.107432
0.059806 0.460968 0.103414
0.138504 0.459480 0.099395
0.217202 0.457992 0.095377
0.295899 0.456503 0.091359
0.374597 0.455015 0.087341
0.453295 0.453527 0.083323
0.531992 0.452039 0.079305
0.610690 0.450551 0.075287
0.689388 0.449062 0.071268
0.768085 0.447574 0.067250
0.846783 0.446086 0.063232
0.925480 0.444598 0.059214
1.000000 0.443110 0.055196
1.000000 0.441621 0.051178
1.000000 0.439867 0.049155
0.000000 0.537548 0.096361
0.000000 0.535850 0.093914
0.060808 0.534362 0.089896
0.139505 0.532873 0.085878
0.218203 0.531385 0.081860
0.296901 0.529897 0.077842
0.375598 0.528409 0.073824
0.454296 0.526921 0.069806
0.532994 0.525432 0.065787
0.611691 0.523944 0.061769
0.690389 0.522456 0.057751
0.769086 0.520968 0.053733
0.847784 0.519480 0.049715
0.926482 0.517991 0.045697
1.000000 0.516503 0.041679
1.000000 0.515015 0.037660
1.000000 0.513286 0.035446
0.000000 0.610967 0.082652
0.000000 0.609243 0.080397
0.061809 0.607755 0.076379
0.140507 0.606267 0.072361
0.219204 0.604779 0.068343
0.297902 0.603291 0.064325
0.376600 0.601802 0.060306
0.455297 0.600314 0.056288
0.533995 0.598826 0.052270
0.612692 0.597338 0.048252
0.691390 0.595850 0.044234
0.770088 0.594361 0.040216
0.848785 0.592873 0.036198
0.927483 0.591385 0.032179
1.000000 0.589897 0.028161
1.000000 0.588409 0.024143
1.000000 0.586705 0.021737
0.000000 0.684386 0.068944
0.000000 0.682637 0.066880
0.062810 0.681149 0.062862
0.141508 0.679661 0.058844
0.220206 0.678172 0.054825
0.298903 0.676684 0.050807
0.377601 0.675196 0.046789
0.456298 0.673708 0.042771
0.534996 0.672220 0.038753
0.613694 0.670731 0.034735
0.692391 0.669243 0.030717
0.771089 0.667755 0.026698
0.849787 0.666267 0.022680
0.928484 0.664779 0.018662
1.000000 0.663290 0.014644
1.000000 0.661802 0.010626
1.000000 0.660125 0.008028
0.000000 0.757805 0.055235
0.000000 0.756031 0.053363
0.063812 0.754542 0.049344
0.142509 0.753054 0.045326
0.221207 0.751566 0.041308
0.299904 0.750078 0.037290
0.378602 0.748590 0.033272
0.457300 0.747101 0.029254
0.535997 0.745613 0.025236
0.614695 0.744125 0.021217
0.693393 0.742637 0.017199
0.772090 0.741149 0.013181
0.850788 0.739660 0.009163
0.929486 0.738172 0.005145
1.000000 0.736684 0.001127
1.000000 0.735196 0.000000
1.000000 0.733544 0.000000
0.000000 0.831224 0.041526
0.000000 0.829424 0.039845
0.064813 0.827936 0.035827
0.143510 0.826448 0.031809
0.222208 0.824960 0.027791
0.300906 0.823471 0.023773
0.379603 0.821983 0.019755
0.458301 0.820495 0.015736
0.536999 0.819007 0.011718
0.615696 0.817519 0.007700
0.694394 0.816030 0.003682
0.773092 0.814542 0.000000
0.851789 0.813054 0.000000
0.930487 0.811566 0.000000
1.000000 0.810078 0.000000
1.000000 0.808589 0.000000
1.000000 0.806963 0.000000
0.000000 0.904643 0.027817
0.000000 0.902829 0.026242
0.065814 0.901330 0.022310
0.144512 0.899841 0.018292
0.223209 0.898353 0.014274
0.301907 0.896865 0.010255
0.380605 0.895377 0.006237
0.459302 0.893889 0.002219
0.538000 0.892400 0.000000
0.616698 0.890912 0.000000
0.695395 0.889424 0.000000
0.774093 0.887936 0.000000
0.852790 0.886448 0.000000
0.931488 0.884959 0.000000
1.000000 0.883471 0.000000
1.000000 0.881983 0.000000
1.000000 0.880382 0.000000
0.000000 0.978062 0.014108
0.000000 0.976248 0.012533
0.066815 0.974723 0.008793
0.145513 0.973235 0.004774
0.224211 0.971747 0.000756
0.302908 0.970259 0.000000
0.381606 0.968770 0.000000
0.460304 0.967282 0.000000
0.539001 0.965794 0.000000
0.617699 0.964306 0.000000
0.696396 0.962818 0.000000
0.775094 0.961329 0.000000
0.853792 0.959841 0.000000
0.932489 0.958353 0.000000
1.000000 0.956865 0.000000
1.000000 0.955377 0.000000
1.000000 0.953801 0.000000
0.004468 1.000000 0.000399
0.004271 1.000000 0.000000
0.067817 1.000000 0.000000
0.146514 1.000000 0.000000
0.225212 1.000000 0.000000
0.303910 1.000000 0.000000
0.382607 1.000000 0.000000
0.461305 1.000000 0.000000
0.540002 1.000000 0.000000
0.618700 1.000000 0.000000
0.697398 1.000000 0.000000
0.776095 1.000000 0.000000
0.854793 1.000000 0.000000
0.933491 1.000000 0.000000
1.000000 1.000000 0.000000
1.000000 1.000000 0.000000
1.000000 1.000000 0.000000
0.007944 1.000000 0.000000
0.007926 1.000000 0.000000
0.065464 1.000000 0.000000
0.144341 1.000000 0.000000
0.223217 1.000000 0.000000
0.302094 1.000000 0.000000
0.380970 1.000000 0.000000
0.459847 1.000000 0.000000
0.538723 1.000000 0.000000
0.617600 1.000000 0.000000
0.696476 1.000000 0.000000
0.775352 1.000000 0.000000
0.854229 1.000000 0.000000
0.933105 1.000000 0.000000
1.000000 1.000000 0.000000
1.000000 1.000000 0.000000
1.000000 1.000000 0.000000
0.000000 0.000000 0.282853
0.000000 0.000000 0.278701
0.053438 0.000000 0.274492
0.132315 0.000000 0.270282
0.211191 0.000000 0.266072
0.290068 0.000000 0.261862
0.368944 0.000000 0.257653
0.447821 0.000000 0.253443
0.526697 0.000000 0.249233
0.605573 0.000000 0.245024
0.684450 0.000000 0.240814
0.763326 0.000000 0.236604
0.842203 0.000000 0.232394
0.921079 0.000000 0.228185
0.999956 0.000000 0.223975
