assets/luts/bright.cube
# Bright — Studio filter "bright"
# Generated by scripts/generate-filter-luts.mjs — do not edit by hand.
LUT_3D_SIZE 5
DOMAIN_MIN 0.0 0.0 0.0
DOMAIN_MAX 1.0 1.0 1.0
0.000000 0.000000 0.000000
0.287118 0.000000 0.000000
0.555509 0.000000 0.000000
0.808516 0.000000 0.000000
1.000000 0.000000 0.000000
0.000000 0.281522 0.000000
0.279155 0.279155 0.000000
0.547546 0.276942 0.000000
0.800552 0.274856 0.000000
1.000000 0.273018 0.000000
0.000000 0.544682 0.000000
0.271711 0.542315 0.000000
0.540102 0.540102 0.000000
0.793109 0.538016 0.000000
1.000000 0.536178 0.000000
0.000000 0.792757 0.000000
0.264694 0.790390 0.000000
0.533085 0.788178 0.000000
0.786092 0.786092 0.000000
1.000000 0.784253 0.000000
0.000000 1.000000 0.000000
0.258510 1.000000 0.000000
0.526901 1.000000 0.000000
0.779908 1.000000 0.000000
1.000000 1.000000 0.000000
0.000000 0.000000 0.288681
0.286314 0.000000 0.286314
0.554705 0.000000 0.284101
0.807712 0.000000 0.282015
1.000000 0.000000 0.280177
0.000000 0.280718 0.280718
0.278351 0.278351 0.278351
0.546742 0.276138 0.276138
0.799749 0.274052 0.274052
1.000000 0.272214 0.272214
0.000000 0.543878 0.273274
0.270907 0.541511 0.270907
0.539298 0.539298 0.268694
0.792305 0.537212 0.266608
1.000000 0.535374 0.264770
0.000000 0.791954 0.266257
0.263890 0.789586 0.263890
0.532281 0.787374 0.261677
0.785288 0.785288 0.259591
1.000000 0.783450 0.257753
0.000000 1.000000 0.260073
0.257706 1.000000 0.257706
0.526097 1.000000 0.255493
0.779104 1.000000 0.253407
1.000000 1.000000 0.251569
0.000000 0.000000 0.558533
0.285562 0.000000 0.556166
0.553953 0.000000 0.553953
0.806960 0.000000 0.551867
1.000000 0.000000 0.550029
0.000000 0.279966 0.550570
0.277599 0.277599 0.548203
0.545990 0.275387 0.545990
0.798997 0.273301 0.543904
1.000000 0.271462 0.542066
0.000000 0.543126 0.543126
0.270156 0.540759 0.540759
0.538547 0.538547 0.538547
0.791553 0.536461 0.536461
1.000000 0.534622 0.534622
0.000000 0.791202 0.536109
0.263139 0.788835 0.533742
0.531529 0.786622 0.531529
0.784536 0.784536 0.529444
1.000000 0.782698 0.527605
0.000000 1.000000 0.529925
0.256954 1.000000 0.527558
0.525345 1.000000 0.525345
0.778352 1.000000 0.523259
1.000000 1.000000 0.521421
0.000000 0.000000 0.812917
0.284854 0.000000 0.810550
0.553245 0.000000 0.808338
0.806252 0.000000 0.806252
1.000000 0.000000 0.804413
0.000000 0.279258 0.804954
0.276891 0.276891 0.802587
0.545282 0.274678 0.800375
0.798289 0.272592 0.798289
1.000000 0.270754 0.796450
0.000000 0.542418 0.797511
0.269447 0.540051 0.795144
0.537838 0.537838 0.792931
0.790845 0.535752 0.790845
1.000000 0.533914 0.789007
0.000000 0.790494 0.790494
0.262430 0.788127 0.788127
0.530821 0.785914 0.785914
0.783828 0.783828 0.783828
1.000000 0.781990 0.781990
0.000000 1.000000 0.784309
0.256246 1.000000 0.781942
0.524637 1.000000 0.779730
0.777644 1.000000 0.777644
1.000000 1.000000 0.775805
0.000000 0.000000 1.000000
0.284230 0.000000 1.000000
0.552621 0.000000 1.000000
0.805628 0.000000 1.000000
1.000000 0.000000 1.000000
0.000000 0.278634 1.000000
0.276267 0.276267 1.000000
0.544658 0.274054 1.000000
0.797664 0.271968 1.000000
1.000000 0.270130 1.000000
0.000000 0.541794 1.000000
0.268823 0.539427 1.000000
0.537214 0.537214 1.000000
0.790221 0.535128 1.000000
1.000000 0.533290 1.000000
0.000000 0.789869 1.000000
0.261806 0.787502 1.000000
0.530197 0.785290 1.000000
0.783204 0.783204 1.000000
1.000000 0.781365 1.000000
0.000000 1.000000 1.000000
0.255622 1.000000 1.000000
0.524013 1.000000 1.000000
0.777020 1.000000 1.000000
1.000000 1.000000 1.000000
