assets/luts/bright.cube
# Bright — Studio filter "bright"
# Generated by scripts/generate-filter-luts.mjs — do not edit by hand.
LUT_3D_SIZE 17
DOMAIN_MIN 0.0 0.0 0.0
DOMAIN_MAX 1.0 1.0 1.0
0.000000 0.000000 0.000000
0.079100 0.000000 0.000000
0.149738 0.000000 0.000000
0.218767 0.000000 0.000000
0.287118 0.000000 0.000000
0.355022 0.000000 0.000000
0.422473 0.000000 0.000000
0.489358 0.000000 0.000000
0.555509 0.000000 0.000000
0.620725 0.000000 0.000000
0.684787 0.000000 0.000000
0.747464 0.000000 0.000000
0.808516 0.000000 0.000000
0.867696 0.000000 0.000000
0.924756 0.000000 0.000000
0.979441 0.000000 0.000000
1.000000 0.000000 0.000000
0.000000 0.077559 0.000000
0.076906 0.076906 0.000000
0.147544 0.076324 0.000000
0.216573 0.075755 0.000000
0.284924 0.075192 0.000000
0.352828 0.074632 0.000000
0.420279 0.074076 0.000000
0.487164 0.073524 0.000000
0.553315 0.072979 0.000000
0.618531 0.072441 0.000000
0.682593 0.071913 0.000000
0.745270 0.071396 0.000000
0.806322 0.070893 0.000000
0.865502 0.070405 0.000000
0.922562 0.069935 0.000000
0.977247 0.069484 0.000000
1.000000 0.069055 0.000000
0.000000 0.146819 0.000000
0.074947 0.146167 0.000000
0.145585 0.145585 0.000000
0.214614 0.145016 0.000000
0.282965 0.144452 0.000000
0.350869 0.143892 0.000000
0.418320 0.143336 0.000000
0.485205 0.142785 0.000000
0.551356 0.142240 0.000000
0.616572 0.141702 0.000000
0.680634 0.141174 0.000000
0.743311 0.140657 0.000000
0.804363 0.140154 0.000000
0.863543 0.139666 0.000000
0.920603 0.139195 0.000000
0.975288 0.138745 0.000000
1.000000 0.138315 0.000000
0.000000 0.214503 0.000000
0.073033 0.213851 0.000000
0.143670 0.213269 0.000000
0.212700 0.212700 0.000000
0.281050 0.212136 0.000000
0.348954 0.211576 0.000000
0.416405 0.211020 0.000000
0.483291 0.210469 0.000000
0.549441 0.209923 0.000000
0.614657 0.209386 0.000000
0.678720 0.208857 0.000000
0.741397 0.208341 0.000000
0.802448 0.207837 0.000000
0.861629 0.207350 0.000000
0.918688 0.206879 0.000000
0.973374 0.206428 0.000000
1.000000 0.205999 0.000000
0.000000 0.281522 0.000000
0.071137 0.280870 0.000000
0.141775 0.280287 0.000000
0.210804 0.279718 0.000000
0.279155 0.279155 0.000000
0.347059 0.278595 0.000000
0.414510 0.278039 0.000000
0.481395 0.277487 0.000000
0.547546 0.276942 0.000000
0.612762 0.276404 0.000000
0.676824 0.275876 0.000000
0.739501 0.275359 0.000000
0.800552 0.274856 0.000000
0.859733 0.274368 0.000000
0.916793 0.273898 0.000000
0.971478 0.273447 0.000000
1.000000 0.273018 0.000000
0.000000 0.348102 0.000000
0.069254 0.347450 0.000000
0.139891 0.346868 0.000000
0.208921 0.346299 0.000000
0.277271 0.345735 0.000000
0.345175 0.345175 0.000000
0.412626 0.344619 0.000000
0.479512 0.344068 0.000000
0.545662 0.343522 0.000000
0.610878 0.342985 0.000000
0.674941 0.342457 0.000000
0.737618 0.341940 0.000000
0.798669 0.341437 0.000000
0.857850 0.340949 0.000000
0.914909 0.340478 0.000000
0.969595 0.340027 0.000000
1.000000 0.339598 0.000000
0.000000 0.414239 0.000000
0.067383 0.413587 0.000000
0.138021 0.413004 0.000000
0.207050 0.412435 0.000000
0.275401 0.411872 0.000000
0.343305 0.411312 0.000000
0.410756 0.410756 0.000000
0.477641 0.410204 0.000000
0.543792 0.409659 0.000000
0.609008 0.409121 0.000000
0.673070 0.408593 0.000000
0.735747 0.408076 0.000000
0.796798 0.407573 0.000000
0.855979 0.407085 0.000000
0.913039 0.406615 0.000000
0.967724 0.406164 0.000000
1.000000 0.405735 0.000000
0.000000 0.479820 0.000000
0.065528 0.479168 0.000000
0.136166 0.478586 0.000000
0.205195 0.478017 0.000000
0.273546 0.477453 0.000000
0.341450 0.476893 0.000000
0.408901 0.476337 0.000000
0.475786 0.475786 0.000000
0.541936 0.475240 0.000000
0.607153 0.474703 0.000000
0.671215 0.474175 0.000000
0.733892 0.473658 0.000000
0.794943 0.473155 0.000000
0.854124 0.472667 0.000000
0.911184 0.472196 0.000000
0.965869 0.471745 0.000000
1.000000 0.471316 0.000000
0.000000 0.544682 0.000000
0.063694 0.544030 0.000000
0.134331 0.543447 0.000000
0.203360 0.542878 0.000000
0.271711 0.542315 0.000000
0.339615 0.541755 0.000000
0.407066 0.541199 0.000000
0.473951 0.540647 0.000000
0.540102 0.540102 0.000000
0.605318 0.539564 0.000000
0.669380 0.539036 0.000000
0.732057 0.538519 0.000000
0.793109 0.538016 0.000000
0.852289 0.537528 0.000000
0.909349 0.537058 0.000000
0.964034 0.536607 0.000000
1.000000 0.536178 0.000000
0.000000 0.608627 0.000000
0.061885 0.607975 0.000000
0.132522 0.607392 0.000000
0.201551 0.606823 0.000000
0.269902 0.606260 0.000000
0.337806 0.605700 0.000000
0.405257 0.605144 0.000000
0.472142 0.604592 0.000000
0.538293 0.604047 0.000000
0.603509 0.603509 0.000000
0.667572 0.602981 0.000000
0.730248 0.602464 0.000000
0.791300 0.601961 0.000000
0.850481 0.601473 0.000000
0.907540 0.601003 0.000000
0.962226 0.600552 0.000000
1.000000 0.600123 0.000000
0.000000 0.671440 0.000000
0.060108 0.670788 0.000000
0.130746 0.670206 0.000000
0.199775 0.669637 0.000000
0.268125 0.669073 0.000000
0.336029 0.668514 0.000000
0.403481 0.667957 0.000000
0.470366 0.667406 0.000000
0.536516 0.666861 0.000000
0.601733 0.666323 0.000000
0.665795 0.665795 0.000000
0.728472 0.665278 0.000000
0.789523 0.664775 0.000000
0.848704 0.664287 0.000000
0.905763 0.663816 0.000000
0.960449 0.663366 0.000000
1.000000 0.662936 0.000000
0.000000 0.732896 0.000000
0.058370 0.732244 0.000000
0.129007 0.731661 0.000000
0.198036 0.731092 0.000000
0.266387 0.730529 0.000000
0.334291 0.729969 0.000000
0.401742 0.729413 0.000000
0.468627 0.728861 0.000000
0.534778 0.728316 0.000000
0.599994 0.727778 0.000000
0.664057 0.727250 0.000000
0.726733 0.726733 0.000000
0.787785 0.726230 0.000000
0.846966 0.725742 0.000000
0.904025 0.725272 0.000000
0.958710 0.724821 0.000000
1.000000 0.724392 0.000000
0.000000 0.792757 0.000000
0.056677 0.792105 0.000000
0.127314 0.791523 0.000000
0.196343 0.790954 0.000000
0.264694 0.790390 0.000000
0.332598 0.789831 0.000000
0.400049 0.789274 0.000000
0.466934 0.788723 0.000000
0.533085 0.788178 0.000000
0.598301 0.787640 0.000000
0.662363 0.787112 0.000000
0.725040 0.786595 0.000000
0.786092 0.786092 0.000000
0.845272 0.785604 0.000000
0.902332 0.785133 0.000000
0.957017 0.784683 0.000000
1.000000 0.784253 0.000000
0.000000 0.850785 0.000000
0.055035 0.850132 0.000000
0.125673 0.849550 0.000000
0.194702 0.848981 0.000000
0.263053 0.848417 0.000000
0.330957 0.847858 0.000000
0.398408 0.847302 0.000000
0.465293 0.846750 0.000000
0.531443 0.846205 0.000000
0.596660 0.845667 0.000000
0.660722 0.845139 0.000000
0.723399 0.844622 0.000000
0.784450 0.844119 0.000000
0.843631 0.843631 0.000000
0.900691 0.843161 0.000000
0.955376 0.842710 0.000000
1.000000 0.842281 0.000000
0.000000 0.906732 0.000000
0.053453 0.906080 0.000000
0.124090 0.905498 0.000000
0.193119 0.904928 0.000000
0.261470 0.904365 0.000000
0.329374 0.903805 0.000000
0.396825 0.903249 0.000000
0.463710 0.902698 0.000000
0.529861 0.902152 0.000000
0.595077 0.901615 0.000000
0.659139 0.901086 0.000000
0.721816 0.900570 0.000000
0.782868 0.900066 0.000000
0.842048 0.899578 0.000000
0.899108 0.899108 0.000000
0.953793 0.898657 0.000000
1.000000 0.898228 0.000000
0.000000 0.960352 0.000000
0.051936 0.959699 0.000000
0.122574 0.959117 0.000000
0.191603 0.958548 0.000000
0.259953 0.957984 0.000000
0.327857 0.957425 0.000000
0.395309 0.956869 0.000000
0.462194 0.956317 0.000000
0.528344 0.955772 0.000000
0.593560 0.955234 0.000000
0.657623 0.954706 0.000000
0.720300 0.954189 0.000000
0.781351 0.953686 0.000000
0.840532 0.953198 0.000000
0.897591 0.952728 0.000000
0.952277 0.952277 0.000000
1.000000 0.951848 0.000000
0.000000 1.000000 0.000000
0.050492 1.000000 0.000000
0.121130 1.000000 0.000000
0.190159 1.000000 0.000000
0.258510 1.000000 0.000000
0.326414 1.000000 0.000000
0.393865 1.000000 0.000000
0.460750 1.000000 0.000000
0.526901 1.000000 0.000000
0.592117 1.000000 0.000000
0.656179 1.000000 0.000000
0.718856 1.000000 0.000000
0.779908 1.000000 0.000000
0.839088 1.000000 0.000000
0.896148 1.000000 0.000000
0.950833 1.000000 0.000000
1.000000 1.000000 0.000000
0.000000 0.000000 0.079531
0.078879 0.000000 0.078879
0.149516 0.000000 0.078296
0.218545 0.000000 0.077727
0.286896 0.000000 0.077164
0.354800 0.000000 0.076604
0.422251 0.000000 0.076048
0.489136 0.000000 0.075497
0.555287 0.000000 0.074951
0.620503 0.000000 0.074414
0.684566 0.000000 0.073885
0.747242 0.000000 0.073369
0.808294 0.000000 0.072865
0.867475 0.000000 0.072377
0.924534 0.000000 0.071907
0.979220 0.000000 0.071456
1.000000 0.000000 0.071027
0.000000 0.077337 0.077337
0.076685 0.076685 0.076685
0.147323 0.076103 0.076103
0.216352 0.075534 0.075534
0.284702 0.074970 0.074970
0.352606 0.074410 0.074410
0.420058 0.073854 0.073854
0.486943 0.073303 0.073303
0.553093 0.072757 0.072757
0.618309 0.072220 0.072220
0.682372 0.071692 0.071692
0.745049 0.071175 0.071175
0.806100 0.070671 0.070671
0.865281 0.070184 0.070184
0.922340 0.069713 0.069713
0.977026 0.069262 0.069262
1.000000 0.068833 0.068833
0.000000 0.146598 0.075378
0.074726 0.145946 0.074726
0.145363 0.145363 0.074144
0.214393 0.144794 0.073574
0.282743 0.144231 0.073011
0.350647 0.143671 0.072451
0.418098 0.143115 0.071895
0.484984 0.142563 0.071344
0.551134 0.142018 0.070798
0.616350 0.141480 0.070261
0.680413 0.140952 0.069732
0.743090 0.140436 0.069216
0.804141 0.139932 0.068712
0.863322 0.139444 0.068224
0.920381 0.138974 0.067754
0.975067 0.138523 0.067303
1.000000 0.138094 0.066874
0.000000 0.214282 0.073464
0.072811 0.213630 0.072811
0.143449 0.213047 0.072229
0.212478 0.212478 0.071660
0.280829 0.211915 0.071096
0.348733 0.211355 0.070537
0.416184 0.210799 0.069981
0.483069 0.210247 0.069429
0.549220 0.209702 0.068884
0.614436 0.209164 0.068346
0.678498 0.208636 0.067818
0.741175 0.208119 0.067301
0.802227 0.207616 0.066798
0.861407 0.207128 0.066310
0.918467 0.206658 0.065840
0.973152 0.206207 0.065389
1.000000 0.205778 0.064960
0.000000 0.281300 0.071568
0.070916 0.280648 0.070916
0.141553 0.280066 0.070333
0.210582 0.279497 0.069764
0.278933 0.278933 0.069201
0.346837 0.278373 0.068641
0.414288 0.277817 0.068085
0.481173 0.277266 0.067533
0.547324 0.276720 0.066988
0.612540 0.276183 0.066450
0.676603 0.275655 0.065922
0.739279 0.275138 0.065406
0.800331 0.274635 0.064902
0.859512 0.274147 0.064414
0.916571 0.273676 0.063944
0.971256 0.273225 0.063493
1.000000 0.272796 0.063064
0.000000 0.347881 0.069685
0.069032 0.347229 0.069032
0.139670 0.346646 0.068450
0.208699 0.346077 0.067881
0.277050 0.345514 0.067318
0.344954 0.344954 0.066758
0.412405 0.344398 0.066202
0.479290 0.343846 0.065650
0.545441 0.343301 0.065105
0.610657 0.342763 0.064567
0.674719 0.342235 0.064039
0.737396 0.341718 0.063522
0.798448 0.341215 0.063019
0.857628 0.340727 0.062531
0.914688 0.340257 0.062061
0.969373 0.339806 0.061610
1.000000 0.339377 0.061181
0.000000 0.414017 0.067814
0.067162 0.413365 0.067162
0.137799 0.412783 0.066579
0.206828 0.412214 0.066010
0.275179 0.411650 0.065447
0.343083 0.411090 0.064887
0.410534 0.410534 0.064331
0.477419 0.409983 0.063779
0.543570 0.409437 0.063234
0.608786 0.408900 0.062696
0.672849 0.408372 0.062168
0.735525 0.407855 0.061652
0.796577 0.407352 0.061148
0.855758 0.406864 0.060660
0.912817 0.406393 0.060190
0.967502 0.405942 0.059739
1.000000 0.405513 0.059310
0.000000 0.479599 0.065959
0.065307 0.478947 0.065307
0.135944 0.478364 0.064724
0.204973 0.477795 0.064155
0.273324 0.477232 0.063592
0.341228 0.476672 0.063032
0.408679 0.476116 0.062476
0.475564 0.475564 0.061924
0.541715 0.475019 0.061379
0.606931 0.474481 0.060841
0.670994 0.473953 0.060313
0.733670 0.473436 0.059797
0.794722 0.472933 0.059293
0.853903 0.472445 0.058805
0.910962 0.471975 0.058335
0.965647 0.471524 0.057884
1.000000 0.471095 0.057455
0.000000 0.544460 0.064124
0.063472 0.543808 0.063472
0.134110 0.543226 0.062890
0.203139 0.542657 0.062321
0.271489 0.542093 0.061757
0.339393 0.541533 0.061197
0.406845 0.540977 0.060641
0.473730 0.540426 0.060090
0.539880 0.539880 0.059544
0.605097 0.539343 0.059007
0.669159 0.538815 0.058479
0.731836 0.538298 0.057962
0.792887 0.537794 0.057459
0.852068 0.537307 0.056971
0.909127 0.536836 0.056500
0.963813 0.536385 0.056049
1.000000 0.535956 0.055620
0.000000 0.608405 0.062315
0.061663 0.607753 0.061663
0.132301 0.607171 0.061081
0.201330 0.606602 0.060512
0.269681 0.606038 0.059948
0.337585 0.605478 0.059389
0.405036 0.604922 0.058832
0.471921 0.604371 0.058281
0.538072 0.603825 0.057736
0.603288 0.603288 0.057198
0.667350 0.602760 0.056670
0.730027 0.602243 0.056153
0.791079 0.601740 0.055650
0.850259 0.601252 0.055162
0.907319 0.600781 0.054691
0.962004 0.600330 0.054241
1.000000 0.599901 0.053811
0.000000 0.671219 0.060539
0.059887 0.670567 0.059887
0.130524 0.669985 0.059304
0.199553 0.669415 0.058735
0.267904 0.668852 0.058172
0.335808 0.668292 0.057612
0.403259 0.667736 0.057056
0.470144 0.667185 0.056504
0.536295 0.666639 0.055959
0.601511 0.666102 0.055421
0.665573 0.665573 0.054893
0.728250 0.665057 0.054376
0.789302 0.664553 0.053873
0.848482 0.664065 0.053385
0.905542 0.663595 0.052915
0.960227 0.663144 0.052464
1.000000 0.662715 0.052035
0.000000 0.732674 0.058800
0.058148 0.732022 0.058148
0.128786 0.731440 0.057566
0.197815 0.730871 0.056997
0.266166 0.730307 0.056433
0.334070 0.729747 0.055874
0.401521 0.729191 0.055317
0.468406 0.728640 0.054766
0.534557 0.728095 0.054221
0.599773 0.727557 0.053683
0.663835 0.727029 0.053155
0.726512 0.726512 0.052638
0.787564 0.726009 0.052135
0.846744 0.725521 0.051647
0.903804 0.725050 0.051176
0.958489 0.724599 0.050726
1.000000 0.724170 0.050296
0.000000 0.792536 0.057107
0.056455 0.791884 0.056455
0.127093 0.791301 0.055873
0.196122 0.790732 0.055304
0.264472 0.790169 0.054740
0.332376 0.789609 0.054180
0.399828 0.789053 0.053624
0.466713 0.788502 0.053073
0.532863 0.787956 0.052527
0.598080 0.787419 0.051990
0.662142 0.786890 0.051462
0.724819 0.786374 0.050945
0.785870 0.785870 0.050442
0.845051 0.785382 0.049954
0.902110 0.784912 0.049483
0.956796 0.784461 0.049032
1.000000 0.784032 0.048603
0.000000 0.850563 0.055466
0.054814 0.849911 0.054814
0.125451 0.849329 0.054231
0.194480 0.848759 0.053662
0.262831 0.848196 0.053099
0.330735 0.847636 0.052539
0.398186 0.847080 0.051983
0.465071 0.846529 0.051431
0.531222 0.845983 0.050886
0.596438 0.845446 0.050348
0.660500 0.844917 0.049820
0.723177 0.844401 0.049304
0.784229 0.843897 0.048800
0.843410 0.843410 0.048312
0.900469 0.842939 0.047842
0.955154 0.842488 0.047391
1.000000 0.842059 0.046962
0.000000 0.906511 0.053883
0.053231 0.905858 0.053231
0.123869 0.905276 0.052649
0.192898 0.904707 0.052080
0.261249 0.904143 0.051516
0.329153 0.903584 0.050956
0.396604 0.903028 0.050400
0.463489 0.902476 0.049849
0.529639 0.901931 0.049304
0.594856 0.901393 0.048766
0.658918 0.900865 0.048238
0.721595 0.900348 0.047721
0.782646 0.899845 0.047218
0.841827 0.899357 0.046730
0.898887 0.898887 0.046259
0.953572 0.898436 0.045809
1.000000 0.898007 0.045379
0.000000 0.960130 0.052367
0.051715 0.959478 0.051715
0.122352 0.958896 0.051132
0.191381 0.958327 0.050563
0.259732 0.957763 0.050000
0.327636 0.957203 0.049440
0.395087 0.956647 0.048884
0.461972 0.956096 0.048332
0.528123 0.955550 0.047787
0.593339 0.955013 0.047249
0.657401 0.954484 0.046721
0.720078 0.953968 0.046204
0.781130 0.953464 0.045701
0.840310 0.952977 0.045213
0.897370 0.952506 0.044743
0.952055 0.952055 0.044292
1.000000 0.951626 0.043863
0.000000 1.000000 0.050923
0.050271 1.000000 0.050271
0.120908 1.000000 0.049688
0.189937 1.000000 0.049119
0.258288 1.000000 0.048556
0.326192 1.000000 0.047996
0.393643 1.000000 0.047440
0.460528 1.000000 0.046889
0.526679 1.000000 0.046343
0.591895 1.000000 0.045806
0.655958 1.000000 0.045277
0.718634 1.000000 0.044761
0.779686 1.000000 0.044257
0.838867 1.000000 0.043769
0.895926 1.000000 0.043299
0.950612 1.000000 0.042848
1.000000 1.000000 0.042419
0.000000 0.000000 0.150553
0.078681 0.000000 0.149901
0.149319 0.000000 0.149319
0.218348 0.000000 0.148749
0.286698 0.000000 0.148186
0.354602 0.000000 0.147626
0.422054 0.000000 0.147070
0.488939 0.000000 0.146519
0.555089 0.000000 0.145973
0.620305 0.000000 0.145436
0.684368 0.000000 0.144907
0.747045 0.000000 0.144391
0.808096 0.000000 0.143887
0.867277 0.000000 0.143399
0.924336 0.000000 0.142929
0.979022 0.000000 0.142478
1.000000 0.000000 0.142049
0.000000 0.077139 0.148359
0.076487 0.076487 0.147707
0.147125 0.075905 0.147125
0.216154 0.075336 0.146556
0.284505 0.074772 0.145992
0.352409 0.074212 0.145432
0.419860 0.073656 0.144876
0.486745 0.073105 0.144325
0.552896 0.072560 0.143779
0.618112 0.072022 0.143242
0.682174 0.071494 0.142714
0.744851 0.070977 0.142197
0.805902 0.070474 0.141694
0.865083 0.069986 0.141206
0.922143 0.069515 0.140735
0.976828 0.069065 0.140284
1.000000 0.068635 0.139855
0.000000 0.146400 0.146400
0.074528 0.145748 0.145748
0.145166 0.145166 0.145166
0.214195 0.144597 0.144597
0.282545 0.144033 0.144033
0.350450 0.143473 0.143473
0.417901 0.142917 0.142917
0.484786 0.142366 0.142366
0.550936 0.141820 0.141820
0.616153 0.141283 0.141283
0.680215 0.140755 0.140755
0.742892 0.140238 0.140238
0.803943 0.139734 0.139734
0.863124 0.139247 0.139247
0.920184 0.138776 0.138776
0.974869 0.138325 0.138325
1.000000 0.137896 0.137896
0.000000 0.214084 0.144486
0.072614 0.213432 0.143834
0.143251 0.212849 0.143251
0.212280 0.212280 0.142682
0.280631 0.211717 0.142119
0.348535 0.211157 0.141559
0.415986 0.210601 0.141003
0.482871 0.210049 0.140451
0.549022 0.209504 0.139906
0.614238 0.208966 0.139368
0.678300 0.208438 0.138840
0.740977 0.207922 0.138323
0.802029 0.207418 0.137820
0.861209 0.206930 0.137332
0.918269 0.206460 0.136862
0.972954 0.206009 0.136411
1.000000 0.205580 0.135982
0.000000 0.281102 0.142590
0.070718 0.280450 0.141938
0.141355 0.279868 0.141355
0.210385 0.279299 0.140786
0.278735 0.278735 0.140223
0.346639 0.278176 0.139663
0.414090 0.277619 0.139107
0.480976 0.277068 0.138556
0.547126 0.276523 0.138010
0.612342 0.275985 0.137473
0.676405 0.275457 0.136944
0.739082 0.274940 0.136428
0.800133 0.274437 0.135924
0.859314 0.273949 0.135436
0.916373 0.273478 0.134966
0.971059 0.273028 0.134515
1.000000 0.272598 0.134086
0.000000 0.347683 0.140707
0.068835 0.347031 0.140055
0.139472 0.346449 0.139472
0.208501 0.345879 0.138903
0.276852 0.345316 0.138340
0.344756 0.344756 0.137780
0.412207 0.344200 0.137224
0.479092 0.343649 0.136672
0.545243 0.343103 0.136127
0.610459 0.342566 0.135589
0.674521 0.342037 0.135061
0.737198 0.341521 0.134544
0.798250 0.341017 0.134041
0.857430 0.340529 0.133553
0.914490 0.340059 0.133083
0.969175 0.339608 0.132632
1.000000 0.339179 0.132203
0.000000 0.413819 0.138836
0.066964 0.413167 0.138184
0.137601 0.412585 0.137601
0.206631 0.412016 0.137032
0.274981 0.411452 0.136469
0.342885 0.410893 0.135909
0.410336 0.410336 0.135353
0.477222 0.409785 0.134802
0.543372 0.409240 0.134256
0.608588 0.408702 0.133719
0.672651 0.408174 0.133190
0.735328 0.407657 0.132674
0.796379 0.407154 0.132170
0.855560 0.406666 0.131682
0.912619 0.406196 0.131212
0.967305 0.405745 0.130761
1.000000 0.405315 0.130332
0.000000 0.479401 0.136981
0.065109 0.478749 0.136329
0.135746 0.478167 0.135746
0.204776 0.477597 0.135177
0.273126 0.477034 0.134614
0.341030 0.476474 0.134054
0.408481 0.475918 0.133498
0.475367 0.475367 0.132947
0.541517 0.474821 0.132401
0.606733 0.474284 0.131863
0.670796 0.473755 0.131335
0.733473 0.473239 0.130819
0.794524 0.472735 0.130315
0.853705 0.472247 0.129827
0.910764 0.471777 0.129357
0.965450 0.471326 0.128906
1.000000 0.470897 0.128477
0.000000 0.544262 0.135146
0.063274 0.543610 0.134494
0.133912 0.543028 0.133912
0.202941 0.542459 0.133343
0.271292 0.541895 0.132779
0.339196 0.541335 0.132219
0.406647 0.540779 0.131663
0.473532 0.540228 0.131112
0.539683 0.539683 0.130566
0.604899 0.539145 0.130029
0.668961 0.538617 0.129501
0.731638 0.538100 0.128984
0.792690 0.537597 0.128481
0.851870 0.537109 0.127993
0.908930 0.536638 0.127522
0.963615 0.536188 0.127071
1.000000 0.535758 0.126642
0.000000 0.608207 0.133338
0.061466 0.607555 0.132685
0.132103 0.606973 0.132103
0.201132 0.606404 0.131534
0.269483 0.605840 0.130970
0.337387 0.605281 0.130411
0.404838 0.604724 0.129855
0.471723 0.604173 0.129303
0.537874 0.603628 0.128758
0.603090 0.603090 0.128220
0.667152 0.602562 0.127692
0.729829 0.602045 0.127175
0.790881 0.601542 0.126672
0.850061 0.601054 0.126184
0.907121 0.600583 0.125714
0.961806 0.600133 0.125263
1.000000 0.599703 0.124834
0.000000 0.671021 0.131561
0.059689 0.670369 0.130909
0.130326 0.669787 0.130326
0.199355 0.669218 0.129757
0.267706 0.668654 0.129194
0.335610 0.668094 0.128634
0.403061 0.667538 0.128078
0.469946 0.666987 0.127526
0.536097 0.666441 0.126981
0.601313 0.665904 0.126443
0.665376 0.665376 0.125915
0.728052 0.664859 0.125398
0.789104 0.664356 0.124895
0.848285 0.663868 0.124407
0.905344 0.663397 0.123937
0.960030 0.662946 0.123486
1.000000 0.662517 0.123057
0.000000 0.732477 0.129823
0.057951 0.731824 0.129170
0.128588 0.731242 0.128588
0.197617 0.730673 0.128019
0.265968 0.730109 0.127455
0.333872 0.729550 0.126896
0.401323 0.728994 0.126340
0.468208 0.728442 0.125788
0.534359 0.727897 0.125243
0.599575 0.727359 0.124705
0.663637 0.726831 0.124177
0.726314 0.726314 0.123660
0.787366 0.725811 0.123157
0.846546 0.725323 0.122669
0.903606 0.724853 0.122199
0.958291 0.724402 0.121748
1.000000 0.723973 0.121319
0.000000 0.792338 0.128129
0.056257 0.791686 0.127477
0.126895 0.791104 0.126895
0.195924 0.790535 0.126326
0.264275 0.789971 0.125762
0.332179 0.789411 0.125202
0.399630 0.788855 0.124646
0.466515 0.788304 0.124095
0.532666 0.787758 0.123549
0.597882 0.787221 0.123012
0.661944 0.786693 0.122484
0.724621 0.786176 0.121967
0.785673 0.785673 0.121464
0.844853 0.785185 0.120976
0.901913 0.784714 0.120505
0.956598 0.784263 0.120054
1.000000 0.783834 0.119625
0.000000 0.850365 0.126488
0.054616 0.849713 0.125836
0.125253 0.849131 0.125253
0.194283 0.848562 0.124684
0.262633 0.847998 0.124121
0.330537 0.847438 0.123561
0.397988 0.846882 0.123005
0.464874 0.846331 0.122454
0.531024 0.845786 0.121908
0.596240 0.845248 0.121370
0.660303 0.844720 0.120842
0.722980 0.844203 0.120326
0.784031 0.843700 0.119822
0.843212 0.843212 0.119334
0.900271 0.842741 0.118864
0.954957 0.842290 0.118413
1.000000 0.841861 0.117984
0.000000 0.906313 0.124905
0.053033 0.905661 0.124253
0.123671 0.905078 0.123671
0.192700 0.904509 0.123102
0.261051 0.903946 0.122538
0.328955 0.903386 0.121979
0.396406 0.902830 0.121422
0.463291 0.902278 0.120871
0.529442 0.901733 0.120326
0.594658 0.901195 0.119788
0.658720 0.900667 0.119260
0.721397 0.900150 0.118743
0.782449 0.899647 0.118240
0.841629 0.899159 0.117752
0.898689 0.898689 0.117281
0.953374 0.898238 0.116831
1.000000 0.897809 0.116401
0.000000 0.959932 0.123389
0.051517 0.959280 0.122737
0.122154 0.958698 0.122154
0.191183 0.958129 0.121585
0.259534 0.957565 0.121022
0.327438 0.957005 0.120462
0.394889 0.956449 0.119906
0.461774 0.955898 0.119354
0.527925 0.955353 0.118809
0.593141 0.954815 0.118271
0.657204 0.954287 0.117743
0.719880 0.953770 0.117226
0.780932 0.953267 0.116723
0.840113 0.952779 0.116235
0.897172 0.952308 0.115765
0.951857 0.951857 0.115314
1.000000 0.951428 0.114885
0.000000 1.000000 0.121945
0.050073 1.000000 0.121293
0.120711 1.000000 0.120711
0.189740 1.000000 0.120141
0.258090 1.000000 0.119578
0.325994 1.000000 0.119018
0.393446 1.000000 0.118462
0.460331 1.000000 0.117911
0.526481 1.000000 0.117365
0.591697 1.000000 0.116828
0.655760 1.000000 0.116299
0.718437 1.000000 0.115783
0.779488 1.000000 0.115279
0.838669 1.000000 0.114791
0.895728 1.000000 0.114321
0.950414 1.000000 0.113870
1.000000 1.000000 0.113441
0.000000 0.000000 0.219958
0.078488 0.000000 0.219306
0.149125 0.000000 0.218724
0.218154 0.000000 0.218154
0.286505 0.000000 0.217591
0.354409 0.000000 0.217031
0.421860 0.000000 0.216475
0.488745 0.000000 0.215924
0.554896 0.000000 0.215378
0.620112 0.000000 0.214841
0.684175 0.000000 0.214312
0.746851 0.000000 0.213796
0.807903 0.000000 0.213292
0.867084 0.000000 0.212804
0.924143 0.000000 0.212334
