assets/luts/bright.cube
# Bright — Studio filter "bright"
# Generated by scripts/generate-filter-luts.mjs — do not edit by hand.
LUT_3D_SIZE 9
DOMAIN_MIN 0.0 0.0 0.0
DOMAIN_MAX 1.0 1.0 1.0
0.000000 0.000000 0.000000
0.149738 0.000000 0.000000
0.287118 0.000000 0.000000
0.422473 0.000000 0.000000
0.555509 0.000000 0.000000
0.684787 0.000000 0.000000
0.808516 0.000000 0.000000
0.924756 0.000000 0.000000
1.000000 0.000000 0.000000
0.000000 0.146819 0.000000
0.145585 0.145585 0.000000
0.282965 0.144452 0.000000
0.418320 0.143336 0.000000
0.551356 0.142240 0.000000
0.680634 0.141174 0.000000
0.804363 0.140154 0.000000
0.920603 0.139195 0.000000
1.000000 0.138315 0.000000
0.000000 0.281522 0.000000
0.141775 0.280287 0.000000
0.279155 0.279155 0.000000
0.414510 0.278039 0.000000
0.547546 0.276942 0.000000
0.676824 0.275876 0.000000
0.800552 0.274856 0.000000
0.916793 0.273898 0.000000
1.000000 0.273018 0.000000
0.000000 0.414239 0.000000
0.138021 0.413004 0.000000
0.275401 0.411872 0.000000
0.410756 0.410756 0.000000
0.543792 0.409659 0.000000
0.673070 0.408593 0.000000
0.796798 0.407573 0.000000
0.913039 0.406615 0.000000
1.000000 0.405735 0.000000
0.000000 0.544682 0.000000
0.134331 0.543447 0.000000
0.271711 0.542315 0.000000
0.407066 0.541199 0.000000
0.540102 0.540102 0.000000
0.669380 0.539036 0.000000
0.793109 0.538016 0.000000
0.909349 0.537058 0.000000
1.000000 0.536178 0.000000
0.000000 0.671440 0.000000
0.130746 0.670206 0.000000
0.268125 0.669073 0.000000
0.403481 0.667957 0.000000
0.536516 0.666861 0.000000
0.665795 0.665795 0.000000
0.789523 0.664775 0.000000
0.905763 0.663816 0.000000
1.000000 0.662936 0.000000
0.000000 0.792757 0.000000
0.127314 0.791523 0.000000
0.264694 0.790390 0.000000
0.400049 0.789274 0.000000
0.533085 0.788178 0.000000
0.662363 0.787112 0.000000
0.786092 0.786092 0.000000
0.902332 0.785133 0.000000
1.000000 0.784253 0.000000
0.000000 0.906732 0.000000
0.124090 0.905498 0.000000
0.261470 0.904365 0.000000
0.396825 0.903249 0.000000
0.529861 0.902152 0.000000
0.659139 0.901086 0.000000
0.782868 0.900066 0.000000
0.899108 0.899108 0.000000
1.000000 0.898228 0.000000
0.000000 1.000000 0.000000
0.121130 1.000000 0.000000
0.258510 1.000000 0.000000
0.393865 1.000000 0.000000
0.526901 1.000000 0.000000
0.656179 1.000000 0.000000
0.779908 1.000000 0.000000
0.896148 1.000000 0.000000
1.000000 1.000000 0.000000
0.000000 0.000000 0.150553
0.149319 0.000000 0.149319
0.286698 0.000000 0.148186
0.422054 0.000000 0.147070
0.555089 0.000000 0.145973
0.684368 0.000000 0.144907
0.808096 0.000000 0.143887
0.924336 0.000000 0.142929
1.000000 0.000000 0.142049
0.000000 0.146400 0.146400
0.145166 0.145166 0.145166
0.282545 0.144033 0.144033
0.417901 0.142917 0.142917
0.550936 0.141820 0.141820
0.680215 0.140755 0.140755
0.803943 0.139734 0.139734
0.920184 0.138776 0.138776
1.000000 0.137896 0.137896
0.000000 0.281102 0.142590
0.141355 0.279868 0.141355
0.278735 0.278735 0.140223
0.414090 0.277619 0.139107
0.547126 0.276523 0.138010
0.676405 0.275457 0.136944
0.800133 0.274437 0.135924
0.916373 0.273478 0.134966
1.000000 0.272598 0.134086
0.000000 0.413819 0.138836
0.137601 0.412585 0.137601
0.274981 0.411452 0.136469
0.410336 0.410336 0.135353
0.543372 0.409240 0.134256
0.672651 0.408174 0.133190
0.796379 0.407154 0.132170
0.912619 0.406196 0.131212
1.000000 0.405315 0.130332
0.000000 0.544262 0.135146
0.133912 0.543028 0.133912
0.271292 0.541895 0.132779
0.406647 0.540779 0.131663
0.539683 0.539683 0.130566
0.668961 0.538617 0.129501
0.792690 0.537597 0.128481
0.908930 0.536638 0.127522
1.000000 0.535758 0.126642
0.000000 0.671021 0.131561
0.130326 0.669787 0.130326
0.267706 0.668654 0.129194
0.403061 0.667538 0.128078
0.536097 0.666441 0.126981
0.665376 0.665376 0.125915
0.789104 0.664356 0.124895
0.905344 0.663397 0.123937
1.000000 0.662517 0.123057
0.000000 0.792338 0.128129
0.126895 0.791104 0.126895
0.264275 0.789971 0.125762
0.399630 0.788855 0.124646
0.532666 0.787758 0.123549
0.661944 0.786693 0.122484
0.785673 0.785673 0.121464
0.901913 0.784714 0.120505
1.000000 0.783834 0.119625
0.000000 0.906313 0.124905
0.123671 0.905078 0.123671
0.261051 0.903946 0.122538
0.396406 0.902830 0.121422
0.529442 0.901733 0.120326
0.658720 0.900667 0.119260
0.782449 0.899647 0.118240
0.898689 0.898689 0.117281
1.000000 0.897809 0.116401
0.000000 1.000000 0.121945
0.120711 1.000000 0.120711
0.258090 1.000000 0.119578
0.393446 1.000000 0.118462
0.526481 1.000000 0.117365
0.655760 1.000000 0.116299
0.779488 1.000000 0.115279
0.895728 1.000000 0.114321
1.000000 1.000000 0.113441
0.000000 0.000000 0.288681
0.148934 0.000000 0.287446
0.286314 0.000000 0.286314
0.421669 0.000000 0.285198
0.554705 0.000000 0.284101
0.683983 0.000000 0.283035
0.807712 0.000000 0.282015
0.923952 0.000000 0.281057
1.000000 0.000000 0.280177
0.000000 0.146015 0.284528
0.144781 0.144781 0.283293
0.282161 0.143648 0.282161
0.417516 0.142532 0.281045
0.550552 0.141436 0.279948
0.679830 0.140370 0.278882
0.803559 0.139350 0.277862
0.919799 0.138391 0.276904
1.000000 0.137511 0.276024
0.000000 0.280718 0.280718
0.140971 0.279483 0.279483
0.278351 0.278351 0.278351
0.413706 0.277235 0.277235
0.546742 0.276138 0.276138
0.676020 0.275072 0.275072
0.799749 0.274052 0.274052
0.915989 0.273094 0.273094
1.000000 0.272214 0.272214
0.000000 0.413435 0.276964
0.137217 0.412200 0.275729
0.274597 0.411068 0.274597
0.409952 0.409952 0.273481
0.542988 0.408855 0.272384
0.672266 0.407789 0.271318
0.795995 0.406769 0.270298
0.912235 0.405811 0.269340
1.000000 0.404931 0.268460
0.000000 0.543878 0.273274
0.133527 0.542643 0.272040
0.270907 0.541511 0.270907
0.406262 0.540395 0.269791
0.539298 0.539298 0.268694
0.668576 0.538232 0.267628
0.792305 0.537212 0.266608
0.908545 0.536254 0.265650
1.000000 0.535374 0.264770
0.000000 0.670637 0.269689
0.129942 0.669402 0.268454
0.267322 0.668269 0.267322
0.402677 0.667154 0.266206
0.535712 0.666057 0.265109
0.664991 0.664991 0.264043
0.788719 0.663971 0.263023
0.904960 0.663013 0.262065
1.000000 0.662133 0.261185
0.000000 0.791954 0.266257
0.126510 0.790719 0.265023
0.263890 0.789586 0.263890
0.399245 0.788471 0.262774
0.532281 0.787374 0.261677
0.661559 0.786308 0.260611
0.785288 0.785288 0.259591
0.901528 0.784330 0.258633
1.000000 0.783450 0.257753
0.000000 0.905928 0.263033
0.123286 0.904694 0.261799
0.260666 0.903561 0.260666
0.396021 0.902445 0.259550
0.529057 0.901348 0.258453
0.658336 0.900283 0.257388
0.782064 0.899263 0.256368
0.898304 0.898304 0.255409
1.000000 0.897424 0.254529
0.000000 1.000000 0.260073
0.120326 1.000000 0.258838
0.257706 1.000000 0.257706
0.393061 1.000000 0.256590
0.526097 1.000000 0.255493
0.655375 1.000000 0.254427
0.779104 1.000000 0.253407
0.895344 1.000000 0.252449
1.000000 1.000000 0.251569
0.000000 0.000000 0.424773
0.148555 0.000000 0.423538
0.285935 0.000000 0.422406
0.421290 0.000000 0.421290
0.554326 0.000000 0.420193
0.683604 0.000000 0.419127
0.807333 0.000000 0.418107
0.923573 0.000000 0.417149
1.000000 0.000000 0.416269
0.000000 0.145637 0.420620
0.144402 0.144402 0.419386
0.281782 0.143269 0.418253
0.417137 0.142154 0.417137
0.550173 0.141057 0.416040
0.679451 0.139991 0.414974
0.803180 0.138971 0.413954
0.919420 0.138013 0.412996
1.000000 0.137133 0.412116
0.000000 0.280339 0.416810
0.140592 0.279104 0.415575
0.277972 0.277972 0.414443
0.413327 0.276856 0.413327
0.546363 0.275759 0.412230
0.675641 0.274693 0.411164
0.799370 0.273673 0.410144
0.915610 0.272715 0.409186
1.000000 0.271835 0.408306
0.000000 0.413056 0.413056
0.136838 0.411821 0.411821
0.274218 0.410689 0.410689
0.409573 0.409573 0.409573
0.542609 0.408476 0.408476
0.671887 0.407410 0.407410
0.795616 0.406390 0.406390
0.911856 0.405432 0.405432
1.000000 0.404552 0.404552
0.000000 0.543499 0.409366
0.133148 0.542264 0.408132
0.270528 0.541132 0.406999
0.405883 0.540016 0.405883
0.538919 0.538919 0.404786
0.668197 0.537853 0.403721
0.791926 0.536833 0.402701
0.908166 0.535875 0.401742
1.000000 0.534995 0.400862
0.000000 0.670258 0.405781
0.129563 0.669023 0.404546
0.266943 0.667891 0.403414
0.402298 0.666775 0.402298
0.535334 0.665678 0.401201
0.664612 0.664612 0.400135
0.788340 0.663592 0.399115
0.904581 0.662634 0.398157
1.000000 0.661754 0.397277
0.000000 0.791575 0.402349
0.126131 0.790340 0.401115
0.263511 0.789207 0.399982
0.398866 0.788092 0.398866
0.531902 0.786995 0.397769
0.661180 0.785929 0.396704
0.784909 0.784909 0.395684
0.901149 0.783951 0.394725
1.000000 0.783071 0.393845
0.000000 0.905549 0.399125
0.122907 0.904315 0.397891
0.260287 0.903182 0.396758
0.395642 0.902066 0.395642
0.528678 0.900969 0.394546
0.657957 0.899904 0.393480
0.781685 0.898884 0.392460
0.897925 0.897925 0.391501
1.000000 0.897045 0.390621
0.000000 1.000000 0.396165
0.119947 1.000000 0.394930
0.257327 1.000000 0.393798
0.392682 1.000000 0.392682
0.525718 1.000000 0.391585
0.654996 1.000000 0.390519
0.778725 1.000000 0.389499
0.894965 1.000000 0.388541
1.000000 1.000000 0.387661
0.000000 0.000000 0.558533
0.148182 0.000000 0.557299
0.285562 0.000000 0.556166
0.420917 0.000000 0.555050
0.553953 0.000000 0.553953
0.683232 0.000000 0.552887
0.806960 0.000000 0.551867
0.923200 0.000000 0.550909
1.000000 0.000000 0.550029
0.000000 0.145264 0.554380
0.144030 0.144030 0.553146
0.281409 0.142897 0.552013
0.416765 0.141781 0.550897
0.549800 0.140684 0.549800
0.679079 0.139618 0.548735
0.802807 0.138598 0.547714
0.919047 0.137640 0.546756
1.000000 0.136760 0.545876
0.000000 0.279966 0.550570
0.140219 0.278732 0.549336
0.277599 0.277599 0.548203
0.412954 0.276483 0.547087
0.545990 0.275387 0.545990
0.675269 0.274321 0.544924
0.798997 0.273301 0.543904
0.915237 0.272342 0.542946
1.000000 0.271462 0.542066
0.000000 0.412683 0.546816
0.136465 0.411449 0.545582
0.273845 0.410316 0.544449
0.409200 0.409200 0.543333
0.542236 0.408104 0.542236
0.671515 0.407038 0.541170
0.795243 0.406018 0.540150
0.911483 0.405059 0.539192
1.000000 0.404179 0.538312
0.000000 0.543126 0.543126
0.132776 0.541892 0.541892
0.270156 0.540759 0.540759
0.405511 0.539643 0.539643
0.538547 0.538547 0.538547
0.667825 0.537481 0.537481
0.791553 0.536461 0.536461
0.907794 0.535502 0.535502
1.000000 0.534622 0.534622
0.000000 0.669885 0.539541
0.129190 0.668651 0.538306
0.266570 0.667518 0.537174
0.401925 0.666402 0.536058
0.534961 0.665305 0.534961
0.664240 0.664240 0.533895
0.787968 0.663219 0.532875
0.904208 0.662261 0.531917
1.000000 0.661381 0.531037
0.000000 0.791202 0.536109
0.125759 0.789968 0.534875
0.263139 0.788835 0.533742
0.398494 0.787719 0.532626
0.531529 0.786622 0.531529
0.660808 0.785556 0.530464
0.784536 0.784536 0.529444
0.900777 0.783578 0.528485
1.000000 0.782698 0.527605
0.000000 0.905177 0.532885
0.122535 0.903942 0.531651
0.259915 0.902810 0.530518
0.395270 0.901694 0.529402
0.528306 0.900597 0.528306
0.657584 0.899531 0.527240
0.781313 0.898511 0.526220
0.897553 0.897553 0.525261
1.000000 0.896673 0.524381
0.000000 1.000000 0.529925
0.119574 1.000000 0.528691
0.256954 1.000000 0.527558
0.392309 1.000000 0.526442
0.525345 1.000000 0.525345
0.654624 1.000000 0.524279
0.778352 1.000000 0.523259
0.894592 1.000000 0.522301
1.000000 1.000000 0.521421
0.000000 0.000000 0.688515
0.147821 0.000000 0.687281
0.285200 0.000000 0.686148
0.420556 0.000000 0.685032
0.553591 0.000000 0.683936
0.682870 0.000000 0.682870
0.806598 0.000000 0.681850
0.922838 0.000000 0.680891
1.000000 0.000000 0.680011
0.000000 0.144902 0.684362
0.143668 0.143668 0.683128
0.281047 0.142535 0.681995
0.416403 0.141419 0.680879
0.549438 0.140322 0.679783
0.678717 0.139256 0.678717
0.802445 0.138236 0.677697
0.918685 0.137278 0.676738
1.000000 0.136398 0.675858
0.000000 0.279604 0.680552
0.139857 0.278370 0.679318
0.277237 0.277237 0.678185
0.412592 0.276121 0.677069
0.545628 0.275025 0.675973
0.674907 0.273959 0.674907
0.798635 0.272939 0.673887
0.914875 0.271980 0.672928
1.000000 0.271100 0.672048
0.000000 0.412321 0.676798
0.136103 0.411087 0.675564
0.273483 0.409954 0.674431
0.408838 0.408838 0.673315
0.541874 0.407742 0.672219
0.671153 0.406676 0.671153
0.794881 0.405656 0.670133
0.911121 0.404697 0.669174
1.000000 0.403817 0.668294
0.000000 0.542764 0.673109
0.132414 0.541530 0.671874
0.269794 0.540397 0.670742
0.405149 0.539281 0.669626
0.538185 0.538185 0.668529
0.667463 0.537119 0.667463
0.791191 0.536099 0.666443
0.907432 0.535140 0.665485
1.000000 0.534260 0.664605
0.000000 0.669523 0.669523
0.128828 0.668289 0.668289
0.266208 0.667156 0.667156
0.401563 0.666040 0.666040
0.534599 0.664943 0.664943
0.663878 0.663878 0.663878
0.787606 0.662858 0.662858
0.903846 0.661899 0.661899
1.000000 0.661019 0.661019
0.000000 0.790840 0.666092
0.125397 0.789606 0.664857
0.262777 0.788473 0.663725
0.398132 0.787357 0.662609
0.531168 0.786260 0.661512
0.660446 0.785195 0.660446
0.784174 0.784174 0.659426
0.900415 0.783216 0.658468
1.000000 0.782336 0.657588
0.000000 0.904815 0.662868
0.122173 0.903580 0.661633
0.259553 0.902448 0.660501
0.394908 0.901332 0.659385
0.527944 0.900235 0.658288
0.657222 0.899169 0.657222
0.780951 0.898149 0.656202
0.897191 0.897191 0.655244
1.000000 0.896311 0.654364
0.000000 1.000000 0.659907
0.119213 1.000000 0.658673
0.256592 1.000000 0.657540
0.391948 1.000000 0.656424
0.524983 1.000000 0.655328
0.654262 1.000000 0.654262
0.777990 1.000000 0.653242
0.894230 1.000000 0.652283
1.000000 1.000000 0.651403
0.000000 0.000000 0.812917
0.147474 0.000000 0.811683
0.284854 0.000000 0.810550
0.420209 0.000000 0.809434
0.553245 0.000000 0.808338
0.682523 0.000000 0.807272
0.806252 0.000000 0.806252
0.922492 0.000000 0.805293
1.000000 0.000000 0.804413
0.000000 0.144556 0.808765
0.143321 0.143321 0.807530
0.280701 0.142189 0.806397
0.416056 0.141073 0.805282
0.549092 0.139976 0.804185
0.678370 0.138910 0.803119
0.802099 0.137890 0.802099
0.918339 0.136932 0.801141
1.000000 0.136052 0.800261
0.000000 0.279258 0.804954
0.139511 0.278023 0.803720
0.276891 0.276891 0.802587
0.412246 0.275775 0.801471
0.545282 0.274678 0.800375
0.674560 0.273612 0.799309
0.798289 0.272592 0.798289
0.914529 0.271634 0.797330
1.000000 0.270754 0.796450
0.000000 0.411975 0.801200
0.135757 0.410741 0.799966
0.273137 0.409608 0.798833
0.408492 0.408492 0.797717
0.541528 0.407395 0.796621
0.670806 0.406329 0.795555
0.794535 0.405309 0.794535
0.910775 0.404351 0.793576
1.000000 0.403471 0.792696
0.000000 0.542418 0.797511
0.132067 0.541183 0.796276
0.269447 0.540051 0.795144
0.404802 0.538935 0.794028
0.537838 0.537838 0.792931
0.667117 0.536772 0.791865
0.790845 0.535752 0.790845
0.907085 0.534794 0.789887
1.000000 0.533914 0.789007
0.000000 0.669177 0.793925
0.128482 0.667942 0.792691
0.265862 0.666810 0.791558
0.401217 0.665694 0.790442
0.534253 0.664597 0.789345
0.663531 0.663531 0.788280
0.787260 0.662511 0.787260
0.903500 0.661553 0.786301
1.000000 0.660673 0.785421
0.000000 0.790494 0.790494
0.125050 0.789259 0.789259
0.262430 0.788127 0.788127
0.397785 0.787011 0.787011
0.530821 0.785914 0.785914
0.660100 0.784848 0.784848
0.783828 0.783828 0.783828
0.900068 0.782870 0.782870
1.000000 0.781990 0.781990
0.000000 0.904468 0.787270
0.121826 0.903234 0.786035
0.259206 0.902101 0.784903
0.394561 0.900985 0.783787
0.527597 0.899889 0.782690
0.656876 0.898823 0.781624
0.780604 0.897803 0.780604
0.896844 0.896844 0.779646
1.000000 0.895964 0.778766
0.000000 1.000000 0.784309
0.118866 1.000000 0.783075
0.256246 1.000000 0.781942
0.391601 1.000000 0.780826
0.524637 1.000000 0.779730
0.653915 1.000000 0.778664
0.777644 1.000000 0.777644
0.893884 1.000000 0.776685
1.000000 1.000000 0.775805
0.000000 0.000000 0.929791
0.147149 0.000000 0.928556
0.284528 0.000000 0.927423
0.419884 0.000000 0.926308
0.552919 0.000000 0.925211
0.682198 0.000000 0.924145
0.805926 0.000000 0.923125
0.922167 0.000000 0.922167
1.000000 0.000000 0.921287
0.000000 0.144230 0.925638
0.142996 0.142996 0.924403
0.280376 0.141863 0.923271
0.415731 0.140747 0.922155
0.548767 0.139650 0.921058
0.678045 0.138585 0.919992
0.801773 0.137565 0.918972
0.918014 0.136606 0.918014
1.000000 0.135726 0.917134
0.000000 0.278933 0.921827
0.139186 0.277698 0.920593
0.276565 0.276565 0.919460
0.411921 0.275450 0.918344
0.544956 0.274353 0.917248
0.674235 0.273287 0.916182
0.797963 0.272267 0.915162
0.914203 0.271309 0.914203
1.000000 0.270429 0.913323
0.000000 0.411650 0.918073
0.135432 0.410415 0.916839
0.272811 0.409282 0.915706
0.408167 0.408167 0.914590
0.541202 0.407070 0.913494
0.670481 0.406004 0.912428
0.794209 0.404984 0.911408
0.910449 0.404026 0.910449
1.000000 0.403146 0.909569
0.000000 0.542092 0.914384
0.131742 0.540858 0.913149
0.269122 0.539725 0.912017
0.404477 0.538609 0.910901
0.537513 0.537513 0.909804
0.666791 0.536447 0.908738
0.790520 0.535427 0.907718
0.906760 0.534468 0.906760
1.000000 0.533588 0.905880
0.000000 0.668851 0.910798
0.128156 0.667617 0.909564
0.265536 0.666484 0.908431
0.400891 0.665368 0.907315
0.533927 0.664272 0.906219
0.663206 0.663206 0.905153
0.786934 0.662186 0.904133
0.903174 0.661227 0.903174
1.000000 0.660347 0.902294
0.000000 0.790168 0.907367
0.124725 0.788934 0.906132
0.262105 0.787801 0.905000
0.397460 0.786685 0.903884
0.530496 0.785588 0.902787
0.659774 0.784523 0.901721
0.783503 0.783503 0.900701
0.899743 0.782544 0.899743
1.000000 0.781664 0.898863
0.000000 0.904143 0.904143
0.121501 0.902908 0.902908
0.258881 0.901776 0.901776
0.394236 0.900660 0.900660
0.527272 0.899563 0.899563
0.656550 0.898497 0.898497
0.780279 0.897477 0.897477
0.896519 0.896519 0.896519
1.000000 0.895639 0.895639
0.000000 1.000000 0.901183
0.118541 1.000000 0.899948
0.255920 1.000000 0.898815
0.391276 1.000000 0.897700
0.524311 1.000000 0.896603
0.653590 1.000000 0.895537
0.777318 1.000000 0.894517
0.893559 1.000000 0.893559
1.000000 1.000000 0.892679
0.000000 0.000000 1.000000
0.146850 0.000000 1.000000
0.284230 0.000000 1.000000
0.419585 0.000000 1.000000
0.552621 0.000000 1.000000
0.681899 0.000000 1.000000
0.805628 0.000000 1.000000
0.921868 0.000000 1.000000
1.000000 0.000000 1.000000
0.000000 0.143931 1.000000
0.142697 0.142697 1.000000
0.280077 0.141564 1.000000
0.415432 0.140448 1.000000
0.548468 0.139352 1.000000
0.677746 0.138286 1.000000
0.801475 0.137266 1.000000
0.917715 0.136307 1.000000
1.000000 0.135427 1.000000
0.000000 0.278634 1.000000
0.138887 0.277399 1.000000
0.276267 0.276267 1.000000
0.411622 0.275151 1.000000
0.544658 0.274054 1.000000
0.673936 0.272988 1.000000
0.797664 0.271968 1.000000
0.913905 0.271010 1.000000
1.000000 0.270130 1.000000
0.000000 0.411351 1.000000
0.135133 0.410116 1.000000
0.272513 0.408984 1.000000
0.407868 0.407868 1.000000
0.540904 0.406771 1.000000
0.670182 0.405705 1.000000
0.793910 0.404685 1.000000
0.910151 0.403727 1.000000
1.000000 0.402847 1.000000
0.000000 0.541794 1.000000
0.131443 0.540559 1.000000
0.268823 0.539427 1.000000
0.404178 0.538311 1.000000
0.537214 0.537214 1.000000
0.666492 0.536148 1.000000
0.790221 0.535128 1.000000
0.906461 0.534170 1.000000
1.000000 0.533290 1.000000
0.000000 0.668552 1.000000
0.127858 0.667318 1.000000
0.265237 0.666185 1.000000
0.400593 0.665069 1.000000
0.533628 0.663973 1.000000
0.662907 0.662907 1.000000
0.786635 0.661887 1.000000
0.902875 0.660928 1.000000
1.000000 0.660048 1.000000
0.000000 0.789869 1.000000
0.124426 0.788635 1.000000
0.261806 0.787502 1.000000
0.397161 0.786386 1.000000
0.530197 0.785290 1.000000
0.659475 0.784224 1.000000
0.783204 0.783204 1.000000
0.899444 0.782245 1.000000
1.000000 0.781365 1.000000
0.000000 0.903844 1.000000
0.121202 0.902610 1.000000
0.258582 0.901477 1.000000
0.393937 0.900361 1.000000
0.526973 0.899264 1.000000
0.656251 0.898198 1.000000
0.779980 0.897178 1.000000
0.896220 0.896220 1.000000
1.000000 0.895340 1.000000
0.000000 1.000000 1.000000
0.118242 1.000000 1.000000
0.255622 1.000000 1.000000
0.390977 1.000000 1.000000
0.524013 1.000000 1.000000
0.653291 1.000000 1.000000
0.777020 1.000000 1.000000
0.893260 1.000000 1.000000
1.000000 1.000000 1.000000
