assets/luts/candy.cube
# Candy — Studio filter "candy"
# Generated by scripts/generate-filter-luts.mjs — do not edit by hand.
LUT_3D_SIZE 9
DOMAIN_MIN 0.0 0.0 0.0
DOMAIN_MAX 1.0 1.0 1.0
0.072874 0.000000 0.072874
0.211774 0.000000 0.065100
0.364642 0.000000 0.056544
0.526822 0.000000 0.047468
0.693658 0.000000 0.038130
0.860494 0.000000 0.028793
1.000000 0.000000 0.019716
1.000000 0.000000 0.011161
1.000000 0.000000 0.007485
0.052513 0.107991 0.048353
0.191261 0.101610 0.040426
0.343960 0.094587 0.031702
0.505961 0.087137 0.022446
0.672613 0.079473 0.012925
0.839265 0.071809 0.003404
1.000000 0.064358 0.000000
1.000000 0.057336 0.000000
1.000000 0.055155 0.000000
0.027744 0.244429 0.019004
0.166491 0.238048 0.011077
0.319191 0.231025 0.002353
0.481192 0.223575 0.000000
0.647844 0.215911 0.000000
0.814496 0.208247 0.000000
0.976497 0.200796 0.000000
1.000000 0.193774 0.000000
1.000000 0.191705 0.000000
0.001466 0.389178 0.000000
0.140213 0.382797 0.000000
0.292913 0.375775 0.000000
0.454914 0.368324 0.000000
0.621566 0.360660 0.000000
0.788218 0.352996 0.000000
0.950219 0.345545 0.000000
1.000000 0.338523 0.000000
1.000000 0.336573 0.000000
0.000000 0.538083 0.000000
0.113181 0.531702 0.000000
0.265881 0.524679 0.000000
0.427882 0.517229 0.000000
0.594534 0.509564 0.000000
0.761186 0.501900 0.000000
0.923187 0.494450 0.000000
1.000000 0.487427 0.000000
1.000000 0.485601 0.000000
0.000000 0.686987 0.000000
0.086149 0.680606 0.000000
0.238848 0.673584 0.000000
0.400850 0.666133 0.000000
0.567501 0.658469 0.000000
0.734153 0.650805 0.000000
0.896154 0.643354 0.000000
1.000000 0.636332 0.000000
1.000000 0.634628 0.000000
0.000000 0.831736 0.000000
0.059871 0.825355 0.000000
0.212570 0.818333 0.000000
0.374572 0.810882 0.000000
0.541223 0.803218 0.000000
0.707875 0.795554 0.000000
0.869877 0.788103 0.000000
1.000000 0.781081 0.000000
1.000000 0.779496 0.000000
0.000000 0.968174 0.000000
0.035102 0.961793 0.000000
0.187801 0.954771 0.000000
0.349802 0.947320 0.000000
0.516454 0.939656 0.000000
0.683106 0.931992 0.000000
0.845107 0.924542 0.000000
0.997807 0.917519 0.000000
1.000000 0.916046 0.000000
0.000000 1.000000 0.000000
0.015207 1.000000 0.000000
0.168075 1.000000 0.000000
0.330255 1.000000 0.000000
0.497091 1.000000 0.000000
0.663926 1.000000 0.000000
0.826106 1.000000 0.000000
0.978974 1.000000 0.000000
1.000000 1.000000 0.000000
0.070654 0.000000 0.215671
0.209554 0.000000 0.207897
0.362422 0.000000 0.199342
0.524602 0.000000 0.190265
0.691438 0.000000 0.180928
0.858274 0.000000 0.171590
1.000000 0.000000 0.162514
1.000000 0.000000 0.153958
1.000000 0.000000 0.150293
0.050241 0.105824 0.191098
0.188989 0.099443 0.183171
0.341688 0.092420 0.174447
0.503689 0.084970 0.165192
0.670341 0.077306 0.155670
0.836993 0.069642 0.146149
0.998994 0.062191 0.136894
1.000000 0.055169 0.128170
1.000000 0.052998 0.124453
0.025472 0.242262 0.161750
0.164219 0.235881 0.153823
0.316919 0.228858 0.145099
0.478920 0.221408 0.135843
0.645572 0.213744 0.126322
0.812224 0.206080 0.116801
0.974225 0.198629 0.107546
1.000000 0.191607 0.098822
1.000000 0.189549 0.095217
0.000000 0.387011 0.130614
0.137941 0.380630 0.122687
0.290641 0.373608 0.113963
0.452642 0.366157 0.104707
0.619294 0.358493 0.095186
0.785946 0.350829 0.085665
0.947947 0.343378 0.076410
1.000000 0.336356 0.067686
1.000000 0.334417 0.064201
0.000000 0.535916 0.098584
0.110909 0.529535 0.090657
0.263609 0.522512 0.081933
0.425610 0.515062 0.072678
0.592262 0.507397 0.063156
0.758914 0.499733 0.053635
0.920915 0.492283 0.044380
1.000000 0.485260 0.035656
1.000000 0.483444 0.032293
0.000000 0.684820 0.066554
0.083877 0.678439 0.058627
0.236576 0.671417 0.049903
0.398578 0.663966 0.040648
0.565229 0.656302 0.031127
0.731881 0.648638 0.021605
0.893882 0.641187 0.012350
1.000000 0.634165 0.003626
1.000000 0.632471 0.000386
0.000000 0.829569 0.035418
0.057599 0.823188 0.027491
0.210298 0.816166 0.018767
0.372300 0.808715 0.009512
0.538951 0.801051 0.000000
0.705603 0.793387 0.000000
0.867605 0.785936 0.000000
1.000000 0.778914 0.000000
1.000000 0.777339 0.000000
0.000000 0.966007 0.006070
0.032830 0.959626 0.000000
0.185529 0.952604 0.000000
0.347530 0.945153 0.000000
0.514182 0.937489 0.000000
0.680834 0.929825 0.000000
0.842835 0.922375 0.000000
0.995535 0.915352 0.000000
1.000000 0.913890 0.000000
0.000000 1.000000 0.000000
0.012987 1.000000 0.000000
0.165855 1.000000 0.000000
0.328035 1.000000 0.000000
0.494871 1.000000 0.000000
0.661706 1.000000 0.000000
0.823886 1.000000 0.000000
0.976754 1.000000 0.000000
1.000000 1.000000 0.000000
0.068210 0.000000 0.372828
0.207111 0.000000 0.365054
0.359979 0.000000 0.356499
0.522159 0.000000 0.347422
0.688995 0.000000 0.338085
0.855830 0.000000 0.328747
1.000000 0.000000 0.319671
1.000000 0.000000 0.311115
1.000000 0.000000 0.307461
0.047741 0.103439 0.348198
0.186488 0.097058 0.340271
0.339188 0.090035 0.331547
0.501189 0.082585 0.322291
0.667841 0.074921 0.312770
0.834493 0.067257 0.303249
0.996494 0.059806 0.293994
1.000000 0.052784 0.285270
1.000000 0.050625 0.281564
0.022972 0.239877 0.318850
0.161719 0.233496 0.310923
0.314419 0.226474 0.302199
0.476420 0.219023 0.292943
0.643072 0.211359 0.283422
0.809723 0.203695 0.273901
0.971725 0.196244 0.264645
1.000000 0.189222 0.255921
1.000000 0.187175 0.252328
0.000000 0.384626 0.287714
0.135441 0.378245 0.279787
0.288141 0.371223 0.271063
0.450142 0.363772 0.261807
0.616794 0.356108 0.252286
0.783446 0.348444 0.242765
0.945447 0.340993 0.233509
1.000000 0.333971 0.224785
1.000000 0.332043 0.221312
0.000000 0.533531 0.255684
0.108409 0.527150 0.247757
0.261108 0.520127 0.239033
0.423109 0.512677 0.229777
0.589761 0.505013 0.220256
0.756413 0.497348 0.210735
0.918414 0.489898 0.201480
1.000000 0.482875 0.192756
1.000000 0.481070 0.189404
0.000000 0.682435 0.223654
0.081376 0.676054 0.215727
0.234076 0.669032 0.207003
0.396077 0.661581 0.197748
0.562729 0.653917 0.188226
0.729381 0.646253 0.178705
0.891382 0.638803 0.169450
1.000000 0.631780 0.160726
1.000000 0.630097 0.157497
0.000000 0.827184 0.192518
0.055098 0.820803 0.184591
0.207798 0.813781 0.175867
0.369799 0.806330 0.166612
0.536451 0.798666 0.157090
0.703103 0.791002 0.147569
0.865104 0.783552 0.138314
1.000000 0.776529 0.129590
1.000000 0.774966 0.126480
0.000000 0.963622 0.163170
0.030329 0.957241 0.155243
0.183029 0.950219 0.146519
0.345030 0.942769 0.137263
0.511682 0.935104 0.127742
0.678334 0.927440 0.118221
0.840335 0.919990 0.108966
0.993035 0.912967 0.100242
1.000000 0.911516 0.097245
0.000000 1.000000 0.139070
0.010544 1.000000 0.131297
0.163412 1.000000 0.122741
0.325592 1.000000 0.113664
0.492427 1.000000 0.104327
0.659263 1.000000 0.094990
0.821443 1.000000 0.085913
0.974311 1.000000 0.077358
1.000000 1.000000 0.074616
0.065618 0.000000 0.539558
0.204519 0.000000 0.531784
0.357387 0.000000 0.523229
0.519567 0.000000 0.514152
0.686403 0.000000 0.504815
0.853238 0.000000 0.495477
1.000000 0.000000 0.486401
1.000000 0.000000 0.477845
1.000000 0.000000 0.474203
0.045088 0.100909 0.514867
0.183835 0.094528 0.506940
0.336535 0.087505 0.498216
0.498536 0.080055 0.488961
0.665188 0.072391 0.479440
0.831840 0.064726 0.469918
0.993841 0.057276 0.460663
1.000000 0.050254 0.451939
1.000000 0.048106 0.448246
0.020319 0.237347 0.485519
0.159066 0.230966 0.477592
0.311766 0.223943 0.468868
0.473767 0.216493 0.459612
0.640419 0.208829 0.450091
0.807071 0.201165 0.440570
0.969072 0.193714 0.431315
1.000000 0.186692 0.422591
1.000000 0.184657 0.419010
0.000000 0.382096 0.454383
0.132788 0.375715 0.446456
0.285488 0.368692 0.437732
0.447489 0.361242 0.428476
0.614141 0.353578 0.418955
0.780793 0.345914 0.409434
0.942794 0.338463 0.400179
1.000000 0.331441 0.391455
1.000000 0.329525 0.387993
0.000000 0.531000 0.422353
0.105756 0.524620 0.414426
0.258456 0.517597 0.405702
0.420457 0.510147 0.396447
0.587109 0.502482 0.386926
0.753760 0.494818 0.377404
0.915762 0.487368 0.368149
1.000000 0.480345 0.359425
1.000000 0.478552 0.356086
0.000000 0.679905 0.390323
0.078724 0.673524 0.382396
0.231423 0.666502 0.373672
0.393424 0.659051 0.364417
0.560076 0.651387 0.354896
0.726728 0.643723 0.345375
0.888729 0.636272 0.336119
1.000000 0.629250 0.327395
1.000000 0.627579 0.324179
0.000000 0.824654 0.359187
0.052446 0.818273 0.351260
0.205145 0.811251 0.342536
0.367146 0.803800 0.333281
0.533798 0.796136 0.323760
0.700450 0.788472 0.314239
0.862451 0.781021 0.304983
1.000000 0.773999 0.296259
1.000000 0.772447 0.293162
0.000000 0.961092 0.329839
0.027676 0.954711 0.321912
0.180376 0.947689 0.313188
0.342377 0.940238 0.303933
0.509029 0.932574 0.294412
0.675681 0.924910 0.284890
0.837682 0.917460 0.275635
0.990382 0.910437 0.266911
1.000000 0.908998 0.263926
0.000000 1.000000 0.305800
0.007951 1.000000 0.298027
0.160820 1.000000 0.289471
0.322999 1.000000 0.280394
0.489835 1.000000 0.271057
0.656671 1.000000 0.261720
0.818851 1.000000 0.252643
0.971719 1.000000 0.244088
1.000000 1.000000 0.241358
0.062952 0.000000 0.711075
0.201852 0.000000 0.703301
0.354720 0.000000 0.694745
0.516900 0.000000 0.685669
0.683736 0.000000 0.676331
0.850572 0.000000 0.666994
1.000000 0.000000 0.657917
1.000000 0.000000 0.649362
1.000000 0.000000 0.645732
0.042359 0.098306 0.686321
0.181106 0.091925 0.678394
0.333806 0.084903 0.669670
0.495807 0.077452 0.660415
0.662459 0.069788 0.650894
0.829111 0.062124 0.641372
0.991112 0.054673 0.632117
1.000000 0.047651 0.623393
1.000000 0.045516 0.619712
0.017590 0.234744 0.656973
0.156337 0.228363 0.649046
0.309037 0.221341 0.640322
0.471038 0.213890 0.631067
0.637690 0.206226 0.621545
0.804342 0.198562 0.612024
0.966343 0.191111 0.602769
1.000000 0.184089 0.594045
1.000000 0.182066 0.590476
0.000000 0.379493 0.625837
0.130059 0.373112 0.617910
0.282759 0.366090 0.609186
0.444760 0.358639 0.599931
0.611412 0.350975 0.590409
0.778064 0.343311 0.580888
0.940065 0.335860 0.571633
1.000000 0.328838 0.562909
1.000000 0.326935 0.559459
0.000000 0.528398 0.593807
0.103027 0.522017 0.585880
0.255727 0.514994 0.577156
0.417728 0.507544 0.567901
0.584380 0.499880 0.558380
0.751031 0.492215 0.548858
0.913033 0.484765 0.539603
1.000000 0.477742 0.530879
1.000000 0.475962 0.527552
0.000000 0.677302 0.561777
0.075995 0.670921 0.553850
0.228694 0.663899 0.545126
0.390695 0.656448 0.535871
0.557347 0.648784 0.526350
0.723999 0.641120 0.516829
0.886000 0.633670 0.507573
1.000000 0.626647 0.498849
1.000000 0.624989 0.495645
0.000000 0.822051 0.530641
0.049717 0.815670 0.522715
0.202416 0.808648 0.513990
0.364417 0.801197 0.504735
0.531069 0.793533 0.495214
0.697721 0.785869 0.485693
0.859722 0.778419 0.476437
1.000000 0.771396 0.467713
1.000000 0.769857 0.464628
0.000000 0.958489 0.501293
0.024948 0.952108 0.493366
0.177647 0.945086 0.484642
0.339648 0.937636 0.475387
0.506300 0.929971 0.465866
0.672952 0.922307 0.456344
0.834953 0.914857 0.447089
0.987653 0.907834 0.438365
1.000000 0.906407 0.435392
0.000000 1.000000 0.477317
0.005285 1.000000 0.469543
0.158153 1.000000 0.460988
0.320333 1.000000 0.451911
0.487169 1.000000 0.442574
0.654005 1.000000 0.433236
0.816184 1.000000 0.424160
0.969053 1.000000 0.415604
1.000000 1.000000 0.412887
0.060285 0.000000 0.882591
0.199186 0.000000 0.874817
0.352054 0.000000 0.866262
0.514234 0.000000 0.857185
0.681070 0.000000 0.847848
0.847905 0.000000 0.838510
1.000000 0.000000 0.829434
1.000000 0.000000 0.820878
1.000000 0.000000 0.817261
0.039630 0.095703 0.857775
0.178377 0.089322 0.849848
0.331077 0.082300 0.841124
0.493078 0.074849 0.831869
0.659730 0.067185 0.822348
0.826382 0.059521 0.812826
0.988383 0.052071 0.803571
1.000000 0.045048 0.794847
1.000000 0.042926 0.791179
0.014861 0.232141 0.828427
0.153608 0.225760 0.820500
0.306308 0.218738 0.811776
0.468309 0.211287 0.802521
0.634961 0.203623 0.792999
0.801613 0.195959 0.783478
0.963614 0.188509 0.774223
1.000000 0.181486 0.765499
1.000000 0.179476 0.761943
0.000000 0.376890 0.797291
0.127330 0.370509 0.789364
0.280030 0.363487 0.780640
0.442031 0.356036 0.771385
0.608683 0.348372 0.761863
0.775335 0.340708 0.752342
0.937336 0.333258 0.743087
1.000000 0.326235 0.734363
1.000000 0.324344 0.730926
0.000000 0.525795 0.765261
0.100298 0.519414 0.757334
0.252998 0.512391 0.748610
0.414999 0.504941 0.739355
0.581651 0.497277 0.729834
0.748303 0.489613 0.720313
0.910304 0.482162 0.711057
1.000000 0.475140 0.702333
1.000000 0.473371 0.699019
0.000000 0.674699 0.733231
0.073266 0.668318 0.725305
0.225965 0.661296 0.716580
0.387966 0.653846 0.707325
0.554618 0.646181 0.697804
0.721270 0.638517 0.688283
0.883271 0.631067 0.679027
1.000000 0.624044 0.670303
1.000000 0.622398 0.667111
0.000000 0.819448 0.702096
0.046988 0.813068 0.694169
0.199687 0.806045 0.685445
0.361688 0.798595 0.676189
0.528340 0.790930 0.666668
0.694992 0.783266 0.657147
0.856993 0.775816 0.647891
1.000000 0.768793 0.639167
1.000000 0.767267 0.636095
0.000000 0.955887 0.672747
0.022219 0.949506 0.664820
0.174918 0.942483 0.656096
0.336919 0.935033 0.646841
0.503571 0.927368 0.637320
0.670223 0.919704 0.627799
0.832224 0.912254 0.618543
0.984924 0.905231 0.609819
1.000000 0.903817 0.606859
0.000000 1.000000 0.648833
0.002618 1.000000 0.641060
0.155487 1.000000 0.632504
0.317667 1.000000 0.623427
0.484502 1.000000 0.614090
0.651338 1.000000 0.604753
0.813518 1.000000 0.595676
0.966386 1.000000 0.587121
1.000000 1.000000 0.584415
0.057693 0.000000 1.000000
0.196594 0.000000 1.000000
0.349462 0.000000 1.000000
0.511642 0.000000 1.000000
0.678477 0.000000 1.000000
0.845313 0.000000 1.000000
1.000000 0.000000 0.996164
1.000000 0.000000 0.987608
1.000000 0.000000 0.984003
0.036977 0.093173 1.000000
0.175725 0.086792 1.000000
0.328424 0.079770 1.000000
0.490425 0.072319 0.998538
0.657077 0.064655 0.989017
0.823729 0.056991 0.979496
0.985730 0.049540 0.970240
1.000000 0.042518 0.961516
1.000000 0.040407 0.957860
0.012208 0.229611 0.995096
0.150956 0.223230 0.987169
0.303655 0.216208 0.978445
0.465656 0.208757 0.969190
0.632308 0.201093 0.959669
0.798960 0.193429 0.950148
0.960961 0.185978 0.940892
1.000000 0.178956 0.932168
1.000000 0.176958 0.928624
0.000000 0.374360 0.963960
0.124678 0.367979 0.956033
0.277377 0.360957 0.947309
0.439378 0.353506 0.938054
0.606030 0.345842 0.928533
0.772682 0.338178 0.919012
0.934683 0.330728 0.909756
1.000000 0.323705 0.901032
1.000000 0.321826 0.897607
0.000000 0.523265 0.931931
0.097645 0.516884 0.924004
0.250345 0.509861 0.915280
0.412346 0.502411 0.906024
0.578998 0.494747 0.896503
0.745650 0.487082 0.886982
0.907651 0.479632 0.877726
1.000000 0.472609 0.869002
1.000000 0.470853 0.865700
0.000000 0.672169 0.899901
0.070613 0.665788 0.891974
0.223313 0.658766 0.883250
0.385314 0.651315 0.873994
0.551966 0.643651 0.864473
0.718617 0.635987 0.854952
0.880619 0.628537 0.845697
1.000000 0.621514 0.836973
1.000000 0.619880 0.833793
0.000000 0.816918 0.868765
0.044335 0.810537 0.860838
0.197035 0.803515 0.852114
0.359036 0.796064 0.842858
0.525688 0.788400 0.833337
0.692339 0.780736 0.823816
0.854341 0.773286 0.814561
1.000000 0.766263 0.805837
1.000000 0.764748 0.802776
0.000000 0.953356 0.839417
0.019566 0.946975 0.831490
0.172265 0.939953 0.822766
0.334267 0.932503 0.813510
0.500918 0.924838 0.803989
0.667570 0.917174 0.794468
0.829571 0.909724 0.785212
0.982271 0.902701 0.776488
1.000000 0.901299 0.773540
0.000000 1.000000 0.815563
0.000026 1.000000 0.807790
0.152895 1.000000 0.799234
0.315074 1.000000 0.790157
0.481910 1.000000 0.780820
0.648746 1.000000 0.771483
0.810926 1.000000 0.762406
0.963794 1.000000 0.753851
1.000000 1.000000 0.751157
0.055250 0.000000 1.000000
0.194150 0.000000 1.000000
0.347019 0.000000 1.000000
0.509198 0.000000 1.000000
0.676034 0.000000 1.000000
0.842870 0.000000 1.000000
1.000000 0.000000 1.000000
1.000000 0.000000 1.000000
1.000000 0.000000 1.000000
0.034477 0.090788 1.000000
0.173224 0.084407 1.000000
0.325924 0.077385 1.000000
0.487925 0.069934 1.000000
0.654577 0.062270 1.000000
0.821229 0.054606 1.000000
0.983230 0.047155 1.000000
1.000000 0.040133 1.000000
1.000000 0.038034 1.000000
0.009708 0.227226 1.000000
0.148455 0.220845 1.000000
0.301155 0.213823 1.000000
0.463156 0.206372 1.000000
0.629808 0.198708 1.000000
0.796460 0.191044 1.000000
0.958461 0.183594 1.000000
1.000000 0.176571 1.000000
1.000000 0.174584 1.000000
0.000000 0.371975 1.000000
0.122177 0.365594 1.000000
0.274877 0.358572 1.000000
0.436878 0.351121 1.000000
0.603530 0.343457 1.000000
0.770182 0.335793 1.000000
0.932183 0.328343 1.000000
1.000000 0.321320 1.000000
1.000000 0.319452 1.000000
0.000000 0.520880 1.000000
0.095145 0.514499 1.000000
0.247844 0.507476 1.000000
0.409846 0.500026 1.000000
0.576497 0.492362 1.000000
0.743149 0.484697 1.000000
0.905150 0.477247 1.000000
1.000000 0.470225 1.000000
1.000000 0.468480 1.000000
0.000000 0.669784 1.000000
0.068112 0.663403 1.000000
0.220812 0.656381 1.000000
0.382813 0.648930 1.000000
0.549465 0.641266 1.000000
0.716117 0.633602 1.000000
0.878118 0.626152 1.000000
1.000000 0.619129 0.994072
1.000000 0.617507 0.990904
0.000000 0.814533 1.000000
0.041834 0.808152 1.000000
0.194534 0.801130 1.000000
0.356535 0.793680 0.999958
0.523187 0.786015 0.990437
0.689839 0.778351 0.980916
0.851840 0.770901 0.971660
1.000000 0.763878 0.962936
1.000000 0.762375 0.959887
0.000000 0.950971 0.996516
0.017065 0.944591 0.988589
0.169765 0.937568 0.979865
0.331766 0.930118 0.970610
0.498418 0.922453 0.961089
0.665070 0.914789 0.951568
0.827071 0.907339 0.942312
0.979771 0.900316 0.933588
1.000000 0.898925 0.930651
0.000000 1.000000 0.972720
0.000000 1.000000 0.964947
0.150451 1.000000 0.956391
0.312631 1.000000 0.947314
0.479467 1.000000 0.937977
0.646303 1.000000 0.928640
0.808483 1.000000 0.919563
0.961351 1.000000 0.911008
1.000000 1.000000 0.908326
0.054298 0.000000 1.000000
0.193188 0.000000 1.000000
0.346045 0.000000 1.000000
0.508213 0.000000 1.000000
0.675037 0.000000 1.000000
0.841860 0.000000 1.000000
1.000000 0.000000 1.000000
1.000000 0.000000 1.000000
1.000000 0.000000 1.000000
0.033439 0.089855 1.000000
0.172176 0.083464 1.000000
0.324864 0.076430 1.000000
0.486853 0.068967 1.000000
0.653492 0.061291 1.000000
0.820132 0.053614 1.000000
0.982121 0.046152 1.000000
1.000000 0.039118 1.000000
1.000000 0.037019 1.000000
0.008631 0.226255 1.000000
0.147368 0.219864 1.000000
0.300057 0.212830 1.000000
0.462046 0.205367 1.000000
0.628685 0.197691 1.000000
0.795325 0.190014 1.000000
0.957314 0.182552 1.000000
1.000000 0.175518 1.000000
1.000000 0.173531 1.000000
0.000000 0.370963 1.000000
0.121050 0.364572 1.000000
0.273738 0.357538 1.000000
0.435727 0.350076 1.000000
0.602367 0.342399 1.000000
0.769006 0.334723 1.000000
0.930995 0.327260 1.000000
1.000000 0.320226 1.000000
1.000000 0.318359 1.000000
0.000000 0.519826 1.000000
0.093976 0.513435 1.000000
0.246664 0.506401 1.000000
0.408653 0.498939 1.000000
0.575293 0.491262 1.000000
0.741932 0.483585 1.000000
0.903921 0.476123 1.000000
1.000000 0.469089 1.000000
1.000000 0.467344 1.000000
0.000000 0.668689 1.000000
0.066902 0.662298 1.000000
0.219590 0.655264 1.000000
0.381579 0.647802 1.000000
0.548219 0.640125 1.000000
0.714858 0.632448 1.000000
0.876847 0.624986 1.000000
1.000000 0.617952 1.000000
1.000000 0.616330 1.000000
0.000000 0.813398 1.000000
0.040583 0.807006 1.000000
0.193272 0.799973 1.000000
0.355261 0.792510 1.000000
0.521900 0.784834 1.000000
0.688540 0.777157 1.000000
0.850529 0.769695 1.000000
1.000000 0.762661 1.000000
1.000000 0.761157 1.000000
0.000000 0.949798 1.000000
0.015776 0.943406 1.000000
0.168464 0.936373 1.000000
0.330454 0.928910 1.000000
0.497093 0.921234 1.000000
0.663733 0.913557 1.000000
0.825722 0.906095 1.000000
0.978410 0.899061 1.000000
1.000000 0.897670 1.000000
0.000000 1.000000 1.000000
0.000000 1.000000 1.000000
0.149168 1.000000 1.000000
0.311336 1.000000 1.000000
0.478159 1.000000 1.000000
0.644983 1.000000 1.000000
0.807151 1.000000 1.000000
0.960007 1.000000 1.000000
1.000000 1.000000 1.000000
