assets/luts/candy.cube
# Candy — Studio filter "candy"
# Generated by scripts/generate-filter-luts.mjs — do not edit by hand.
LUT_3D_SIZE 5
DOMAIN_MIN 0.0 0.0 0.0
DOMAIN_MAX 1.0 1.0 1.0
0.072874 0.000000 0.072874
0.364642 0.000000 0.056544
0.693658 0.000000 0.038130
1.000000 0.000000 0.019716
1.000000 0.000000 0.007485
0.027744 0.244429 0.019004
0.319191 0.231025 0.002353
0.647844 0.215911 0.000000
0.976497 0.200796 0.000000
1.000000 0.191705 0.000000
0.000000 0.538083 0.000000
0.265881 0.524679 0.000000
0.594534 0.509564 0.000000
0.923187 0.494450 0.000000
1.000000 0.485601 0.000000
0.000000 0.831736 0.000000
0.212570 0.818333 0.000000
0.541223 0.803218 0.000000
0.869877 0.788103 0.000000
1.000000 0.779496 0.000000
0.000000 1.000000 0.000000
0.168075 1.000000 0.000000
0.497091 1.000000 0.000000
0.826106 1.000000 0.000000
1.000000 1.000000 0.000000
0.068210 0.000000 0.372828
0.359979 0.000000 0.356499
0.688995 0.000000 0.338085
1.000000 0.000000 0.319671
1.000000 0.000000 0.307461
0.022972 0.239877 0.318850
0.314419 0.226474 0.302199
0.643072 0.211359 0.283422
0.971725 0.196244 0.264645
1.000000 0.187175 0.252328
0.000000 0.533531 0.255684
0.261108 0.520127 0.239033
0.589761 0.505013 0.220256
0.918414 0.489898 0.201480
1.000000 0.481070 0.189404
0.000000 0.827184 0.192518
0.207798 0.813781 0.175867
0.536451 0.798666 0.157090
0.865104 0.783552 0.138314
1.000000 0.774966 0.126480
0.000000 1.000000 0.139070
0.163412 1.000000 0.122741
0.492427 1.000000 0.104327
0.821443 1.000000 0.085913
1.000000 1.000000 0.074616
0.062952 0.000000 0.711075
0.354720 0.000000 0.694745
0.683736 0.000000 0.676331
1.000000 0.000000 0.657917
1.000000 0.000000 0.645732
0.017590 0.234744 0.656973
0.309037 0.221341 0.640322
0.637690 0.206226 0.621545
0.966343 0.191111 0.602769
1.000000 0.182066 0.590476
0.000000 0.528398 0.593807
0.255727 0.514994 0.577156
0.584380 0.499880 0.558380
0.913033 0.484765 0.539603
1.000000 0.475962 0.527552
0.000000 0.822051 0.530641
0.202416 0.808648 0.513990
0.531069 0.793533 0.495214
0.859722 0.778419 0.476437
1.000000 0.769857 0.464628
0.000000 1.000000 0.477317
0.158153 1.000000 0.460988
0.487169 1.000000 0.442574
0.816184 1.000000 0.424160
1.000000 1.000000 0.412887
0.057693 0.000000 1.000000
0.349462 0.000000 1.000000
0.678477 0.000000 1.000000
1.000000 0.000000 0.996164
1.000000 0.000000 0.984003
0.012208 0.229611 0.995096
0.303655 0.216208 0.978445
0.632308 0.201093 0.959669
0.960961 0.185978 0.940892
1.000000 0.176958 0.928624
0.000000 0.523265 0.931931
0.250345 0.509861 0.915280
0.578998 0.494747 0.896503
0.907651 0.479632 0.877726
1.000000 0.470853 0.865700
0.000000 0.816918 0.868765
0.197035 0.803515 0.852114
0.525688 0.788400 0.833337
0.854341 0.773286 0.814561
1.000000 0.764748 0.802776
0.000000 1.000000 0.815563
0.152895 1.000000 0.799234
0.481910 1.000000 0.780820
0.810926 1.000000 0.762406
1.000000 1.000000 0.751157
0.054298 0.000000 1.000000
0.346045 0.000000 1.000000
0.675037 0.000000 1.000000
1.000000 0.000000 1.000000
1.000000 0.000000 1.000000
0.008631 0.226255 1.000000
0.300057 0.212830 1.000000
0.628685 0.197691 1.000000
0.957314 0.182552 1.000000
1.000000 0.173531 1.000000
0.000000 0.519826 1.000000
0.246664 0.506401 1.000000
0.575293 0.491262 1.000000
0.903921 0.476123 1.000000
1.000000 0.467344 1.000000
0.000000 0.813398 1.000000
0.193272 0.799973 1.000000
0.521900 0.784834 1.000000
0.850529 0.769695 1.000000
1.000000 0.761157 1.000000
0.000000 1.000000 1.000000
0.149168 1.000000 1.000000
0.478159 1.000000 1.000000
0.807151 1.000000 1.000000
1.000000 1.000000 1.000000
