assets/luts/candy.cube
# Candy — Studio filter "candy"
# Generated by scripts/generate-filter-luts.mjs — do not edit by hand.
LUT_3D_SIZE 17
DOMAIN_MIN 0.0 0.0 0.0
DOMAIN_MAX 1.0 1.0 1.0
0.072874 0.000000 0.072874
0.140287 0.000000 0.069101
0.211774 0.000000 0.065100
0.286753 0.000000 0.060903
0.364642 0.000000 0.056544
0.444859 0.000000 0.052055
0.526822 0.000000 0.047468
0.609949 0.000000 0.042815
0.693658 0.000000 0.038130
0.777367 0.000000 0.033445
0.860494 0.000000 0.028793
0.942457 0.000000 0.024206
1.000000 0.000000 0.019716
1.000000 0.000000 0.015357
1.000000 0.000000 0.011161
1.000000 0.000000 0.007780
1.000000 0.000000 0.007485
0.064096 0.044187 0.062077
0.131435 0.041090 0.058230
0.202844 0.037806 0.054150
0.277740 0.034362 0.049871
0.355543 0.030784 0.045426
0.435672 0.027098 0.040848
0.517544 0.023333 0.036171
0.600580 0.019514 0.031427
0.684196 0.015669 0.026649
0.767813 0.011823 0.021872
0.850848 0.008005 0.017128
0.932721 0.004239 0.012451
1.000000 0.000554 0.007873
1.000000 0.000000 0.003428
1.000000 0.000000 0.000000
1.000000 0.000000 0.000000
1.000000 0.000000 0.000000
0.052513 0.107991 0.048353
0.119852 0.104894 0.044505
0.191261 0.101610 0.040426
0.266157 0.098166 0.036147
0.343960 0.094587 0.031702
0.424089 0.090902 0.027124
0.505961 0.087137 0.022446
0.588997 0.083318 0.017702
0.672613 0.079473 0.012925
0.756230 0.075627 0.008148
0.839265 0.071809 0.003404
0.921138 0.068043 0.000000
1.000000 0.064358 0.000000
1.000000 0.060780 0.000000
1.000000 0.057336 0.000000
1.000000 0.054774 0.000000
1.000000 0.055155 0.000000
0.040364 0.174911 0.033958
0.107703 0.171814 0.030111
0.179112 0.168530 0.026031
0.254008 0.165086 0.021752
0.331811 0.161508 0.017307
0.411940 0.157823 0.012729
0.493813 0.154057 0.008051
0.576848 0.150239 0.003307
0.660464 0.146393 0.000000
0.744081 0.142548 0.000000
0.827116 0.138729 0.000000
0.908989 0.134964 0.000000
0.989117 0.131279 0.000000
1.000000 0.127701 0.000000
1.000000 0.124256 0.000000
1.000000 0.121749 0.000000
1.000000 0.122130 0.000000
0.027744 0.244429 0.019004
0.095083 0.241332 0.015157
0.166491 0.238048 0.011077
0.241388 0.234604 0.006798
0.319191 0.231025 0.002353
0.399320 0.227340 0.000000
0.481192 0.223575 0.000000
0.564227 0.219756 0.000000
0.647844 0.215911 0.000000
0.731461 0.212065 0.000000
0.814496 0.208247 0.000000
0.896369 0.204481 0.000000
0.976497 0.200796 0.000000
1.000000 0.197218 0.000000
1.000000 0.193774 0.000000
1.000000 0.191324 0.000000
1.000000 0.191705 0.000000
0.014747 0.316024 0.003604
0.082086 0.312927 0.000000
0.153494 0.309643 0.000000
0.228390 0.306199 0.000000
0.306194 0.302621 0.000000
0.386322 0.298936 0.000000
0.468195 0.295171 0.000000
0.551230 0.291352 0.000000
0.634847 0.287506 0.000000
0.718463 0.283661 0.000000
0.801498 0.279842 0.000000
0.883371 0.276077 0.000000
0.963500 0.272392 0.000000
1.000000 0.268814 0.000000
1.000000 0.265369 0.000000
1.000000 0.262979 0.000000
1.000000 0.263360 0.000000
0.001466 0.389178 0.000000
0.068805 0.386081 0.000000
0.140213 0.382797 0.000000
0.215110 0.379353 0.000000
0.292913 0.375775 0.000000
0.373042 0.372089 0.000000
0.454914 0.368324 0.000000
0.537950 0.364505 0.000000
0.621566 0.360660 0.000000
0.705183 0.356814 0.000000
0.788218 0.352996 0.000000
0.870091 0.349230 0.000000
0.950219 0.345545 0.000000
1.000000 0.341967 0.000000
1.000000 0.338523 0.000000
1.000000 0.336193 0.000000
1.000000 0.336573 0.000000
0.000000 0.463371 0.000000
0.055336 0.460274 0.000000
0.126744 0.456990 0.000000
0.201641 0.453545 0.000000
0.279444 0.449967 0.000000
0.359573 0.446282 0.000000
0.441445 0.442517 0.000000
0.524480 0.438698 0.000000
0.608097 0.434852 0.000000
0.691714 0.431007 0.000000
0.774749 0.427188 0.000000
0.856622 0.423423 0.000000
0.936750 0.419738 0.000000
1.000000 0.416160 0.000000
1.000000 0.412715 0.000000
1.000000 0.410446 0.000000
1.000000 0.410827 0.000000
0.000000 0.538083 0.000000
0.041773 0.534986 0.000000
0.113181 0.531702 0.000000
0.188078 0.528257 0.000000
0.265881 0.524679 0.000000
0.346009 0.520994 0.000000
0.427882 0.517229 0.000000
0.510917 0.513410 0.000000
0.594534 0.509564 0.000000
0.678150 0.505719 0.000000
0.761186 0.501900 0.000000
0.843058 0.498135 0.000000
0.923187 0.494450 0.000000
1.000000 0.490872 0.000000
1.000000 0.487427 0.000000
1.000000 0.485220 0.000000
1.000000 0.485601 0.000000
0.000000 0.612795 0.000000
0.028209 0.609698 0.000000
0.099618 0.606414 0.000000
0.174514 0.602969 0.000000
0.252317 0.599391 0.000000
0.332446 0.595706 0.000000
0.414319 0.591941 0.000000
0.497354 0.588122 0.000000
0.580970 0.584276 0.000000
0.664587 0.580431 0.000000
0.747622 0.576612 0.000000
0.829495 0.572847 0.000000
0.909623 0.569162 0.000000
0.987427 0.565584 0.000000
1.000000 0.562139 0.000000
1.000000 0.559993 0.000000
1.000000 0.560374 0.000000
0.000000 0.686987 0.000000
0.014740 0.683890 0.000000
0.086149 0.680606 0.000000
0.161045 0.677162 0.000000
0.238848 0.673584 0.000000
0.318977 0.669899 0.000000
0.400850 0.666133 0.000000
0.483885 0.662314 0.000000
0.567501 0.658469 0.000000
0.651118 0.654624 0.000000
0.734153 0.650805 0.000000
0.816026 0.647039 0.000000
0.896154 0.643354 0.000000
0.973958 0.639776 0.000000
1.000000 0.636332 0.000000
1.000000 0.634247 0.000000
1.000000 0.634628 0.000000
0.000000 0.760141 0.000000
0.001460 0.757044 0.000000
0.072868 0.753760 0.000000
0.147765 0.750315 0.000000
0.225568 0.746737 0.000000
0.305697 0.743052 0.000000
0.387569 0.739287 0.000000
0.470604 0.735468 0.000000
0.554221 0.731623 0.000000
0.637838 0.727777 0.000000
0.720873 0.723958 0.000000
0.802745 0.720193 0.000000
0.882874 0.716508 0.000000
0.960677 0.712930 0.000000
1.000000 0.709486 0.000000
1.000000 0.707461 0.000000
1.000000 0.707842 0.000000
0.000000 0.831736 0.000000
0.000000 0.828639 0.000000
0.059871 0.825355 0.000000
0.134767 0.821911 0.000000
0.212570 0.818333 0.000000
0.292699 0.814648 0.000000
0.374572 0.810882 0.000000
0.457607 0.807064 0.000000
0.541223 0.803218 0.000000
0.624840 0.799373 0.000000
0.707875 0.795554 0.000000
0.789748 0.791789 0.000000
0.869877 0.788103 0.000000
0.947680 0.784525 0.000000
1.000000 0.781081 0.000000
1.000000 0.779115 0.000000
1.000000 0.779496 0.000000
0.000000 0.901254 0.000000
0.000000 0.898157 0.000000
0.047251 0.894873 0.000000
0.122147 0.891428 0.000000
0.199950 0.887850 0.000000
0.280079 0.884165 0.000000
0.361951 0.880400 0.000000
0.444987 0.876581 0.000000
0.528603 0.872736 0.000000
0.612220 0.868890 0.000000
0.695255 0.865071 0.000000
0.777128 0.861306 0.000000
0.857256 0.857621 0.000000
0.935059 0.854043 0.000000
1.000000 0.850599 0.000000
1.000000 0.848690 0.000000
1.000000 0.849071 0.000000
0.000000 0.968174 0.000000
0.000000 0.965077 0.000000
0.035102 0.961793 0.000000
0.109998 0.958349 0.000000
0.187801 0.954771 0.000000
0.267930 0.951086 0.000000
0.349802 0.947320 0.000000
0.432838 0.943502 0.000000
0.516454 0.939656 0.000000
0.600071 0.935811 0.000000
0.683106 0.931992 0.000000
0.764979 0.928227 0.000000
0.845107 0.924542 0.000000
0.922911 0.920963 0.000000
0.997807 0.917519 0.000000
1.000000 0.915665 0.000000
1.000000 0.916046 0.000000
0.000000 1.000000 0.000000
0.000000 1.000000 0.000000
0.023519 1.000000 0.000000
0.098415 1.000000 0.000000
0.176218 1.000000 0.000000
0.256347 1.000000 0.000000
0.338219 1.000000 0.000000
0.421255 1.000000 0.000000
0.504871 1.000000 0.000000
0.588488 0.999615 0.000000
0.671523 0.995796 0.000000
0.753396 0.992031 0.000000
0.833524 0.988345 0.000000
0.911327 0.984767 0.000000
0.986224 0.981323 0.000000
1.000000 0.979522 0.000000
1.000000 0.979903 0.000000
0.000000 1.000000 0.000000
0.000000 1.000000 0.000000
0.015207 1.000000 0.000000
0.090186 1.000000 0.000000
0.168075 1.000000 0.000000
0.248292 1.000000 0.000000
0.330255 1.000000 0.000000
0.413382 1.000000 0.000000
0.497091 1.000000 0.000000
0.580799 1.000000 0.000000
0.663926 1.000000 0.000000
0.745889 1.000000 0.000000
0.826106 1.000000 0.000000
0.903995 1.000000 0.000000
0.978974 1.000000 0.000000
1.000000 1.000000 0.000000
1.000000 1.000000 0.000000
0.071796 0.000000 0.142178
0.139209 0.000000 0.138405
0.210697 0.000000 0.134404
0.285676 0.000000 0.130208
0.363565 0.000000 0.125849
0.443782 0.000000 0.121359
0.525745 0.000000 0.116772
0.608872 0.000000 0.112120
0.692580 0.000000 0.107435
0.776289 0.000000 0.102750
0.859416 0.000000 0.098098
0.941379 0.000000 0.093510
1.000000 0.000000 0.089021
1.000000 0.000000 0.084662
1.000000 0.000000 0.080465
1.000000 0.000000 0.077090
1.000000 0.000000 0.076795
0.062994 0.043135 0.131356
0.130333 0.040038 0.127509
0.201741 0.036754 0.123429
0.276637 0.033310 0.119150
0.354441 0.029732 0.114705
0.434569 0.026047 0.110127
0.516442 0.022281 0.105450
0.599477 0.018463 0.100706
0.683094 0.014617 0.095929
0.766710 0.010772 0.091152
0.849745 0.006953 0.086408
0.931618 0.003188 0.081730
1.000000 0.000000 0.077152
1.000000 0.000000 0.072707
1.000000 0.000000 0.068428
1.000000 0.000000 0.065023
1.000000 0.000000 0.064654
0.051411 0.106939 0.117632
0.118750 0.103842 0.113785
0.190158 0.100558 0.109705
0.265054 0.097114 0.105426
0.342858 0.093536 0.100981
0.422986 0.089851 0.096403
0.504859 0.086085 0.091726
0.587894 0.082267 0.086982
0.671511 0.078421 0.082204
0.755127 0.074576 0.077427
0.838162 0.070757 0.072683
0.920035 0.066992 0.068006
1.000000 0.063306 0.063428
1.000000 0.059728 0.058983
1.000000 0.056284 0.054704
1.000000 0.053727 0.051351
1.000000 0.054108 0.050982
0.039262 0.173860 0.103237
0.106601 0.170763 0.099390
0.178009 0.167479 0.095310
0.252906 0.164034 0.091031
0.330709 0.160456 0.086586
0.410837 0.156771 0.082008
0.492710 0.153006 0.077331
0.575745 0.149187 0.072587
0.659362 0.145342 0.067810
0.742978 0.141496 0.063032
0.826014 0.137677 0.058288
0.907886 0.133912 0.053611
0.988015 0.130227 0.049033
1.000000 0.126649 0.044588
1.000000 0.123204 0.040309
1.000000 0.120703 0.037012
1.000000 0.121084 0.036642
0.026641 0.243377 0.088284
0.093980 0.240280 0.084436
0.165389 0.236996 0.080357
0.240285 0.233552 0.076078
0.318088 0.229974 0.071633
0.398217 0.226289 0.067055
0.480090 0.222523 0.062377
0.563125 0.218705 0.057633
0.646741 0.214859 0.052856
0.730358 0.211014 0.048079
0.813393 0.207195 0.043335
0.895266 0.203430 0.038657
0.975394 0.199745 0.034080
1.000000 0.196166 0.029634
1.000000 0.192722 0.025355
1.000000 0.190278 0.022115
1.000000 0.190658 0.021746
0.013644 0.314973 0.072883
0.080983 0.311876 0.069036
0.152391 0.308592 0.064956
0.227288 0.305147 0.060677
0.305091 0.301569 0.056232
0.385219 0.297884 0.051654
0.467092 0.294119 0.046977
0.550127 0.290300 0.042233
0.633744 0.286455 0.037456
0.717360 0.282609 0.032679
0.800396 0.278790 0.027935
0.882268 0.275025 0.023257
0.962397 0.271340 0.018679
1.000000 0.267762 0.014234
1.000000 0.264317 0.009955
1.000000 0.261932 0.006774
1.000000 0.262313 0.006405
0.000363 0.388126 0.057148
0.067702 0.385029 0.053301
0.139111 0.381745 0.049221
0.214007 0.378301 0.044942
0.291810 0.374723 0.040497
0.371939 0.371038 0.035919
0.453812 0.367272 0.031241
0.536847 0.363454 0.026497
0.620463 0.359608 0.021720
0.704080 0.355763 0.016943
0.787115 0.351944 0.012199
0.868988 0.348179 0.007521
0.949116 0.344494 0.002944
1.000000 0.340916 0.000000
1.000000 0.337471 0.000000
1.000000 0.335146 0.000000
1.000000 0.335527 0.000000
0.000000 0.462319 0.041189
0.054233 0.459222 0.037342
0.125642 0.455938 0.033262
0.200538 0.452493 0.028983
0.278341 0.448915 0.024538
0.358470 0.445230 0.019960
0.440343 0.441465 0.015282
0.523378 0.437646 0.010538
0.606994 0.433801 0.005761
0.690611 0.429955 0.000984
0.773646 0.426137 0.000000
0.855519 0.422371 0.000000
0.935647 0.418686 0.000000
1.000000 0.415108 0.000000
1.000000 0.411664 0.000000
1.000000 0.409399 0.000000
1.000000 0.409780 0.000000
0.000000 0.537031 0.025118
0.040670 0.533934 0.021271
0.112078 0.530650 0.017191
0.186975 0.527205 0.012912
0.264778 0.523627 0.008467
0.344907 0.519942 0.003889
0.426779 0.516177 0.000000
0.509814 0.512358 0.000000
0.593431 0.508513 0.000000
0.677048 0.504667 0.000000
0.760083 0.500849 0.000000
0.841956 0.497083 0.000000
0.922084 0.493398 0.000000
0.999887 0.489820 0.000000
1.000000 0.486376 0.000000
1.000000 0.484173 0.000000
1.000000 0.484554 0.000000
0.000000 0.611743 0.009047
0.027107 0.608646 0.005200
0.098515 0.605362 0.001120
0.173412 0.601917 0.000000
0.251215 0.598339 0.000000
0.331343 0.594654 0.000000
0.413216 0.590889 0.000000
0.496251 0.587070 0.000000
0.579868 0.583225 0.000000
0.663484 0.579379 0.000000
0.746520 0.575561 0.000000
0.828392 0.571795 0.000000
0.908521 0.568110 0.000000
0.986324 0.564532 0.000000
1.000000 0.561088 0.000000
1.000000 0.558946 0.000000
1.000000 0.559327 0.000000
0.000000 0.685935 0.000000
0.013638 0.682838 0.000000
0.085046 0.679554 0.000000
0.159943 0.676110 0.000000
0.237746 0.672532 0.000000
0.317874 0.668847 0.000000
0.399747 0.665082 0.000000
0.482782 0.661263 0.000000
0.566399 0.657417 0.000000
0.650015 0.653572 0.000000
0.733051 0.649753 0.000000
0.814923 0.645988 0.000000
0.895052 0.642303 0.000000
0.972855 0.638725 0.000000
1.000000 0.635280 0.000000
1.000000 0.633200 0.000000
1.000000 0.633581 0.000000
0.000000 0.759089 0.000000
0.000357 0.755992 0.000000
0.071766 0.752708 0.000000
0.146662 0.749264 0.000000
0.224465 0.745686 0.000000
0.304594 0.742000 0.000000
0.386466 0.738235 0.000000
0.469502 0.734416 0.000000
0.553118 0.730571 0.000000
0.636735 0.726725 0.000000
0.719770 0.722907 0.000000
0.801643 0.719141 0.000000
0.881771 0.715456 0.000000
0.959575 0.711878 0.000000
1.000000 0.708434 0.000000
1.000000 0.706414 0.000000
1.000000 0.706795 0.000000
0.000000 0.830684 0.000000
0.000000 0.827588 0.000000
0.058768 0.824304 0.000000
0.133665 0.820859 0.000000
0.211468 0.817281 0.000000
0.291596 0.813596 0.000000
0.373469 0.809831 0.000000
0.456504 0.806012 0.000000
0.540121 0.802166 0.000000
0.623737 0.798321 0.000000
0.706773 0.794502 0.000000
0.788645 0.790737 0.000000
0.868774 0.787052 0.000000
0.946577 0.783474 0.000000
1.000000 0.780029 0.000000
1.000000 0.778068 0.000000
1.000000 0.778449 0.000000
0.000000 0.900202 0.000000
0.000000 0.897105 0.000000
0.046148 0.893821 0.000000
0.121044 0.890377 0.000000
0.198847 0.886799 0.000000
0.278976 0.883113 0.000000
0.360849 0.879348 0.000000
0.443884 0.875529 0.000000
0.527500 0.871684 0.000000
0.611117 0.867838 0.000000
0.694152 0.864020 0.000000
0.776025 0.860254 0.000000
0.856153 0.856569 0.000000
0.933957 0.852991 0.000000
1.000000 0.849547 0.000000
1.000000 0.847643 0.000000
1.000000 0.848024 0.000000
0.000000 0.967123 0.000000
0.000000 0.964026 0.000000
0.033999 0.960742 0.000000
0.108895 0.957297 0.000000
0.186699 0.953719 0.000000
0.266827 0.950034 0.000000
0.348700 0.946269 0.000000
0.431735 0.942450 0.000000
0.515352 0.938604 0.000000
0.598968 0.934759 0.000000
0.682004 0.930940 0.000000
0.763876 0.927175 0.000000
0.844005 0.923490 0.000000
0.921808 0.919912 0.000000
0.996704 0.916467 0.000000
1.000000 0.914619 0.000000
1.000000 0.915000 0.000000
0.000000 1.000000 0.000000
0.000000 1.000000 0.000000
0.022416 1.000000 0.000000
0.097312 1.000000 0.000000
0.175116 1.000000 0.000000
0.255244 1.000000 0.000000
0.337117 1.000000 0.000000
0.420152 1.000000 0.000000
0.503769 1.000000 0.000000
0.587385 0.998563 0.000000
0.670420 0.994744 0.000000
0.752293 0.990979 0.000000
0.832422 0.987294 0.000000
0.910225 0.983716 0.000000
0.985121 0.980271 0.000000
1.000000 0.978475 0.000000
1.000000 0.978856 0.000000
0.000000 1.000000 0.000000
0.000000 1.000000 0.000000
0.014129 1.000000 0.000000
0.089108 1.000000 0.000000
0.166997 1.000000 0.000000
0.247214 1.000000 0.000000
0.329177 1.000000 0.000000
0.412304 1.000000 0.000000
0.496013 1.000000 0.000000
0.579722 1.000000 0.000000
0.662849 1.000000 0.000000
0.744812 1.000000 0.000000
0.825029 1.000000 0.000000
0.902918 1.000000 0.000000
0.977897 1.000000 0.000000
1.000000 1.000000 0.000000
1.000000 1.000000 0.000000
0.070654 0.000000 0.215671
0.138067 0.000000 0.211898
0.209554 0.000000 0.207897
0.284533 0.000000 0.203701
0.362422 0.000000 0.199342
0.442639 0.000000 0.194852
0.524602 0.000000 0.190265
0.607729 0.000000 0.185613
0.691438 0.000000 0.180928
0.775147 0.000000 0.176243
0.858274 0.000000 0.171590
0.940237 0.000000 0.167003
1.000000 0.000000 0.162514
1.000000 0.000000 0.158155
1.000000 0.000000 0.153958
1.000000 0.000000 0.150588
1.000000 0.000000 0.150293
0.061824 0.042020 0.204822
0.129163 0.038923 0.200975
0.200572 0.035639 0.196895
0.275468 0.032195 0.192616
0.353271 0.028617 0.188171
0.433400 0.024931 0.183594
0.515272 0.021166 0.178916
0.598308 0.017347 0.174172
0.681924 0.013502 0.169395
0.765541 0.009656 0.164618
0.848576 0.005838 0.159874
0.930449 0.002072 0.155196
1.000000 0.000000 0.150618
1.000000 0.000000 0.146173
1.000000 0.000000 0.141894
1.000000 0.000000 0.138495
1.000000 0.000000 0.138125
0.050241 0.105824 0.191098
0.117580 0.102727 0.187251
0.188989 0.099443 0.183171
0.263885 0.095999 0.178892
0.341688 0.092420 0.174447
0.421817 0.088735 0.169869
0.503689 0.084970 0.165192
0.586725 0.081151 0.160448
0.670341 0.077306 0.155670
0.753958 0.073460 0.150893
0.836993 0.069642 0.146149
0.918866 0.065876 0.141472
0.998994 0.062191 0.136894
1.000000 0.058613 0.132449
1.000000 0.055169 0.128170
1.000000 0.052617 0.124823
1.000000 0.052998 0.124453
0.038092 0.172744 0.176703
0.105431 0.169647 0.172856
0.176840 0.166363 0.168776
0.251736 0.162919 0.164497
0.329539 0.159341 0.160052
0.409668 0.155656 0.155474
0.491541 0.151891 0.150797
0.574576 0.148072 0.146053
0.658192 0.144226 0.141276
0.741809 0.140381 0.136498
0.824844 0.136562 0.131754
0.906717 0.132797 0.127077
0.986845 0.129112 0.122499
1.000000 0.125534 0.118054
1.000000 0.122089 0.113775
1.000000 0.119593 0.110483
1.000000 0.119974 0.110114
0.025472 0.242262 0.161750
0.092811 0.239165 0.157903
0.164219 0.235881 0.153823
0.239116 0.232437 0.149544
0.316919 0.228858 0.145099
0.397048 0.225173 0.140521
0.478920 0.221408 0.135843
0.561955 0.217589 0.131099
0.645572 0.213744 0.126322
0.729189 0.209898 0.121545
0.812224 0.206080 0.116801
0.894097 0.202314 0.112123
0.974225 0.198629 0.107546
1.000000 0.195051 0.103101
1.000000 0.191607 0.098822
1.000000 0.189168 0.095587
1.000000 0.189549 0.095217
0.012475 0.313857 0.146349
0.079814 0.310760 0.142502
0.151222 0.307476 0.138422
0.226118 0.304032 0.134143
0.303922 0.300454 0.129698
0.384050 0.296769 0.125121
0.465923 0.293004 0.120443
0.548958 0.289185 0.115699
0.632575 0.285339 0.110922
0.716191 0.281494 0.106145
0.799226 0.277675 0.101401
0.881099 0.273910 0.096723
0.961228 0.270225 0.092145
1.000000 0.266647 0.087700
1.000000 0.263202 0.083421
1.000000 0.260822 0.080245
1.000000 0.261203 0.079876
0.000000 0.387011 0.130614
0.066533 0.383914 0.126767
0.137941 0.380630 0.122687
0.212838 0.377186 0.118408
0.290641 0.373608 0.113963
0.370770 0.369922 0.109385
0.452642 0.366157 0.104707
0.535678 0.362338 0.099963
0.619294 0.358493 0.095186
0.702911 0.354647 0.090409
0.785946 0.350829 0.085665
0.867819 0.347063 0.080988
0.947947 0.343378 0.076410
1.000000 0.339800 0.071965
1.000000 0.336356 0.067686
1.000000 0.334036 0.064570
1.000000 0.334417 0.064201
0.000000 0.461204 0.114655
0.053064 0.458107 0.110808
0.124472 0.454823 0.106728
0.199369 0.451378 0.102449
0.277172 0.447800 0.098004
0.357301 0.444115 0.093426
0.439173 0.440350 0.088748
0.522208 0.436531 0.084004
0.605825 0.432686 0.079227
0.689442 0.428840 0.074450
0.772477 0.425021 0.069706
0.854350 0.421256 0.065029
0.934478 0.417571 0.060451
1.000000 0.413993 0.056006
1.000000 0.410548 0.051727
1.000000 0.408289 0.048672
1.000000 0.408670 0.048303
0.000000 0.535916 0.098584
0.039501 0.532819 0.094737
0.110909 0.529535 0.090657
0.185806 0.526090 0.086378
0.263609 0.522512 0.081933
0.343737 0.518827 0.077355
0.425610 0.515062 0.072678
0.508645 0.511243 0.067934
0.592262 0.507397 0.063156
0.675878 0.503552 0.058379
0.758914 0.499733 0.053635
0.840786 0.495968 0.048958
0.920915 0.492283 0.044380
0.998718 0.488705 0.039935
1.000000 0.485260 0.035656
1.000000 0.483063 0.032663
1.000000 0.483444 0.032293
0.000000 0.610628 0.082513
0.025937 0.607531 0.078666
0.097346 0.604247 0.074586
0.172242 0.600802 0.070307
0.250045 0.597224 0.065862
0.330174 0.593539 0.061284
0.412047 0.589774 0.056607
0.495082 0.585955 0.051863
0.578698 0.582109 0.047086
0.662315 0.578264 0.042309
0.745350 0.574445 0.037565
0.827223 0.570680 0.032887
0.907351 0.566995 0.028309
0.985155 0.563417 0.023864
1.000000 0.559972 0.019585
1.000000 0.557836 0.016654
1.000000 0.558217 0.016284
0.000000 0.684820 0.066554
0.012468 0.681723 0.062707
0.083877 0.678439 0.058627
0.158773 0.674995 0.054348
0.236576 0.671417 0.049903
0.316705 0.667732 0.045325
0.398578 0.663966 0.040648
0.481613 0.660147 0.035904
0.565229 0.656302 0.031127
0.648846 0.652457 0.026349
0.731881 0.648638 0.021605
0.813754 0.644873 0.016928
0.893882 0.641187 0.012350
0.971686 0.637609 0.007905
1.000000 0.634165 0.003626
1.000000 0.632090 0.000756
1.000000 0.632471 0.000386
0.000000 0.757974 0.050819
0.000000 0.754877 0.046971
0.070596 0.751593 0.042892
0.145493 0.748148 0.038613
0.223296 0.744570 0.034168
0.303425 0.740885 0.029590
0.385297 0.737120 0.024912
0.468332 0.733301 0.020168
0.551949 0.729456 0.015391
0.635566 0.725610 0.010614
0.718601 0.721791 0.005870
0.800473 0.718026 0.001192
0.880602 0.714341 0.000000
0.958405 0.710763 0.000000
1.000000 0.707319 0.000000
1.000000 0.705304 0.000000
1.000000 0.705685 0.000000
0.000000 0.829569 0.035418
0.000000 0.826472 0.031571
0.057599 0.823188 0.027491
0.132495 0.819744 0.023212
0.210298 0.816166 0.018767
0.290427 0.812481 0.014189
0.372300 0.808715 0.009512
0.455335 0.804897 0.004768
0.538951 0.801051 0.000000
0.622568 0.797206 0.000000
0.705603 0.793387 0.000000
0.787476 0.789622 0.000000
0.867605 0.785936 0.000000
0.945408 0.782358 0.000000
1.000000 0.778914 0.000000
1.000000 0.776958 0.000000
1.000000 0.777339 0.000000
0.000000 0.899087 0.020465
0.000000 0.895990 0.016618
0.044979 0.892706 0.012538
0.119875 0.889261 0.008259
0.197678 0.885683 0.003814
0.277807 0.881998 0.000000
0.359679 0.878233 0.000000
0.442715 0.874414 0.000000
0.526331 0.870569 0.000000
0.609948 0.866723 0.000000
0.692983 0.862904 0.000000
0.774856 0.859139 0.000000
0.854984 0.855454 0.000000
0.932787 0.851876 0.000000
1.000000 0.848432 0.000000
1.000000 0.846533 0.000000
1.000000 0.846914 0.000000
0.000000 0.966007 0.006070
0.000000 0.962910 0.002223
0.032830 0.959626 0.000000
0.107726 0.956182 0.000000
0.185529 0.952604 0.000000
0.265658 0.948919 0.000000
0.347530 0.945153 0.000000
0.430566 0.941335 0.000000
0.514182 0.937489 0.000000
0.597799 0.933644 0.000000
0.680834 0.929825 0.000000
0.762707 0.926060 0.000000
0.842835 0.922375 0.000000
0.920639 0.918796 0.000000
0.995535 0.915352 0.000000
1.000000 0.913509 0.000000
1.000000 0.913890 0.000000
0.000000 1.000000 0.000000
0.000000 1.000000 0.000000
0.021247 1.000000 0.000000
0.096143 1.000000 0.000000
0.173946 1.000000 0.000000
0.254075 1.000000 0.000000
0.335947 1.000000 0.000000
0.418983 1.000000 0.000000
0.502599 1.000000 0.000000
0.586216 0.997448 0.000000
0.669251 0.993629 0.000000
0.751124 0.989864 0.000000
0.831252 0.986178 0.000000
0.909055 0.982600 0.000000
0.983952 0.979156 0.000000
1.000000 0.977365 0.000000
1.000000 0.977746 0.000000
0.000000 1.000000 0.000000
0.000000 1.000000 0.000000
0.012987 1.000000 0.000000
0.087966 1.000000 0.000000
0.165855 1.000000 0.000000
0.246072 1.000000 0.000000
0.328035 1.000000 0.000000
0.411162 1.000000 0.000000
0.494871 1.000000 0.000000
0.578579 1.000000 0.000000
0.661706 1.000000 0.000000
0.743669 1.000000 0.000000
0.823886 1.000000 0.000000
0.901775 1.000000 0.000000
0.976754 1.000000 0.000000
1.000000 1.000000 0.000000
1.000000 1.000000 0.000000
0.069455 0.000000 0.292754
0.136869 0.000000 0.288981
0.208356 0.000000 0.284980
0.283335 0.000000 0.280784
0.361224 0.000000 0.276424
0.441441 0.000000 0.271935
0.523404 0.000000 0.267348
0.606531 0.000000 0.262695
0.690239 0.000000 0.258010
0.773948 0.000000 0.253326
0.857075 0.000000 0.248673
0.939038 0.000000 0.244086
1.000000 0.000000 0.239596
1.000000 0.000000 0.235237
1.000000 0.000000 0.231041
