assets/luts/cinestill.cube
# Cinestill — Studio filter "cinestill"
# Generated by scripts/generate-filter-luts.mjs — do not edit by hand.
LUT_3D_SIZE 17
DOMAIN_MIN 0.0 0.0 0.0
DOMAIN_MAX 1.0 1.0 1.0
0.000000 0.000000 0.070000
0.037093 0.000356 0.068933
0.098142 0.000736 0.067791
0.162582 0.001138 0.066586
0.229848 0.001557 0.065329
0.299375 0.001990 0.064029
0.370597 0.002434 0.062697
0.442950 0.002885 0.061344
0.515867 0.003340 0.059981
0.588785 0.003794 0.058618
0.661138 0.004245 0.057265
0.732360 0.004689 0.055933
0.801887 0.005122 0.054633
0.869153 0.005541 0.053376
0.933593 0.005943 0.052171
0.994642 0.006324 0.051029
1.000000 0.006378 0.050866
0.000000 0.055344 0.066512
0.038963 0.054991 0.065532
0.099955 0.054630 0.064438
0.164334 0.054248 0.063282
0.231537 0.053849 0.062076
0.300999 0.053437 0.060830
0.372155 0.053015 0.059553
0.444439 0.052587 0.058255
0.517289 0.052155 0.056948
0.590138 0.051722 0.055640
0.662423 0.051294 0.054343
0.733579 0.050872 0.053066
0.803040 0.050460 0.051819
0.870243 0.050061 0.050613
0.934623 0.049679 0.049458
0.995615 0.049318 0.048363
1.000000 0.048693 0.048200
0.000000 0.114524 0.062783
0.041019 0.114155 0.061850
0.102011 0.113793 0.060755
0.166391 0.113412 0.059600
0.233594 0.113013 0.058394
0.303055 0.112601 0.057147
0.374211 0.112179 0.055870
0.446496 0.111750 0.054573
0.519345 0.111318 0.053265
0.592195 0.110886 0.051958
0.664479 0.110458 0.050660
0.735635 0.110036 0.049383
0.805097 0.109624 0.048137
0.872300 0.109225 0.046931
0.936679 0.108843 0.045775
0.997671 0.108481 0.044681
1.000000 0.107872 0.044470
0.000000 0.176990 0.058847
0.043190 0.176605 0.057963
0.104182 0.176244 0.056868
0.168561 0.175862 0.055713
0.235764 0.175463 0.054507
0.305226 0.175051 0.053260
0.376382 0.174629 0.051983
0.448666 0.174200 0.050686
0.521516 0.173768 0.049378
0.594365 0.173336 0.048071
0.666650 0.172908 0.046773
0.737806 0.172486 0.045496
0.807267 0.172074 0.044250
0.874470 0.171675 0.043044
0.938850 0.171293 0.041888
0.999842 0.170931 0.040794
1.000000 0.170339 0.040534
0.000000 0.242196 0.054738
0.045455 0.241794 0.053905
0.106447 0.241432 0.052811
0.170827 0.241050 0.051655
0.238030 0.240652 0.050449
0.307492 0.240240 0.049203
0.378647 0.239818 0.047926
0.450932 0.239389 0.046628
0.523782 0.238957 0.045321
0.596631 0.238525 0.044013
0.668916 0.238096 0.042716
0.740071 0.237674 0.041439
0.809533 0.237262 0.040192
0.876736 0.236864 0.038986
0.941116 0.236482 0.037831
1.000000 0.236120 0.036736
1.000000 0.235544 0.036425
0.003845 0.309593 0.050491
0.047797 0.309173 0.049712
0.108789 0.308812 0.048617
0.173169 0.308430 0.047462
0.240372 0.308031 0.046255
0.309834 0.307619 0.045009
0.380989 0.307197 0.043732
0.453274 0.306769 0.042434
0.526124 0.306337 0.041127
0.598973 0.305905 0.039819
0.671258 0.305476 0.038522
0.742413 0.305054 0.037245
0.811875 0.304642 0.035998
0.879078 0.304243 0.034792
0.943458 0.303861 0.033637
1.000000 0.303500 0.032542
1.000000 0.302942 0.032178
0.009162 0.378634 0.046140
0.050196 0.378196 0.045416
0.111188 0.377834 0.044321
0.175568 0.377453 0.043165
0.242771 0.377054 0.041959
0.312233 0.376642 0.040713
0.383388 0.376220 0.039436
0.455673 0.375791 0.038138
0.528523 0.375359 0.036831
0.601372 0.374927 0.035523
0.673657 0.374499 0.034226
0.744813 0.374077 0.032949
0.814274 0.373665 0.031702
0.881477 0.373266 0.030496
0.945857 0.372884 0.029341
1.000000 0.372522 0.028246
1.000000 0.371983 0.027827
0.014564 0.448771 0.041720
0.052634 0.448314 0.041051
0.113626 0.447953 0.039957
0.178005 0.447571 0.038801
0.245208 0.447172 0.037595
0.314670 0.446760 0.036348
0.385826 0.446338 0.035071
0.458110 0.445909 0.033774
0.530960 0.445477 0.032467
0.603809 0.445045 0.031159
0.676094 0.444617 0.029862
0.747250 0.444195 0.028585
0.816711 0.443783 0.027338
0.883914 0.443384 0.026132
0.948294 0.443002 0.024976
1.000000 0.442641 0.023882
1.000000 0.442119 0.023407
0.020008 0.519455 0.037266
0.055090 0.518980 0.036653
0.116082 0.518618 0.035558
0.180462 0.518237 0.034403
0.247665 0.517838 0.033197
0.317126 0.517426 0.031950
0.388282 0.517004 0.030673
0.460567 0.516575 0.029376
0.533416 0.516143 0.028068
0.606266 0.515711 0.026761
0.678550 0.515283 0.025463
0.749706 0.514861 0.024186
0.819167 0.514449 0.022940
0.886371 0.514050 0.021734
0.950750 0.513668 0.020578
1.000000 0.513306 0.019483
1.000000 0.512804 0.018953
0.025452 0.590140 0.032812
0.057546 0.589646 0.032254
0.118538 0.589284 0.031160
0.182918 0.588902 0.030004
0.250121 0.588504 0.028798
0.319582 0.588092 0.027552
0.390738 0.587670 0.026275
0.463023 0.587241 0.024977
0.535872 0.586809 0.023670
0.608722 0.586377 0.022362
0.681007 0.585948 0.021065
0.752162 0.585526 0.019788
0.821624 0.585114 0.018541
0.888827 0.584716 0.017335
0.953207 0.584334 0.016180
1.000000 0.583972 0.015085
1.000000 0.583488 0.014499
0.030854 0.660276 0.028392
0.059983 0.659764 0.027890
0.120975 0.659402 0.026796
0.185355 0.659021 0.025640
0.252558 0.658622 0.024434
0.322020 0.658210 0.023187
0.393175 0.657788 0.021910
0.465460 0.657359 0.020613
0.538309 0.656927 0.019305
0.611159 0.656495 0.017998
0.683444 0.656067 0.016701
0.754599 0.655644 0.015424
0.824061 0.655233 0.014177
0.891264 0.654834 0.012971
0.955644 0.654452 0.011815
1.000000 0.654090 0.010721
1.000000 0.653625 0.010079
0.036172 0.729317 0.024041
0.062382 0.728787 0.023594
0.123374 0.728425 0.022499
0.187754 0.728043 0.021344
0.254957 0.727645 0.020138
0.324419 0.727233 0.018891
0.395574 0.726811 0.017614
0.467859 0.726382 0.016317
0.540708 0.725950 0.015009
0.613558 0.725518 0.013702
0.685843 0.725089 0.012405
0.756998 0.724667 0.011127
0.826460 0.724255 0.009881
0.893663 0.723857 0.008675
0.958043 0.723475 0.007519
1.000000 0.723113 0.006425
1.000000 0.722666 0.005728
0.041363 0.796715 0.019794
0.064724 0.796166 0.019400
0.125716 0.795805 0.018306
0.190096 0.795423 0.017150
0.257299 0.795024 0.015944
0.326761 0.794612 0.014697
0.397916 0.794190 0.013420
0.470201 0.793762 0.012123
0.543050 0.793330 0.010816
0.615900 0.792897 0.009508
0.688185 0.792469 0.008211
0.759340 0.792047 0.006934
0.828802 0.791635 0.005687
0.896005 0.791236 0.004481
0.960385 0.790854 0.003325
1.000000 0.790493 0.002231
1.000000 0.790063 0.001481
0.046385 0.861920 0.015685
0.066990 0.861355 0.015343
0.127982 0.860993 0.014248
0.192362 0.860612 0.013093
0.259565 0.860213 0.011887
0.329026 0.859801 0.010640
0.400182 0.859379 0.009363
0.472467 0.858950 0.008065
0.545316 0.858518 0.006758
0.618166 0.858086 0.005451
0.690451 0.857657 0.004153
0.761606 0.857235 0.002876
0.831068 0.856823 0.001630
0.898271 0.856425 0.000423
0.962651 0.856043 0.000000
1.000000 0.855681 0.000000
1.000000 0.855269 0.000000
0.051196 0.924387 0.011749
0.069161 0.923805 0.011456
0.130153 0.923443 0.010361
0.194532 0.923062 0.009206
0.261735 0.922663 0.008000
0.331197 0.922251 0.006753
0.402353 0.921829 0.005476
0.474637 0.921400 0.004178
0.547487 0.920968 0.002871
0.620336 0.920536 0.001564
0.692621 0.920107 0.000266
0.763777 0.919685 0.000000
0.833238 0.919274 0.000000
0.900441 0.918875 0.000000
0.964821 0.918493 0.000000
1.000000 0.918131 0.000000
1.000000 0.917735 0.000000
0.055754 0.983566 0.008020
0.071217 0.982969 0.007773
0.132209 0.982607 0.006679
0.196589 0.982225 0.005523
0.263792 0.981827 0.004317
0.333254 0.981415 0.003070
0.404409 0.980993 0.001793
0.476694 0.980564 0.000496
0.549543 0.980132 0.000000
0.622393 0.979700 0.000000
0.694678 0.979271 0.000000
0.765833 0.978849 0.000000
0.835295 0.978437 0.000000
0.902498 0.978039 0.000000
0.966878 0.977657 0.000000
1.000000 0.977295 0.000000
1.000000 0.976915 0.000000
0.058672 1.000000 0.005632
0.071849 1.000000 0.005386
0.132898 1.000000 0.004244
0.197339 1.000000 0.003039
0.264605 1.000000 0.001782
0.334131 1.000000 0.000482
0.405354 1.000000 0.000000
0.477706 1.000000 0.000000
0.550624 1.000000 0.000000
0.623542 1.000000 0.000000
0.695894 1.000000 0.000000
0.767116 1.000000 0.000000
0.836643 1.000000 0.000000
0.903909 1.000000 0.000000
0.968349 1.000000 0.000000
1.000000 1.000000 0.000000
1.000000 1.000000 0.000000
0.000000 0.000122 0.125872
0.037298 0.000475 0.124133
0.098341 0.000854 0.122270
0.162775 0.001254 0.120303
0.230035 0.001671 0.118250
0.299555 0.002103 0.116128
0.370771 0.002545 0.113954
0.443116 0.002994 0.111746
0.516027 0.003446 0.109520
0.588938 0.003899 0.107295
0.661284 0.004348 0.105087
0.732499 0.004790 0.102913
0.802019 0.005221 0.100791
0.869279 0.005639 0.098738
0.933713 0.006039 0.096771
0.994756 0.006418 0.094907
1.000000 0.006472 0.094064
0.000000 0.055225 0.120128
0.039131 0.054870 0.118477
0.100118 0.054506 0.116661
0.164491 0.054123 0.114743
0.231688 0.053723 0.112742
0.301143 0.053309 0.110673
0.372292 0.052885 0.108553
0.444570 0.052454 0.106401
0.517412 0.052020 0.104231
0.590255 0.051586 0.102061
0.662533 0.051156 0.099908
0.733682 0.050732 0.097789
0.803137 0.050318 0.095720
0.870333 0.049918 0.093719
0.934707 0.049534 0.091801
0.995693 0.049171 0.089985
1.000000 0.048546 0.089142
0.000000 0.114400 0.113970
0.041168 0.114028 0.112366
0.102155 0.113665 0.110550
0.166528 0.113281 0.108632
0.233725 0.112881 0.106631
0.303180 0.112467 0.104562
0.374329 0.112043 0.102442
0.446607 0.111613 0.100290
0.519449 0.111179 0.098120
0.592292 0.110745 0.095950
0.664570 0.110314 0.093797
0.735719 0.109890 0.091678
0.805174 0.109477 0.089609
0.872370 0.109076 0.087608
0.936744 0.108693 0.085690
0.997730 0.108330 0.083874
1.000000 0.107720 0.082984
0.000000 0.176860 0.107470
0.043318 0.176473 0.105916
0.104305 0.176109 0.104099
0.168678 0.175726 0.102182
0.235875 0.175325 0.100180
0.305330 0.174912 0.098111
0.376479 0.174488 0.095992
0.448757 0.174057 0.093839
0.521599 0.173623 0.091669
0.594442 0.173189 0.089500
0.666720 0.172759 0.087347
0.737869 0.172335 0.085228
0.807324 0.171921 0.083159
0.874520 0.171521 0.081157
0.938894 0.171137 0.079240
0.999880 0.170774 0.077423
1.000000 0.170181 0.076484
0.000000 0.242060 0.100685
0.045563 0.241655 0.099182
0.106549 0.241292 0.097366
0.170923 0.240909 0.095448
0.238119 0.240508 0.093447
0.307575 0.240095 0.091378
0.378723 0.239671 0.089259
0.451001 0.239240 0.087106
0.523844 0.238806 0.084936
0.596686 0.238372 0.082766
0.668964 0.237942 0.080614
0.740113 0.237518 0.078494
0.809568 0.237104 0.076426
0.876765 0.236704 0.074424
0.941139 0.236320 0.072507
1.000000 0.235957 0.070690
1.000000 0.235381 0.069699
0.004172 0.309452 0.093673
0.047883 0.309029 0.092223
0.108869 0.308666 0.090406
0.173243 0.308282 0.088489
0.240439 0.307882 0.086487
0.309894 0.307468 0.084418
0.381043 0.307044 0.082299
0.453321 0.306614 0.080146
0.526164 0.306180 0.077977
0.599006 0.305746 0.075807
0.671284 0.305315 0.073654
0.742433 0.304891 0.071535
0.811888 0.304478 0.069466
0.879085 0.304077 0.067464
0.943458 0.303694 0.065547
1.000000 0.303330 0.063730
1.000000 0.302772 0.062686
0.009466 0.378486 0.086489
0.050259 0.378045 0.085093
0.111245 0.377682 0.083277
0.175619 0.377299 0.081359
0.242816 0.376898 0.079358
0.312271 0.376485 0.077289
0.383420 0.376061 0.075170
0.455698 0.375630 0.073017
0.528540 0.375196 0.070847
0.601383 0.374762 0.068678
0.673661 0.374332 0.066525
0.744810 0.373908 0.064405
0.814265 0.373494 0.062337
0.881461 0.373094 0.060335
0.945835 0.372710 0.058418
1.000000 0.372347 0.056601
1.000000 0.371807 0.055503
0.014845 0.448617 0.079191
0.052673 0.448157 0.077851
0.113660 0.447794 0.076034
0.178033 0.447411 0.074117
0.245230 0.447010 0.072116
0.314685 0.446596 0.070047
0.385834 0.446173 0.067927
0.458112 0.445742 0.065775
0.530954 0.445308 0.063605
0.603797 0.444874 0.061435
0.676075 0.444444 0.059282
0.747224 0.444020 0.057163
0.816679 0.443606 0.055094
0.883875 0.443206 0.053093
0.948249 0.442822 0.051175
1.000000 0.442459 0.049359
1.000000 0.441937 0.048205
0.020266 0.519295 0.071836
0.055106 0.518817 0.070552
0.116093 0.518454 0.068735
0.180466 0.518070 0.066818
0.247663 0.517670 0.064816
0.317118 0.517256 0.062748
0.388267 0.516832 0.060628
0.460545 0.516402 0.058476
0.533387 0.515968 0.056306
0.606230 0.515534 0.054136
0.678508 0.515103 0.051983
0.749657 0.514679 0.049864
0.819112 0.514265 0.047795
0.886308 0.513865 0.045794
0.950682 0.513482 0.043876
1.000000 0.513118 0.042060
1.000000 0.512616 0.040850
0.025687 0.589973 0.064481
0.057539 0.589476 0.063253
0.118526 0.589113 0.061436
0.182899 0.588730 0.059519
0.250096 0.588329 0.057517
0.319551 0.587916 0.055449
0.390700 0.587492 0.053329
0.462978 0.587061 0.051177
0.535820 0.586627 0.049007
0.608663 0.586193 0.046837
0.680941 0.585763 0.044684
0.752090 0.585339 0.042565
0.821545 0.584925 0.040496
0.888741 0.584525 0.038495
0.953115 0.584141 0.036577
1.000000 0.583778 0.034761
1.000000 0.583294 0.033495
0.031066 0.660103 0.057183
0.059954 0.659588 0.056011
0.120940 0.659225 0.054194
0.185313 0.658841 0.052277
0.252510 0.658441 0.050275
0.321965 0.658027 0.048206
0.393114 0.657604 0.046087
0.465392 0.657173 0.043934
0.538234 0.656739 0.041764
0.611077 0.656305 0.039595
0.683355 0.655874 0.037442
0.754504 0.655451 0.035323
0.823959 0.655037 0.033254
0.891156 0.654637 0.031252
0.955529 0.654253 0.029335
1.000000 0.653890 0.027518
1.000000 0.653424 0.026197
0.036361 0.729138 0.049999
0.062330 0.728605 0.048881
0.123316 0.728241 0.047065
0.187690 0.727858 0.045147
0.254887 0.727458 0.043146
0.324342 0.727044 0.041077
0.395490 0.726620 0.038958
0.467768 0.726189 0.036805
0.540611 0.725756 0.034635
0.613453 0.725322 0.032465
0.685731 0.724891 0.030312
0.756880 0.724467 0.028193
0.826335 0.724053 0.026124
0.893532 0.723653 0.024123
0.957906 0.723270 0.022205
1.000000 0.722906 0.020389
1.000000 0.722459 0.019013
0.041530 0.796529 0.042986
0.064650 0.795978 0.041922
0.125636 0.795615 0.040105
0.190010 0.795231 0.038188
0.257206 0.794831 0.036186
0.326661 0.794417 0.034117
0.397810 0.793994 0.031998
0.470088 0.793563 0.029845
0.542931 0.793129 0.027675
0.615773 0.792695 0.025506
0.688051 0.792265 0.023353
0.759200 0.791841 0.021234
0.828655 0.791427 0.019165
0.895852 0.791027 0.017163
0.960226 0.790643 0.015246
1.000000 0.790280 0.013429
1.000000 0.789850 0.012000
0.046530 0.861729 0.036202
0.066894 0.861161 0.035188
0.127880 0.860798 0.033372
0.192254 0.860414 0.031454
0.259451 0.860014 0.029453
0.328906 0.859600 0.027384
0.400055 0.859176 0.025265
0.472333 0.858746 0.023112
0.545175 0.858312 0.020942
0.618018 0.857878 0.018773
0.690296 0.857447 0.016620
0.761445 0.857024 0.014500
0.830900 0.856610 0.012432
0.898096 0.856209 0.010430
0.962470 0.855826 0.008513
1.000000 0.855463 0.006696
1.000000 0.855050 0.005216
0.051321 0.924190 0.029702
0.069044 0.923606 0.028738
0.130031 0.923242 0.026921
0.194404 0.922859 0.025004
0.261601 0.922458 0.023002
0.331056 0.922045 0.020934
0.402205 0.921621 0.018814
0.474483 0.921190 0.016661
0.547325 0.920756 0.014492
0.620168 0.920322 0.012322
0.692446 0.919892 0.010169
0.763595 0.919468 0.008050
0.833050 0.919054 0.005981
0.900246 0.918654 0.003980
0.964620 0.918270 0.002062
1.000000 0.917907 0.000246
1.000000 0.917511 0.000000
0.055860 0.983364 0.023544
0.071081 0.982764 0.022627
0.132068 0.982401 0.020810
0.196441 0.982017 0.018893
0.263638 0.981617 0.016891
0.333093 0.981203 0.014823
0.404242 0.980779 0.012703
0.476520 0.980349 0.010551
0.549362 0.979915 0.008381
0.622205 0.979481 0.006211
0.694483 0.979050 0.004058
0.765632 0.978626 0.001939
0.835087 0.978213 0.000000
0.902283 0.977812 0.000000
0.966657 0.977429 0.000000
1.000000 0.977066 0.000000
1.000000 0.976685 0.000000
0.058778 1.000000 0.018870
0.071714 1.000000 0.017953
0.132757 1.000000 0.016090
0.197191 1.000000 0.014123
0.264451 1.000000 0.012070
0.333971 1.000000 0.009948
0.405186 1.000000 0.007774
0.477532 1.000000 0.005566
0.550443 1.000000 0.003340
0.623354 1.000000 0.001115
0.695699 1.000000 0.000000
0.766915 1.000000 0.000000
0.836435 1.000000 0.000000
0.903695 1.000000 0.000000
0.968129 1.000000 0.000000
1.000000 1.000000 0.000000
1.000000 1.000000 0.000000
0.000000 0.000252 0.185615
0.037523 0.000603 0.183881
0.098566 0.000982 0.182018
0.163000 0.001382 0.180051
0.230260 0.001800 0.177998
0.299780 0.002231 0.175876
0.370996 0.002673 0.173702
0.443341 0.003122 0.171494
0.516252 0.003575 0.169268
0.589163 0.004027 0.167043
0.661509 0.004476 0.164834
0.732724 0.004919 0.162661
0.802244 0.005350 0.160539
0.869504 0.005768 0.158485
0.933938 0.006167 0.156519
0.994982 0.006546 0.154655
1.000000 0.006602 0.153808
0.000000 0.055104 0.179887
0.039337 0.054746 0.178241
0.100323 0.054383 0.176424
0.164697 0.053999 0.174507
0.231894 0.053599 0.172505
0.301349 0.053185 0.170436
0.372497 0.052762 0.168317
0.444775 0.052331 0.166164
0.517618 0.051897 0.163995
0.590461 0.051463 0.161825
0.662738 0.051032 0.159672
0.733887 0.050609 0.157553
0.803342 0.050195 0.155484
0.870539 0.049795 0.153482
0.934913 0.049411 0.151565
0.995899 0.049048 0.149748
1.000000 0.048424 0.148901
0.000000 0.114278 0.173729
0.041374 0.113905 0.172130
0.102360 0.113541 0.170313
0.166734 0.113158 0.168396
0.233931 0.112758 0.166394
0.303386 0.112344 0.164325
0.374534 0.111920 0.162206
0.446812 0.111489 0.160053
0.519655 0.111055 0.157884
0.592497 0.110622 0.155714
0.664775 0.110191 0.153561
0.735924 0.109767 0.151442
0.805379 0.109353 0.149373
0.872576 0.108953 0.147371
0.936950 0.108570 0.145454
0.997936 0.108206 0.143637
1.000000 0.107598 0.142743
0.000000 0.176739 0.167229
0.043524 0.176349 0.165679
0.104510 0.175986 0.163863
0.168884 0.175602 0.161945
0.236081 0.175202 0.159944
0.305536 0.174788 0.157875
0.376685 0.174364 0.155756
0.448962 0.173934 0.153603
0.521805 0.173500 0.151433
0.594648 0.173066 0.149264
0.666926 0.172635 0.147111
0.738074 0.172212 0.144991
0.807529 0.171798 0.142923
0.874726 0.171398 0.140921
0.939100 0.171014 0.139004
1.000000 0.170651 0.137187
1.000000 0.170059 0.136243
0.000000 0.241939 0.160444
0.045769 0.241532 0.158946
0.106755 0.241169 0.157130
0.171128 0.240785 0.155212
0.238325 0.240385 0.153211
0.307780 0.239971 0.151142
0.378929 0.239547 0.149023
0.451207 0.239117 0.146870
0.524049 0.238683 0.144700
0.596892 0.238249 0.142530
0.669170 0.237818 0.140377
0.740319 0.237394 0.138258
0.809774 0.236981 0.136189
0.876971 0.236580 0.134188
0.941344 0.236197 0.132270
1.000000 0.235834 0.130454
1.000000 0.235259 0.129458
0.004630 0.309330 0.153432
0.048088 0.308906 0.151987
0.109075 0.308542 0.150170
0.173448 0.308159 0.148253
0.240645 0.307758 0.146251
0.310100 0.307345 0.144182
0.381249 0.306921 0.142063
0.453527 0.306490 0.139910
0.526369 0.306056 0.137740
0.599212 0.305622 0.135571
0.671490 0.305192 0.133418
0.742639 0.304768 0.131299
0.812094 0.304354 0.129230
0.879290 0.303954 0.127228
0.943664 0.303570 0.125311
1.000000 0.303207 0.123494
1.000000 0.302651 0.122446
0.009925 0.378365 0.146248
0.050465 0.377922 0.144857
0.111451 0.377559 0.143041
0.175825 0.377175 0.141123
0.243021 0.376775 0.139122
0.312476 0.376361 0.137053
0.383625 0.375937 0.134934
0.455903 0.375507 0.132781
0.528746 0.375073 0.130611
0.601588 0.374639 0.128441
0.673866 0.374208 0.126288
0.745015 0.373784 0.124169
0.814470 0.373371 0.122100
0.881667 0.372970 0.120099
0.946041 0.372587 0.118181
1.000000 0.372224 0.116365
1.000000 0.371685 0.115262
0.015304 0.448495 0.138950
0.052879 0.448034 0.137615
0.113865 0.447671 0.135798
0.178239 0.447287 0.133881
0.245436 0.446887 0.131879
0.314891 0.446473 0.129810
0.386039 0.446049 0.127691
0.458317 0.445619 0.125538
0.531160 0.445185 0.123369
0.604003 0.444751 0.121199
0.676280 0.444320 0.119046
0.747429 0.443896 0.116927
0.816884 0.443483 0.114858
0.884081 0.443082 0.112856
0.948455 0.442699 0.110939
1.000000 0.442335 0.109122
1.000000 0.441816 0.107964
0.020724 0.519173 0.131595
0.055312 0.518693 0.130316
0.116298 0.518330 0.128499
0.180672 0.517947 0.126582
0.247869 0.517546 0.124580
0.317324 0.517133 0.122511
0.388472 0.516709 0.120392
0.460750 0.516278 0.118239
0.533593 0.515844 0.116070
0.606436 0.515410 0.113900
0.678713 0.514980 0.111747
0.749862 0.514556 0.109628
0.819317 0.514142 0.107559
0.886514 0.513742 0.105557
0.950888 0.513358 0.103640
1.000000 0.512995 0.101823
1.000000 0.512494 0.100609
0.026145 0.589851 0.124240
0.057745 0.589353 0.123017
0.118731 0.588990 0.121200
0.183105 0.588606 0.119283
0.250302 0.588206 0.117281
0.319757 0.587792 0.115212
0.390905 0.587368 0.113093
0.463183 0.586938 0.110940
0.536026 0.586504 0.108771
0.608869 0.586070 0.106601
0.681147 0.585639 0.104448
0.752295 0.585215 0.102329
0.821750 0.584802 0.100260
0.888947 0.584401 0.098258
0.953321 0.584018 0.096341
1.000000 0.583655 0.094524
1.000000 0.583172 0.093254
0.031524 0.659982 0.116942
0.060159 0.659465 0.115774
0.121145 0.659102 0.113958
0.185519 0.658718 0.112040
0.252716 0.658318 0.110039
0.322171 0.657904 0.107970
0.393320 0.657480 0.105851
0.465598 0.657050 0.103698
0.538440 0.656616 0.101528
0.611283 0.656182 0.099358
0.683561 0.655751 0.097206
0.754709 0.655327 0.095086
0.824164 0.654913 0.093017
0.891361 0.654513 0.091016
0.955735 0.654130 0.089099
1.000000 0.653766 0.087282
1.000000 0.653302 0.085956
0.036819 0.729016 0.109758
0.062536 0.728481 0.108645
0.123522 0.728118 0.106828
0.187895 0.727735 0.104911
0.255092 0.727334 0.102909
0.324547 0.726921 0.100841
0.395696 0.726497 0.098721
0.467974 0.726066 0.096569
0.540817 0.725632 0.094399
0.613659 0.725198 0.092229
0.685937 0.724768 0.090076
0.757086 0.724344 0.087957
0.826541 0.723930 0.085888
0.893738 0.723530 0.083887
0.958111 0.723146 0.081969
1.000000 0.722783 0.080153
1.000000 0.722337 0.078772
0.041988 0.796408 0.102745
0.064855 0.795855 0.101685
0.125842 0.795492 0.099869
0.190215 0.795108 0.097951
0.257412 0.794708 0.095950
0.326867 0.794294 0.093881
0.398016 0.793870 0.091762
0.470294 0.793440 0.089609
0.543136 0.793006 0.087439
0.615979 0.792572 0.085270
0.688257 0.792141 0.083117
0.759406 0.791717 0.080997
0.828861 0.791304 0.078929
0.896057 0.790903 0.076927
0.960431 0.790520 0.075010
1.000000 0.790156 0.073193
1.000000 0.789728 0.071759
0.046989 0.861608 0.095961
0.067100 0.861038 0.094952
0.128086 0.860674 0.093136
0.192460 0.860291 0.091218
0.259656 0.859891 0.089217
0.329111 0.859477 0.087148
0.400260 0.859053 0.085029
0.472538 0.858622 0.082876
0.545381 0.858188 0.080706
0.618223 0.857755 0.078536
0.690501 0.857324 0.076383
0.761650 0.856900 0.074264
0.831105 0.856486 0.072195
0.898302 0.856086 0.070194
0.962676 0.855703 0.068276
1.000000 0.855339 0.066460
1.000000 0.854928 0.064975
0.051779 0.924069 0.089461
0.069250 0.923482 0.088502
0.130236 0.923119 0.086685
0.194610 0.922735 0.084768
0.261807 0.922335 0.082766
0.331262 0.921921 0.080697
0.402410 0.921498 0.078578
0.474688 0.921067 0.076425
0.547531 0.920633 0.074256
0.620374 0.920199 0.072086
0.692652 0.919768 0.069933
0.763800 0.919345 0.067814
0.833255 0.918931 0.065745
0.900452 0.918531 0.063743
0.964826 0.918147 0.061826
1.000000 0.917784 0.060009
1.000000 0.917389 0.058475
0.056318 0.983243 0.083303
0.071287 0.982641 0.082391
0.132273 0.982277 0.080574
0.196647 0.981894 0.078657
0.263844 0.981494 0.076655
0.333299 0.981080 0.074586
0.404447 0.980656 0.072467
0.476725 0.980225 0.070314
0.549568 0.979791 0.068145
0.622411 0.979358 0.065975
0.694689 0.978927 0.063822
0.765837 0.978503 0.061703
0.835292 0.978089 0.059634
0.902489 0.977689 0.057632
0.966863 0.977306 0.055715
1.000000 0.976942 0.053898
1.000000 0.976563 0.052317
0.059255 1.000000 0.078614
0.071939 1.000000 0.077701
0.132982 1.000000 0.075838
0.197416 1.000000 0.073871
0.264676 1.000000 0.071818
0.334196 1.000000 0.069696
0.405411 1.000000 0.067522
0.477757 1.000000 0.065314
0.550668 1.000000 0.063088
0.623579 1.000000 0.060863
0.695925 1.000000 0.058654
0.767140 1.000000 0.056481
0.836660 1.000000 0.054358
0.903920 1.000000 0.052305
0.968354 1.000000 0.050339
1.000000 1.000000 0.048475
1.000000 1.000000 0.046806
0.000000 0.000390 0.248676
0.037761 0.000739 0.246948
0.098804 0.001118 0.245085
0.163238 0.001518 0.243118
0.230498 0.001936 0.241065
0.300018 0.002367 0.238943
0.371233 0.002809 0.236769
0.443579 0.003258 0.234561
0.516490 0.003711 0.232335
0.589401 0.004163 0.230109
0.661746 0.004612 0.227901
0.732962 0.005054 0.225727
0.802482 0.005486 0.223605
0.869742 0.005903 0.221552
0.934176 0.006303 0.219585
