assets/luts/cinestill.cube
# Cinestill — Studio filter "cinestill"
# Generated by scripts/generate-filter-luts.mjs — do not edit by hand.
LUT_3D_SIZE 5
DOMAIN_MIN 0.0 0.0 0.0
DOMAIN_MAX 1.0 1.0 1.0
0.000000 0.000000 0.070000
0.229848 0.001557 0.065329
0.515867 0.003340 0.059981
0.801887 0.005122 0.054633
1.000000 0.006378 0.050866
0.000000 0.242196 0.054738
0.238030 0.240652 0.050449
0.523782 0.238957 0.045321
0.809533 0.237262 0.040192
1.000000 0.235544 0.036425
0.020008 0.519455 0.037266
0.247665 0.517838 0.033197
0.533416 0.516143 0.028068
0.819167 0.514449 0.022940
1.000000 0.512804 0.018953
0.041363 0.796715 0.019794
0.257299 0.795024 0.015944
0.543050 0.793330 0.010816
0.828802 0.791635 0.005687
1.000000 0.790063 0.001481
0.058672 1.000000 0.005632
0.264605 1.000000 0.001782
0.550624 1.000000 0.000000
0.836643 1.000000 0.000000
1.000000 1.000000 0.000000
0.000000 0.000533 0.314503
0.230746 0.002077 0.306897
0.516738 0.003852 0.298167
0.802730 0.005628 0.289437
1.000000 0.006883 0.282696
0.000449 0.241676 0.289367
0.238769 0.240119 0.282144
0.524493 0.238417 0.273633
0.810218 0.236714 0.265122
1.000000 0.234997 0.258381
0.021713 0.518910 0.260518
0.248312 0.517280 0.253513
0.534037 0.515578 0.245003
0.819761 0.513876 0.236492
1.000000 0.512231 0.229532
0.042976 0.796145 0.231668
0.257856 0.794442 0.224883
0.543580 0.792739 0.216372
0.829304 0.791037 0.207862
1.000000 0.789465 0.200682
0.060286 1.000000 0.207502
0.265161 1.000000 0.200717
0.551153 1.000000 0.191987
0.837146 1.000000 0.183257
1.000000 1.000000 0.175695
0.000000 0.001143 0.594404
0.231800 0.002680 0.586820
0.517792 0.004455 0.578090
0.803784 0.006230 0.569360
1.000000 0.007494 0.562597
0.002596 0.241105 0.569342
0.239732 0.239541 0.562141
0.525457 0.237839 0.553630
0.811181 0.236136 0.545120
1.000000 0.234426 0.538356
0.023859 0.518340 0.540493
0.249276 0.516702 0.533511
0.535000 0.515000 0.525000
0.820724 0.513298 0.516489
1.000000 0.511660 0.509507
0.045123 0.795574 0.511644
0.258819 0.793864 0.504880
0.544543 0.792161 0.496370
0.830268 0.790459 0.487859
1.000000 0.788895 0.480658
0.062523 1.000000 0.487403
0.266216 1.000000 0.480640
0.552208 1.000000 0.471910
0.838200 1.000000 0.463180
1.000000 1.000000 0.455596
0.000000 0.001754 0.874305
0.232854 0.003283 0.866743
0.518847 0.005058 0.858013
0.804839 0.006833 0.849283
1.000000 0.008104 0.842498
0.004743 0.240535 0.849318
0.240696 0.238963 0.842138
0.526420 0.237261 0.833628
0.812144 0.235558 0.825117
1.000000 0.233855 0.818332
0.026006 0.517769 0.820468
0.250239 0.516124 0.813508
0.535963 0.514422 0.804997
0.821688 0.512720 0.796487
1.000000 0.511090 0.789482
0.047269 0.795003 0.791619
0.259782 0.793286 0.784878
0.545507 0.791583 0.776367
0.831231 0.789881 0.767856
1.000000 0.788324 0.760633
0.064761 1.000000 0.767304
0.267270 1.000000 0.760563
0.553262 1.000000 0.751833
0.839254 1.000000 0.743103
1.000000 1.000000 0.735497
0.000000 0.002166 1.000000
0.233357 0.003695 1.000000
0.519376 0.005478 1.000000
0.805395 0.007261 1.000000
1.000000 0.008544 1.000000
0.006255 0.239937 1.000000
0.241198 0.238365 1.000000
0.526950 0.236670 1.000000
0.812701 0.234976 1.000000
1.000000 0.233285 1.000000
0.027609 0.517196 1.000000
0.250833 0.515551 1.000000
0.536584 0.513857 1.000000
0.822335 0.512162 1.000000
1.000000 0.510545 1.000000
0.048964 0.794456 1.000000
0.260467 0.792738 1.000000
0.546218 0.791043 1.000000
0.831970 0.789348 0.999551
1.000000 0.787804 0.995262
0.066614 1.000000 0.999134
0.268113 1.000000 0.995367
0.554133 1.000000 0.990019
0.840152 1.000000 0.984671
1.000000 1.000000 0.980000
