assets/luts/cinestill.cube
# Cinestill — Studio filter "cinestill"
# Generated by scripts/generate-filter-luts.mjs — do not edit by hand.
LUT_3D_SIZE 9
DOMAIN_MIN 0.0 0.0 0.0
DOMAIN_MAX 1.0 1.0 1.0
0.000000 0.000000 0.070000
0.098142 0.000736 0.067791
0.229848 0.001557 0.065329
0.370597 0.002434 0.062697
0.515867 0.003340 0.059981
0.661138 0.004245 0.057265
0.801887 0.005122 0.054633
0.933593 0.005943 0.052171
1.000000 0.006378 0.050866
0.000000 0.114524 0.062783
0.102011 0.113793 0.060755
0.233594 0.113013 0.058394
0.374211 0.112179 0.055870
0.519345 0.111318 0.053265
0.664479 0.110458 0.050660
0.805097 0.109624 0.048137
0.936679 0.108843 0.045775
1.000000 0.107872 0.044470
0.000000 0.242196 0.054738
0.106447 0.241432 0.052811
0.238030 0.240652 0.050449
0.378647 0.239818 0.047926
0.523782 0.238957 0.045321
0.668916 0.238096 0.042716
0.809533 0.237262 0.040192
0.941116 0.236482 0.037831
1.000000 0.235544 0.036425
0.009162 0.378634 0.046140
0.111188 0.377834 0.044321
0.242771 0.377054 0.041959
0.383388 0.376220 0.039436
0.528523 0.375359 0.036831
0.673657 0.374499 0.034226
0.814274 0.373665 0.031702
0.945857 0.372884 0.029341
1.000000 0.371983 0.027827
0.020008 0.519455 0.037266
0.116082 0.518618 0.035558
0.247665 0.517838 0.033197
0.388282 0.517004 0.030673
0.533416 0.516143 0.028068
0.678550 0.515283 0.025463
0.819167 0.514449 0.022940
0.950750 0.513668 0.020578
1.000000 0.512804 0.018953
0.030854 0.660276 0.028392
0.120975 0.659402 0.026796
0.252558 0.658622 0.024434
0.393175 0.657788 0.021910
0.538309 0.656927 0.019305
0.683444 0.656067 0.016701
0.824061 0.655233 0.014177
0.955644 0.654452 0.011815
1.000000 0.653625 0.010079
0.041363 0.796715 0.019794
0.125716 0.795805 0.018306
0.257299 0.795024 0.015944
0.397916 0.794190 0.013420
0.543050 0.793330 0.010816
0.688185 0.792469 0.008211
0.828802 0.791635 0.005687
0.960385 0.790854 0.003325
1.000000 0.790063 0.001481
0.051196 0.924387 0.011749
0.130153 0.923443 0.010361
0.261735 0.922663 0.008000
0.402353 0.921829 0.005476
0.547487 0.920968 0.002871
0.692621 0.920107 0.000266
0.833238 0.919274 0.000000
0.964821 0.918493 0.000000
1.000000 0.917735 0.000000
0.058672 1.000000 0.005632
0.132898 1.000000 0.004244
0.264605 1.000000 0.001782
0.405354 1.000000 0.000000
0.550624 1.000000 0.000000
0.695894 1.000000 0.000000
0.836643 1.000000 0.000000
0.968349 1.000000 0.000000
1.000000 1.000000 0.000000
0.000000 0.000252 0.185615
0.098566 0.000982 0.182018
0.230260 0.001800 0.177998
0.370996 0.002673 0.173702
0.516252 0.003575 0.169268
0.661509 0.004476 0.164834
0.802244 0.005350 0.160539
0.933938 0.006167 0.156519
1.000000 0.006602 0.153808
0.000000 0.114278 0.173729
0.102360 0.113541 0.170313
0.233931 0.112758 0.166394
0.374534 0.111920 0.162206
0.519655 0.111055 0.157884
0.664775 0.110191 0.153561
0.805379 0.109353 0.149373
0.936950 0.108570 0.145454
1.000000 0.107598 0.142743
0.000000 0.241939 0.160444
0.106755 0.241169 0.157130
0.238325 0.240385 0.153211
0.378929 0.239547 0.149023
0.524049 0.238683 0.144700
0.669170 0.237818 0.140377
0.809774 0.236981 0.136189
0.941344 0.236197 0.132270
1.000000 0.235259 0.129458
0.009925 0.378365 0.146248
0.111451 0.377559 0.143041
0.243021 0.376775 0.139122
0.383625 0.375937 0.134934
0.528746 0.375073 0.130611
0.673866 0.374208 0.126288
0.814470 0.373371 0.122100
0.946041 0.372587 0.118181
1.000000 0.371685 0.115262
0.020724 0.519173 0.131595
0.116298 0.518330 0.128499
0.247869 0.517546 0.124580
0.388472 0.516709 0.120392
0.533593 0.515844 0.116070
0.678713 0.514980 0.111747
0.819317 0.514142 0.107559
0.950888 0.513358 0.103640
1.000000 0.512494 0.100609
0.031524 0.659982 0.116942
0.121145 0.659102 0.113958
0.252716 0.658318 0.110039
0.393320 0.657480 0.105851
0.538440 0.656616 0.101528
0.683561 0.655751 0.097206
0.824164 0.654913 0.093017
0.955735 0.654130 0.089099
1.000000 0.653302 0.085956
0.041988 0.796408 0.102745
0.125842 0.795492 0.099869
0.257412 0.794708 0.095950
0.398016 0.793870 0.091762
0.543136 0.793006 0.087439
0.688257 0.792141 0.083117
0.828861 0.791304 0.078929
0.960431 0.790520 0.075010
1.000000 0.789728 0.071759
0.051779 0.924069 0.089461
0.130236 0.923119 0.086685
0.261807 0.922335 0.082766
0.402410 0.921498 0.078578
0.547531 0.920633 0.074256
0.692652 0.919768 0.069933
0.833255 0.918931 0.065745
0.964826 0.918147 0.061826
1.000000 0.917389 0.058475
0.059255 1.000000 0.078614
0.132982 1.000000 0.075838
0.264676 1.000000 0.071818
0.405411 1.000000 0.067522
0.550668 1.000000 0.063088
0.695925 1.000000 0.058654
0.836660 1.000000 0.054358
0.968354 1.000000 0.050339
1.000000 1.000000 0.046806
0.000000 0.000533 0.314503
0.099052 0.001260 0.310917
0.230746 0.002077 0.306897
0.371481 0.002951 0.302601
0.516738 0.003852 0.298167
0.661994 0.004754 0.293733
0.802730 0.005628 0.289437
0.934424 0.006445 0.285418
1.000000 0.006883 0.282696
0.000000 0.114015 0.302652
0.102804 0.113275 0.299246
0.234374 0.112491 0.295327
0.374978 0.111654 0.291139
0.520099 0.110789 0.286817
0.665219 0.109925 0.282494
0.805823 0.109087 0.278306
0.937393 0.108303 0.274387
1.000000 0.107336 0.271666
0.000449 0.241676 0.289367
0.107198 0.240903 0.286063
0.238769 0.240119 0.282144
0.379373 0.239281 0.277956
0.524493 0.238417 0.273633
0.669614 0.237552 0.269311
0.810218 0.236714 0.265122
0.941788 0.235931 0.261203
1.000000 0.234997 0.258381
0.010913 0.378102 0.275171
0.111895 0.377293 0.271974
0.243465 0.376509 0.268055
0.384069 0.375671 0.263867
0.529189 0.374807 0.259544
0.674310 0.373942 0.255222
0.814914 0.373105 0.251034
0.946484 0.372321 0.247115
1.000000 0.371423 0.244185
0.021713 0.518910 0.260518
0.116742 0.518064 0.257432
0.248312 0.517280 0.253513
0.388916 0.516443 0.249325
0.534037 0.515578 0.245003
0.679157 0.514714 0.240680
0.819761 0.513876 0.236492
0.951331 0.513092 0.232573
1.000000 0.512231 0.229532
0.032513 0.659719 0.245865
0.121589 0.658835 0.242891
0.253159 0.658052 0.238972
0.393763 0.657214 0.234784
0.538884 0.656349 0.230461
0.684004 0.655485 0.226139
0.824608 0.654647 0.221951
0.956179 0.653864 0.218032
1.000000 0.653040 0.214879
0.042976 0.796145 0.231668
0.126285 0.795225 0.228802
0.257856 0.794442 0.224883
0.398459 0.793604 0.220695
0.543580 0.792739 0.216372
0.688701 0.791875 0.212050
0.829304 0.791037 0.207862
0.960875 0.790254 0.203943
1.000000 0.789465 0.200682
0.052768 0.923806 0.218384
0.130680 0.922853 0.215618
0.262250 0.922069 0.211699
0.402854 0.921231 0.207511
0.547975 0.920367 0.203189
0.693095 0.919502 0.198866
0.833699 0.918665 0.194678
0.965269 0.917881 0.190759
1.000000 0.917126 0.187398
0.060286 1.000000 0.207502
0.133468 1.000000 0.204737
0.265161 1.000000 0.200717
0.405897 1.000000 0.196421
0.551153 1.000000 0.191987
0.696410 1.000000 0.187553
0.837146 1.000000 0.183257
0.968839 1.000000 0.179237
1.000000 1.000000 0.175695
0.000000 0.000833 0.452241
0.099571 0.001557 0.448666
0.231264 0.002374 0.444646
0.372000 0.003248 0.440350
0.517257 0.004149 0.435916
0.662513 0.005051 0.431482
0.803249 0.005924 0.427186
0.934943 0.006742 0.423166
1.000000 0.007184 0.420434
0.000000 0.113734 0.440427
0.103278 0.112991 0.437032
0.234848 0.112207 0.433113
0.375452 0.111369 0.428925
0.520573 0.110505 0.424602
0.665693 0.109640 0.420280
0.806297 0.108803 0.416092
0.937867 0.108019 0.412173
1.000000 0.107055 0.409441
0.001506 0.241395 0.427142
0.107672 0.240618 0.423848
0.239243 0.239834 0.419929
0.379847 0.238997 0.415741
0.524967 0.238132 0.411419
0.670088 0.237268 0.407096
0.810692 0.236430 0.402908
0.942262 0.235646 0.398989
1.000000 0.234716 0.396156
0.011969 0.377821 0.412945
0.112369 0.377008 0.409759
0.243939 0.376224 0.405840
0.384543 0.375387 0.401652
0.529664 0.374522 0.397330
0.674784 0.373658 0.393007
0.815388 0.372820 0.388819
0.946958 0.372036 0.384900
1.000000 0.371142 0.381959
0.022769 0.518630 0.398293
0.117216 0.517780 0.395218
0.248786 0.516996 0.391299
0.389390 0.516158 0.387111
0.534511 0.515294 0.382788
0.679631 0.514429 0.378466
0.820235 0.513591 0.374278
0.951805 0.512808 0.370359
1.000000 0.511950 0.367307
0.033569 0.659438 0.383640
0.122063 0.658551 0.380676
0.253633 0.657767 0.376757
0.394237 0.656930 0.372569
0.539358 0.656065 0.368247
0.684478 0.655200 0.363924
0.825082 0.654363 0.359736
0.956653 0.653579 0.355817
1.000000 0.652759 0.352654
0.044033 0.795864 0.369443
0.126759 0.794941 0.366588
0.258330 0.794157 0.362669
0.398934 0.793320 0.358481
0.544054 0.792455 0.354158
0.689175 0.791591 0.349835
0.829779 0.790753 0.345647
0.961349 0.789969 0.341728
1.000000 0.789185 0.338457
0.053824 0.923525 0.356158
0.131154 0.922568 0.353404
0.262724 0.921784 0.349485
0.403328 0.920947 0.345297
0.548449 0.920082 0.340974
0.693569 0.919218 0.336652
0.834173 0.918380 0.332464
0.965743 0.917596 0.328545
1.000000 0.916846 0.325172
0.061387 1.000000 0.345240
0.133986 1.000000 0.342486
0.265680 1.000000 0.338466
0.406416 1.000000 0.334170
0.551672 1.000000 0.329736
0.696929 1.000000 0.325302
0.837665 1.000000 0.321006
0.969358 1.000000 0.316986
1.000000 1.000000 0.313433
0.000000 0.001143 0.594404
0.100106 0.001863 0.590840
0.231800 0.002680 0.586820
0.372536 0.003554 0.582524
0.517792 0.004455 0.578090
0.663049 0.005357 0.573656
0.803784 0.006230 0.569360
0.935478 0.007048 0.565340
1.000000 0.007494 0.562597
0.000000 0.113444 0.582627
0.103767 0.112697 0.579244
0.235338 0.111913 0.575325
0.375941 0.111076 0.571137
0.521062 0.110211 0.566814
0.666183 0.109347 0.562491
0.806786 0.108509 0.558303
0.938357 0.107725 0.554384
1.000000 0.106765 0.551641
0.002596 0.241105 0.569342
0.108162 0.240324 0.566060
0.239732 0.239541 0.562141
0.380336 0.238703 0.557953
0.525457 0.237839 0.553630
0.670577 0.236974 0.549308
0.811181 0.236136 0.545120
0.942751 0.235353 0.541201
1.000000 0.234426 0.538356
0.013060 0.377531 0.555146
0.112858 0.376715 0.551971
0.244428 0.375931 0.548052
0.385032 0.375093 0.543864
0.530153 0.374229 0.539541
0.675273 0.373364 0.535219
0.815877 0.372526 0.531031
0.947448 0.371743 0.527112
1.000000 0.370852 0.524160
0.023859 0.518340 0.540493
0.117705 0.517486 0.537430
0.249276 0.516702 0.533511
0.389879 0.515865 0.529323
0.535000 0.515000 0.525000
0.680121 0.514135 0.520677
0.820724 0.513298 0.516489
0.952295 0.512514 0.512570
1.000000 0.511660 0.509507
0.034659 0.659148 0.525840
0.122552 0.658257 0.522888
0.254123 0.657474 0.518969
0.394727 0.656636 0.514781
0.539847 0.655771 0.510459
0.684968 0.654907 0.506136
0.825572 0.654069 0.501948
0.957142 0.653285 0.498029
1.000000 0.652469 0.494854
0.045123 0.795574 0.511644
0.127249 0.794647 0.508799
0.258819 0.793864 0.504880
0.399423 0.793026 0.500692
0.544543 0.792161 0.496370
0.689664 0.791297 0.492047
0.830268 0.790459 0.487859
0.961838 0.789676 0.483940
1.000000 0.788895 0.480658
0.054914 0.923235 0.498359
0.131643 0.922275 0.495616
0.263214 0.921491 0.491697
0.403817 0.920653 0.487509
0.548938 0.919789 0.483186
0.694059 0.918924 0.478863
0.834662 0.918087 0.474675
0.966233 0.917303 0.470756
1.000000 0.916556 0.467373
0.062523 1.000000 0.487403
0.134522 1.000000 0.484660
0.266216 1.000000 0.480640
0.406951 1.000000 0.476344
0.552208 1.000000 0.471910
0.697464 1.000000 0.467476
0.838200 1.000000 0.463180
0.969894 1.000000 0.459160
1.000000 1.000000 0.455596
0.000000 0.001453 0.736567
0.100642 0.002169 0.733014
0.232335 0.002986 0.728994
0.373071 0.003860 0.724698
0.518328 0.004762 0.720264
0.663584 0.005663 0.715830
0.804320 0.006537 0.711534
0.936014 0.007354 0.707514
1.000000 0.007804 0.704760
0.000000 0.113154 0.724828
0.104257 0.112404 0.721455
0.235827 0.111620 0.717536
0.376431 0.110782 0.713348
0.521551 0.109918 0.709026
0.666672 0.109053 0.704703
0.807276 0.108216 0.700515
0.938846 0.107432 0.696596
1.000000 0.106475 0.693842
0.003686 0.240815 0.711543
0.108651 0.240031 0.708272
0.240221 0.239247 0.704353
0.380825 0.238409 0.700165
0.525946 0.237545 0.695842
0.671066 0.236680 0.691519
0.811670 0.235843 0.687331
0.943241 0.235059 0.683412
1.000000 0.234136 0.680557
0.014150 0.377241 0.697346
0.113347 0.376421 0.694183
0.244918 0.375637 0.690264
0.385522 0.374800 0.686076
0.530642 0.373935 0.681753
0.675763 0.373070 0.677431
0.816367 0.372233 0.673243
0.947937 0.371449 0.669324
1.000000 0.370562 0.666360
0.024950 0.518050 0.682693
0.118195 0.517192 0.679641
0.249765 0.516409 0.675722
0.390369 0.515571 0.671534
0.535489 0.514706 0.667212
0.680610 0.513842 0.662889
0.821214 0.513004 0.658701
0.952784 0.512220 0.654782
1.000000 0.511370 0.651707
0.035749 0.658858 0.668041
0.123042 0.657964 0.665100
0.254612 0.657180 0.661181
0.395216 0.656342 0.656993
0.540336 0.655478 0.652670
0.685457 0.654613 0.648348
0.826061 0.653776 0.644160
0.957631 0.652992 0.640241
1.000000 0.652179 0.637055
0.046213 0.795284 0.653844
0.127738 0.794354 0.651011
0.259308 0.793570 0.647092
0.399912 0.792732 0.642904
0.545033 0.791868 0.638581
0.690153 0.791003 0.634259
0.830757 0.790166 0.630071
0.962328 0.789382 0.626152
1.000000 0.788605 0.622858
0.056004 0.922945 0.640559
0.132133 0.921981 0.637827
0.263703 0.921197 0.633908
0.404307 0.920360 0.629720
0.549427 0.919495 0.625398
0.694548 0.918631 0.621075
0.835152 0.917793 0.616887
0.966722 0.917009 0.612968
1.000000 0.916266 0.609573
0.063660 1.000000 0.629566
0.135057 1.000000 0.626834
0.266751 1.000000 0.622814
0.407487 1.000000 0.618518
0.552743 1.000000 0.614084
0.698000 1.000000 0.609650
0.838736 1.000000 0.605354
0.970429 1.000000 0.601334
1.000000 1.000000 0.597759
0.000000 0.001754 0.874305
0.101161 0.002466 0.870763
0.232854 0.003283 0.866743
0.373590 0.004157 0.862447
0.518847 0.005058 0.858013
0.664103 0.005960 0.853579
0.804839 0.006833 0.849283
0.936532 0.007651 0.845263
1.000000 0.008104 0.842498
0.000000 0.112874 0.862602
0.104731 0.112119 0.859241
0.236301 0.111335 0.855322
0.376905 0.110498 0.851134
0.522025 0.109633 0.846811
0.667146 0.108769 0.842489
0.807750 0.107931 0.838301
0.939320 0.107147 0.834382
1.000000 0.106194 0.831616
0.004743 0.240535 0.849318
0.109125 0.239746 0.846057
0.240696 0.238963 0.842138
0.381299 0.238125 0.837950
0.526420 0.237261 0.833628
0.671541 0.236396 0.829305
0.812144 0.235558 0.825117
0.943715 0.234775 0.821198
1.000000 0.233855 0.818332
0.015206 0.376960 0.835121
0.113821 0.376136 0.831968
0.245392 0.375353 0.828049
0.385996 0.374515 0.823861
0.531116 0.373651 0.819539
0.676237 0.372786 0.815216
0.816841 0.371948 0.811028
0.948411 0.371165 0.807109
1.000000 0.370281 0.804135
0.026006 0.517769 0.820468
0.118669 0.516908 0.817427
0.250239 0.516124 0.813508
0.390843 0.515286 0.809320
0.535963 0.514422 0.804997
0.681084 0.513557 0.800675
0.821688 0.512720 0.796487
0.953258 0.511936 0.792568
1.000000 0.511090 0.789482
0.036806 0.658577 0.805815
0.123516 0.657679 0.802885
0.255086 0.656895 0.798966
0.395690 0.656058 0.794778
0.540811 0.655193 0.790456
0.685931 0.654329 0.786133
0.826535 0.653491 0.781945
0.958105 0.652707 0.778026
1.000000 0.651898 0.774829
0.047269 0.795003 0.791619
0.128212 0.794069 0.788797
0.259782 0.793286 0.784878
0.400386 0.792448 0.780689
0.545507 0.791583 0.776367
0.690627 0.790719 0.772044
0.831231 0.789881 0.767856
0.962802 0.789097 0.763937
1.000000 0.788324 0.760633
0.057061 0.922664 0.778334
0.132607 0.921697 0.775613
0.264177 0.920913 0.771694
0.404781 0.920075 0.767506
0.549901 0.919211 0.763183
0.695022 0.918346 0.758861
0.835626 0.917509 0.754673
0.967196 0.916725 0.750754
1.000000 0.915985 0.747348
0.064761 1.000000 0.767304
0.135576 1.000000 0.764582
0.267270 1.000000 0.760563
0.408006 1.000000 0.756267
0.553262 1.000000 0.751833
0.698519 1.000000 0.747399
0.839254 1.000000 0.743103
0.970948 1.000000 0.739083
1.000000 1.000000 0.735497
0.000000 0.002035 1.000000
0.101646 0.002743 0.999661
0.233340 0.003561 0.995642
0.374075 0.004434 0.991346
0.519332 0.005336 0.986912
0.664589 0.006237 0.982478
0.805324 0.007111 0.978182
0.937018 0.007928 0.974162
1.000000 0.008385 0.971386
0.000000 0.112611 0.991525
0.105174 0.111853 0.988174
0.236745 0.111069 0.984255
0.377348 0.110232 0.980067
0.522469 0.109367 0.975744
0.667590 0.108502 0.971422
0.808193 0.107665 0.967234
0.939764 0.106881 0.963315
1.000000 0.105931 0.960539
0.005731 0.240272 0.978241
0.109569 0.239480 0.974990
0.241139 0.238696 0.971071
0.381743 0.237859 0.966883
0.526864 0.236994 0.962561
0.671984 0.236130 0.958238
0.812588 0.235292 0.954050
0.944158 0.234508 0.950131
1.000000 0.233592 0.947255
0.016195 0.376698 0.964044
0.114265 0.375870 0.960901
0.245836 0.375087 0.956983
0.386439 0.374249 0.952794
0.531560 0.373384 0.948472
0.676680 0.372520 0.944149
0.817284 0.371682 0.939961
0.948855 0.370898 0.936042
1.000000 0.370018 0.933058
0.026994 0.517506 0.949391
0.119112 0.516642 0.946360
0.250683 0.515858 0.942441
0.391287 0.515020 0.938253
0.536407 0.514156 0.933930
0.681528 0.513291 0.929608
0.822131 0.512454 0.925420
0.953702 0.511670 0.921501
1.000000 0.510827 0.918405
0.037794 0.658315 0.934738
0.123959 0.657413 0.931819
0.255530 0.656629 0.927900
0.396134 0.655792 0.923712
0.541254 0.654927 0.919389
0.686375 0.654063 0.915066
0.826979 0.653225 0.910878
0.958549 0.652441 0.906959
1.000000 0.651635 0.903752
0.048258 0.794741 0.920542
0.128656 0.793803 0.917730
0.260226 0.793019 0.913811
0.400830 0.792182 0.909623
0.545951 0.791317 0.905300
0.691071 0.790453 0.900977
0.831675 0.789615 0.896789
0.963245 0.788831 0.892870
1.000000 0.788061 0.889556
0.058049 0.922402 0.907257
0.133050 0.921430 0.904546
0.264621 0.920647 0.900627
0.405225 0.919809 0.896439
0.550345 0.918945 0.892116
0.695466 0.918080 0.887794
0.836069 0.917242 0.883606
0.967640 0.916459 0.879687
1.000000 0.915722 0.876271
0.065791 1.000000 0.896192
0.136062 1.000000 0.893481
0.267756 1.000000 0.889461
0.408491 1.000000 0.885166
0.553748 1.000000 0.880732
0.699004 1.000000 0.876298
0.839740 1.000000 0.872002
0.971434 1.000000 0.867982
1.000000 1.000000 0.864385
0.000000 0.002166 1.000000
0.101651 0.002875 1.000000
0.233357 0.003695 1.000000
0.374106 0.004573 1.000000
0.519376 0.005478 1.000000
0.664646 0.006383 1.000000
0.805395 0.007261 1.000000
0.937102 0.008081 1.000000
1.000000 0.008544 1.000000
0.000000 0.112265 1.000000
0.105179 0.111507 1.000000
0.236762 0.110726 1.000000
0.377379 0.109893 1.000000
0.522513 0.109032 1.000000
0.667647 0.108171 1.000000
0.808265 0.107337 1.000000
0.939847 0.106557 1.000000
1.000000 0.105613 1.000000
0.006255 0.239937 1.000000
0.109615 0.239146 1.000000
0.241198 0.238365 1.000000
0.381815 0.237531 1.000000
0.526950 0.236670 1.000000
0.672084 0.235810 1.000000
0.812701 0.234976 1.000000
0.944284 0.234195 1.000000
1.000000 0.233285 1.000000
0.016763 0.376375 1.000000
0.114356 0.375548 1.000000
0.245939 0.374767 1.000000
0.386556 0.373933 1.000000
0.531691 0.373073 1.000000
0.676825 0.372212 1.000000
0.817442 0.371378 1.000000
0.949025 0.370598 1.000000
1.000000 0.369724 1.000000
0.027609 0.517196 1.000000
0.119250 0.516332 1.000000
0.250833 0.515551 1.000000
0.391450 0.514717 1.000000
0.536584 0.513857 1.000000
0.681718 0.512996 1.000000
0.822335 0.512162 1.000000
0.953918 0.511382 1.000000
1.000000 0.510545 1.000000
0.038455 0.658017 1.000000
0.124143 0.657116 1.000000
0.255726 0.656335 1.000000
0.396343 0.655501 1.000000
0.541477 0.654641 1.000000
0.686612 0.653780 1.000000
0.827229 0.652946 1.000000
0.958812 0.652166 1.000000
1.000000 0.651366 1.000000
0.048964 0.794456 1.000000
0.128884 0.793518 1.000000
0.260467 0.792738 1.000000
0.401084 0.791904 1.000000
0.546218 0.791043 1.000000
0.691353 0.790182 1.000000
0.831970 0.789348 0.999551
0.963553 0.788568 0.997189
1.000000 0.787804 0.995262
0.058797 0.922128 1.000000
0.133321 0.921157 1.000000
0.264903 0.920376 1.000000
0.405521 0.919542 0.999340
0.550655 0.918682 0.996735
0.695789 0.917821 0.994130
0.836406 0.916987 0.991606
0.967989 0.916207 0.989245
1.000000 0.915476 0.987217
0.066614 1.000000 0.999134
0.136407 1.000000 0.997829
0.268113 1.000000 0.995367
0.408862 1.000000 0.992735
0.554133 1.000000 0.990019
0.699403 1.000000 0.987303
0.840152 1.000000 0.984671
0.971858 1.000000 0.982209
1.000000 1.000000 0.980000
