assets/luts/clean.cube
# Clean — Studio filter "clean"
# Generated by scripts/generate-filter-luts.mjs — do not edit by hand.
LUT_3D_SIZE 9
DOMAIN_MIN 0.0 0.0 0.0
DOMAIN_MAX 1.0 1.0 1.0
0.000000 0.000000 0.000000
0.117178 0.000000 0.000000
0.247810 0.000000 0.000000
0.387411 0.000000 0.000000
0.531496 0.000000 0.000000
0.675581 0.000000 0.000000
0.815182 0.000000 0.000000
0.945814 0.000000 0.000000
1.000000 0.000000 0.000000
0.000000 0.112746 0.000000
0.110871 0.110871 0.000000
0.241503 0.108781 0.000000
0.381104 0.106547 0.000000
0.525189 0.104242 0.000000
0.669274 0.101937 0.000000
0.808875 0.099703 0.000000
0.939507 0.097613 0.000000
1.000000 0.095738 0.000000
0.000000 0.238437 0.000000
0.103840 0.236562 0.000000
0.234472 0.234472 0.000000
0.374072 0.232238 0.000000
0.518158 0.229933 0.000000
0.662243 0.227627 0.000000
0.801844 0.225394 0.000000
0.932475 0.223303 0.000000
1.000000 0.221429 0.000000
0.000000 0.372757 0.000000
0.096326 0.370882 0.000000
0.226957 0.368792 0.000000
0.366558 0.366558 0.000000
0.510643 0.364253 0.000000
0.654729 0.361947 0.000000
0.794329 0.359714 0.000000
0.924961 0.357624 0.000000
1.000000 0.355749 0.000000
0.000000 0.511392 0.000000
0.088570 0.509517 0.000000
0.219202 0.507427 0.000000
0.358803 0.505193 0.000000
0.502888 0.502888 0.000000
0.646973 0.500583 0.000000
0.786574 0.498349 0.000000
0.917206 0.496259 0.000000
1.000000 0.494384 0.000000
0.000000 0.650027 0.000000
0.080815 0.648152 0.000000
0.211447 0.646062 0.000000
0.351047 0.643829 0.000000
0.495133 0.641523 0.000000
0.639218 0.639218 0.000000
0.778819 0.636984 0.000000
0.909450 0.634894 0.000000
1.000000 0.633019 0.000000
0.000000 0.784347 0.000000
0.073301 0.782473 0.000000
0.203932 0.780382 0.000000
0.343533 0.778149 0.000000
0.487618 0.775843 0.000000
0.631704 0.773538 0.000000
0.771304 0.771304 0.000000
0.901936 0.769214 0.000000
1.000000 0.767339 0.000000
0.000000 0.910038 0.000000
0.066269 0.908163 0.000000
0.196901 0.906073 0.000000
0.336502 0.903839 0.000000
0.480587 0.901534 0.000000
0.624672 0.899229 0.000000
0.764273 0.896995 0.000000
0.894905 0.894905 0.000000
1.000000 0.893030 0.000000
0.000000 1.000000 0.000000
0.059962 1.000000 0.000000
0.190594 1.000000 0.000000
0.330195 1.000000 0.000000
0.474280 1.000000 0.000000
0.618365 1.000000 0.000000
0.757966 1.000000 0.000000
0.888598 1.000000 0.000000
1.000000 1.000000 0.000000
0.000000 0.000000 0.118416
0.116542 0.000000 0.116542
0.247173 0.000000 0.114451
0.386774 0.000000 0.112218
0.530859 0.000000 0.109912
0.674945 0.000000 0.107607
0.814545 0.000000 0.105373
0.945177 0.000000 0.103283
1.000000 0.000000 0.101408
0.000000 0.112109 0.112109
0.110234 0.110234 0.110234
0.240866 0.108144 0.108144
0.380467 0.105911 0.105911
0.524552 0.103605 0.103605
0.668637 0.101300 0.101300
0.808238 0.099066 0.099066
0.938870 0.096976 0.096976
1.000000 0.095101 0.095101
0.000000 0.237800 0.105078
0.103203 0.235925 0.103203
0.233835 0.233835 0.101113
0.373436 0.231601 0.098879
0.517521 0.229296 0.096574
0.661606 0.226990 0.094269
0.801207 0.224757 0.092035
0.931839 0.222667 0.089945
1.000000 0.220792 0.088070
0.000000 0.372120 0.097564
0.095689 0.370245 0.095689
0.226321 0.368155 0.093599
0.365921 0.365921 0.091365
0.510007 0.363616 0.089060
0.654092 0.361311 0.086754
0.793693 0.359077 0.084521
0.924324 0.356987 0.082431
1.000000 0.355112 0.080556
0.000000 0.510755 0.089808
0.087934 0.508880 0.087934
0.218565 0.506790 0.085843
0.358166 0.504557 0.083610
0.502251 0.502251 0.081304
0.646337 0.499946 0.078999
0.785937 0.497712 0.076765
0.916569 0.495622 0.074675
1.000000 0.493747 0.072800
0.000000 0.649390 0.082053
0.080178 0.647516 0.080178
0.210810 0.645425 0.078088
0.350411 0.643192 0.075854
0.494496 0.640886 0.073549
0.638581 0.638581 0.071244
0.778182 0.636347 0.069010
0.908814 0.634257 0.066920
1.000000 0.632382 0.065045
0.000000 0.783711 0.074539
0.072664 0.781836 0.072664
0.203296 0.779746 0.070574
0.342897 0.777512 0.068340
0.486982 0.775207 0.066035
0.631067 0.772901 0.063730
0.770668 0.770668 0.061496
0.901300 0.768578 0.059406
1.000000 0.766703 0.057531
0.000000 0.909401 0.067508
0.065633 0.907526 0.065633
0.196264 0.905436 0.063543
0.335865 0.903203 0.061309
0.479950 0.900897 0.059004
0.624036 0.898592 0.056698
0.763636 0.896358 0.054465
0.894268 0.894268 0.052374
1.000000 0.892393 0.050500
0.000000 1.000000 0.061200
0.059326 1.000000 0.059326
0.189957 1.000000 0.057235
0.329558 1.000000 0.055002
0.473643 1.000000 0.052696
0.617729 1.000000 0.050391
0.757329 1.000000 0.048157
0.887961 1.000000 0.046067
1.000000 1.000000 0.044192
0.000000 0.000000 0.250428
0.115832 0.000000 0.248554
0.246463 0.000000 0.246463
0.386064 0.000000 0.244230
0.530149 0.000000 0.241924
0.674235 0.000000 0.239619
0.813835 0.000000 0.237385
0.944467 0.000000 0.235295
1.000000 0.000000 0.233420
0.000000 0.111399 0.244121
0.109525 0.109525 0.242246
0.240156 0.107434 0.240156
0.379757 0.105201 0.237923
0.523842 0.102895 0.235617
0.667928 0.100590 0.233312
0.807528 0.098356 0.231078
0.938160 0.096266 0.228988
1.000000 0.094391 0.227113
0.000000 0.237090 0.237090
0.102493 0.235215 0.235215
0.233125 0.233125 0.233125
0.372726 0.230891 0.230891
0.516811 0.228586 0.228586
0.660896 0.226281 0.226281
0.800497 0.224047 0.224047
0.931129 0.221957 0.221957
1.000000 0.220082 0.220082
0.000000 0.371410 0.229576
0.094979 0.369535 0.227701
0.225611 0.367445 0.225611
0.365212 0.365212 0.223377
0.509297 0.362906 0.221072
0.653382 0.360601 0.218767
0.792983 0.358367 0.216533
0.923615 0.356277 0.214443
1.000000 0.354402 0.212568
0.000000 0.510045 0.221820
0.087224 0.508171 0.219946
0.217855 0.506080 0.217855
0.357456 0.503847 0.215622
0.501541 0.501541 0.213316
0.645627 0.499236 0.211011
0.785227 0.497002 0.208777
0.915859 0.494912 0.206687
1.000000 0.493037 0.204812
0.000000 0.648681 0.214065
0.079468 0.646806 0.212190
0.210100 0.644716 0.210100
0.349701 0.642482 0.207866
0.493786 0.640177 0.205561
0.637871 0.637871 0.203256
0.777472 0.635638 0.201022
0.908104 0.633548 0.198932
1.000000 0.631673 0.197057
0.000000 0.783001 0.206551
0.071954 0.781126 0.204676
0.202586 0.779036 0.202586
0.342187 0.776802 0.200352
0.486272 0.774497 0.198047
0.630357 0.772192 0.195742
0.769958 0.769958 0.193508
0.900590 0.767868 0.191418
1.000000 0.765993 0.189543
0.000000 0.908692 0.199520
0.064923 0.906817 0.197645
0.195555 0.904727 0.195555
0.335155 0.902493 0.193321
0.479241 0.900188 0.191016
0.623326 0.897882 0.188710
0.762927 0.895649 0.186477
0.893558 0.893558 0.184387
1.000000 0.891684 0.182512
0.000000 1.000000 0.193212
0.058616 1.000000 0.191338
0.189247 1.000000 0.189247
0.328848 1.000000 0.187014
0.472933 1.000000 0.184708
0.617019 1.000000 0.182403
0.756619 1.000000 0.180169
0.887251 1.000000 0.178079
1.000000 1.000000 0.176204
0.000000 0.000000 0.391504
0.115073 0.000000 0.389629
0.245705 0.000000 0.387539
0.385306 0.000000 0.385306
0.529391 0.000000 0.383000
0.673476 0.000000 0.380695
0.813077 0.000000 0.378461
0.943709 0.000000 0.376371
1.000000 0.000000 0.374496
0.000000 0.110641 0.385197
0.108766 0.108766 0.383322
0.239398 0.106676 0.381232
0.378999 0.104442 0.378999
0.523084 0.102137 0.376693
0.667169 0.099831 0.374388
0.806770 0.097598 0.372154
0.937401 0.095508 0.370064
1.000000 0.093633 0.368189
0.000000 0.236331 0.378166
0.101735 0.234457 0.376291
0.232366 0.232366 0.374201
0.371967 0.230133 0.371967
0.516052 0.227827 0.369662
0.660138 0.225522 0.367356
0.799738 0.223288 0.365123
0.930370 0.221198 0.363033
1.000000 0.219323 0.361158
0.000000 0.370652 0.370652
0.094221 0.368777 0.368777
0.224852 0.366687 0.366687
0.364453 0.364453 0.364453
0.508538 0.362148 0.362148
0.652624 0.359842 0.359842
0.792224 0.357609 0.357609
0.922856 0.355519 0.355519
1.000000 0.353644 0.353644
0.000000 0.509287 0.362896
0.086465 0.507412 0.361021
0.217097 0.505322 0.358931
0.356698 0.503088 0.356698
0.500783 0.500783 0.354392
0.644868 0.498478 0.352087
0.784469 0.496244 0.349853
0.915101 0.494154 0.347763
1.000000 0.492279 0.345888
0.000000 0.647922 0.355141
0.078710 0.646047 0.353266
0.209341 0.643957 0.351176
0.348942 0.641723 0.348942
0.493027 0.639418 0.346637
0.637113 0.637113 0.344331
0.776713 0.634879 0.342098
0.907345 0.632789 0.340008
1.000000 0.630914 0.338133
0.000000 0.782242 0.347627
0.071196 0.780368 0.345752
0.201827 0.778277 0.343662
0.341428 0.776044 0.341428
0.485513 0.773738 0.339123
0.629599 0.771433 0.336817
0.769199 0.769199 0.334584
0.899831 0.767109 0.332494
1.000000 0.765234 0.330619
0.000000 0.907933 0.340595
0.064164 0.906058 0.338721
0.194796 0.903968 0.336630
0.334397 0.901734 0.334397
0.478482 0.899429 0.332091
0.622567 0.897124 0.329786
0.762168 0.894890 0.327552
0.892800 0.892800 0.325462
1.000000 0.890925 0.323587
0.000000 1.000000 0.334288
0.057857 1.000000 0.332413
0.188489 1.000000 0.330323
0.328090 1.000000 0.328090
0.472175 1.000000 0.325784
0.616260 1.000000 0.323479
0.755861 1.000000 0.321245
0.886493 1.000000 0.319155
1.000000 1.000000 0.317280
0.000000 0.000000 0.537112
0.114290 0.000000 0.535237
0.244922 0.000000 0.533147
0.384523 0.000000 0.530913
0.528608 0.000000 0.528608
0.672693 0.000000 0.526303
0.812294 0.000000 0.524069
0.942926 0.000000 0.521979
1.000000 0.000000 0.520104
0.000000 0.109858 0.530805
0.107983 0.107983 0.528930
0.238615 0.105893 0.526840
0.378216 0.103659 0.524606
0.522301 0.101354 0.522301
0.666386 0.099049 0.519995
0.805987 0.096815 0.517762
0.936619 0.094725 0.515672
1.000000 0.092850 0.513797
0.000000 0.235549 0.523774
0.100952 0.233674 0.521899
0.231584 0.231584 0.519809
0.371184 0.229350 0.517575
0.515270 0.227045 0.515270
0.659355 0.224739 0.512964
0.798956 0.222506 0.510731
0.929587 0.220415 0.508640
1.000000 0.218541 0.506766
0.000000 0.369869 0.516259
0.093438 0.367994 0.514385
0.224069 0.365904 0.512294
0.363670 0.363670 0.510061
0.507755 0.361365 0.507755
0.651841 0.359059 0.505450
0.791441 0.356826 0.503216
0.922073 0.354736 0.501126
1.000000 0.352861 0.499251
0.000000 0.508504 0.508504
0.085682 0.506629 0.506629
0.216314 0.504539 0.504539
0.355915 0.502305 0.502305
0.500000 0.500000 0.500000
0.644085 0.497695 0.497695
0.783686 0.495461 0.495461
0.914318 0.493371 0.493371
1.000000 0.491496 0.491496
0.000000 0.647139 0.500749
0.077927 0.645264 0.498874
0.208559 0.643174 0.496784
0.348159 0.640941 0.494550
0.492245 0.638635 0.492245
0.636330 0.636330 0.489939
0.775931 0.634096 0.487706
0.906562 0.632006 0.485615
1.000000 0.630131 0.483741
0.000000 0.781459 0.493234
0.070413 0.779585 0.491360
0.201044 0.777494 0.489269
0.340645 0.775261 0.487036
0.484730 0.772955 0.484730
0.628816 0.770650 0.482425
0.768416 0.768416 0.480191
0.899048 0.766326 0.478101
1.000000 0.764451 0.476226
0.000000 0.907150 0.486203
0.063381 0.905275 0.484328
0.194013 0.903185 0.482238
0.333614 0.900951 0.480005
0.477699 0.898646 0.477699
0.621784 0.896341 0.475394
0.761385 0.894107 0.473160
0.892017 0.892017 0.471070
1.000000 0.890142 0.469195
0.000000 1.000000 0.479896
0.057074 1.000000 0.478021
0.187706 1.000000 0.475931
0.327307 1.000000 0.473697
0.471392 1.000000 0.471392
0.615477 1.000000 0.469087
0.755078 1.000000 0.466853
0.885710 1.000000 0.464763
1.000000 1.000000 0.462888
0.000000 0.000000 0.682720
0.113507 0.000000 0.680845
0.244139 0.000000 0.678755
0.383740 0.000000 0.676521
0.527825 0.000000 0.674216
0.671910 0.000000 0.671910
0.811511 0.000000 0.669677
0.942143 0.000000 0.667587
1.000000 0.000000 0.665712
0.000000 0.109075 0.676413
0.107200 0.107200 0.674538
0.237832 0.105110 0.672448
0.377433 0.102876 0.670214
0.521518 0.100571 0.667909
0.665603 0.098266 0.665603
0.805204 0.096032 0.663370
0.935836 0.093942 0.661279
1.000000 0.092067 0.659405
0.000000 0.234766 0.669381
0.100169 0.232891 0.667506
0.230801 0.230801 0.665416
0.370401 0.228567 0.663183
0.514487 0.226262 0.660877
0.658572 0.223956 0.658572
0.798173 0.221723 0.656338
0.928804 0.219632 0.654248
1.000000 0.217758 0.652373
0.000000 0.369086 0.661867
0.092655 0.367211 0.659992
0.223287 0.365121 0.657902
0.362887 0.362887 0.655669
0.506973 0.360582 0.653363
0.651058 0.358277 0.651058
0.790659 0.356043 0.648824
0.921290 0.353953 0.646734
1.000000 0.352078 0.644859
0.000000 0.507721 0.654112
0.084899 0.505846 0.652237
0.215531 0.503756 0.650147
0.355132 0.501522 0.647913
0.499217 0.499217 0.645608
0.643302 0.496912 0.643302
0.782903 0.494678 0.641069
0.913535 0.492588 0.638979
1.000000 0.490713 0.637104
0.000000 0.646356 0.646356
0.077144 0.644481 0.644481
0.207776 0.642391 0.642391
0.347376 0.640158 0.640158
0.491462 0.637852 0.637852
0.635547 0.635547 0.635547
0.775148 0.633313 0.633313
0.905779 0.631223 0.631223
1.000000 0.629348 0.629348
0.000000 0.780677 0.638842
0.069630 0.778802 0.636967
0.200262 0.776712 0.634877
0.339862 0.774478 0.632644
0.483948 0.772173 0.630338
0.628033 0.769867 0.628033
0.767634 0.767634 0.625799
0.898265 0.765543 0.623709
1.000000 0.763669 0.621834
0.000000 0.906367 0.631811
0.062599 0.904492 0.629936
0.193230 0.902402 0.627846
0.332831 0.900169 0.625612
0.476916 0.897863 0.623307
0.621001 0.895558 0.621001
0.760602 0.893324 0.618768
0.891234 0.891234 0.616678
1.000000 0.889359 0.614803
0.000000 1.000000 0.625504
0.056291 1.000000 0.623629
0.186923 1.000000 0.621539
0.326524 1.000000 0.619305
0.470609 1.000000 0.617000
0.614694 1.000000 0.614694
0.754295 1.000000 0.612461
0.884927 1.000000 0.610371
1.000000 1.000000 0.608496
0.000000 0.000000 0.823796
0.112749 0.000000 0.821921
0.243381 0.000000 0.819831
0.382981 0.000000 0.817597
0.527067 0.000000 0.815292
0.671152 0.000000 0.812986
0.810753 0.000000 0.810753
0.941384 0.000000 0.808662
1.000000 0.000000 0.806788
0.000000 0.108316 0.817488
0.106442 0.106442 0.815613
0.237073 0.104351 0.813523
0.376674 0.102118 0.811290
0.520759 0.099812 0.808984
0.664845 0.097507 0.806679
0.804445 0.095273 0.804445
0.935077 0.093183 0.802355
1.000000 0.091308 0.800480
0.000000 0.234007 0.810457
0.099410 0.232132 0.808582
0.230042 0.230042 0.806492
0.369643 0.227808 0.804258
0.513728 0.225503 0.801953
0.657813 0.223198 0.799648
0.797414 0.220964 0.797414
0.928046 0.218874 0.795324
1.000000 0.216999 0.793449
0.000000 0.368327 0.802943
0.091896 0.366452 0.801068
0.222528 0.364362 0.798978
0.362129 0.362129 0.796744
0.506214 0.359823 0.794439
0.650299 0.357518 0.792134
0.789900 0.355284 0.789900
0.920532 0.353194 0.787810
1.000000 0.351319 0.785935
0.000000 0.506963 0.795188
0.084141 0.505088 0.793313
0.214773 0.502998 0.791223
0.354373 0.500764 0.788989
0.498459 0.498459 0.786684
0.642544 0.496153 0.784378
0.782145 0.493920 0.782145
0.912776 0.491829 0.780054
1.000000 0.489955 0.778180
0.000000 0.645598 0.787432
0.076385 0.643723 0.785557
0.207017 0.641633 0.783467
0.346618 0.639399 0.781233
0.490703 0.637094 0.778928
0.634788 0.634788 0.776623
0.774389 0.632555 0.774389
0.905021 0.630465 0.772299
1.000000 0.628590 0.770424
0.000000 0.779918 0.779918
0.068871 0.778043 0.778043
0.199503 0.775953 0.775953
0.339104 0.773719 0.773719
0.483189 0.771414 0.771414
0.627274 0.769109 0.769109
0.766875 0.766875 0.766875
0.897507 0.764785 0.764785
1.000000 0.762910 0.762910
0.000000 0.905609 0.772887
0.061840 0.903734 0.771012
0.192472 0.901644 0.768922
0.332072 0.899410 0.766688
0.476158 0.897105 0.764383
0.620243 0.894799 0.762077
0.759844 0.892566 0.759844
0.890475 0.890475 0.757754
1.000000 0.888601 0.755879
0.000000 1.000000 0.766580
0.055533 1.000000 0.764705
0.186165 1.000000 0.762615
0.325765 1.000000 0.760381
0.469851 1.000000 0.758076
0.613936 1.000000 0.755770
0.753537 1.000000 0.753537
0.884168 1.000000 0.751446
1.000000 1.000000 0.749572
0.000000 0.000000 0.955808
0.112039 0.000000 0.953933
0.242671 0.000000 0.951843
0.382271 0.000000 0.949609
0.526357 0.000000 0.947304
0.670442 0.000000 0.944998
0.810043 0.000000 0.942765
0.940674 0.000000 0.940674
1.000000 0.000000 0.938800
0.000000 0.107607 0.949500
0.105732 0.105732 0.947626
0.236364 0.103642 0.945535
0.375964 0.101408 0.943302
0.520050 0.099103 0.940996
0.664135 0.096797 0.938691
0.803736 0.094564 0.936457
0.934367 0.092474 0.934367
1.000000 0.090599 0.932492
0.000000 0.233297 0.942469
0.098700 0.231422 0.940594
0.229332 0.229332 0.938504
0.368933 0.227099 0.936270
0.513018 0.224793 0.933965
0.657103 0.222488 0.931660
0.796704 0.220254 0.929426
0.927336 0.218164 0.927336
1.000000 0.216289 0.925461
0.000000 0.367618 0.934955
0.091186 0.365743 0.933080
0.221818 0.363653 0.930990
0.361419 0.361419 0.928756
0.505504 0.359114 0.926451
0.649589 0.356808 0.924146
0.789190 0.354575 0.921912
0.919822 0.352484 0.919822
1.000000 0.350610 0.917947
0.000000 0.506253 0.927200
0.083431 0.504378 0.925325
0.214063 0.502288 0.923235
0.353663 0.500054 0.921001
0.497749 0.497749 0.918696
0.641834 0.495443 0.916390
0.781435 0.493210 0.914157
0.912066 0.491120 0.912066
1.000000 0.489245 0.910192
0.000000 0.644888 0.919444
0.075676 0.643013 0.917569
0.206307 0.640923 0.915479
0.345908 0.638689 0.913246
0.489993 0.636384 0.910940
0.634079 0.634079 0.908635
0.773679 0.631845 0.906401
0.904311 0.629755 0.904311
1.000000 0.627880 0.902436
0.000000 0.779208 0.911930
0.068161 0.777333 0.910055
0.198793 0.775243 0.907965
0.338394 0.773010 0.905731
0.482479 0.770704 0.903426
0.626564 0.768399 0.901121
0.766165 0.766165 0.898887
0.896797 0.764075 0.896797
1.000000 0.762200 0.894922
0.000000 0.904899 0.904899
0.061130 0.903024 0.903024
0.191762 0.900934 0.900934
0.331363 0.898700 0.898700
0.475448 0.896395 0.896395
0.619533 0.894089 0.894089
0.759134 0.891856 0.891856
0.889766 0.889766 0.889766
1.000000 0.887891 0.887891
0.000000 1.000000 0.898592
0.054823 1.000000 0.896717
0.185455 1.000000 0.894627
0.325055 1.000000 0.892393
0.469141 1.000000 0.890088
0.613226 1.000000 0.887782
0.752827 1.000000 0.885549
0.883458 1.000000 0.883458
1.000000 1.000000 0.881584
0.000000 0.000000 1.000000
0.111402 0.000000 1.000000
0.242034 0.000000 1.000000
0.381635 0.000000 1.000000
0.525720 0.000000 1.000000
0.669805 0.000000 1.000000
0.809406 0.000000 1.000000
0.940038 0.000000 1.000000
1.000000 0.000000 1.000000
0.000000 0.106970 1.000000
0.105095 0.105095 1.000000
0.235727 0.103005 1.000000
0.375328 0.100771 1.000000
0.519413 0.098466 1.000000
0.663498 0.096161 1.000000
0.803099 0.093927 1.000000
0.933731 0.091837 1.000000
1.000000 0.089962 1.000000
0.000000 0.232661 1.000000
0.098064 0.230786 1.000000
0.228696 0.228696 1.000000
0.368296 0.226462 1.000000
0.512382 0.224157 1.000000
0.656467 0.221851 1.000000
0.796068 0.219618 1.000000
0.926699 0.217527 1.000000
1.000000 0.215653 1.000000
0.000000 0.366981 1.000000
0.090550 0.365106 1.000000
0.221181 0.363016 1.000000
0.360782 0.360782 1.000000
0.504867 0.358477 1.000000
0.648953 0.356171 1.000000
0.788553 0.353938 1.000000
0.919185 0.351848 1.000000
1.000000 0.349973 1.000000
0.000000 0.505616 1.000000
0.082794 0.503741 1.000000
0.213426 0.501651 1.000000
0.353027 0.499417 1.000000
0.497112 0.497112 1.000000
0.641197 0.494807 1.000000
0.780798 0.492573 1.000000
0.911430 0.490483 1.000000
1.000000 0.488608 1.000000
0.000000 0.644251 1.000000
0.075039 0.642376 1.000000
0.205671 0.640286 1.000000
0.345271 0.638053 1.000000
0.489357 0.635747 1.000000
0.633442 0.633442 1.000000
0.773043 0.631208 1.000000
0.903674 0.629118 1.000000
1.000000 0.627243 1.000000
0.000000 0.778571 1.000000
0.067525 0.776697 1.000000
0.198156 0.774606 1.000000
0.337757 0.772373 1.000000
0.481842 0.770067 1.000000
0.625928 0.767762 1.000000
0.765528 0.765528 1.000000
0.896160 0.763438 1.000000
1.000000 0.761563 1.000000
0.000000 0.904262 1.000000
0.060493 0.902387 1.000000
0.191125 0.900297 1.000000
0.330726 0.898063 1.000000
0.474811 0.895758 1.000000
0.618896 0.893453 1.000000
0.758497 0.891219 1.000000
0.889129 0.889129 1.000000
1.000000 0.887254 1.000000
0.000000 1.000000 1.000000
0.054186 1.000000 1.000000
0.184818 1.000000 1.000000
0.324419 1.000000 1.000000
0.468504 1.000000 1.000000
0.612589 1.000000 1.000000
0.752190 1.000000 1.000000
0.882822 1.000000 1.000000
1.000000 1.000000 1.000000
