assets/luts/clean.cube
# Clean — Studio filter "clean"
# Generated by scripts/generate-filter-luts.mjs — do not edit by hand.
LUT_3D_SIZE 5
DOMAIN_MIN 0.0 0.0 0.0
DOMAIN_MAX 1.0 1.0 1.0
0.000000 0.000000 0.000000
0.247810 0.000000 0.000000
0.531496 0.000000 0.000000
0.815182 0.000000 0.000000
1.000000 0.000000 0.000000
0.000000 0.238437 0.000000
0.234472 0.234472 0.000000
0.518158 0.229933 0.000000
0.801844 0.225394 0.000000
1.000000 0.221429 0.000000
0.000000 0.511392 0.000000
0.219202 0.507427 0.000000
0.502888 0.502888 0.000000
0.786574 0.498349 0.000000
1.000000 0.494384 0.000000
0.000000 0.784347 0.000000
0.203932 0.780382 0.000000
0.487618 0.775843 0.000000
0.771304 0.771304 0.000000
1.000000 0.767339 0.000000
0.000000 1.000000 0.000000
0.190594 1.000000 0.000000
0.474280 1.000000 0.000000
0.757966 1.000000 0.000000
1.000000 1.000000 0.000000
0.000000 0.000000 0.250428
0.246463 0.000000 0.246463
0.530149 0.000000 0.241924
0.813835 0.000000 0.237385
1.000000 0.000000 0.233420
0.000000 0.237090 0.237090
0.233125 0.233125 0.233125
0.516811 0.228586 0.228586
0.800497 0.224047 0.224047
1.000000 0.220082 0.220082
0.000000 0.510045 0.221820
0.217855 0.506080 0.217855
0.501541 0.501541 0.213316
0.785227 0.497002 0.208777
1.000000 0.493037 0.204812
0.000000 0.783001 0.206551
0.202586 0.779036 0.202586
0.486272 0.774497 0.198047
0.769958 0.769958 0.193508
1.000000 0.765993 0.189543
0.000000 1.000000 0.193212
0.189247 1.000000 0.189247
0.472933 1.000000 0.184708
0.756619 1.000000 0.180169
1.000000 1.000000 0.176204
0.000000 0.000000 0.537112
0.244922 0.000000 0.533147
0.528608 0.000000 0.528608
0.812294 0.000000 0.524069
1.000000 0.000000 0.520104
0.000000 0.235549 0.523774
0.231584 0.231584 0.519809
0.515270 0.227045 0.515270
0.798956 0.222506 0.510731
1.000000 0.218541 0.506766
0.000000 0.508504 0.508504
0.216314 0.504539 0.504539
0.500000 0.500000 0.500000
0.783686 0.495461 0.495461
1.000000 0.491496 0.491496
0.000000 0.781459 0.493234
0.201044 0.777494 0.489269
0.484730 0.772955 0.484730
0.768416 0.768416 0.480191
1.000000 0.764451 0.476226
0.000000 1.000000 0.479896
0.187706 1.000000 0.475931
0.471392 1.000000 0.471392
0.755078 1.000000 0.466853
1.000000 1.000000 0.462888
0.000000 0.000000 0.823796
0.243381 0.000000 0.819831
0.527067 0.000000 0.815292
0.810753 0.000000 0.810753
1.000000 0.000000 0.806788
0.000000 0.234007 0.810457
0.230042 0.230042 0.806492
0.513728 0.225503 0.801953
0.797414 0.220964 0.797414
1.000000 0.216999 0.793449
0.000000 0.506963 0.795188
0.214773 0.502998 0.791223
0.498459 0.498459 0.786684
0.782145 0.493920 0.782145
1.000000 0.489955 0.778180
0.000000 0.779918 0.779918
0.199503 0.775953 0.775953
0.483189 0.771414 0.771414
0.766875 0.766875 0.766875
1.000000 0.762910 0.762910
0.000000 1.000000 0.766580
0.186165 1.000000 0.762615
0.469851 1.000000 0.758076
0.753537 1.000000 0.753537
1.000000 1.000000 0.749572
0.000000 0.000000 1.000000
0.242034 0.000000 1.000000
0.525720 0.000000 1.000000
0.809406 0.000000 1.000000
1.000000 0.000000 1.000000
0.000000 0.232661 1.000000
0.228696 0.228696 1.000000
0.512382 0.224157 1.000000
0.796068 0.219618 1.000000
1.000000 0.215653 1.000000
0.000000 0.505616 1.000000
0.213426 0.501651 1.000000
0.497112 0.497112 1.000000
0.780798 0.492573 1.000000
1.000000 0.488608 1.000000
0.000000 0.778571 1.000000
0.198156 0.774606 1.000000
0.481842 0.770067 1.000000
0.765528 0.765528 1.000000
1.000000 0.761563 1.000000
0.000000 1.000000 1.000000
0.184818 1.000000 1.000000
0.468504 1.000000 1.000000
0.752190 1.000000 1.000000
1.000000 1.000000 1.000000
