assets/luts/clean.cube
# Clean — Studio filter "clean"
# Generated by scripts/generate-filter-luts.mjs — do not edit by hand.
LUT_3D_SIZE 17
DOMAIN_MIN 0.0 0.0 0.0
DOMAIN_MAX 1.0 1.0 1.0
0.000000 0.000000 0.000000
0.056627 0.000000 0.000000
0.117178 0.000000 0.000000
0.181093 0.000000 0.000000
0.247810 0.000000 0.000000
0.316770 0.000000 0.000000
0.387411 0.000000 0.000000
0.459173 0.000000 0.000000
0.531496 0.000000 0.000000
0.603819 0.000000 0.000000
0.675581 0.000000 0.000000
0.746222 0.000000 0.000000
0.815182 0.000000 0.000000
0.881899 0.000000 0.000000
0.945814 0.000000 0.000000
1.000000 0.000000 0.000000
1.000000 0.000000 0.000000
0.000000 0.054485 0.000000
0.053579 0.053579 0.000000
0.114130 0.052610 0.000000
0.178045 0.051588 0.000000
0.244762 0.050520 0.000000
0.313722 0.049417 0.000000
0.384363 0.048287 0.000000
0.456125 0.047138 0.000000
0.528448 0.045981 0.000000
0.600771 0.044824 0.000000
0.672533 0.043676 0.000000
0.743174 0.042546 0.000000
0.812134 0.041442 0.000000
0.878851 0.040375 0.000000
0.942766 0.039352 0.000000
1.000000 0.038383 0.000000
1.000000 0.037477 0.000000
0.000000 0.112746 0.000000
0.050320 0.111840 0.000000
0.110871 0.110871 0.000000
0.174786 0.109848 0.000000
0.241503 0.108781 0.000000
0.310462 0.107678 0.000000
0.381104 0.106547 0.000000
0.452866 0.105399 0.000000
0.525189 0.104242 0.000000
0.597512 0.103085 0.000000
0.669274 0.101937 0.000000
0.739915 0.100806 0.000000
0.808875 0.099703 0.000000
0.875592 0.098635 0.000000
0.939507 0.097613 0.000000
1.000000 0.096644 0.000000
1.000000 0.095738 0.000000
0.000000 0.174243 0.000000
0.046880 0.173337 0.000000
0.107431 0.172368 0.000000
0.171345 0.171345 0.000000
0.238063 0.170278 0.000000
0.307022 0.169174 0.000000
0.377663 0.168044 0.000000
0.449426 0.166896 0.000000
0.521749 0.165739 0.000000
0.594072 0.164582 0.000000
0.665834 0.163433 0.000000
0.736475 0.162303 0.000000
0.805435 0.161200 0.000000
0.872152 0.160132 0.000000
0.936066 0.159110 0.000000
0.996617 0.158141 0.000000
1.000000 0.157235 0.000000
0.000000 0.238437 0.000000
0.043289 0.237530 0.000000
0.103840 0.236562 0.000000
0.167754 0.235539 0.000000
0.234472 0.234472 0.000000
0.303431 0.233368 0.000000
0.374072 0.232238 0.000000
0.445835 0.231090 0.000000
0.518158 0.229933 0.000000
0.590480 0.228775 0.000000
0.662243 0.227627 0.000000
0.732884 0.226497 0.000000
0.801844 0.225394 0.000000
0.868561 0.224326 0.000000
0.932475 0.223303 0.000000
0.993026 0.222335 0.000000
1.000000 0.221429 0.000000
0.000000 0.304788 0.000000
0.039577 0.303882 0.000000
0.100128 0.302913 0.000000
0.164042 0.301890 0.000000
0.230760 0.300823 0.000000
0.299719 0.299719 0.000000
0.370360 0.298589 0.000000
0.442123 0.297441 0.000000
0.514446 0.296284 0.000000
0.586769 0.295126 0.000000
0.658531 0.293978 0.000000
0.729172 0.292848 0.000000
0.798132 0.291745 0.000000
0.864849 0.290677 0.000000
0.928763 0.289655 0.000000
0.989315 0.288686 0.000000
1.000000 0.287780 0.000000
0.000000 0.372757 0.000000
0.035775 0.371851 0.000000
0.096326 0.370882 0.000000
0.160240 0.369859 0.000000
0.226957 0.368792 0.000000
0.295917 0.367688 0.000000
0.366558 0.366558 0.000000
0.438321 0.365410 0.000000
0.510643 0.364253 0.000000
0.582966 0.363096 0.000000
0.654729 0.361947 0.000000
0.725370 0.360817 0.000000
0.794329 0.359714 0.000000
0.861047 0.358646 0.000000
0.924961 0.357624 0.000000
0.985512 0.356655 0.000000
1.000000 0.355749 0.000000
0.000000 0.441805 0.000000
0.031912 0.440899 0.000000
0.092463 0.439930 0.000000
0.156378 0.438907 0.000000
0.223095 0.437840 0.000000
0.292054 0.436736 0.000000
0.362696 0.435606 0.000000
0.434458 0.434458 0.000000
0.506781 0.433301 0.000000
0.579104 0.432144 0.000000
0.650866 0.430995 0.000000
0.721507 0.429865 0.000000
0.790467 0.428762 0.000000
0.857184 0.427694 0.000000
0.921099 0.426672 0.000000
0.981650 0.425703 0.000000
1.000000 0.424797 0.000000
0.000000 0.511392 0.000000
0.028019 0.510486 0.000000
0.088570 0.509517 0.000000
0.152485 0.508494 0.000000
0.219202 0.507427 0.000000
0.288162 0.506324 0.000000
0.358803 0.505193 0.000000
0.430565 0.504045 0.000000
0.502888 0.502888 0.000000
0.575211 0.501731 0.000000
0.646973 0.500583 0.000000
0.717614 0.499452 0.000000
0.786574 0.498349 0.000000
0.853291 0.497282 0.000000
0.917206 0.496259 0.000000
0.977757 0.495290 0.000000
1.000000 0.494384 0.000000
0.000000 0.580979 0.000000
0.024126 0.580073 0.000000
0.084677 0.579104 0.000000
0.148592 0.578082 0.000000
0.215309 0.577014 0.000000
0.284269 0.575911 0.000000
0.354910 0.574781 0.000000
0.426672 0.573632 0.000000
0.498995 0.572475 0.000000
0.571318 0.571318 0.000000
0.643080 0.570170 0.000000
0.713722 0.569040 0.000000
0.782681 0.567936 0.000000
0.849398 0.566869 0.000000
0.913313 0.565846 0.000000
0.973864 0.564877 0.000000
1.000000 0.563971 0.000000
0.000000 0.650027 0.000000
0.020264 0.649121 0.000000
0.080815 0.648152 0.000000
0.144729 0.647130 0.000000
0.211447 0.646062 0.000000
0.280406 0.644959 0.000000
0.351047 0.643829 0.000000
0.422810 0.642680 0.000000
0.495133 0.641523 0.000000
0.567455 0.640366 0.000000
0.639218 0.639218 0.000000
0.709859 0.638088 0.000000
0.778819 0.636984 0.000000
0.845536 0.635917 0.000000
0.909450 0.634894 0.000000
0.970001 0.633925 0.000000
1.000000 0.633019 0.000000
0.000000 0.717996 0.000000
0.016461 0.717090 0.000000
0.077013 0.716121 0.000000
0.140927 0.715099 0.000000
0.207644 0.714031 0.000000
0.276604 0.712928 0.000000
0.347245 0.711798 0.000000
0.419007 0.710650 0.000000
0.491330 0.709492 0.000000
0.563653 0.708335 0.000000
0.635415 0.707187 0.000000
0.706057 0.706057 0.000000
0.775016 0.704953 0.000000
0.841734 0.703886 0.000000
0.905648 0.702863 0.000000
0.966199 0.701894 0.000000
1.000000 0.700988 0.000000
0.000000 0.784347 0.000000
0.012750 0.783441 0.000000
0.073301 0.782473 0.000000
0.137215 0.781450 0.000000
0.203932 0.780382 0.000000
0.272892 0.779279 0.000000
0.343533 0.778149 0.000000
0.415296 0.777001 0.000000
0.487618 0.775843 0.000000
0.559941 0.774686 0.000000
0.631704 0.773538 0.000000
0.702345 0.772408 0.000000
0.771304 0.771304 0.000000
0.838022 0.770237 0.000000
0.901936 0.769214 0.000000
0.962487 0.768246 0.000000
1.000000 0.767339 0.000000
0.000000 0.848541 0.000000
0.009159 0.847635 0.000000
0.069710 0.846666 0.000000
0.133624 0.845644 0.000000
0.200341 0.844576 0.000000
0.269301 0.843473 0.000000
0.339942 0.842343 0.000000
0.411704 0.841194 0.000000
0.484027 0.840037 0.000000
0.556350 0.838880 0.000000
0.628113 0.837732 0.000000
0.698754 0.836602 0.000000
0.767713 0.835498 0.000000
0.834431 0.834431 0.000000
0.898345 0.833408 0.000000
0.958896 0.832439 0.000000
1.000000 0.831533 0.000000
0.000000 0.910038 0.000000
0.005718 0.909132 0.000000
0.066269 0.908163 0.000000
0.130184 0.907141 0.000000
0.196901 0.906073 0.000000
0.265861 0.904970 0.000000
0.336502 0.903839 0.000000
0.408264 0.902691 0.000000
0.480587 0.901534 0.000000
0.552910 0.900377 0.000000
0.624672 0.899229 0.000000
0.695314 0.898098 0.000000
0.764273 0.896995 0.000000
0.830990 0.895928 0.000000
0.894905 0.894905 0.000000
0.955456 0.893936 0.000000
1.000000 0.893030 0.000000
0.000000 0.968299 0.000000
0.002459 0.967393 0.000000
0.063010 0.966424 0.000000
0.126925 0.965401 0.000000
0.193642 0.964334 0.000000
0.262602 0.963230 0.000000
0.333243 0.962100 0.000000
0.405005 0.960952 0.000000
0.477328 0.959795 0.000000
0.549651 0.958638 0.000000
0.621413 0.957489 0.000000
0.692054 0.956359 0.000000
0.761014 0.955256 0.000000
0.827731 0.954188 0.000000
0.891646 0.953166 0.000000
0.952197 0.952197 0.000000
1.000000 0.951291 0.000000
0.000000 1.000000 0.000000
0.000000 1.000000 0.000000
0.059962 1.000000 0.000000
0.123877 1.000000 0.000000
0.190594 1.000000 0.000000
0.259554 1.000000 0.000000
0.330195 1.000000 0.000000
0.401957 1.000000 0.000000
0.474280 1.000000 0.000000
0.546603 1.000000 0.000000
0.618365 1.000000 0.000000
0.689006 1.000000 0.000000
0.757966 1.000000 0.000000
0.824683 1.000000 0.000000
0.888598 1.000000 0.000000
0.949149 1.000000 0.000000
1.000000 1.000000 0.000000
0.000000 0.000000 0.057226
0.056319 0.000000 0.056319
0.116871 0.000000 0.055351
0.180785 0.000000 0.054328
0.247502 0.000000 0.053261
0.316462 0.000000 0.052157
0.387103 0.000000 0.051027
0.458865 0.000000 0.049879
0.531188 0.000000 0.048722
0.603511 0.000000 0.047564
0.675274 0.000000 0.046416
0.745915 0.000000 0.045286
0.814874 0.000000 0.044182
0.881592 0.000000 0.043115
0.945506 0.000000 0.042092
1.000000 0.000000 0.041124
1.000000 0.000000 0.040218
0.000000 0.054178 0.054178
0.053271 0.053271 0.053271
0.113823 0.052303 0.052303
0.177737 0.051280 0.051280
0.244454 0.050213 0.050213
0.313414 0.049109 0.049109
0.384055 0.047979 0.047979
0.455817 0.046831 0.046831
0.528140 0.045674 0.045674
0.600463 0.044516 0.044516
0.672226 0.043368 0.043368
0.742867 0.042238 0.042238
0.811826 0.041135 0.041135
0.878544 0.040067 0.040067
0.942458 0.039044 0.039044
1.000000 0.038076 0.038076
1.000000 0.037170 0.037170
0.000000 0.112438 0.050918
0.050012 0.111532 0.050012
0.110563 0.110563 0.049043
0.174478 0.109541 0.048021
0.241195 0.108473 0.046953
0.310155 0.107370 0.045850
0.380796 0.106240 0.044720
0.452558 0.105091 0.043572
0.524881 0.103934 0.042414
0.597204 0.102777 0.041257
0.668966 0.101629 0.040109
0.739608 0.100499 0.038979
0.808567 0.099395 0.037875
0.875284 0.098328 0.036808
0.939199 0.097305 0.035785
0.999750 0.096336 0.034816
1.000000 0.095430 0.033910
0.000000 0.173935 0.047478
0.046572 0.173029 0.046572
0.107123 0.172060 0.045603
0.171038 0.171038 0.044581
0.237755 0.169970 0.043513
0.306714 0.168867 0.042410
0.377356 0.167737 0.041279
0.449118 0.166588 0.040131
0.521441 0.165431 0.038974
0.593764 0.164274 0.037817
0.665526 0.163126 0.036669
0.736167 0.161995 0.035538
0.805127 0.160892 0.034435
0.871844 0.159825 0.033368
0.935759 0.158802 0.032345
0.996310 0.157833 0.031376
1.000000 0.156927 0.030470
0.000000 0.238129 0.043887
0.042981 0.237223 0.042981
0.103532 0.236254 0.042012
0.167447 0.235231 0.040990
0.234164 0.234164 0.039922
0.303123 0.233060 0.038819
0.373765 0.231930 0.037688
0.445527 0.230782 0.036540
0.517850 0.229625 0.035383
0.590173 0.228468 0.034226
0.661935 0.227319 0.033078
0.732576 0.226189 0.031947
0.801536 0.225086 0.030844
0.868253 0.224018 0.029777
0.932168 0.222996 0.028754
0.992719 0.222027 0.027785
1.000000 0.221121 0.026879
0.000000 0.304480 0.040175
0.039269 0.303574 0.039269
0.099820 0.302605 0.038300
0.163735 0.301582 0.037278
0.230452 0.300515 0.036210
0.299412 0.299412 0.035107
0.370053 0.298281 0.033977
0.441815 0.297133 0.032828
0.514138 0.295976 0.031671
0.586461 0.294819 0.030514
0.658223 0.293671 0.029366
0.728865 0.292540 0.028236
0.797824 0.291437 0.027132
0.864541 0.290369 0.026065
0.928456 0.289347 0.025042
0.989007 0.288378 0.024073
1.000000 0.287472 0.023167
0.000000 0.372449 0.036373
0.035467 0.371543 0.035467
0.096018 0.370574 0.034498
0.159932 0.369552 0.033475
0.226650 0.368484 0.032408
0.295609 0.367381 0.031305
0.366251 0.366251 0.030174
0.438013 0.365102 0.029026
0.510336 0.363945 0.027869
0.582659 0.362788 0.026712
0.654421 0.361640 0.025564
0.725062 0.360509 0.024433
0.794022 0.359406 0.023330
0.860739 0.358339 0.022262
0.924653 0.357316 0.021240
0.985205 0.356347 0.020271
1.000000 0.355441 0.019365
0.000000 0.441497 0.032510
0.031604 0.440591 0.031604
0.092155 0.439622 0.030635
0.156070 0.438600 0.029613
0.222787 0.437532 0.028545
0.291747 0.436429 0.027442
0.362388 0.435298 0.026312
0.434150 0.434150 0.025163
0.506473 0.432993 0.024006
0.578796 0.431836 0.022849
0.650558 0.430688 0.021701
0.721200 0.429557 0.020571
0.790159 0.428454 0.019467
0.856876 0.427387 0.018400
0.920791 0.426364 0.017377
0.981342 0.425395 0.016408
1.000000 0.424489 0.015502
0.000000 0.511084 0.028618
0.027711 0.510178 0.027711
0.088263 0.509209 0.026743
0.152177 0.508187 0.025720
0.218894 0.507119 0.024653
0.287854 0.506016 0.023549
0.358495 0.504886 0.022419
0.430257 0.503737 0.021271
0.502580 0.502580 0.020114
0.574903 0.501423 0.018956
0.646666 0.500275 0.017808
0.717307 0.499145 0.016678
0.786266 0.498041 0.015574
0.852984 0.496974 0.014507
0.916898 0.495951 0.013484
0.977449 0.494982 0.012516
1.000000 0.494076 0.011610
0.000000 0.580672 0.024725
0.023819 0.579766 0.023819
0.084370 0.578797 0.022850
0.148284 0.577774 0.021827
0.215002 0.576707 0.020760
0.283961 0.575603 0.019656
0.354602 0.574473 0.018526
0.426365 0.573325 0.017378
0.498687 0.572168 0.016221
0.571010 0.571010 0.015064
0.642773 0.569862 0.013915
0.713414 0.568732 0.012785
0.782373 0.567629 0.011682
0.849091 0.566561 0.010614
0.913005 0.565538 0.009592
0.973556 0.564570 0.008623
1.000000 0.563664 0.007717
0.000000 0.649719 0.020862
0.019956 0.648813 0.019956
0.080507 0.647845 0.018987
0.144422 0.646822 0.017965
0.211139 0.645754 0.016897
0.280098 0.644651 0.015794
0.350740 0.643521 0.014663
0.422502 0.642373 0.013515
0.494825 0.641215 0.012358
0.567148 0.640058 0.011201
0.638910 0.638910 0.010053
0.709551 0.637780 0.008922
0.778511 0.636676 0.007819
0.845228 0.635609 0.006752
0.909143 0.634586 0.005729
0.969694 0.633618 0.004760
1.000000 0.632711 0.003854
0.000000 0.717689 0.017060
0.016154 0.716783 0.016154
0.076705 0.715814 0.015185
0.140619 0.714791 0.014162
0.207337 0.713724 0.013095
0.276296 0.712620 0.011991
0.346937 0.711490 0.010861
0.418700 0.710342 0.009713
0.491023 0.709185 0.008556
0.563345 0.708027 0.007399
0.635108 0.706879 0.006250
0.705749 0.705749 0.005120
0.774709 0.704646 0.004017
0.841426 0.703578 0.002949
0.905340 0.702556 0.001927
0.965891 0.701587 0.000958
1.000000 0.700681 0.000052
0.000000 0.784040 0.013348
0.012442 0.783134 0.012442
0.072993 0.782165 0.011473
0.136908 0.781142 0.010450
0.203625 0.780075 0.009383
0.272584 0.778971 0.008280
0.343226 0.777841 0.007149
0.414988 0.776693 0.006001
0.487311 0.775536 0.004844
0.559634 0.774379 0.003687
0.631396 0.773230 0.002539
0.702037 0.772100 0.001408
0.770997 0.770997 0.000305
0.837714 0.769929 0.000000
0.901629 0.768907 0.000000
0.962180 0.767938 0.000000
1.000000 0.767032 0.000000
0.000000 0.848233 0.009757
0.008851 0.847327 0.008851
0.069402 0.846359 0.007882
0.133316 0.845336 0.006859
0.200034 0.844268 0.005792
0.268993 0.843165 0.004689
0.339634 0.842035 0.003558
0.411397 0.840887 0.002410
0.483720 0.839729 0.001253
0.556043 0.838572 0.000096
0.627805 0.837424 0.000000
0.698446 0.836294 0.000000
0.767406 0.835190 0.000000
0.834123 0.834123 0.000000
0.898037 0.833100 0.000000
0.958589 0.832132 0.000000
1.000000 0.831225 0.000000
0.000000 0.909730 0.006317
0.005411 0.908824 0.005411
0.065962 0.907855 0.004442
0.129876 0.906833 0.003419
0.196593 0.905765 0.002352
0.265553 0.904662 0.001248
0.336194 0.903532 0.000118
0.407957 0.902384 0.000000
0.480279 0.901226 0.000000
0.552602 0.900069 0.000000
0.624365 0.898921 0.000000
0.695006 0.897791 0.000000
0.763965 0.896687 0.000000
0.830683 0.895620 0.000000
0.894597 0.894597 0.000000
0.955148 0.893628 0.000000
1.000000 0.892722 0.000000
0.000000 0.967991 0.003057
0.002151 0.967085 0.002151
0.062703 0.966116 0.001183
0.126617 0.965094 0.000160
0.193334 0.964026 0.000000
0.262294 0.962923 0.000000
0.332935 0.961792 0.000000
0.404697 0.960644 0.000000
0.477020 0.959487 0.000000
0.549343 0.958330 0.000000
0.621106 0.957182 0.000000
0.691747 0.956051 0.000000
0.760706 0.954948 0.000000
0.827424 0.953881 0.000000
0.891338 0.952858 0.000000
0.951889 0.951889 0.000000
1.000000 0.950983 0.000000
0.000000 1.000000 0.000010
0.000000 1.000000 0.000000
0.059655 1.000000 0.000000
0.123569 1.000000 0.000000
0.190286 1.000000 0.000000
0.259246 1.000000 0.000000
0.329887 1.000000 0.000000
0.401649 1.000000 0.000000
0.473972 1.000000 0.000000
0.546295 1.000000 0.000000
0.618058 1.000000 0.000000
0.688699 1.000000 0.000000
0.757658 1.000000 0.000000
0.824376 1.000000 0.000000
0.888290 1.000000 0.000000
0.948841 1.000000 0.000000
1.000000 1.000000 0.000000
0.000000 0.000000 0.118416
0.055990 0.000000 0.117510
0.116542 0.000000 0.116542
0.180456 0.000000 0.115519
0.247173 0.000000 0.114451
0.316133 0.000000 0.113348
0.386774 0.000000 0.112218
0.458536 0.000000 0.111070
0.530859 0.000000 0.109912
0.603182 0.000000 0.108755
0.674945 0.000000 0.107607
0.745586 0.000000 0.106477
0.814545 0.000000 0.105373
0.881263 0.000000 0.104306
0.945177 0.000000 0.103283
1.000000 0.000000 0.102314
1.000000 0.000000 0.101408
0.000000 0.053849 0.115368
0.052942 0.052942 0.114462
0.113494 0.051974 0.113494
0.177408 0.050951 0.112471
0.244125 0.049884 0.111403
0.313085 0.048780 0.110300
0.383726 0.047650 0.109170
0.455488 0.046502 0.108022
0.527811 0.045345 0.106864
0.600134 0.044187 0.105707
0.671897 0.043039 0.104559
0.742538 0.041909 0.103429
0.811497 0.040805 0.102325
0.878215 0.039738 0.101258
0.942129 0.038715 0.100235
1.000000 0.037747 0.099266
1.000000 0.036841 0.098360
0.000000 0.112109 0.112109
0.049683 0.111203 0.111203
0.110234 0.110234 0.110234
0.174149 0.109212 0.109212
0.240866 0.108144 0.108144
0.309826 0.107041 0.107041
0.380467 0.105911 0.105911
0.452229 0.104762 0.104762
0.524552 0.103605 0.103605
0.596875 0.102448 0.102448
0.668637 0.101300 0.101300
0.739279 0.100170 0.100170
0.808238 0.099066 0.099066
0.874955 0.097999 0.097999
0.938870 0.096976 0.096976
0.999421 0.096007 0.096007
1.000000 0.095101 0.095101
0.000000 0.173606 0.108669
0.046243 0.172700 0.107763
0.106794 0.171731 0.106794
0.170709 0.170709 0.105772
0.237426 0.169641 0.104704
0.306385 0.168538 0.103601
0.377027 0.167408 0.102470
0.448789 0.166259 0.101322
0.521112 0.165102 0.100165
0.593435 0.163945 0.099008
0.665197 0.162797 0.097860
0.735838 0.161666 0.096729
0.804798 0.160563 0.095626
0.871515 0.159496 0.094559
0.935430 0.158473 0.093536
0.995981 0.157504 0.092567
1.000000 0.156598 0.091661
0.000000 0.237800 0.105078
0.042652 0.236894 0.104172
0.103203 0.235925 0.103203
0.167118 0.234902 0.102180
0.233835 0.233835 0.101113
0.302794 0.232731 0.100010
0.373436 0.231601 0.098879
0.445198 0.230453 0.097731
0.517521 0.229296 0.096574
0.589844 0.228139 0.095417
0.661606 0.226990 0.094269
0.732247 0.225860 0.093138
0.801207 0.224757 0.092035
0.867924 0.223689 0.090967
0.931839 0.222667 0.089945
0.992390 0.221698 0.088976
1.000000 0.220792 0.088070
0.000000 0.304151 0.101366
0.038940 0.303245 0.100460
0.099491 0.302276 0.099491
0.163406 0.301253 0.098469
0.230123 0.300186 0.097401
0.299083 0.299083 0.096298
0.369724 0.297952 0.095168
0.441486 0.296804 0.094019
0.513809 0.295647 0.092862
0.586132 0.294490 0.091705
0.657894 0.293342 0.090557
0.728535 0.292211 0.089427
0.797495 0.291108 0.088323
0.864212 0.290040 0.087256
0.928127 0.289018 0.086233
0.988678 0.288049 0.085264
1.000000 0.287143 0.084358
0.000000 0.372120 0.097564
0.035138 0.371214 0.096658
0.095689 0.370245 0.095689
0.159603 0.369223 0.094666
0.226321 0.368155 0.093599
0.295280 0.367052 0.092496
0.365921 0.365921 0.091365
0.437684 0.364773 0.090217
0.510007 0.363616 0.089060
0.582330 0.362459 0.087903
0.654092 0.361311 0.086754
0.724733 0.360180 0.085624
0.793693 0.359077 0.084521
0.860410 0.358010 0.083453
0.924324 0.356987 0.082431
0.984876 0.356018 0.081462
1.000000 0.355112 0.080556
0.000000 0.441168 0.093701
0.031275 0.440262 0.092795
0.091826 0.439293 0.091826
0.155741 0.438271 0.090804
0.222458 0.437203 0.089736
0.291418 0.436100 0.088633
0.362059 0.434969 0.087503
0.433821 0.433821 0.086354
0.506144 0.432664 0.085197
0.578467 0.431507 0.084040
0.650229 0.430359 0.082892
0.720871 0.429228 0.081762
0.789830 0.428125 0.080658
0.856547 0.427058 0.079591
0.920462 0.426035 0.078568
0.981013 0.425066 0.077599
1.000000 0.424160 0.076693
0.000000 0.510755 0.089808
0.027382 0.509849 0.088902
0.087934 0.508880 0.087934
0.151848 0.507858 0.086911
0.218565 0.506790 0.085843
0.287525 0.505687 0.084740
0.358166 0.504557 0.083610
0.429928 0.503408 0.082462
0.502251 0.502251 0.081304
0.574574 0.501094 0.080147
0.646337 0.499946 0.078999
0.716978 0.498816 0.077869
0.785937 0.497712 0.076765
0.852655 0.496645 0.075698
0.916569 0.495622 0.074675
0.977120 0.494653 0.073706
1.000000 0.493747 0.072800
0.000000 0.580343 0.085916
0.023490 0.579437 0.085010
0.084041 0.578468 0.084041
0.147955 0.577445 0.083018
0.214672 0.576378 0.081951
0.283632 0.575274 0.080847
0.354273 0.574144 0.079717
0.426036 0.572996 0.078569
0.498358 0.571839 0.077412
0.570681 0.570681 0.076254
0.642444 0.569533 0.075106
0.713085 0.568403 0.073976
0.782044 0.567300 0.072873
0.848762 0.566232 0.071805
0.912676 0.565209 0.070782
0.973227 0.564241 0.069814
1.000000 0.563335 0.068908
0.000000 0.649390 0.082053
0.019627 0.648484 0.081147
0.080178 0.647516 0.080178
0.144093 0.646493 0.079155
0.210810 0.645425 0.078088
0.279769 0.644322 0.076985
0.350411 0.643192 0.075854
0.422173 0.642044 0.074706
0.494496 0.640886 0.073549
0.566819 0.639729 0.072392
0.638581 0.638581 0.071244
0.709222 0.637451 0.070113
0.778182 0.636347 0.069010
0.844899 0.635280 0.067942
0.908814 0.634257 0.066920
0.969365 0.633289 0.065951
1.000000 0.632382 0.065045
0.000000 0.717360 0.078251
0.015825 0.716454 0.077345
0.076376 0.715485 0.076376
0.140290 0.714462 0.075353
0.207008 0.713395 0.074286
0.275967 0.712291 0.073182
0.346608 0.711161 0.072052
0.418371 0.710013 0.070904
0.490694 0.708856 0.069747
0.563016 0.707698 0.068589
0.634779 0.706550 0.067441
0.705420 0.705420 0.066311
0.774380 0.704317 0.065208
0.841097 0.703249 0.064140
0.905011 0.702227 0.063118
0.965562 0.701258 0.062149
1.000000 0.700352 0.061243
0.000000 0.783711 0.074539
0.012113 0.782805 0.073633
0.072664 0.781836 0.072664
0.136578 0.780813 0.071641
0.203296 0.779746 0.070574
0.272255 0.778642 0.069471
0.342897 0.777512 0.068340
0.414659 0.776364 0.067192
0.486982 0.775207 0.066035
0.559305 0.774050 0.064878
0.631067 0.772901 0.063730
0.701708 0.771771 0.062599
0.770668 0.770668 0.061496
0.837385 0.769600 0.060428
0.901300 0.768578 0.059406
0.961851 0.767609 0.058437
1.000000 0.766703 0.057531
0.000000 0.847904 0.070948
0.008522 0.846998 0.070042
0.069073 0.846030 0.069073
0.132987 0.845007 0.068050
0.199705 0.843939 0.066983
0.268664 0.842836 0.065879
0.339305 0.841706 0.064749
0.411068 0.840558 0.063601
0.483391 0.839400 0.062444
0.555714 0.838243 0.061287
0.627476 0.837095 0.060138
0.698117 0.835965 0.059008
0.767077 0.834861 0.057905
0.833794 0.833794 0.056837
0.897708 0.832771 0.055815
0.958260 0.831802 0.054846
1.000000 0.830896 0.053940
0.000000 0.909401 0.067508
0.005082 0.908495 0.066602
0.065633 0.907526 0.065633
0.129547 0.906504 0.064610
0.196264 0.905436 0.063543
0.265224 0.904333 0.062439
0.335865 0.903203 0.061309
0.407628 0.902055 0.060161
0.479950 0.900897 0.059004
0.552273 0.899740 0.057846
0.624036 0.898592 0.056698
0.694677 0.897462 0.055568
0.763636 0.896358 0.054465
0.830354 0.895291 0.053397
0.894268 0.894268 0.052374
0.954819 0.893299 0.051406
1.000000 0.892393 0.050500
0.000000 0.967662 0.064248
0.001822 0.966756 0.063342
0.062374 0.965787 0.062374
0.126288 0.964765 0.061351
0.193005 0.963697 0.060283
0.261965 0.962594 0.059180
0.332606 0.961463 0.058050
0.404368 0.960315 0.056902
0.476691 0.959158 0.055744
0.549014 0.958001 0.054587
0.620777 0.956853 0.053439
0.691418 0.955722 0.052309
0.760377 0.954619 0.051205
0.827095 0.953552 0.050138
0.891009 0.952529 0.049115
0.951560 0.951560 0.048146
1.000000 0.950654 0.047240
0.000000 1.000000 0.061200
0.000000 1.000000 0.060294
0.059326 1.000000 0.059326
0.123240 1.000000 0.058303
0.189957 1.000000 0.057235
0.258917 1.000000 0.056132
0.329558 1.000000 0.055002
0.401320 1.000000 0.053854
0.473643 1.000000 0.052696
0.545966 1.000000 0.051539
0.617729 1.000000 0.050391
0.688370 1.000000 0.049261
0.757329 1.000000 0.048157
0.824047 1.000000 0.047090
0.887961 1.000000 0.046067
0.948512 1.000000 0.045098
1.000000 1.000000 0.044192
0.000000 0.000000 0.183006
0.055643 0.000000 0.182100
0.116194 0.000000 0.181131
0.180109 0.000000 0.180109
0.246826 0.000000 0.179041
0.315786 0.000000 0.177938
0.386427 0.000000 0.176808
0.458189 0.000000 0.175659
0.530512 0.000000 0.174502
0.602835 0.000000 0.173345
0.674597 0.000000 0.172197
0.745238 0.000000 0.171067
0.814198 0.000000 0.169963
0.880915 0.000000 0.168896
0.944830 0.000000 0.167873
