assets/luts/cool.cube
# Cool — Studio filter "cool"
# Generated by scripts/generate-filter-luts.mjs — do not edit by hand.
LUT_3D_SIZE 5
DOMAIN_MIN 0.0 0.0 0.0
DOMAIN_MAX 1.0 1.0 1.0
0.000000 0.000000 0.000000
0.226333 0.000000 0.000000
0.479646 0.000000 0.000000
0.732958 0.000000 0.000000
0.959291 0.000000 0.000000
0.000000 0.238625 0.000000
0.219583 0.236759 0.000000
0.472896 0.234671 0.000000
0.726209 0.232583 0.000000
0.952542 0.230717 0.000000
0.000000 0.505696 0.000000
0.212029 0.503830 0.000000
0.465342 0.501742 0.000000
0.718654 0.499653 0.000000
0.944987 0.497787 0.000000
0.000000 0.772767 0.000000
0.204474 0.770901 0.000000
0.457787 0.768812 0.000000
0.711100 0.766724 0.000000
0.937433 0.764858 0.000000
0.000000 1.000000 0.000000
0.197725 1.000000 0.000000
0.451038 1.000000 0.000000
0.704350 1.000000 0.000000
0.930683 1.000000 0.000000
0.000000 0.000000 0.269163
0.225583 0.000000 0.267297
0.478896 0.000000 0.265209
0.732209 0.000000 0.263120
0.958542 0.000000 0.261254
0.000000 0.237876 0.262413
0.218834 0.236010 0.260547
0.472146 0.233921 0.258459
0.725459 0.231833 0.256371
0.951792 0.229967 0.254505
0.000000 0.504946 0.254859
0.211279 0.503081 0.252993
0.464592 0.500992 0.250905
0.717905 0.498904 0.248816
0.944238 0.497038 0.246950
0.000000 0.772017 0.247305
0.203725 0.770151 0.245439
0.457038 0.768063 0.243350
0.710351 0.765974 0.241262
0.936683 0.764108 0.239396
0.000000 1.000000 0.240555
0.196975 1.000000 0.238689
0.450288 1.000000 0.236601
0.703601 1.000000 0.234512
0.929934 1.000000 0.232646
0.000000 0.000000 0.570412
0.224744 0.000000 0.568546
0.478057 0.000000 0.566457
0.731370 0.000000 0.564369
0.957703 0.000000 0.562503
0.000000 0.237037 0.563662
0.217995 0.235171 0.561796
0.471308 0.233083 0.559708
0.724620 0.230994 0.557619
0.950953 0.229128 0.555753
0.000000 0.504108 0.556108
0.210440 0.502242 0.554242
0.463753 0.500153 0.552153
0.717066 0.498065 0.550065
0.943399 0.496199 0.548199
0.000000 0.771178 0.548553
0.202886 0.769312 0.546687
0.456199 0.767224 0.544599
0.709512 0.765136 0.542511
0.935845 0.763270 0.540645
0.000000 1.000000 0.541804
0.196136 1.000000 0.539938
0.449449 1.000000 0.537849
0.702762 1.000000 0.535761
0.929095 1.000000 0.533895
0.000000 0.000000 0.871660
0.223906 0.000000 0.869794
0.477218 0.000000 0.867706
0.730531 0.000000 0.865617
0.956864 0.000000 0.863752
0.000000 0.236198 0.864911
0.217156 0.234332 0.863045
0.470469 0.232244 0.860956
0.723782 0.230155 0.858868
0.950114 0.228289 0.857002
0.000000 0.503269 0.857356
0.209602 0.501403 0.855490
0.462914 0.499314 0.853402
0.716227 0.497226 0.851313
0.942560 0.495360 0.849448
0.000000 0.770339 0.849802
0.202047 0.768473 0.847936
0.455360 0.766385 0.845848
0.708673 0.764297 0.843759
0.935006 0.762431 0.841893
0.000000 1.000000 0.843052
0.195298 1.000000 0.841186
0.448610 1.000000 0.839098
0.701923 1.000000 0.837009
0.928256 1.000000 0.835144
0.000000 0.000000 1.000000
0.223156 0.000000 1.000000
0.476469 0.000000 1.000000
0.729782 0.000000 1.000000
0.956114 0.000000 1.000000
0.000000 0.235449 1.000000
0.216406 0.233583 1.000000
0.469719 0.231494 1.000000
0.723032 0.229406 1.000000
0.949365 0.227540 1.000000
0.000000 0.502519 1.000000
0.208852 0.500653 1.000000
0.462165 0.498565 1.000000
0.715478 0.496476 1.000000
0.941810 0.494610 1.000000
0.000000 0.769590 1.000000
0.201298 0.767724 1.000000
0.454611 0.765636 1.000000
0.707923 0.763547 1.000000
0.934256 0.761681 1.000000
0.000000 1.000000 1.000000
0.194548 1.000000 1.000000
0.447861 1.000000 1.000000
0.701174 1.000000 1.000000
0.927506 1.000000 1.000000
