assets/luts/cool.cube
# Cool — Studio filter "cool"
# Generated by scripts/generate-filter-luts.mjs — do not edit by hand.
LUT_3D_SIZE 17
DOMAIN_MIN 0.0 0.0 0.0
DOMAIN_MAX 1.0 1.0 1.0
0.000000 0.000000 0.000000
0.052578 0.000000 0.000000
0.108108 0.000000 0.000000
0.166166 0.000000 0.000000
0.226333 0.000000 0.000000
0.288186 0.000000 0.000000
0.351303 0.000000 0.000000
0.415264 0.000000 0.000000
0.479646 0.000000 0.000000
0.544028 0.000000 0.000000
0.607988 0.000000 0.000000
0.671106 0.000000 0.000000
0.732958 0.000000 0.000000
0.793125 0.000000 0.000000
0.851184 0.000000 0.000000
0.906713 0.000000 0.000000
0.959291 0.000000 0.000000
0.000000 0.055434 0.000000
0.051010 0.055000 0.000000
0.106540 0.054543 0.000000
0.164598 0.054064 0.000000
0.224765 0.053568 0.000000
0.286618 0.053058 0.000000
0.349735 0.052538 0.000000
0.413696 0.052010 0.000000
0.478078 0.051480 0.000000
0.542460 0.050949 0.000000
0.606420 0.050422 0.000000
0.669538 0.049901 0.000000
0.731391 0.049391 0.000000
0.791557 0.048895 0.000000
0.849616 0.048417 0.000000
0.905145 0.047959 0.000000
0.957723 0.047525 0.000000
0.000000 0.113979 0.000000
0.049354 0.113546 0.000000
0.104884 0.113088 0.000000
0.162942 0.112609 0.000000
0.223109 0.112113 0.000000
0.284962 0.111603 0.000000
0.348079 0.111083 0.000000
0.412040 0.110556 0.000000
0.476422 0.110025 0.000000
0.540804 0.109494 0.000000
0.604764 0.108967 0.000000
0.667882 0.108446 0.000000
0.729735 0.107936 0.000000
0.789901 0.107440 0.000000
0.847960 0.106962 0.000000
0.903489 0.106504 0.000000
0.956067 0.106070 0.000000
0.000000 0.175191 0.000000
0.047623 0.174758 0.000000
0.103152 0.174300 0.000000
0.161211 0.173821 0.000000
0.221377 0.173325 0.000000
0.283230 0.172815 0.000000
0.346348 0.172295 0.000000
0.410308 0.171767 0.000000
0.474690 0.171237 0.000000
0.539072 0.170706 0.000000
0.603033 0.170179 0.000000
0.666150 0.169658 0.000000
0.728003 0.169148 0.000000
0.788170 0.168652 0.000000
0.846228 0.168174 0.000000
0.901758 0.167716 0.000000
0.954336 0.167282 0.000000
0.000000 0.238625 0.000000
0.045829 0.238192 0.000000
0.101358 0.237734 0.000000
0.159417 0.237255 0.000000
0.219583 0.236759 0.000000
0.281436 0.236249 0.000000
0.344553 0.235729 0.000000
0.408514 0.235202 0.000000
0.472896 0.234671 0.000000
0.537278 0.234140 0.000000
0.601239 0.233613 0.000000
0.664356 0.233092 0.000000
0.726209 0.232583 0.000000
0.786375 0.232087 0.000000
0.844434 0.231608 0.000000
0.899963 0.231150 0.000000
0.952542 0.230717 0.000000
0.000000 0.303837 0.000000
0.043984 0.303404 0.000000
0.099513 0.302946 0.000000
0.157572 0.302467 0.000000
0.217739 0.301971 0.000000
0.279591 0.301461 0.000000
0.342709 0.300941 0.000000
0.406669 0.300414 0.000000
0.471051 0.299883 0.000000
0.535433 0.299352 0.000000
0.599394 0.298825 0.000000
0.662511 0.298305 0.000000
0.724364 0.297795 0.000000
0.784531 0.297299 0.000000
0.842589 0.296820 0.000000
0.898119 0.296362 0.000000
0.950697 0.295929 0.000000
0.000000 0.370383 0.000000
0.042102 0.369949 0.000000
0.097631 0.369492 0.000000
0.155690 0.369013 0.000000
0.215856 0.368517 0.000000
0.277709 0.368007 0.000000
0.340826 0.367487 0.000000
0.404787 0.366959 0.000000
0.469169 0.366428 0.000000
0.533551 0.365898 0.000000
0.597512 0.365370 0.000000
0.660629 0.364850 0.000000
0.722482 0.364340 0.000000
0.782648 0.363844 0.000000
0.840707 0.363365 0.000000
0.896236 0.362908 0.000000
0.948815 0.362474 0.000000
0.000000 0.437817 0.000000
0.040194 0.437384 0.000000
0.095724 0.436926 0.000000
0.153782 0.436447 0.000000
0.213949 0.435951 0.000000
0.275802 0.435441 0.000000
0.338919 0.434921 0.000000
0.402880 0.434394 0.000000
0.467262 0.433863 0.000000
0.531644 0.433332 0.000000
0.595604 0.432805 0.000000
0.658722 0.432284 0.000000
0.720574 0.431774 0.000000
0.780741 0.431278 0.000000
0.838800 0.430800 0.000000
0.894329 0.430342 0.000000
0.946907 0.429908 0.000000
0.000000 0.505696 0.000000
0.038274 0.505263 0.000000
0.093804 0.504805 0.000000
0.151862 0.504326 0.000000
0.212029 0.503830 0.000000
0.273882 0.503320 0.000000
0.336999 0.502800 0.000000
0.400960 0.502272 0.000000
0.465342 0.501742 0.000000
0.529724 0.501211 0.000000
0.593684 0.500684 0.000000
0.656802 0.500163 0.000000
0.718654 0.499653 0.000000
0.778821 0.499157 0.000000
0.836880 0.498679 0.000000
0.892409 0.498221 0.000000
0.944987 0.497787 0.000000
0.000000 0.573575 0.000000
0.036354 0.573141 0.000000
0.091884 0.572684 0.000000
0.149942 0.572205 0.000000
0.210109 0.571709 0.000000
0.271962 0.571199 0.000000
0.335079 0.570679 0.000000
0.399040 0.570151 0.000000
0.463422 0.569620 0.000000
0.527804 0.569090 0.000000
0.591764 0.568562 0.000000
0.654882 0.568042 0.000000
0.716734 0.567532 0.000000
0.776901 0.567036 0.000000
0.834960 0.566557 0.000000
0.890489 0.566100 0.000000
0.943067 0.565666 0.000000
0.000000 0.641009 0.000000
0.034447 0.640576 0.000000
0.089976 0.640118 0.000000
0.148035 0.639639 0.000000
0.208201 0.639143 0.000000
0.270054 0.638633 0.000000
0.333172 0.638113 0.000000
0.397132 0.637586 0.000000
0.461514 0.637055 0.000000
0.525896 0.636524 0.000000
0.589857 0.635997 0.000000
0.652974 0.635476 0.000000
0.714827 0.634966 0.000000
0.774994 0.634470 0.000000
0.833052 0.633992 0.000000
0.888581 0.633534 0.000000
0.941160 0.633100 0.000000
0.000000 0.707555 0.000000
0.032565 0.707121 0.000000
0.088094 0.706663 0.000000
0.146153 0.706185 0.000000
0.206319 0.705689 0.000000
0.268172 0.705179 0.000000
0.331289 0.704658 0.000000
0.395250 0.704131 0.000000
0.459632 0.703600 0.000000
0.524014 0.703069 0.000000
0.587975 0.702542 0.000000
0.651092 0.702022 0.000000
0.712945 0.701512 0.000000
0.773111 0.701016 0.000000
0.831170 0.700537 0.000000
0.886699 0.700079 0.000000
0.939278 0.699646 0.000000
0.000000 0.772767 0.000000
0.030720 0.772333 0.000000
0.086249 0.771875 0.000000
0.144308 0.771397 0.000000
0.204474 0.770901 0.000000
0.266327 0.770391 0.000000
0.329445 0.769870 0.000000
0.393405 0.769343 0.000000
0.457787 0.768812 0.000000
0.522169 0.768282 0.000000
0.586130 0.767754 0.000000
0.649247 0.767234 0.000000
0.711100 0.766724 0.000000
0.771267 0.766228 0.000000
0.829325 0.765749 0.000000
0.884855 0.765291 0.000000
0.937433 0.764858 0.000000
0.000000 0.836201 0.000000
0.028926 0.835767 0.000000
0.084455 0.835310 0.000000
0.142514 0.834831 0.000000
0.202680 0.834335 0.000000
0.264533 0.833825 0.000000
0.327650 0.833305 0.000000
0.391611 0.832777 0.000000
0.455993 0.832247 0.000000
0.520375 0.831716 0.000000
0.584336 0.831188 0.000000
0.647453 0.830668 0.000000
0.709306 0.830158 0.000000
0.769472 0.829662 0.000000
0.827531 0.829183 0.000000
0.883060 0.828726 0.000000
0.935639 0.828292 0.000000
0.000000 0.897413 0.000000
0.027194 0.896979 0.000000
0.082724 0.896522 0.000000
0.140782 0.896043 0.000000
0.200949 0.895547 0.000000
0.262802 0.895037 0.000000
0.325919 0.894517 0.000000
0.389880 0.893989 0.000000
0.454262 0.893459 0.000000
0.518644 0.892928 0.000000
0.582604 0.892400 0.000000
0.645722 0.891880 0.000000
0.707574 0.891370 0.000000
0.767741 0.890874 0.000000
0.825800 0.890395 0.000000
0.881329 0.889938 0.000000
0.933907 0.889504 0.000000
0.000000 0.955958 0.000000
0.025538 0.955525 0.000000
0.081068 0.955067 0.000000
0.139126 0.954588 0.000000
0.199293 0.954092 0.000000
0.261146 0.953582 0.000000
0.324263 0.953062 0.000000
0.388224 0.952534 0.000000
0.452606 0.952004 0.000000
0.516988 0.951473 0.000000
0.580948 0.950946 0.000000
0.644066 0.950425 0.000000
0.705918 0.949915 0.000000
0.766085 0.949419 0.000000
0.824144 0.948941 0.000000
0.879673 0.948483 0.000000
0.932251 0.948049 0.000000
0.000000 1.000000 0.000000
0.023970 1.000000 0.000000
0.079500 1.000000 0.000000
0.137558 1.000000 0.000000
0.197725 1.000000 0.000000
0.259578 1.000000 0.000000
0.322695 1.000000 0.000000
0.386656 1.000000 0.000000
0.451038 1.000000 0.000000
0.515420 1.000000 0.000000
0.579380 1.000000 0.000000
0.642498 1.000000 0.000000
0.704350 1.000000 0.000000
0.764517 1.000000 0.000000
0.822576 1.000000 0.000000
0.878105 1.000000 0.000000
0.930683 1.000000 0.000000
0.000000 0.000000 0.062528
0.052404 0.000000 0.062095
0.107934 0.000000 0.061637
0.165992 0.000000 0.061158
0.226159 0.000000 0.060662
0.288011 0.000000 0.060152
0.351129 0.000000 0.059632
0.415089 0.000000 0.059104
0.479472 0.000000 0.058574
0.543854 0.000000 0.058043
0.607814 0.000000 0.057516
0.670932 0.000000 0.056995
0.732784 0.000000 0.056485
0.792951 0.000000 0.055989
0.851010 0.000000 0.055511
0.906539 0.000000 0.055053
0.959117 0.000000 0.054619
0.000000 0.055260 0.060960
0.050836 0.054826 0.060527
0.106366 0.054369 0.060069
0.164424 0.053890 0.059590
0.224591 0.053394 0.059094
0.286443 0.052884 0.058584
0.349561 0.052364 0.058064
0.413521 0.051836 0.057536
0.477904 0.051305 0.057006
0.542286 0.050775 0.056475
0.606246 0.050247 0.055948
0.669364 0.049727 0.055427
0.731216 0.049217 0.054917
0.791383 0.048721 0.054421
0.849442 0.048242 0.053943
0.904971 0.047785 0.053485
0.957549 0.047351 0.053051
0.000000 0.113805 0.059304
0.049180 0.113372 0.058871
0.104710 0.112914 0.058413
0.162768 0.112435 0.057934
0.222935 0.111939 0.057438
0.284787 0.111429 0.056928
0.347905 0.110909 0.056408
0.411865 0.110381 0.055880
0.476248 0.109851 0.055350
0.540630 0.109320 0.054819
0.604590 0.108793 0.054292
0.667708 0.108272 0.053771
0.729560 0.107762 0.053261
0.789727 0.107266 0.052765
0.847786 0.106788 0.052287
0.903315 0.106330 0.051829
0.955893 0.105896 0.051395
0.000000 0.175017 0.057573
0.047449 0.174583 0.057139
0.102978 0.174126 0.056681
0.161037 0.173647 0.056203
0.221203 0.173151 0.055707
0.283056 0.172641 0.055197
0.346173 0.172121 0.054676
0.410134 0.171593 0.054149
0.474516 0.171063 0.053618
0.538898 0.170532 0.053087
0.602859 0.170004 0.052560
0.665976 0.169484 0.052040
0.727829 0.168974 0.051530
0.787995 0.168478 0.051034
0.846054 0.168000 0.050555
0.901583 0.167542 0.050097
0.954162 0.167108 0.049664
0.000000 0.238451 0.055778
0.045655 0.238018 0.055345
0.101184 0.237560 0.054887
0.159242 0.237081 0.054408
0.219409 0.236585 0.053912
0.281262 0.236075 0.053402
0.344379 0.235555 0.052882
0.408340 0.235028 0.052355
0.472722 0.234497 0.051824
0.537104 0.233966 0.051293
0.601065 0.233439 0.050766
0.664182 0.232918 0.050246
0.726035 0.232408 0.049736
0.786201 0.231912 0.049240
0.844260 0.231434 0.048761
0.899789 0.230976 0.048303
0.952367 0.230542 0.047870
0.000000 0.303663 0.053934
0.043810 0.303230 0.053500
0.099339 0.302772 0.053042
0.157398 0.302293 0.052564
0.217564 0.301797 0.052068
0.279417 0.301287 0.051558
0.342535 0.300767 0.051037
0.406495 0.300240 0.050510
0.470877 0.299709 0.049979
0.535259 0.299178 0.049449
0.599220 0.298651 0.048921
0.662337 0.298130 0.048401
0.724190 0.297620 0.047891
0.784357 0.297124 0.047395
0.842415 0.296646 0.046916
0.897945 0.296188 0.046459
0.950523 0.295755 0.046025
0.000000 0.370209 0.052051
0.041928 0.369775 0.051618
0.097457 0.369317 0.051160
0.155516 0.368839 0.050682
0.215682 0.368343 0.050186
0.277535 0.367833 0.049676
0.340652 0.367312 0.049155
0.404613 0.366785 0.048628
0.468995 0.366254 0.048097
0.533377 0.365724 0.047566
0.597338 0.365196 0.047039
0.660455 0.364676 0.046519
0.722308 0.364166 0.046009
0.782474 0.363670 0.045513
0.840533 0.363191 0.045034
0.896062 0.362733 0.044576
0.948641 0.362300 0.044143
0.000000 0.437643 0.050144
0.040020 0.437210 0.049711
0.095550 0.436752 0.049253
0.153608 0.436273 0.048774
0.213775 0.435777 0.048278
0.275627 0.435267 0.047768
0.338745 0.434747 0.047248
0.402705 0.434219 0.046720
0.467088 0.433689 0.046190
0.531470 0.433158 0.045659
0.595430 0.432631 0.045132
0.658548 0.432110 0.044611
0.720400 0.431600 0.044101
0.780567 0.431104 0.043605
0.838626 0.430626 0.043127
0.894155 0.430168 0.042669
0.946733 0.429734 0.042235
0.000000 0.505522 0.048224
0.038100 0.505088 0.047791
0.093630 0.504631 0.047333
0.151688 0.504152 0.046854
0.211855 0.503656 0.046358
0.273707 0.503146 0.045848
0.336825 0.502626 0.045328
0.400785 0.502098 0.044800
0.465168 0.501568 0.044270
0.529550 0.501037 0.043739
0.593510 0.500509 0.043212
0.656628 0.499989 0.042691
0.718480 0.499479 0.042181
0.778647 0.498983 0.041685
0.836706 0.498504 0.041207
0.892235 0.498047 0.040749
0.944813 0.497613 0.040315
0.000000 0.573401 0.046304
0.036180 0.572967 0.045871
0.091710 0.572509 0.045413
0.149768 0.572031 0.044934
0.209935 0.571535 0.044438
0.271787 0.571025 0.043928
0.334905 0.570504 0.043408
0.398865 0.569977 0.042880
0.463248 0.569446 0.042350
0.527630 0.568916 0.041819
0.591590 0.568388 0.041292
0.654708 0.567868 0.040771
0.716560 0.567358 0.040261
0.776727 0.566862 0.039765
0.834786 0.566383 0.039287
0.890315 0.565925 0.038829
0.942893 0.565492 0.038395
0.000000 0.640835 0.044397
0.034273 0.640402 0.043963
0.089802 0.639944 0.043505
0.147861 0.639465 0.043027
0.208027 0.638969 0.042531
0.269880 0.638459 0.042021
0.332997 0.637939 0.041500
0.396958 0.637411 0.040973
0.461340 0.636881 0.040442
0.525722 0.636350 0.039911
0.589683 0.635823 0.039384
0.652800 0.635302 0.038864
0.714653 0.634792 0.038354
0.774819 0.634296 0.037858
0.832878 0.633818 0.037379
0.888407 0.633360 0.036921
0.940986 0.632926 0.036488
0.000000 0.707381 0.042514
0.032390 0.706947 0.042081
0.087920 0.706489 0.041623
0.145978 0.706011 0.041144
0.206145 0.705515 0.040648
0.267998 0.705005 0.040138
0.331115 0.704484 0.039618
0.395076 0.703957 0.039091
0.459458 0.703426 0.038560
0.523840 0.702895 0.038029
0.587800 0.702368 0.037502
0.650918 0.701848 0.036981
0.712771 0.701338 0.036472
0.772937 0.700842 0.035976
0.830996 0.700363 0.035497
0.886525 0.699905 0.035039
0.939103 0.699472 0.034606
0.000000 0.772593 0.040670
0.030546 0.772159 0.040236
0.086075 0.771701 0.039778
0.144134 0.771223 0.039300
0.204300 0.770727 0.038804
0.266153 0.770217 0.038294
0.329271 0.769696 0.037773
0.393231 0.769169 0.037246
0.457613 0.768638 0.036715
0.521995 0.768107 0.036185
0.585956 0.767580 0.035657
0.649073 0.767060 0.035137
0.710926 0.766550 0.034627
0.771093 0.766054 0.034131
0.829151 0.765575 0.033652
0.884681 0.765117 0.033194
0.937259 0.764684 0.032761
0.000000 0.836027 0.038875
0.028752 0.835593 0.038442
0.084281 0.835136 0.037984
0.142340 0.834657 0.037506
0.202506 0.834161 0.037009
0.264359 0.833651 0.036500
0.327476 0.833131 0.035979
0.391437 0.832603 0.035452
0.455819 0.832072 0.034921
0.520201 0.831542 0.034390
0.584162 0.831014 0.033863
0.647279 0.830494 0.033343
0.709132 0.829984 0.032833
0.769298 0.829488 0.032337
0.827357 0.829009 0.031858
0.882886 0.828552 0.031400
0.935465 0.828118 0.030967
0.000000 0.897239 0.037144
0.027020 0.896805 0.036711
0.082549 0.896347 0.036253
0.140608 0.895869 0.035774
0.200775 0.895373 0.035278
0.262627 0.894863 0.034768
0.325745 0.894342 0.034248
0.389705 0.893815 0.033720
0.454088 0.893284 0.033190
0.518470 0.892754 0.032659
0.582430 0.892226 0.032132
0.645548 0.891706 0.031611
0.707400 0.891196 0.031101
0.767567 0.890700 0.030605
0.825626 0.890221 0.030127
0.881155 0.889763 0.029669
0.933733 0.889330 0.029235
0.000000 0.955784 0.035488
0.025364 0.955350 0.035055
0.080894 0.954893 0.034597
0.138952 0.954414 0.034118
0.199119 0.953918 0.033622
0.260971 0.953408 0.033112
0.324089 0.952888 0.032592
0.388049 0.952360 0.032064
0.452432 0.951830 0.031534
0.516814 0.951299 0.031003
0.580774 0.950771 0.030476
0.643892 0.950251 0.029955
0.705744 0.949741 0.029445
0.765911 0.949245 0.028949
0.823970 0.948766 0.028471
0.879499 0.948309 0.028013
0.932077 0.947875 0.027579
0.000000 1.000000 0.033920
0.023796 1.000000 0.033487
0.079326 1.000000 0.033029
0.137384 1.000000 0.032550
0.197551 1.000000 0.032054
0.259403 1.000000 0.031544
0.322521 1.000000 0.031024
0.386481 1.000000 0.030496
0.450864 1.000000 0.029966
0.515246 1.000000 0.029435
0.579206 1.000000 0.028908
0.642324 1.000000 0.028387
0.704176 1.000000 0.027877
0.764343 1.000000 0.027381
0.822402 1.000000 0.026903
0.877931 1.000000 0.026445
0.930509 1.000000 0.026011
0.000000 0.000000 0.128565
0.052220 0.000000 0.128132
0.107750 0.000000 0.127674
0.165808 0.000000 0.127195
0.225975 0.000000 0.126699
0.287828 0.000000 0.126190
0.350945 0.000000 0.125669
0.414906 0.000000 0.125142
0.479288 0.000000 0.124611
0.543670 0.000000 0.124080
0.607630 0.000000 0.123553
0.670748 0.000000 0.123033
0.732600 0.000000 0.122523
0.792767 0.000000 0.122027
0.850826 0.000000 0.121548
0.906355 0.000000 0.121090
0.958933 0.000000 0.120657
0.000000 0.055076 0.126997
0.050652 0.054642 0.126564
0.106182 0.054185 0.126106
0.164240 0.053706 0.125628
0.224407 0.053210 0.125131
0.286260 0.052700 0.124622
0.349377 0.052180 0.124101
0.413338 0.051652 0.123574
0.477720 0.051122 0.123043
0.542102 0.050591 0.122512
0.606062 0.050063 0.121985
0.669180 0.049543 0.121465
0.731032 0.049033 0.120955
0.791199 0.048537 0.120459
0.849258 0.048059 0.119980
0.904787 0.047601 0.119522
0.957365 0.047167 0.119089
0.000000 0.113621 0.125341
0.048996 0.113188 0.124908
0.104526 0.112730 0.124450
0.162584 0.112251 0.123972
0.222751 0.111755 0.123475
0.284604 0.111245 0.122966
0.347721 0.110725 0.122445
0.411682 0.110198 0.121918
0.476064 0.109667 0.121387
0.540446 0.109136 0.120856
0.604406 0.108609 0.120329
0.667524 0.108088 0.119809
0.729376 0.107578 0.119299
0.789543 0.107082 0.118803
0.847602 0.106604 0.118324
0.903131 0.106146 0.117866
0.955709 0.105712 0.117433
0.000000 0.174833 0.123610
0.047265 0.174400 0.123177
0.102794 0.173942 0.122719
0.160853 0.173463 0.122240
0.221019 0.172967 0.121744
0.282872 0.172457 0.121234
0.345990 0.171937 0.120714
0.409950 0.171409 0.120186
0.474332 0.170879 0.119656
0.538714 0.170348 0.119125
0.602675 0.169821 0.118598
0.665792 0.169300 0.118077
0.727645 0.168790 0.117567
0.787812 0.168294 0.117071
0.845870 0.167816 0.116593
0.901400 0.167358 0.116135
0.953978 0.166924 0.115701
0.000000 0.238267 0.121816
0.045471 0.237834 0.121382
0.101000 0.237376 0.120924
0.159059 0.236897 0.120446
0.219225 0.236401 0.119950
0.281078 0.235891 0.119440
0.344195 0.235371 0.118919
0.408156 0.234844 0.118392
0.472538 0.234313 0.117861
0.536920 0.233782 0.117331
0.600881 0.233255 0.116803
0.663998 0.232734 0.116283
0.725851 0.232225 0.115773
0.786017 0.231729 0.115277
0.844076 0.231250 0.114798
0.899605 0.230792 0.114340
0.952184 0.230359 0.113907
0.000000 0.303479 0.119971
0.043626 0.303046 0.119538
0.099155 0.302588 0.119080
0.157214 0.302109 0.118601
0.217381 0.301613 0.118105
0.279233 0.301103 0.117595
0.342351 0.300583 0.117075
0.406311 0.300056 0.116548
0.470693 0.299525 0.116017
0.535075 0.298994 0.115486
0.599036 0.298467 0.114959
0.662153 0.297947 0.114438
0.724006 0.297437 0.113928
0.784173 0.296941 0.113432
0.842231 0.296462 0.112954
0.897761 0.296004 0.112496
0.950339 0.295571 0.112062
0.000000 0.370025 0.118089
0.041744 0.369591 0.117655
0.097273 0.369134 0.117198
0.155332 0.368655 0.116719
0.215498 0.368159 0.116223
0.277351 0.367649 0.115713
0.340468 0.367129 0.115193
0.404429 0.366601 0.114665
0.468811 0.366070 0.114135
0.533193 0.365540 0.113604
0.597154 0.365012 0.113076
0.660271 0.364492 0.112556
0.722124 0.363982 0.112046
0.782290 0.363486 0.111550
0.840349 0.363007 0.111071
0.895878 0.362550 0.110614
0.948457 0.362116 0.110180
0.000000 0.437459 0.116181
0.039836 0.437026 0.115748
0.095366 0.436568 0.115290
0.153424 0.436089 0.114812
0.213591 0.435593 0.114315
0.275444 0.435083 0.113806
0.338561 0.434563 0.113285
0.402522 0.434036 0.112758
0.466904 0.433505 0.112227
0.531286 0.432974 0.111696
0.595246 0.432447 0.111169
0.658364 0.431926 0.110649
0.720216 0.431416 0.110139
0.780383 0.430920 0.109643
0.838442 0.430442 0.109164
0.893971 0.429984 0.108706
0.946549 0.429550 0.108273
0.000000 0.505338 0.114261
0.037916 0.504905 0.113828
0.093446 0.504447 0.113370
0.151504 0.503968 0.112891
0.211671 0.503472 0.112395
0.273524 0.502962 0.111886
0.336641 0.502442 0.111365
0.400602 0.501914 0.110838
0.464984 0.501384 0.110307
0.529366 0.500853 0.109776
0.593326 0.500326 0.109249
0.656444 0.499805 0.108729
0.718296 0.499295 0.108219
0.778463 0.498799 0.107723
0.836522 0.498321 0.107244
0.892051 0.497863 0.106786
0.944629 0.497429 0.106353
0.000000 0.573217 0.112341
0.035996 0.572783 0.111908
0.091526 0.572326 0.111450
0.149584 0.571847 0.110971
0.209751 0.571351 0.110475
0.271604 0.570841 0.109966
0.334721 0.570321 0.109445
0.398682 0.569793 0.108918
0.463064 0.569262 0.108387
0.527446 0.568732 0.107856
0.591406 0.568204 0.107329
0.654524 0.567684 0.106809
0.716376 0.567174 0.106299
0.776543 0.566678 0.105803
0.834602 0.566199 0.105324
0.890131 0.565742 0.104866
0.942709 0.565308 0.104433
0.000000 0.640651 0.110434
0.034089 0.640218 0.110001
0.089618 0.639760 0.109543
0.147677 0.639281 0.109064
0.207843 0.638785 0.108568
0.269696 0.638275 0.108058
0.332814 0.637755 0.107538
0.396774 0.637228 0.107010
0.461156 0.636697 0.106480
0.525538 0.636166 0.105949
0.589499 0.635639 0.105422
0.652616 0.635118 0.104901
0.714469 0.634608 0.104391
0.774636 0.634112 0.103895
0.832694 0.633634 0.103417
0.888223 0.633176 0.102959
0.940802 0.632742 0.102525
0.000000 0.707197 0.108552
0.032207 0.706763 0.108118
0.087736 0.706305 0.107660
0.145795 0.705827 0.107182
0.205961 0.705331 0.106686
0.267814 0.704821 0.106176
0.330931 0.704300 0.105655
0.394892 0.703773 0.105128
0.459274 0.703242 0.104597
0.523656 0.702711 0.104067
0.587617 0.702184 0.103539
0.650734 0.701664 0.103019
0.712587 0.701154 0.102509
0.772753 0.700658 0.102013
0.830812 0.700179 0.101534
0.886341 0.699721 0.101076
0.938920 0.699288 0.100643
0.000000 0.772409 0.106707
0.030362 0.771975 0.106274
0.085891 0.771517 0.105816
0.143950 0.771039 0.105337
0.204116 0.770543 0.104841
0.265969 0.770033 0.104331
0.329087 0.769512 0.103811
0.393047 0.768985 0.103284
0.457429 0.768454 0.102753
0.521811 0.767924 0.102222
0.585772 0.767396 0.101695
0.648889 0.766876 0.101174
0.710742 0.766366 0.100664
0.770909 0.765870 0.100168
0.828967 0.765391 0.099690
0.884497 0.764933 0.099232
0.937075 0.764500 0.098798
0.000000 0.835843 0.104913
0.028568 0.835409 0.104479
0.084097 0.834952 0.104022
0.142156 0.834473 0.103543
0.202322 0.833977 0.103047
0.264175 0.833467 0.102537
0.327292 0.832947 0.102017
0.391253 0.832419 0.101489
0.455635 0.831889 0.100958
0.520017 0.831358 0.100428
0.583978 0.830830 0.099900
0.647095 0.830310 0.099380
0.708948 0.829800 0.098870
0.769114 0.829304 0.098374
0.827173 0.828825 0.097895
0.882702 0.828368 0.097438
0.935281 0.827934 0.097004
0.000000 0.897055 0.103181
0.026836 0.896621 0.102748
0.082366 0.896164 0.102290
0.140424 0.895685 0.101811
0.200591 0.895189 0.101315
0.262444 0.894679 0.100806
0.325561 0.894159 0.100285
0.389521 0.893631 0.099758
0.453904 0.893100 0.099227
0.518286 0.892570 0.098696
0.582246 0.892042 0.098169
0.645364 0.891522 0.097649
0.707216 0.891012 0.097139
0.767383 0.890516 0.096643
0.825442 0.890037 0.096164
0.880971 0.889580 0.095706
0.933549 0.889146 0.095273
0.000000 0.955600 0.101525
0.025180 0.955167 0.101092
0.080710 0.954709 0.100634
0.138768 0.954230 0.100155
0.198935 0.953734 0.099659
0.260788 0.953224 0.099150
0.323905 0.952704 0.098629
0.387865 0.952176 0.098102
0.452248 0.951646 0.097571
0.516630 0.951115 0.097040
0.580590 0.950588 0.096513
0.643708 0.950067 0.095993
0.705560 0.949557 0.095483
0.765727 0.949061 0.094987
0.823786 0.948583 0.094508
0.879315 0.948125 0.094050
0.931893 0.947691 0.093617
0.000000 1.000000 0.099957
0.023612 1.000000 0.099524
0.079142 1.000000 0.099066
0.137200 1.000000 0.098587
0.197367 1.000000 0.098091
0.259220 1.000000 0.097582
0.322337 1.000000 0.097061
0.386298 1.000000 0.096534
0.450680 1.000000 0.096003
0.515062 1.000000 0.095472
0.579022 1.000000 0.094945
0.642140 1.000000 0.094425
0.703992 1.000000 0.093915
0.764159 1.000000 0.093419
0.822218 1.000000 0.092940
0.877747 1.000000 0.092482
0.930325 1.000000 0.092049
0.000000 0.000000 0.197611
0.052028 0.000000 0.197177
0.107557 0.000000 0.196720
0.165616 0.000000 0.196241
0.225783 0.000000 0.195745
0.287635 0.000000 0.195235
0.350753 0.000000 0.194715
0.414713 0.000000 0.194187
0.479095 0.000000 0.193656
0.543477 0.000000 0.193126
0.607438 0.000000 0.192598
0.670555 0.000000 0.192078
0.732408 0.000000 0.191568
0.792575 0.000000 0.191072
0.850633 0.000000 0.190593
