assets/luts/cool.cube
# Cool — Studio filter "cool"
# Generated by scripts/generate-filter-luts.mjs — do not edit by hand.
LUT_3D_SIZE 9
DOMAIN_MIN 0.0 0.0 0.0
DOMAIN_MAX 1.0 1.0 1.0
0.000000 0.000000 0.000000
0.108108 0.000000 0.000000
0.226333 0.000000 0.000000
0.351303 0.000000 0.000000
0.479646 0.000000 0.000000
0.607988 0.000000 0.000000
0.732958 0.000000 0.000000
0.851184 0.000000 0.000000
0.959291 0.000000 0.000000
0.000000 0.113979 0.000000
0.104884 0.113088 0.000000
0.223109 0.112113 0.000000
0.348079 0.111083 0.000000
0.476422 0.110025 0.000000
0.604764 0.108967 0.000000
0.729735 0.107936 0.000000
0.847960 0.106962 0.000000
0.956067 0.106070 0.000000
0.000000 0.238625 0.000000
0.101358 0.237734 0.000000
0.219583 0.236759 0.000000
0.344553 0.235729 0.000000
0.472896 0.234671 0.000000
0.601239 0.233613 0.000000
0.726209 0.232583 0.000000
0.844434 0.231608 0.000000
0.952542 0.230717 0.000000
0.000000 0.370383 0.000000
0.097631 0.369492 0.000000
0.215856 0.368517 0.000000
0.340826 0.367487 0.000000
0.469169 0.366428 0.000000
0.597512 0.365370 0.000000
0.722482 0.364340 0.000000
0.840707 0.363365 0.000000
0.948815 0.362474 0.000000
0.000000 0.505696 0.000000
0.093804 0.504805 0.000000
0.212029 0.503830 0.000000
0.336999 0.502800 0.000000
0.465342 0.501742 0.000000
0.593684 0.500684 0.000000
0.718654 0.499653 0.000000
0.836880 0.498679 0.000000
0.944987 0.497787 0.000000
0.000000 0.641009 0.000000
0.089976 0.640118 0.000000
0.208201 0.639143 0.000000
0.333172 0.638113 0.000000
0.461514 0.637055 0.000000
0.589857 0.635997 0.000000
0.714827 0.634966 0.000000
0.833052 0.633992 0.000000
0.941160 0.633100 0.000000
0.000000 0.772767 0.000000
0.086249 0.771875 0.000000
0.204474 0.770901 0.000000
0.329445 0.769870 0.000000
0.457787 0.768812 0.000000
0.586130 0.767754 0.000000
0.711100 0.766724 0.000000
0.829325 0.765749 0.000000
0.937433 0.764858 0.000000
0.000000 0.897413 0.000000
0.082724 0.896522 0.000000
0.200949 0.895547 0.000000
0.325919 0.894517 0.000000
0.454262 0.893459 0.000000
0.582604 0.892400 0.000000
0.707574 0.891370 0.000000
0.825800 0.890395 0.000000
0.933907 0.889504 0.000000
0.000000 1.000000 0.000000
0.079500 1.000000 0.000000
0.197725 1.000000 0.000000
0.322695 1.000000 0.000000
0.451038 1.000000 0.000000
0.579380 1.000000 0.000000
0.704350 1.000000 0.000000
0.822576 1.000000 0.000000
0.930683 1.000000 0.000000
0.000000 0.000000 0.128565
0.107750 0.000000 0.127674
0.225975 0.000000 0.126699
0.350945 0.000000 0.125669
0.479288 0.000000 0.124611
0.607630 0.000000 0.123553
0.732600 0.000000 0.122523
0.850826 0.000000 0.121548
0.958933 0.000000 0.120657
0.000000 0.113621 0.125341
0.104526 0.112730 0.124450
0.222751 0.111755 0.123475
0.347721 0.110725 0.122445
0.476064 0.109667 0.121387
0.604406 0.108609 0.120329
0.729376 0.107578 0.119299
0.847602 0.106604 0.118324
0.955709 0.105712 0.117433
0.000000 0.238267 0.121816
0.101000 0.237376 0.120924
0.219225 0.236401 0.119950
0.344195 0.235371 0.118919
0.472538 0.234313 0.117861
0.600881 0.233255 0.116803
0.725851 0.232225 0.115773
0.844076 0.231250 0.114798
0.952184 0.230359 0.113907
0.000000 0.370025 0.118089
0.097273 0.369134 0.117198
0.215498 0.368159 0.116223
0.340468 0.367129 0.115193
0.468811 0.366070 0.114135
0.597154 0.365012 0.113076
0.722124 0.363982 0.112046
0.840349 0.363007 0.111071
0.948457 0.362116 0.110180
0.000000 0.505338 0.114261
0.093446 0.504447 0.113370
0.211671 0.503472 0.112395
0.336641 0.502442 0.111365
0.464984 0.501384 0.110307
0.593326 0.500326 0.109249
0.718296 0.499295 0.108219
0.836522 0.498321 0.107244
0.944629 0.497429 0.106353
0.000000 0.640651 0.110434
0.089618 0.639760 0.109543
0.207843 0.638785 0.108568
0.332814 0.637755 0.107538
0.461156 0.636697 0.106480
0.589499 0.635639 0.105422
0.714469 0.634608 0.104391
0.832694 0.633634 0.103417
0.940802 0.632742 0.102525
0.000000 0.772409 0.106707
0.085891 0.771517 0.105816
0.204116 0.770543 0.104841
0.329087 0.769512 0.103811
0.457429 0.768454 0.102753
0.585772 0.767396 0.101695
0.710742 0.766366 0.100664
0.828967 0.765391 0.099690
0.937075 0.764500 0.098798
0.000000 0.897055 0.103181
0.082366 0.896164 0.102290
0.200591 0.895189 0.101315
0.325561 0.894159 0.100285
0.453904 0.893100 0.099227
0.582246 0.892042 0.098169
0.707216 0.891012 0.097139
0.825442 0.890037 0.096164
0.933549 0.889146 0.095273
0.000000 1.000000 0.099957
0.079142 1.000000 0.099066
0.197367 1.000000 0.098091
0.322337 1.000000 0.097061
0.450680 1.000000 0.096003
0.579022 1.000000 0.094945
0.703992 1.000000 0.093915
0.822218 1.000000 0.092940
0.930325 1.000000 0.092049
0.000000 0.000000 0.269163
0.107358 0.000000 0.268272
0.225583 0.000000 0.267297
0.350553 0.000000 0.266267
0.478896 0.000000 0.265209
0.607239 0.000000 0.264151
0.732209 0.000000 0.263120
0.850434 0.000000 0.262146
0.958542 0.000000 0.261254
0.000000 0.113230 0.265939
0.104134 0.112338 0.265048
0.222359 0.111364 0.264073
0.347329 0.110333 0.263043
0.475672 0.109275 0.261985
0.604015 0.108217 0.260927
0.728985 0.107187 0.259896
0.847210 0.106212 0.258922
0.955318 0.105321 0.258030
0.000000 0.237876 0.262413
0.100608 0.236984 0.261522
0.218834 0.236010 0.260547
0.343804 0.234980 0.259517
0.472146 0.233921 0.258459
0.600489 0.232863 0.257401
0.725459 0.231833 0.256371
0.843684 0.230858 0.255396
0.951792 0.229967 0.254505
0.000000 0.369633 0.258686
0.096882 0.368742 0.257795
0.215107 0.367767 0.256820
0.340077 0.366737 0.255790
0.468420 0.365679 0.254732
0.596762 0.364621 0.253674
0.721732 0.363591 0.252644
0.839958 0.362616 0.251669
0.948065 0.361725 0.250778
0.000000 0.504946 0.254859
0.093054 0.504055 0.253968
0.211279 0.503081 0.252993
0.336249 0.502050 0.251963
0.464592 0.500992 0.250905
0.592935 0.499934 0.249847
0.717905 0.498904 0.248816
0.836130 0.497929 0.247842
0.944238 0.497038 0.246950
0.000000 0.640260 0.251032
0.089227 0.639368 0.250140
0.207452 0.638394 0.249166
0.332422 0.637363 0.248135
0.460765 0.636305 0.247077
0.589107 0.635247 0.246019
0.714078 0.634217 0.244989
0.832303 0.633242 0.244014
0.940410 0.632351 0.243123
0.000000 0.772017 0.247305
0.085500 0.771126 0.246413
0.203725 0.770151 0.245439
0.328695 0.769121 0.244408
0.457038 0.768063 0.243350
0.585380 0.767005 0.242292
0.710351 0.765974 0.241262
0.828576 0.765000 0.240287
0.936683 0.764108 0.239396
0.000000 0.896663 0.243779
0.081974 0.895772 0.242888
0.200199 0.894797 0.241913
0.325169 0.893767 0.240883
0.453512 0.892709 0.239825
0.581855 0.891651 0.238767
0.706825 0.890621 0.237736
0.825050 0.889646 0.236762
0.933158 0.888755 0.235870
0.000000 1.000000 0.240555
0.078750 1.000000 0.239664
0.196975 1.000000 0.238689
0.321945 1.000000 0.237659
0.450288 1.000000 0.236601
0.578631 1.000000 0.235543
0.703601 1.000000 0.234512
0.821826 1.000000 0.233538
0.929934 1.000000 0.232646
0.000000 0.000000 0.417782
0.106944 0.000000 0.416891
0.225169 0.000000 0.415916
0.350140 0.000000 0.414886
0.478482 0.000000 0.413828
0.606825 0.000000 0.412769
0.731795 0.000000 0.411739
0.850020 0.000000 0.410764
0.958128 0.000000 0.409873
0.000000 0.112816 0.414558
0.103720 0.111924 0.413667
0.221945 0.110950 0.412692
0.346916 0.109919 0.411662
0.475258 0.108861 0.410604
0.603601 0.107803 0.409545
0.728571 0.106773 0.408515
0.846796 0.105798 0.407541
0.954904 0.104907 0.406649
0.000000 0.237462 0.411032
0.100195 0.236571 0.410141
0.218420 0.235596 0.409166
0.343390 0.234566 0.408136
0.471733 0.233508 0.407078
0.600075 0.232449 0.406020
0.725045 0.231419 0.404989
0.843271 0.230444 0.404015
0.951378 0.229553 0.403124
0.000000 0.369219 0.407305
0.096468 0.368328 0.406414
0.214693 0.367353 0.405439
0.339663 0.366323 0.404409
0.468006 0.365265 0.403351
0.596348 0.364207 0.402293
0.721319 0.363177 0.401263
0.839544 0.362202 0.400288
0.947651 0.361311 0.399397
0.000000 0.504533 0.403478
0.092640 0.503641 0.402587
0.210865 0.502667 0.401612
0.335836 0.501636 0.400582
0.464178 0.500578 0.399524
0.592521 0.499520 0.398465
0.717491 0.498490 0.397435
0.835716 0.497515 0.396460
0.943824 0.496624 0.395569
0.000000 0.639846 0.399650
0.088813 0.638955 0.398759
0.207038 0.637980 0.397785
0.332008 0.636950 0.396754
0.460351 0.635891 0.395696
0.588694 0.634833 0.394638
0.713664 0.633803 0.393608
0.831889 0.632828 0.392633
0.939996 0.631937 0.391742
0.000000 0.771603 0.395924
0.085086 0.770712 0.395032
0.203311 0.769737 0.394058
0.328281 0.768707 0.393027
0.456624 0.767649 0.391969
0.584967 0.766591 0.390911
0.709937 0.765561 0.389881
0.828162 0.764586 0.388906
0.936270 0.763695 0.388015
0.000000 0.896249 0.392398
0.081560 0.895358 0.391507
0.199785 0.894384 0.390532
0.324756 0.893353 0.389502
0.453098 0.892295 0.388444
0.581441 0.891237 0.387385
0.706411 0.890207 0.386355
0.824636 0.889232 0.385380
0.932744 0.888341 0.384489
0.000000 1.000000 0.389174
0.078336 1.000000 0.388283
0.196561 1.000000 0.387308
0.321532 1.000000 0.386278
0.449874 1.000000 0.385220
0.578217 1.000000 0.384161
0.703187 1.000000 0.383131
0.821412 1.000000 0.382156
0.929520 1.000000 0.381265
0.000000 0.000000 0.570412
0.106519 0.000000 0.569520
0.224744 0.000000 0.568546
0.349715 0.000000 0.567515
0.478057 0.000000 0.566457
0.606400 0.000000 0.565399
0.731370 0.000000 0.564369
0.849595 0.000000 0.563394
0.957703 0.000000 0.562503
0.000000 0.112391 0.567188
0.103295 0.111499 0.566296
0.221520 0.110525 0.565322
0.346491 0.109494 0.564291
0.474833 0.108436 0.563233
0.603176 0.107378 0.562175
0.728146 0.106348 0.561145
0.846371 0.105373 0.560170
0.954479 0.104482 0.559279
0.000000 0.237037 0.563662
0.099770 0.236146 0.562771
0.217995 0.235171 0.561796
0.342965 0.234141 0.560766
0.471308 0.233083 0.559708
0.599650 0.232024 0.558649
0.724620 0.230994 0.557619
0.842846 0.230019 0.556644
0.950953 0.229128 0.555753
0.000000 0.368794 0.559935
0.096043 0.367903 0.559044
0.214268 0.366928 0.558069
0.339238 0.365898 0.557039
0.467581 0.364840 0.555981
0.595923 0.363782 0.554923
0.720894 0.362752 0.553892
0.839119 0.361777 0.552918
0.947226 0.360886 0.552026
0.000000 0.504108 0.556108
0.092215 0.503216 0.555216
0.210440 0.502242 0.554242
0.335411 0.501211 0.553211
0.463753 0.500153 0.552153
0.592096 0.499095 0.551095
0.717066 0.498065 0.550065
0.835291 0.497090 0.549090
0.943399 0.496199 0.548199
0.000000 0.639421 0.552280
0.088388 0.638530 0.551389
0.206613 0.637555 0.550414
0.331583 0.636525 0.549384
0.459926 0.635466 0.548326
0.588268 0.634408 0.547268
0.713239 0.633378 0.546237
0.831464 0.632403 0.545263
0.939571 0.631512 0.544371
0.000000 0.771178 0.548553
0.084661 0.770287 0.547662
0.202886 0.769312 0.546687
0.327856 0.768282 0.545657
0.456199 0.767224 0.544599
0.584542 0.766166 0.543541
0.709512 0.765136 0.542511
0.827737 0.764161 0.541536
0.935845 0.763270 0.540645
0.000000 0.895824 0.545028
0.081135 0.894933 0.544136
0.199360 0.893958 0.543162
0.324331 0.892928 0.542131
0.452673 0.891870 0.541073
0.581016 0.890812 0.540015
0.705986 0.889782 0.538985
0.824211 0.888807 0.538010
0.932319 0.887916 0.537119
0.000000 1.000000 0.541804
0.077911 1.000000 0.540912
0.196136 1.000000 0.539938
0.321107 1.000000 0.538907
0.449449 1.000000 0.537849
0.577792 1.000000 0.536791
0.702762 1.000000 0.535761
0.820987 1.000000 0.534786
0.929095 1.000000 0.533895
0.000000 0.000000 0.723041
0.106094 0.000000 0.722150
0.224319 0.000000 0.721175
0.349290 0.000000 0.720145
0.477632 0.000000 0.719087
0.605975 0.000000 0.718029
0.730945 0.000000 0.716999
0.849170 0.000000 0.716024
0.957278 0.000000 0.715133
0.000000 0.111966 0.719817
0.102870 0.111074 0.718926
0.221095 0.110100 0.717951
0.346066 0.109069 0.716921
0.474408 0.108011 0.715863
0.602751 0.106953 0.714805
0.727721 0.105923 0.713775
0.845946 0.104948 0.712800
0.954054 0.104057 0.711909
0.000000 0.236612 0.716292
0.099345 0.235721 0.715400
0.217570 0.234746 0.714426
0.342540 0.233716 0.713395
0.470883 0.232658 0.712337
0.599225 0.231599 0.711279
0.724195 0.230569 0.710249
0.842421 0.229594 0.709274
0.950528 0.228703 0.708383
0.000000 0.368369 0.712565
0.095618 0.367478 0.711673
0.213843 0.366503 0.710699
0.338813 0.365473 0.709668
0.467156 0.364415 0.708610
0.595498 0.363357 0.707552
0.720469 0.362327 0.706522
0.838694 0.361352 0.705547
0.946801 0.360461 0.704656
0.000000 0.503683 0.708737
0.091790 0.502791 0.707846
0.210015 0.501817 0.706871
0.334986 0.500786 0.705841
0.463328 0.499728 0.704783
0.591671 0.498670 0.703725
0.716641 0.497640 0.702695
0.834866 0.496665 0.701720
0.942974 0.495774 0.700829
0.000000 0.638996 0.704910
0.087963 0.638104 0.704019
0.206188 0.637130 0.703044
0.331158 0.636100 0.702014
0.459501 0.635041 0.700955
0.587843 0.633983 0.699897
0.712814 0.632953 0.698867
0.831039 0.631978 0.697892
0.939146 0.631087 0.697001
0.000000 0.770753 0.701183
0.084236 0.769862 0.700292
0.202461 0.768887 0.699317
0.327431 0.767857 0.698287
0.455774 0.766799 0.697229
0.584117 0.765741 0.696171
0.709087 0.764711 0.695140
0.827312 0.763736 0.694166
0.935420 0.762845 0.693274
0.000000 0.895399 0.697657
0.080710 0.894508 0.696766
0.198935 0.893533 0.695791
0.323906 0.892503 0.694761
0.452248 0.891445 0.693703
0.580591 0.890387 0.692645
0.705561 0.889357 0.691614
0.823786 0.888382 0.690640
0.931894 0.887491 0.689749
0.000000 1.000000 0.694433
0.077486 1.000000 0.693542
0.195711 1.000000 0.692567
0.320682 1.000000 0.691537
0.449024 1.000000 0.690479
0.577367 1.000000 0.689421
0.702337 1.000000 0.688391
0.820562 1.000000 0.687416
0.928670 1.000000 0.686525
0.000000 0.000000 0.871660
0.105680 0.000000 0.870769
0.223906 0.000000 0.869794
0.348876 0.000000 0.868764
0.477218 0.000000 0.867706
0.605561 0.000000 0.866648
0.730531 0.000000 0.865617
0.848756 0.000000 0.864643
0.956864 0.000000 0.863752
0.000000 0.111552 0.868436
0.102456 0.110661 0.867545
0.220682 0.109686 0.866570
0.345652 0.108656 0.865540
0.473994 0.107598 0.864482
0.602337 0.106539 0.863424
0.727307 0.105509 0.862393
0.845532 0.104534 0.861419
0.953640 0.103643 0.860528
0.000000 0.236198 0.864911
0.098931 0.235307 0.864019
0.217156 0.234332 0.863045
0.342126 0.233302 0.862014
0.470469 0.232244 0.860956
0.598811 0.231186 0.859898
0.723782 0.230155 0.858868
0.842007 0.229181 0.857893
0.950114 0.228289 0.857002
0.000000 0.367956 0.861184
0.095204 0.367064 0.860292
0.213429 0.366090 0.859318
0.338399 0.365059 0.858287
0.466742 0.364001 0.857229
0.595084 0.362943 0.856171
0.720055 0.361913 0.855141
0.838280 0.360938 0.854166
0.946387 0.360047 0.853275
0.000000 0.503269 0.857356
0.091376 0.502377 0.856465
0.209602 0.501403 0.855490
0.334572 0.500372 0.854460
0.462914 0.499314 0.853402
0.591257 0.498256 0.852344
0.716227 0.497226 0.851313
0.834452 0.496251 0.850339
0.942560 0.495360 0.849448
0.000000 0.638582 0.853529
0.087549 0.637691 0.852638
0.205774 0.636716 0.851663
0.330744 0.635686 0.850633
0.459087 0.634628 0.849574
0.587430 0.633569 0.848516
0.712400 0.632539 0.847486
0.830625 0.631564 0.846511
0.938733 0.630673 0.845620
0.000000 0.770339 0.849802
0.083822 0.769448 0.848911
0.202047 0.768473 0.847936
0.327017 0.767443 0.846906
0.455360 0.766385 0.845848
0.583703 0.765327 0.844789
0.708673 0.764297 0.843759
0.826898 0.763322 0.842784
0.935006 0.762431 0.841893
0.000000 0.894986 0.846276
0.080296 0.894094 0.845385
0.198522 0.893120 0.844410
0.323492 0.892089 0.843380
0.451834 0.891031 0.842322
0.580177 0.889973 0.841264
0.705147 0.888943 0.840233
0.823372 0.887968 0.839259
0.931480 0.887077 0.838367
0.000000 1.000000 0.843052
0.077072 1.000000 0.842161
0.195298 1.000000 0.841186
0.320268 1.000000 0.840156
0.448610 1.000000 0.839098
0.576953 1.000000 0.838040
0.701923 1.000000 0.837009
0.820148 1.000000 0.836035
0.928256 1.000000 0.835144
0.000000 0.000000 1.000000
0.105289 0.000000 1.000000
0.223514 0.000000 1.000000
0.348484 0.000000 1.000000
0.476827 0.000000 1.000000
0.605170 0.000000 1.000000
0.730140 0.000000 1.000000
0.848365 0.000000 1.000000
0.956472 0.000000 1.000000
0.000000 0.111160 1.000000
0.102065 0.110269 1.000000
0.220290 0.109294 1.000000
0.345260 0.108264 1.000000
0.473603 0.107206 1.000000
0.601946 0.106148 1.000000
0.726916 0.105118 1.000000
0.845141 0.104143 1.000000
0.953249 0.103252 1.000000
0.000000 0.235807 1.000000
0.098539 0.234915 1.000000
0.216764 0.233941 1.000000
0.341734 0.232910 1.000000
0.470077 0.231852 1.000000
0.598420 0.230794 1.000000
0.723390 0.229764 0.999465
0.841615 0.228789 0.998491
0.949723 0.227898 0.997599
0.000000 0.367564 1.000000
0.094812 0.366673 1.000000
0.213037 0.365698 0.999915
0.338008 0.364668 0.998885
0.466350 0.363610 0.997827
0.594693 0.362552 0.996769
0.719663 0.361521 0.995738
0.837888 0.360547 0.994764
0.945996 0.359655 0.993872
0.000000 0.502877 0.997954
0.090985 0.501986 0.997062
0.209210 0.501011 0.996088
0.334180 0.499981 0.995058
0.462523 0.498923 0.993999
0.590866 0.497865 0.992941
0.715836 0.496834 0.991911
0.834061 0.495860 0.990936
0.942168 0.494968 0.990045
0.000000 0.638190 0.994126
0.087157 0.637299 0.993235
0.205383 0.636324 0.992260
0.330353 0.635294 0.991230
0.458695 0.634236 0.990172
0.587038 0.633178 0.989114
0.712008 0.632148 0.988084
0.830233 0.631173 0.987109
0.938341 0.630282 0.986218
0.000000 0.769948 0.990399
0.083431 0.769057 0.989508
0.201656 0.768082 0.988534
0.326626 0.767052 0.987503
0.454969 0.765994 0.986445
0.583311 0.764935 0.985387
0.708281 0.763905 0.984357
0.826507 0.762930 0.983382
0.934614 0.762039 0.982491
0.000000 0.894594 0.986874
0.079905 0.893703 0.985982
0.198130 0.892728 0.985008
0.323100 0.891698 0.983978
0.451443 0.890640 0.982919
0.579786 0.889582 0.981861
0.704756 0.888551 0.980831
0.822981 0.887577 0.979856
0.931088 0.886685 0.978965
0.000000 1.000000 0.983650
0.076681 1.000000 0.982758
0.194906 1.000000 0.981784
0.319876 1.000000 0.980754
0.448219 1.000000 0.979695
0.576562 1.000000 0.978637
0.701532 1.000000 0.977607
0.819757 1.000000 0.976632
0.927864 1.000000 0.975741
0.000000 0.000000 1.000000
0.104931 0.000000 1.000000
0.223156 0.000000 1.000000
0.348126 0.000000 1.000000
0.476469 0.000000 1.000000
0.604812 0.000000 1.000000
0.729782 0.000000 1.000000
0.848007 0.000000 1.000000
0.956114 0.000000 1.000000
0.000000 0.110802 1.000000
0.101707 0.109911 1.000000
0.219932 0.108936 1.000000
0.344902 0.107906 1.000000
0.473245 0.106848 1.000000
0.601588 0.105790 1.000000
0.726558 0.104760 1.000000
0.844783 0.103785 1.000000
0.952890 0.102894 1.000000
0.000000 0.235449 1.000000
0.098181 0.234557 1.000000
0.216406 0.233583 1.000000
0.341376 0.232552 1.000000
0.469719 0.231494 1.000000
0.598062 0.230436 1.000000
0.723032 0.229406 1.000000
0.841257 0.228431 1.000000
0.949365 0.227540 1.000000
0.000000 0.367206 1.000000
0.094454 0.366315 1.000000
0.212679 0.365340 1.000000
0.337650 0.364310 1.000000
0.465992 0.363252 1.000000
0.594335 0.362194 1.000000
0.719305 0.361163 1.000000
0.837530 0.360189 1.000000
0.945638 0.359297 1.000000
0.000000 0.502519 1.000000
0.090627 0.501628 1.000000
0.208852 0.500653 1.000000
0.333822 0.499623 1.000000
0.462165 0.498565 1.000000
0.590508 0.497507 1.000000
0.715478 0.496476 1.000000
0.833703 0.495502 1.000000
0.941810 0.494610 1.000000
0.000000 0.637832 1.000000
0.086799 0.636941 1.000000
0.205025 0.635966 1.000000
0.329995 0.634936 1.000000
0.458337 0.633878 1.000000
0.586680 0.632820 1.000000
0.711650 0.631790 1.000000
0.829875 0.630815 1.000000
0.937983 0.629924 1.000000
0.000000 0.769590 1.000000
0.083073 0.768699 1.000000
0.201298 0.767724 1.000000
0.326268 0.766694 1.000000
0.454611 0.765636 1.000000
0.582953 0.764577 1.000000
0.707923 0.763547 1.000000
0.826149 0.762572 1.000000
0.934256 0.761681 1.000000
0.000000 0.894236 1.000000
0.079547 0.893345 1.000000
0.197772 0.892370 1.000000
0.322742 0.891340 1.000000
0.451085 0.890282 1.000000
0.579428 0.889224 1.000000
0.704398 0.888193 1.000000
0.822623 0.887219 1.000000
0.930730 0.886327 1.000000
0.000000 1.000000 1.000000
0.076323 1.000000 1.000000
0.194548 1.000000 1.000000
0.319518 1.000000 1.000000
0.447861 1.000000 1.000000
0.576204 1.000000 1.000000
0.701174 1.000000 1.000000
0.819399 1.000000 1.000000
0.927506 1.000000 1.000000
