assets/luts/crisp.cube
# Crisp — Studio filter "crisp"
# Generated by scripts/generate-filter-luts.mjs — do not edit by hand.
LUT_3D_SIZE 5
DOMAIN_MIN 0.0 0.0 0.0
DOMAIN_MAX 1.0 1.0 1.0
0.000000 0.000000 0.000000
0.197266 0.000000 0.000000
0.489000 0.000000 0.000000
0.780734 0.000000 0.000000
1.000000 0.000000 0.000000
0.000000 0.202312 0.000000
0.197266 0.202312 0.000000
0.489000 0.202312 0.000000
0.780734 0.202312 0.000000
1.000000 0.202312 0.000000
0.000000 0.500000 0.000000
0.197266 0.500000 0.000000
0.489000 0.500000 0.000000
0.780734 0.500000 0.000000
1.000000 0.500000 0.000000
0.000000 0.797688 0.000000
0.197266 0.797688 0.000000
0.489000 0.797688 0.000000
0.780734 0.797688 0.000000
1.000000 0.797688 0.000000
0.000000 1.000000 0.000000
0.197266 1.000000 0.000000
0.489000 1.000000 0.000000
0.780734 1.000000 0.000000
1.000000 1.000000 0.000000
0.000000 0.000000 0.212405
0.197266 0.000000 0.212405
0.489000 0.000000 0.212405
0.780734 0.000000 0.212405
1.000000 0.000000 0.212405
0.000000 0.202312 0.212405
0.197266 0.202312 0.212405
0.489000 0.202312 0.212405
0.780734 0.202312 0.212405
1.000000 0.202312 0.212405
0.000000 0.500000 0.212405
0.197266 0.500000 0.212405
0.489000 0.500000 0.212405
0.780734 0.500000 0.212405
1.000000 0.500000 0.212405
0.000000 0.797688 0.212405
0.197266 0.797688 0.212405
0.489000 0.797688 0.212405
0.780734 0.797688 0.212405
1.000000 0.797688 0.212405
0.000000 1.000000 0.212405
0.197266 1.000000 0.212405
0.489000 1.000000 0.212405
0.780734 1.000000 0.212405
1.000000 1.000000 0.212405
0.000000 0.000000 0.522000
0.197266 0.000000 0.522000
0.489000 0.000000 0.522000
0.780734 0.000000 0.522000
1.000000 0.000000 0.522000
0.000000 0.202312 0.522000
0.197266 0.202312 0.522000
0.489000 0.202312 0.522000
0.780734 0.202312 0.522000
1.000000 0.202312 0.522000
0.000000 0.500000 0.522000
0.197266 0.500000 0.522000
0.489000 0.500000 0.522000
0.780734 0.500000 0.522000
1.000000 0.500000 0.522000
0.000000 0.797688 0.522000
0.197266 0.797688 0.522000
0.489000 0.797688 0.522000
0.780734 0.797688 0.522000
1.000000 0.797688 0.522000
0.000000 1.000000 0.522000
0.197266 1.000000 0.522000
0.489000 1.000000 0.522000
0.780734 1.000000 0.522000
1.000000 1.000000 0.522000
0.000000 0.000000 0.831595
0.197266 0.000000 0.831595
0.489000 0.000000 0.831595
0.780734 0.000000 0.831595
1.000000 0.000000 0.831595
0.000000 0.202312 0.831595
0.197266 0.202312 0.831595
0.489000 0.202312 0.831595
0.780734 0.202312 0.831595
1.000000 0.202312 0.831595
0.000000 0.500000 0.831595
0.197266 0.500000 0.831595
0.489000 0.500000 0.831595
0.780734 0.500000 0.831595
1.000000 0.500000 0.831595
0.000000 0.797688 0.831595
0.197266 0.797688 0.831595
0.489000 0.797688 0.831595
0.780734 0.797688 0.831595
1.000000 0.797688 0.831595
0.000000 1.000000 0.831595
0.197266 1.000000 0.831595
0.489000 1.000000 0.831595
0.780734 1.000000 0.831595
1.000000 1.000000 0.831595
0.000000 0.000000 1.000000
0.197266 0.000000 1.000000
0.489000 0.000000 1.000000
0.780734 0.000000 1.000000
1.000000 0.000000 1.000000
0.000000 0.202312 1.000000
0.197266 0.202312 1.000000
0.489000 0.202312 1.000000
0.780734 0.202312 1.000000
1.000000 0.202312 1.000000
0.000000 0.500000 1.000000
0.197266 0.500000 1.000000
0.489000 0.500000 1.000000
0.780734 0.500000 1.000000
1.000000 0.500000 1.000000
0.000000 0.797688 1.000000
0.197266 0.797688 1.000000
0.489000 0.797688 1.000000
0.780734 0.797688 1.000000
1.000000 0.797688 1.000000
0.000000 1.000000 1.000000
0.197266 1.000000 1.000000
0.489000 1.000000 1.000000
0.780734 1.000000 1.000000
1.000000 1.000000 1.000000
