assets/luts/crisp.cube
# Crisp — Studio filter "crisp"
# Generated by scripts/generate-filter-luts.mjs — do not edit by hand.
LUT_3D_SIZE 17
DOMAIN_MIN 0.0 0.0 0.0
DOMAIN_MAX 1.0 1.0 1.0
0.000000 0.000000 0.000000
0.005216 0.000000 0.000000
0.065295 0.000000 0.000000
0.129544 0.000000 0.000000
0.197266 0.000000 0.000000
0.267768 0.000000 0.000000
0.340354 0.000000 0.000000
0.414330 0.000000 0.000000
0.489000 0.000000 0.000000
0.563670 0.000000 0.000000
0.637646 0.000000 0.000000
0.710232 0.000000 0.000000
0.780734 0.000000 0.000000
0.848456 0.000000 0.000000
0.912705 0.000000 0.000000
0.972784 0.000000 0.000000
1.000000 0.000000 0.000000
0.000000 0.006343 0.000000
0.005216 0.006343 0.000000
0.065295 0.006343 0.000000
0.129544 0.006343 0.000000
0.197266 0.006343 0.000000
0.267768 0.006343 0.000000
0.340354 0.006343 0.000000
0.414330 0.006343 0.000000
0.489000 0.006343 0.000000
0.563670 0.006343 0.000000
0.637646 0.006343 0.000000
0.710232 0.006343 0.000000
0.780734 0.006343 0.000000
0.848456 0.006343 0.000000
0.912705 0.006343 0.000000
0.972784 0.006343 0.000000
1.000000 0.006343 0.000000
0.000000 0.067648 0.000000
0.005216 0.067648 0.000000
0.065295 0.067648 0.000000
0.129544 0.067648 0.000000
0.197266 0.067648 0.000000
0.267768 0.067648 0.000000
0.340354 0.067648 0.000000
0.414330 0.067648 0.000000
0.489000 0.067648 0.000000
0.563670 0.067648 0.000000
0.637646 0.067648 0.000000
0.710232 0.067648 0.000000
0.780734 0.067648 0.000000
0.848456 0.067648 0.000000
0.912705 0.067648 0.000000
0.972784 0.067648 0.000000
1.000000 0.067648 0.000000
0.000000 0.133208 0.000000
0.005216 0.133208 0.000000
0.065295 0.133208 0.000000
0.129544 0.133208 0.000000
0.197266 0.133208 0.000000
0.267768 0.133208 0.000000
0.340354 0.133208 0.000000
0.414330 0.133208 0.000000
0.489000 0.133208 0.000000
0.563670 0.133208 0.000000
0.637646 0.133208 0.000000
0.710232 0.133208 0.000000
0.780734 0.133208 0.000000
0.848456 0.133208 0.000000
0.912705 0.133208 0.000000
0.972784 0.133208 0.000000
1.000000 0.133208 0.000000
0.000000 0.202312 0.000000
0.005216 0.202312 0.000000
0.065295 0.202312 0.000000
0.129544 0.202312 0.000000
0.197266 0.202312 0.000000
0.267768 0.202312 0.000000
0.340354 0.202312 0.000000
0.414330 0.202312 0.000000
0.489000 0.202312 0.000000
0.563670 0.202312 0.000000
0.637646 0.202312 0.000000
0.710232 0.202312 0.000000
0.780734 0.202312 0.000000
0.848456 0.202312 0.000000
0.912705 0.202312 0.000000
0.972784 0.202312 0.000000
1.000000 0.202312 0.000000
0.000000 0.274253 0.000000
0.005216 0.274253 0.000000
0.065295 0.274253 0.000000
0.129544 0.274253 0.000000
0.197266 0.274253 0.000000
0.267768 0.274253 0.000000
0.340354 0.274253 0.000000
0.414330 0.274253 0.000000
0.489000 0.274253 0.000000
0.563670 0.274253 0.000000
0.637646 0.274253 0.000000
0.710232 0.274253 0.000000
0.780734 0.274253 0.000000
0.848456 0.274253 0.000000
0.912705 0.274253 0.000000
0.972784 0.274253 0.000000
1.000000 0.274253 0.000000
0.000000 0.348320 0.000000
0.005216 0.348320 0.000000
0.065295 0.348320 0.000000
0.129544 0.348320 0.000000
0.197266 0.348320 0.000000
0.267768 0.348320 0.000000
0.340354 0.348320 0.000000
0.414330 0.348320 0.000000
0.489000 0.348320 0.000000
0.563670 0.348320 0.000000
0.637646 0.348320 0.000000
0.710232 0.348320 0.000000
0.780734 0.348320 0.000000
0.848456 0.348320 0.000000
0.912705 0.348320 0.000000
0.972784 0.348320 0.000000
1.000000 0.348320 0.000000
0.000000 0.423806 0.000000
0.005216 0.423806 0.000000
0.065295 0.423806 0.000000
0.129544 0.423806 0.000000
0.197266 0.423806 0.000000
0.267768 0.423806 0.000000
0.340354 0.423806 0.000000
0.414330 0.423806 0.000000
0.489000 0.423806 0.000000
0.563670 0.423806 0.000000
0.637646 0.423806 0.000000
0.710232 0.423806 0.000000
0.780734 0.423806 0.000000
0.848456 0.423806 0.000000
0.912705 0.423806 0.000000
0.972784 0.423806 0.000000
1.000000 0.423806 0.000000
0.000000 0.500000 0.000000
0.005216 0.500000 0.000000
0.065295 0.500000 0.000000
0.129544 0.500000 0.000000
0.197266 0.500000 0.000000
0.267768 0.500000 0.000000
0.340354 0.500000 0.000000
0.414330 0.500000 0.000000
0.489000 0.500000 0.000000
0.563670 0.500000 0.000000
0.637646 0.500000 0.000000
0.710232 0.500000 0.000000
0.780734 0.500000 0.000000
0.848456 0.500000 0.000000
0.912705 0.500000 0.000000
0.972784 0.500000 0.000000
1.000000 0.500000 0.000000
0.000000 0.576194 0.000000
0.005216 0.576194 0.000000
0.065295 0.576194 0.000000
0.129544 0.576194 0.000000
0.197266 0.576194 0.000000
0.267768 0.576194 0.000000
0.340354 0.576194 0.000000
0.414330 0.576194 0.000000
0.489000 0.576194 0.000000
0.563670 0.576194 0.000000
0.637646 0.576194 0.000000
0.710232 0.576194 0.000000
0.780734 0.576194 0.000000
0.848456 0.576194 0.000000
0.912705 0.576194 0.000000
0.972784 0.576194 0.000000
1.000000 0.576194 0.000000
0.000000 0.651680 0.000000
0.005216 0.651680 0.000000
0.065295 0.651680 0.000000
0.129544 0.651680 0.000000
0.197266 0.651680 0.000000
0.267768 0.651680 0.000000
0.340354 0.651680 0.000000
0.414330 0.651680 0.000000
0.489000 0.651680 0.000000
0.563670 0.651680 0.000000
0.637646 0.651680 0.000000
0.710232 0.651680 0.000000
0.780734 0.651680 0.000000
0.848456 0.651680 0.000000
0.912705 0.651680 0.000000
0.972784 0.651680 0.000000
1.000000 0.651680 0.000000
0.000000 0.725747 0.000000
0.005216 0.725747 0.000000
0.065295 0.725747 0.000000
0.129544 0.725747 0.000000
0.197266 0.725747 0.000000
0.267768 0.725747 0.000000
0.340354 0.725747 0.000000
0.414330 0.725747 0.000000
0.489000 0.725747 0.000000
0.563670 0.725747 0.000000
0.637646 0.725747 0.000000
0.710232 0.725747 0.000000
0.780734 0.725747 0.000000
0.848456 0.725747 0.000000
0.912705 0.725747 0.000000
0.972784 0.725747 0.000000
1.000000 0.725747 0.000000
0.000000 0.797688 0.000000
0.005216 0.797688 0.000000
0.065295 0.797688 0.000000
0.129544 0.797688 0.000000
0.197266 0.797688 0.000000
0.267768 0.797688 0.000000
0.340354 0.797688 0.000000
0.414330 0.797688 0.000000
0.489000 0.797688 0.000000
0.563670 0.797688 0.000000
0.637646 0.797688 0.000000
0.710232 0.797688 0.000000
0.780734 0.797688 0.000000
0.848456 0.797688 0.000000
0.912705 0.797688 0.000000
0.972784 0.797688 0.000000
1.000000 0.797688 0.000000
0.000000 0.866792 0.000000
0.005216 0.866792 0.000000
0.065295 0.866792 0.000000
0.129544 0.866792 0.000000
0.197266 0.866792 0.000000
0.267768 0.866792 0.000000
0.340354 0.866792 0.000000
0.414330 0.866792 0.000000
0.489000 0.866792 0.000000
0.563670 0.866792 0.000000
0.637646 0.866792 0.000000
0.710232 0.866792 0.000000
0.780734 0.866792 0.000000
0.848456 0.866792 0.000000
0.912705 0.866792 0.000000
0.972784 0.866792 0.000000
1.000000 0.866792 0.000000
0.000000 0.932352 0.000000
0.005216 0.932352 0.000000
0.065295 0.932352 0.000000
0.129544 0.932352 0.000000
0.197266 0.932352 0.000000
0.267768 0.932352 0.000000
0.340354 0.932352 0.000000
0.414330 0.932352 0.000000
0.489000 0.932352 0.000000
0.563670 0.932352 0.000000
0.637646 0.932352 0.000000
0.710232 0.932352 0.000000
0.780734 0.932352 0.000000
0.848456 0.932352 0.000000
0.912705 0.932352 0.000000
0.972784 0.932352 0.000000
1.000000 0.932352 0.000000
0.000000 0.993657 0.000000
0.005216 0.993657 0.000000
0.065295 0.993657 0.000000
0.129544 0.993657 0.000000
0.197266 0.993657 0.000000
0.267768 0.993657 0.000000
0.340354 0.993657 0.000000
0.414330 0.993657 0.000000
0.489000 0.993657 0.000000
0.563670 0.993657 0.000000
0.637646 0.993657 0.000000
0.710232 0.993657 0.000000
0.780734 0.993657 0.000000
0.848456 0.993657 0.000000
0.912705 0.993657 0.000000
0.972784 0.993657 0.000000
1.000000 0.993657 0.000000
0.000000 1.000000 0.000000
0.005216 1.000000 0.000000
0.065295 1.000000 0.000000
0.129544 1.000000 0.000000
0.197266 1.000000 0.000000
0.267768 1.000000 0.000000
0.340354 1.000000 0.000000
0.414330 1.000000 0.000000
0.489000 1.000000 0.000000
0.563670 1.000000 0.000000
0.637646 1.000000 0.000000
0.710232 1.000000 0.000000
0.780734 1.000000 0.000000
0.848456 1.000000 0.000000
0.912705 1.000000 0.000000
0.972784 1.000000 0.000000
1.000000 1.000000 0.000000
0.000000 0.000000 0.008596
0.005216 0.000000 0.008596
0.065295 0.000000 0.008596
0.129544 0.000000 0.008596
0.197266 0.000000 0.008596
0.267768 0.000000 0.008596
0.340354 0.000000 0.008596
0.414330 0.000000 0.008596
0.489000 0.000000 0.008596
0.563670 0.000000 0.008596
0.637646 0.000000 0.008596
0.710232 0.000000 0.008596
0.780734 0.000000 0.008596
0.848456 0.000000 0.008596
0.912705 0.000000 0.008596
0.972784 0.000000 0.008596
1.000000 0.000000 0.008596
0.000000 0.006343 0.008596
0.005216 0.006343 0.008596
0.065295 0.006343 0.008596
0.129544 0.006343 0.008596
0.197266 0.006343 0.008596
0.267768 0.006343 0.008596
0.340354 0.006343 0.008596
0.414330 0.006343 0.008596
0.489000 0.006343 0.008596
0.563670 0.006343 0.008596
0.637646 0.006343 0.008596
0.710232 0.006343 0.008596
0.780734 0.006343 0.008596
0.848456 0.006343 0.008596
0.912705 0.006343 0.008596
0.972784 0.006343 0.008596
1.000000 0.006343 0.008596
0.000000 0.067648 0.008596
0.005216 0.067648 0.008596
0.065295 0.067648 0.008596
0.129544 0.067648 0.008596
0.197266 0.067648 0.008596
0.267768 0.067648 0.008596
0.340354 0.067648 0.008596
0.414330 0.067648 0.008596
0.489000 0.067648 0.008596
0.563670 0.067648 0.008596
0.637646 0.067648 0.008596
0.710232 0.067648 0.008596
0.780734 0.067648 0.008596
0.848456 0.067648 0.008596
0.912705 0.067648 0.008596
0.972784 0.067648 0.008596
1.000000 0.067648 0.008596
0.000000 0.133208 0.008596
0.005216 0.133208 0.008596
0.065295 0.133208 0.008596
0.129544 0.133208 0.008596
0.197266 0.133208 0.008596
0.267768 0.133208 0.008596
0.340354 0.133208 0.008596
0.414330 0.133208 0.008596
0.489000 0.133208 0.008596
0.563670 0.133208 0.008596
0.637646 0.133208 0.008596
0.710232 0.133208 0.008596
0.780734 0.133208 0.008596
0.848456 0.133208 0.008596
0.912705 0.133208 0.008596
0.972784 0.133208 0.008596
1.000000 0.133208 0.008596
0.000000 0.202312 0.008596
0.005216 0.202312 0.008596
0.065295 0.202312 0.008596
0.129544 0.202312 0.008596
0.197266 0.202312 0.008596
0.267768 0.202312 0.008596
0.340354 0.202312 0.008596
0.414330 0.202312 0.008596
0.489000 0.202312 0.008596
0.563670 0.202312 0.008596
0.637646 0.202312 0.008596
0.710232 0.202312 0.008596
0.780734 0.202312 0.008596
0.848456 0.202312 0.008596
0.912705 0.202312 0.008596
0.972784 0.202312 0.008596
1.000000 0.202312 0.008596
0.000000 0.274253 0.008596
0.005216 0.274253 0.008596
0.065295 0.274253 0.008596
0.129544 0.274253 0.008596
0.197266 0.274253 0.008596
0.267768 0.274253 0.008596
0.340354 0.274253 0.008596
0.414330 0.274253 0.008596
0.489000 0.274253 0.008596
0.563670 0.274253 0.008596
0.637646 0.274253 0.008596
0.710232 0.274253 0.008596
0.780734 0.274253 0.008596
0.848456 0.274253 0.008596
0.912705 0.274253 0.008596
0.972784 0.274253 0.008596
1.000000 0.274253 0.008596
0.000000 0.348320 0.008596
0.005216 0.348320 0.008596
0.065295 0.348320 0.008596
0.129544 0.348320 0.008596
0.197266 0.348320 0.008596
0.267768 0.348320 0.008596
0.340354 0.348320 0.008596
0.414330 0.348320 0.008596
0.489000 0.348320 0.008596
0.563670 0.348320 0.008596
0.637646 0.348320 0.008596
0.710232 0.348320 0.008596
0.780734 0.348320 0.008596
0.848456 0.348320 0.008596
0.912705 0.348320 0.008596
0.972784 0.348320 0.008596
1.000000 0.348320 0.008596
0.000000 0.423806 0.008596
0.005216 0.423806 0.008596
0.065295 0.423806 0.008596
0.129544 0.423806 0.008596
0.197266 0.423806 0.008596
0.267768 0.423806 0.008596
0.340354 0.423806 0.008596
0.414330 0.423806 0.008596
0.489000 0.423806 0.008596
0.563670 0.423806 0.008596
0.637646 0.423806 0.008596
0.710232 0.423806 0.008596
0.780734 0.423806 0.008596
0.848456 0.423806 0.008596
0.912705 0.423806 0.008596
0.972784 0.423806 0.008596
1.000000 0.423806 0.008596
0.000000 0.500000 0.008596
0.005216 0.500000 0.008596
0.065295 0.500000 0.008596
0.129544 0.500000 0.008596
0.197266 0.500000 0.008596
0.267768 0.500000 0.008596
0.340354 0.500000 0.008596
0.414330 0.500000 0.008596
0.489000 0.500000 0.008596
0.563670 0.500000 0.008596
0.637646 0.500000 0.008596
0.710232 0.500000 0.008596
0.780734 0.500000 0.008596
0.848456 0.500000 0.008596
0.912705 0.500000 0.008596
0.972784 0.500000 0.008596
1.000000 0.500000 0.008596
0.000000 0.576194 0.008596
0.005216 0.576194 0.008596
0.065295 0.576194 0.008596
0.129544 0.576194 0.008596
0.197266 0.576194 0.008596
0.267768 0.576194 0.008596
0.340354 0.576194 0.008596
0.414330 0.576194 0.008596
0.489000 0.576194 0.008596
0.563670 0.576194 0.008596
0.637646 0.576194 0.008596
0.710232 0.576194 0.008596
0.780734 0.576194 0.008596
0.848456 0.576194 0.008596
0.912705 0.576194 0.008596
0.972784 0.576194 0.008596
1.000000 0.576194 0.008596
0.000000 0.651680 0.008596
0.005216 0.651680 0.008596
0.065295 0.651680 0.008596
0.129544 0.651680 0.008596
0.197266 0.651680 0.008596
0.267768 0.651680 0.008596
0.340354 0.651680 0.008596
0.414330 0.651680 0.008596
0.489000 0.651680 0.008596
0.563670 0.651680 0.008596
0.637646 0.651680 0.008596
0.710232 0.651680 0.008596
0.780734 0.651680 0.008596
0.848456 0.651680 0.008596
0.912705 0.651680 0.008596
0.972784 0.651680 0.008596
1.000000 0.651680 0.008596
0.000000 0.725747 0.008596
0.005216 0.725747 0.008596
0.065295 0.725747 0.008596
0.129544 0.725747 0.008596
0.197266 0.725747 0.008596
0.267768 0.725747 0.008596
0.340354 0.725747 0.008596
0.414330 0.725747 0.008596
0.489000 0.725747 0.008596
0.563670 0.725747 0.008596
0.637646 0.725747 0.008596
0.710232 0.725747 0.008596
0.780734 0.725747 0.008596
0.848456 0.725747 0.008596
0.912705 0.725747 0.008596
0.972784 0.725747 0.008596
1.000000 0.725747 0.008596
0.000000 0.797688 0.008596
0.005216 0.797688 0.008596
0.065295 0.797688 0.008596
0.129544 0.797688 0.008596
0.197266 0.797688 0.008596
0.267768 0.797688 0.008596
0.340354 0.797688 0.008596
0.414330 0.797688 0.008596
0.489000 0.797688 0.008596
0.563670 0.797688 0.008596
0.637646 0.797688 0.008596
0.710232 0.797688 0.008596
0.780734 0.797688 0.008596
0.848456 0.797688 0.008596
0.912705 0.797688 0.008596
0.972784 0.797688 0.008596
1.000000 0.797688 0.008596
0.000000 0.866792 0.008596
0.005216 0.866792 0.008596
0.065295 0.866792 0.008596
0.129544 0.866792 0.008596
0.197266 0.866792 0.008596
0.267768 0.866792 0.008596
0.340354 0.866792 0.008596
0.414330 0.866792 0.008596
0.489000 0.866792 0.008596
0.563670 0.866792 0.008596
0.637646 0.866792 0.008596
0.710232 0.866792 0.008596
0.780734 0.866792 0.008596
0.848456 0.866792 0.008596
0.912705 0.866792 0.008596
0.972784 0.866792 0.008596
1.000000 0.866792 0.008596
0.000000 0.932352 0.008596
0.005216 0.932352 0.008596
0.065295 0.932352 0.008596
0.129544 0.932352 0.008596
0.197266 0.932352 0.008596
0.267768 0.932352 0.008596
0.340354 0.932352 0.008596
0.414330 0.932352 0.008596
0.489000 0.932352 0.008596
0.563670 0.932352 0.008596
0.637646 0.932352 0.008596
0.710232 0.932352 0.008596
0.780734 0.932352 0.008596
0.848456 0.932352 0.008596
0.912705 0.932352 0.008596
0.972784 0.932352 0.008596
1.000000 0.932352 0.008596
0.000000 0.993657 0.008596
0.005216 0.993657 0.008596
0.065295 0.993657 0.008596
0.129544 0.993657 0.008596
0.197266 0.993657 0.008596
0.267768 0.993657 0.008596
0.340354 0.993657 0.008596
0.414330 0.993657 0.008596
0.489000 0.993657 0.008596
0.563670 0.993657 0.008596
0.637646 0.993657 0.008596
0.710232 0.993657 0.008596
0.780734 0.993657 0.008596
0.848456 0.993657 0.008596
0.912705 0.993657 0.008596
0.972784 0.993657 0.008596
1.000000 0.993657 0.008596
0.000000 1.000000 0.008596
0.005216 1.000000 0.008596
0.065295 1.000000 0.008596
0.129544 1.000000 0.008596
0.197266 1.000000 0.008596
0.267768 1.000000 0.008596
0.340354 1.000000 0.008596
0.414330 1.000000 0.008596
0.489000 1.000000 0.008596
0.563670 1.000000 0.008596
0.637646 1.000000 0.008596
0.710232 1.000000 0.008596
0.780734 1.000000 0.008596
0.848456 1.000000 0.008596
0.912705 1.000000 0.008596
0.972784 1.000000 0.008596
1.000000 1.000000 0.008596
0.000000 0.000000 0.072354
0.005216 0.000000 0.072354
0.065295 0.000000 0.072354
0.129544 0.000000 0.072354
0.197266 0.000000 0.072354
0.267768 0.000000 0.072354
0.340354 0.000000 0.072354
0.414330 0.000000 0.072354
0.489000 0.000000 0.072354
0.563670 0.000000 0.072354
0.637646 0.000000 0.072354
0.710232 0.000000 0.072354
0.780734 0.000000 0.072354
0.848456 0.000000 0.072354
0.912705 0.000000 0.072354
0.972784 0.000000 0.072354
1.000000 0.000000 0.072354
0.000000 0.006343 0.072354
0.005216 0.006343 0.072354
0.065295 0.006343 0.072354
0.129544 0.006343 0.072354
0.197266 0.006343 0.072354
0.267768 0.006343 0.072354
0.340354 0.006343 0.072354
0.414330 0.006343 0.072354
0.489000 0.006343 0.072354
0.563670 0.006343 0.072354
0.637646 0.006343 0.072354
0.710232 0.006343 0.072354
0.780734 0.006343 0.072354
0.848456 0.006343 0.072354
0.912705 0.006343 0.072354
0.972784 0.006343 0.072354
1.000000 0.006343 0.072354
0.000000 0.067648 0.072354
0.005216 0.067648 0.072354
0.065295 0.067648 0.072354
0.129544 0.067648 0.072354
0.197266 0.067648 0.072354
0.267768 0.067648 0.072354
0.340354 0.067648 0.072354
0.414330 0.067648 0.072354
0.489000 0.067648 0.072354
0.563670 0.067648 0.072354
0.637646 0.067648 0.072354
0.710232 0.067648 0.072354
0.780734 0.067648 0.072354
0.848456 0.067648 0.072354
0.912705 0.067648 0.072354
0.972784 0.067648 0.072354
1.000000 0.067648 0.072354
0.000000 0.133208 0.072354
0.005216 0.133208 0.072354
0.065295 0.133208 0.072354
0.129544 0.133208 0.072354
0.197266 0.133208 0.072354
0.267768 0.133208 0.072354
0.340354 0.133208 0.072354
0.414330 0.133208 0.072354
0.489000 0.133208 0.072354
0.563670 0.133208 0.072354
0.637646 0.133208 0.072354
0.710232 0.133208 0.072354
0.780734 0.133208 0.072354
0.848456 0.133208 0.072354
0.912705 0.133208 0.072354
0.972784 0.133208 0.072354
1.000000 0.133208 0.072354
0.000000 0.202312 0.072354
0.005216 0.202312 0.072354
0.065295 0.202312 0.072354
0.129544 0.202312 0.072354
0.197266 0.202312 0.072354
0.267768 0.202312 0.072354
0.340354 0.202312 0.072354
0.414330 0.202312 0.072354
0.489000 0.202312 0.072354
0.563670 0.202312 0.072354
0.637646 0.202312 0.072354
0.710232 0.202312 0.072354
0.780734 0.202312 0.072354
0.848456 0.202312 0.072354
0.912705 0.202312 0.072354
0.972784 0.202312 0.072354
1.000000 0.202312 0.072354
0.000000 0.274253 0.072354
0.005216 0.274253 0.072354
0.065295 0.274253 0.072354
0.129544 0.274253 0.072354
0.197266 0.274253 0.072354
0.267768 0.274253 0.072354
0.340354 0.274253 0.072354
0.414330 0.274253 0.072354
0.489000 0.274253 0.072354
0.563670 0.274253 0.072354
0.637646 0.274253 0.072354
0.710232 0.274253 0.072354
0.780734 0.274253 0.072354
0.848456 0.274253 0.072354
0.912705 0.274253 0.072354
0.972784 0.274253 0.072354
1.000000 0.274253 0.072354
0.000000 0.348320 0.072354
0.005216 0.348320 0.072354
0.065295 0.348320 0.072354
0.129544 0.348320 0.072354
0.197266 0.348320 0.072354
0.267768 0.348320 0.072354
0.340354 0.348320 0.072354
0.414330 0.348320 0.072354
0.489000 0.348320 0.072354
0.563670 0.348320 0.072354
0.637646 0.348320 0.072354
0.710232 0.348320 0.072354
0.780734 0.348320 0.072354
0.848456 0.348320 0.072354
0.912705 0.348320 0.072354
0.972784 0.348320 0.072354
1.000000 0.348320 0.072354
0.000000 0.423806 0.072354
0.005216 0.423806 0.072354
0.065295 0.423806 0.072354
0.129544 0.423806 0.072354
0.197266 0.423806 0.072354
0.267768 0.423806 0.072354
0.340354 0.423806 0.072354
0.414330 0.423806 0.072354
0.489000 0.423806 0.072354
0.563670 0.423806 0.072354
0.637646 0.423806 0.072354
0.710232 0.423806 0.072354
0.780734 0.423806 0.072354
0.848456 0.423806 0.072354
0.912705 0.423806 0.072354
0.972784 0.423806 0.072354
1.000000 0.423806 0.072354
0.000000 0.500000 0.072354
0.005216 0.500000 0.072354
0.065295 0.500000 0.072354
0.129544 0.500000 0.072354
0.197266 0.500000 0.072354
0.267768 0.500000 0.072354
0.340354 0.500000 0.072354
0.414330 0.500000 0.072354
0.489000 0.500000 0.072354
0.563670 0.500000 0.072354
0.637646 0.500000 0.072354
0.710232 0.500000 0.072354
0.780734 0.500000 0.072354
0.848456 0.500000 0.072354
0.912705 0.500000 0.072354
0.972784 0.500000 0.072354
1.000000 0.500000 0.072354
0.000000 0.576194 0.072354
0.005216 0.576194 0.072354
0.065295 0.576194 0.072354
0.129544 0.576194 0.072354
0.197266 0.576194 0.072354
0.267768 0.576194 0.072354
0.340354 0.576194 0.072354
0.414330 0.576194 0.072354
0.489000 0.576194 0.072354
0.563670 0.576194 0.072354
0.637646 0.576194 0.072354
0.710232 0.576194 0.072354
0.780734 0.576194 0.072354
0.848456 0.576194 0.072354
0.912705 0.576194 0.072354
0.972784 0.576194 0.072354
1.000000 0.576194 0.072354
0.000000 0.651680 0.072354
0.005216 0.651680 0.072354
0.065295 0.651680 0.072354
0.129544 0.651680 0.072354
0.197266 0.651680 0.072354
0.267768 0.651680 0.072354
0.340354 0.651680 0.072354
0.414330 0.651680 0.072354
0.489000 0.651680 0.072354
0.563670 0.651680 0.072354
0.637646 0.651680 0.072354
0.710232 0.651680 0.072354
0.780734 0.651680 0.072354
0.848456 0.651680 0.072354
0.912705 0.651680 0.072354
0.972784 0.651680 0.072354
1.000000 0.651680 0.072354
0.000000 0.725747 0.072354
0.005216 0.725747 0.072354
0.065295 0.725747 0.072354
0.129544 0.725747 0.072354
0.197266 0.725747 0.072354
0.267768 0.725747 0.072354
0.340354 0.725747 0.072354
0.414330 0.725747 0.072354
0.489000 0.725747 0.072354
0.563670 0.725747 0.072354
0.637646 0.725747 0.072354
0.710232 0.725747 0.072354
0.780734 0.725747 0.072354
0.848456 0.725747 0.072354
0.912705 0.725747 0.072354
0.972784 0.725747 0.072354
1.000000 0.725747 0.072354
0.000000 0.797688 0.072354
0.005216 0.797688 0.072354
0.065295 0.797688 0.072354
0.129544 0.797688 0.072354
0.197266 0.797688 0.072354
0.267768 0.797688 0.072354
0.340354 0.797688 0.072354
0.414330 0.797688 0.072354
0.489000 0.797688 0.072354
0.563670 0.797688 0.072354
0.637646 0.797688 0.072354
0.710232 0.797688 0.072354
0.780734 0.797688 0.072354
0.848456 0.797688 0.072354
0.912705 0.797688 0.072354
0.972784 0.797688 0.072354
1.000000 0.797688 0.072354
0.000000 0.866792 0.072354
0.005216 0.866792 0.072354
0.065295 0.866792 0.072354
0.129544 0.866792 0.072354
0.197266 0.866792 0.072354
0.267768 0.866792 0.072354
0.340354 0.866792 0.072354
0.414330 0.866792 0.072354
0.489000 0.866792 0.072354
0.563670 0.866792 0.072354
0.637646 0.866792 0.072354
0.710232 0.866792 0.072354
0.780734 0.866792 0.072354
0.848456 0.866792 0.072354
0.912705 0.866792 0.072354
0.972784 0.866792 0.072354
1.000000 0.866792 0.072354
0.000000 0.932352 0.072354
0.005216 0.932352 0.072354
0.065295 0.932352 0.072354
0.129544 0.932352 0.072354
0.197266 0.932352 0.072354
0.267768 0.932352 0.072354
0.340354 0.932352 0.072354
0.414330 0.932352 0.072354
0.489000 0.932352 0.072354
0.563670 0.932352 0.072354
0.637646 0.932352 0.072354
0.710232 0.932352 0.072354
0.780734 0.932352 0.072354
0.848456 0.932352 0.072354
0.912705 0.932352 0.072354
0.972784 0.932352 0.072354
1.000000 0.932352 0.072354
0.000000 0.993657 0.072354
0.005216 0.993657 0.072354
0.065295 0.993657 0.072354
0.129544 0.993657 0.072354
0.197266 0.993657 0.072354
0.267768 0.993657 0.072354
0.340354 0.993657 0.072354
0.414330 0.993657 0.072354
0.489000 0.993657 0.072354
0.563670 0.993657 0.072354
0.637646 0.993657 0.072354
0.710232 0.993657 0.072354
0.780734 0.993657 0.072354
0.848456 0.993657 0.072354
0.912705 0.993657 0.072354
0.972784 0.993657 0.072354
1.000000 0.993657 0.072354
0.000000 1.000000 0.072354
0.005216 1.000000 0.072354
0.065295 1.000000 0.072354
0.129544 1.000000 0.072354
0.197266 1.000000 0.072354
0.267768 1.000000 0.072354
0.340354 1.000000 0.072354
0.414330 1.000000 0.072354
0.489000 1.000000 0.072354
0.563670 1.000000 0.072354
0.637646 1.000000 0.072354
0.710232 1.000000 0.072354
0.780734 1.000000 0.072354
0.848456 1.000000 0.072354
0.912705 1.000000 0.072354
0.972784 1.000000 0.072354
1.000000 1.000000 0.072354
0.000000 0.000000 0.140536
0.005216 0.000000 0.140536
0.065295 0.000000 0.140536
0.129544 0.000000 0.140536
0.197266 0.000000 0.140536
0.267768 0.000000 0.140536
0.340354 0.000000 0.140536
0.414330 0.000000 0.140536
0.489000 0.000000 0.140536
0.563670 0.000000 0.140536
0.637646 0.000000 0.140536
0.710232 0.000000 0.140536
0.780734 0.000000 0.140536
0.848456 0.000000 0.140536
0.912705 0.000000 0.140536
