assets/luts/crisp.cube
# Crisp — Studio filter "crisp"
# Generated by scripts/generate-filter-luts.mjs — do not edit by hand.
LUT_3D_SIZE 9
DOMAIN_MIN 0.0 0.0 0.0
DOMAIN_MAX 1.0 1.0 1.0
0.000000 0.000000 0.000000
0.065295 0.000000 0.000000
0.197266 0.000000 0.000000
0.340354 0.000000 0.000000
0.489000 0.000000 0.000000
0.637646 0.000000 0.000000
0.780734 0.000000 0.000000
0.912705 0.000000 0.000000
1.000000 0.000000 0.000000
0.000000 0.067648 0.000000
0.065295 0.067648 0.000000
0.197266 0.067648 0.000000
0.340354 0.067648 0.000000
0.489000 0.067648 0.000000
0.637646 0.067648 0.000000
0.780734 0.067648 0.000000
0.912705 0.067648 0.000000
1.000000 0.067648 0.000000
0.000000 0.202312 0.000000
0.065295 0.202312 0.000000
0.197266 0.202312 0.000000
0.340354 0.202312 0.000000
0.489000 0.202312 0.000000
0.637646 0.202312 0.000000
0.780734 0.202312 0.000000
0.912705 0.202312 0.000000
1.000000 0.202312 0.000000
0.000000 0.348320 0.000000
0.065295 0.348320 0.000000
0.197266 0.348320 0.000000
0.340354 0.348320 0.000000
0.489000 0.348320 0.000000
0.637646 0.348320 0.000000
0.780734 0.348320 0.000000
0.912705 0.348320 0.000000
1.000000 0.348320 0.000000
0.000000 0.500000 0.000000
0.065295 0.500000 0.000000
0.197266 0.500000 0.000000
0.340354 0.500000 0.000000
0.489000 0.500000 0.000000
0.637646 0.500000 0.000000
0.780734 0.500000 0.000000
0.912705 0.500000 0.000000
1.000000 0.500000 0.000000
0.000000 0.651680 0.000000
0.065295 0.651680 0.000000
0.197266 0.651680 0.000000
0.340354 0.651680 0.000000
0.489000 0.651680 0.000000
0.637646 0.651680 0.000000
0.780734 0.651680 0.000000
0.912705 0.651680 0.000000
1.000000 0.651680 0.000000
0.000000 0.797688 0.000000
0.065295 0.797688 0.000000
0.197266 0.797688 0.000000
0.340354 0.797688 0.000000
0.489000 0.797688 0.000000
0.637646 0.797688 0.000000
0.780734 0.797688 0.000000
0.912705 0.797688 0.000000
1.000000 0.797688 0.000000
0.000000 0.932352 0.000000
0.065295 0.932352 0.000000
0.197266 0.932352 0.000000
0.340354 0.932352 0.000000
0.489000 0.932352 0.000000
0.637646 0.932352 0.000000
0.780734 0.932352 0.000000
0.912705 0.932352 0.000000
1.000000 0.932352 0.000000
0.000000 1.000000 0.000000
0.065295 1.000000 0.000000
0.197266 1.000000 0.000000
0.340354 1.000000 0.000000
0.489000 1.000000 0.000000
0.637646 1.000000 0.000000
0.780734 1.000000 0.000000
0.912705 1.000000 0.000000
1.000000 1.000000 0.000000
0.000000 0.000000 0.072354
0.065295 0.000000 0.072354
0.197266 0.000000 0.072354
0.340354 0.000000 0.072354
0.489000 0.000000 0.072354
0.637646 0.000000 0.072354
0.780734 0.000000 0.072354
0.912705 0.000000 0.072354
1.000000 0.000000 0.072354
0.000000 0.067648 0.072354
0.065295 0.067648 0.072354
0.197266 0.067648 0.072354
0.340354 0.067648 0.072354
0.489000 0.067648 0.072354
0.637646 0.067648 0.072354
0.780734 0.067648 0.072354
0.912705 0.067648 0.072354
1.000000 0.067648 0.072354
0.000000 0.202312 0.072354
0.065295 0.202312 0.072354
0.197266 0.202312 0.072354
0.340354 0.202312 0.072354
0.489000 0.202312 0.072354
0.637646 0.202312 0.072354
0.780734 0.202312 0.072354
0.912705 0.202312 0.072354
1.000000 0.202312 0.072354
0.000000 0.348320 0.072354
0.065295 0.348320 0.072354
0.197266 0.348320 0.072354
0.340354 0.348320 0.072354
0.489000 0.348320 0.072354
0.637646 0.348320 0.072354
0.780734 0.348320 0.072354
0.912705 0.348320 0.072354
1.000000 0.348320 0.072354
0.000000 0.500000 0.072354
0.065295 0.500000 0.072354
0.197266 0.500000 0.072354
0.340354 0.500000 0.072354
0.489000 0.500000 0.072354
0.637646 0.500000 0.072354
0.780734 0.500000 0.072354
0.912705 0.500000 0.072354
1.000000 0.500000 0.072354
0.000000 0.651680 0.072354
0.065295 0.651680 0.072354
0.197266 0.651680 0.072354
0.340354 0.651680 0.072354
0.489000 0.651680 0.072354
0.637646 0.651680 0.072354
0.780734 0.651680 0.072354
0.912705 0.651680 0.072354
1.000000 0.651680 0.072354
0.000000 0.797688 0.072354
0.065295 0.797688 0.072354
0.197266 0.797688 0.072354
0.340354 0.797688 0.072354
0.489000 0.797688 0.072354
0.637646 0.797688 0.072354
0.780734 0.797688 0.072354
0.912705 0.797688 0.072354
1.000000 0.797688 0.072354
0.000000 0.932352 0.072354
0.065295 0.932352 0.072354
0.197266 0.932352 0.072354
0.340354 0.932352 0.072354
0.489000 0.932352 0.072354
0.637646 0.932352 0.072354
0.780734 0.932352 0.072354
0.912705 0.932352 0.072354
1.000000 0.932352 0.072354
0.000000 1.000000 0.072354
0.065295 1.000000 0.072354
0.197266 1.000000 0.072354
0.340354 1.000000 0.072354
0.489000 1.000000 0.072354
0.637646 1.000000 0.072354
0.780734 1.000000 0.072354
0.912705 1.000000 0.072354
1.000000 1.000000 0.072354
0.000000 0.000000 0.212405
0.065295 0.000000 0.212405
0.197266 0.000000 0.212405
0.340354 0.000000 0.212405
0.489000 0.000000 0.212405
0.637646 0.000000 0.212405
0.780734 0.000000 0.212405
0.912705 0.000000 0.212405
1.000000 0.000000 0.212405
0.000000 0.067648 0.212405
0.065295 0.067648 0.212405
0.197266 0.067648 0.212405
0.340354 0.067648 0.212405
0.489000 0.067648 0.212405
0.637646 0.067648 0.212405
0.780734 0.067648 0.212405
0.912705 0.067648 0.212405
1.000000 0.067648 0.212405
0.000000 0.202312 0.212405
0.065295 0.202312 0.212405
0.197266 0.202312 0.212405
0.340354 0.202312 0.212405
0.489000 0.202312 0.212405
0.637646 0.202312 0.212405
0.780734 0.202312 0.212405
0.912705 0.202312 0.212405
1.000000 0.202312 0.212405
0.000000 0.348320 0.212405
0.065295 0.348320 0.212405
0.197266 0.348320 0.212405
0.340354 0.348320 0.212405
0.489000 0.348320 0.212405
0.637646 0.348320 0.212405
0.780734 0.348320 0.212405
0.912705 0.348320 0.212405
1.000000 0.348320 0.212405
0.000000 0.500000 0.212405
0.065295 0.500000 0.212405
0.197266 0.500000 0.212405
0.340354 0.500000 0.212405
0.489000 0.500000 0.212405
0.637646 0.500000 0.212405
0.780734 0.500000 0.212405
0.912705 0.500000 0.212405
1.000000 0.500000 0.212405
0.000000 0.651680 0.212405
0.065295 0.651680 0.212405
0.197266 0.651680 0.212405
0.340354 0.651680 0.212405
0.489000 0.651680 0.212405
0.637646 0.651680 0.212405
0.780734 0.651680 0.212405
0.912705 0.651680 0.212405
1.000000 0.651680 0.212405
0.000000 0.797688 0.212405
0.065295 0.797688 0.212405
0.197266 0.797688 0.212405
0.340354 0.797688 0.212405
0.489000 0.797688 0.212405
0.637646 0.797688 0.212405
0.780734 0.797688 0.212405
0.912705 0.797688 0.212405
1.000000 0.797688 0.212405
0.000000 0.932352 0.212405
0.065295 0.932352 0.212405
0.197266 0.932352 0.212405
0.340354 0.932352 0.212405
0.489000 0.932352 0.212405
0.637646 0.932352 0.212405
0.780734 0.932352 0.212405
0.912705 0.932352 0.212405
1.000000 0.932352 0.212405
0.000000 1.000000 0.212405
0.065295 1.000000 0.212405
0.197266 1.000000 0.212405
0.340354 1.000000 0.212405
0.489000 1.000000 0.212405
0.637646 1.000000 0.212405
0.780734 1.000000 0.212405
0.912705 1.000000 0.212405
1.000000 1.000000 0.212405
0.000000 0.000000 0.364253
0.065295 0.000000 0.364253
0.197266 0.000000 0.364253
0.340354 0.000000 0.364253
0.489000 0.000000 0.364253
0.637646 0.000000 0.364253
0.780734 0.000000 0.364253
0.912705 0.000000 0.364253
1.000000 0.000000 0.364253
0.000000 0.067648 0.364253
0.065295 0.067648 0.364253
0.197266 0.067648 0.364253
0.340354 0.067648 0.364253
0.489000 0.067648 0.364253
0.637646 0.067648 0.364253
0.780734 0.067648 0.364253
0.912705 0.067648 0.364253
1.000000 0.067648 0.364253
0.000000 0.202312 0.364253
0.065295 0.202312 0.364253
0.197266 0.202312 0.364253
0.340354 0.202312 0.364253
0.489000 0.202312 0.364253
0.637646 0.202312 0.364253
0.780734 0.202312 0.364253
0.912705 0.202312 0.364253
1.000000 0.202312 0.364253
0.000000 0.348320 0.364253
0.065295 0.348320 0.364253
0.197266 0.348320 0.364253
0.340354 0.348320 0.364253
0.489000 0.348320 0.364253
0.637646 0.348320 0.364253
0.780734 0.348320 0.364253
0.912705 0.348320 0.364253
1.000000 0.348320 0.364253
0.000000 0.500000 0.364253
0.065295 0.500000 0.364253
0.197266 0.500000 0.364253
0.340354 0.500000 0.364253
0.489000 0.500000 0.364253
0.637646 0.500000 0.364253
0.780734 0.500000 0.364253
0.912705 0.500000 0.364253
1.000000 0.500000 0.364253
0.000000 0.651680 0.364253
0.065295 0.651680 0.364253
0.197266 0.651680 0.364253
0.340354 0.651680 0.364253
0.489000 0.651680 0.364253
0.637646 0.651680 0.364253
0.780734 0.651680 0.364253
0.912705 0.651680 0.364253
1.000000 0.651680 0.364253
0.000000 0.797688 0.364253
0.065295 0.797688 0.364253
0.197266 0.797688 0.364253
0.340354 0.797688 0.364253
0.489000 0.797688 0.364253
0.637646 0.797688 0.364253
0.780734 0.797688 0.364253
0.912705 0.797688 0.364253
1.000000 0.797688 0.364253
0.000000 0.932352 0.364253
0.065295 0.932352 0.364253
0.197266 0.932352 0.364253
0.340354 0.932352 0.364253
0.489000 0.932352 0.364253
0.637646 0.932352 0.364253
0.780734 0.932352 0.364253
0.912705 0.932352 0.364253
1.000000 0.932352 0.364253
0.000000 1.000000 0.364253
0.065295 1.000000 0.364253
0.197266 1.000000 0.364253
0.340354 1.000000 0.364253
0.489000 1.000000 0.364253
0.637646 1.000000 0.364253
0.780734 1.000000 0.364253
0.912705 1.000000 0.364253
1.000000 1.000000 0.364253
0.000000 0.000000 0.522000
0.065295 0.000000 0.522000
0.197266 0.000000 0.522000
0.340354 0.000000 0.522000
0.489000 0.000000 0.522000
0.637646 0.000000 0.522000
0.780734 0.000000 0.522000
0.912705 0.000000 0.522000
1.000000 0.000000 0.522000
0.000000 0.067648 0.522000
0.065295 0.067648 0.522000
0.197266 0.067648 0.522000
0.340354 0.067648 0.522000
0.489000 0.067648 0.522000
0.637646 0.067648 0.522000
0.780734 0.067648 0.522000
0.912705 0.067648 0.522000
1.000000 0.067648 0.522000
0.000000 0.202312 0.522000
0.065295 0.202312 0.522000
0.197266 0.202312 0.522000
0.340354 0.202312 0.522000
0.489000 0.202312 0.522000
0.637646 0.202312 0.522000
0.780734 0.202312 0.522000
0.912705 0.202312 0.522000
1.000000 0.202312 0.522000
0.000000 0.348320 0.522000
0.065295 0.348320 0.522000
0.197266 0.348320 0.522000
0.340354 0.348320 0.522000
0.489000 0.348320 0.522000
0.637646 0.348320 0.522000
0.780734 0.348320 0.522000
0.912705 0.348320 0.522000
1.000000 0.348320 0.522000
0.000000 0.500000 0.522000
0.065295 0.500000 0.522000
0.197266 0.500000 0.522000
0.340354 0.500000 0.522000
0.489000 0.500000 0.522000
0.637646 0.500000 0.522000
0.780734 0.500000 0.522000
0.912705 0.500000 0.522000
1.000000 0.500000 0.522000
0.000000 0.651680 0.522000
0.065295 0.651680 0.522000
0.197266 0.651680 0.522000
0.340354 0.651680 0.522000
0.489000 0.651680 0.522000
0.637646 0.651680 0.522000
0.780734 0.651680 0.522000
0.912705 0.651680 0.522000
1.000000 0.651680 0.522000
0.000000 0.797688 0.522000
0.065295 0.797688 0.522000
0.197266 0.797688 0.522000
0.340354 0.797688 0.522000
0.489000 0.797688 0.522000
0.637646 0.797688 0.522000
0.780734 0.797688 0.522000
0.912705 0.797688 0.522000
1.000000 0.797688 0.522000
0.000000 0.932352 0.522000
0.065295 0.932352 0.522000
0.197266 0.932352 0.522000
0.340354 0.932352 0.522000
0.489000 0.932352 0.522000
0.637646 0.932352 0.522000
0.780734 0.932352 0.522000
0.912705 0.932352 0.522000
1.000000 0.932352 0.522000
0.000000 1.000000 0.522000
0.065295 1.000000 0.522000
0.197266 1.000000 0.522000
0.340354 1.000000 0.522000
0.489000 1.000000 0.522000
0.637646 1.000000 0.522000
0.780734 1.000000 0.522000
0.912705 1.000000 0.522000
1.000000 1.000000 0.522000
0.000000 0.000000 0.679747
0.065295 0.000000 0.679747
0.197266 0.000000 0.679747
0.340354 0.000000 0.679747
0.489000 0.000000 0.679747
0.637646 0.000000 0.679747
0.780734 0.000000 0.679747
0.912705 0.000000 0.679747
1.000000 0.000000 0.679747
0.000000 0.067648 0.679747
0.065295 0.067648 0.679747
0.197266 0.067648 0.679747
0.340354 0.067648 0.679747
0.489000 0.067648 0.679747
0.637646 0.067648 0.679747
0.780734 0.067648 0.679747
0.912705 0.067648 0.679747
1.000000 0.067648 0.679747
0.000000 0.202312 0.679747
0.065295 0.202312 0.679747
0.197266 0.202312 0.679747
0.340354 0.202312 0.679747
0.489000 0.202312 0.679747
0.637646 0.202312 0.679747
0.780734 0.202312 0.679747
0.912705 0.202312 0.679747
1.000000 0.202312 0.679747
0.000000 0.348320 0.679747
0.065295 0.348320 0.679747
0.197266 0.348320 0.679747
0.340354 0.348320 0.679747
0.489000 0.348320 0.679747
0.637646 0.348320 0.679747
0.780734 0.348320 0.679747
0.912705 0.348320 0.679747
1.000000 0.348320 0.679747
0.000000 0.500000 0.679747
0.065295 0.500000 0.679747
0.197266 0.500000 0.679747
0.340354 0.500000 0.679747
0.489000 0.500000 0.679747
0.637646 0.500000 0.679747
0.780734 0.500000 0.679747
0.912705 0.500000 0.679747
1.000000 0.500000 0.679747
0.000000 0.651680 0.679747
0.065295 0.651680 0.679747
0.197266 0.651680 0.679747
0.340354 0.651680 0.679747
0.489000 0.651680 0.679747
0.637646 0.651680 0.679747
0.780734 0.651680 0.679747
0.912705 0.651680 0.679747
1.000000 0.651680 0.679747
0.000000 0.797688 0.679747
0.065295 0.797688 0.679747
0.197266 0.797688 0.679747
0.340354 0.797688 0.679747
0.489000 0.797688 0.679747
0.637646 0.797688 0.679747
0.780734 0.797688 0.679747
0.912705 0.797688 0.679747
1.000000 0.797688 0.679747
0.000000 0.932352 0.679747
0.065295 0.932352 0.679747
0.197266 0.932352 0.679747
0.340354 0.932352 0.679747
0.489000 0.932352 0.679747
0.637646 0.932352 0.679747
0.780734 0.932352 0.679747
0.912705 0.932352 0.679747
1.000000 0.932352 0.679747
0.000000 1.000000 0.679747
0.065295 1.000000 0.679747
0.197266 1.000000 0.679747
0.340354 1.000000 0.679747
0.489000 1.000000 0.679747
0.637646 1.000000 0.679747
0.780734 1.000000 0.679747
0.912705 1.000000 0.679747
1.000000 1.000000 0.679747
0.000000 0.000000 0.831595
0.065295 0.000000 0.831595
0.197266 0.000000 0.831595
0.340354 0.000000 0.831595
0.489000 0.000000 0.831595
0.637646 0.000000 0.831595
0.780734 0.000000 0.831595
0.912705 0.000000 0.831595
1.000000 0.000000 0.831595
0.000000 0.067648 0.831595
0.065295 0.067648 0.831595
0.197266 0.067648 0.831595
0.340354 0.067648 0.831595
0.489000 0.067648 0.831595
0.637646 0.067648 0.831595
0.780734 0.067648 0.831595
0.912705 0.067648 0.831595
1.000000 0.067648 0.831595
0.000000 0.202312 0.831595
0.065295 0.202312 0.831595
0.197266 0.202312 0.831595
0.340354 0.202312 0.831595
0.489000 0.202312 0.831595
0.637646 0.202312 0.831595
0.780734 0.202312 0.831595
0.912705 0.202312 0.831595
1.000000 0.202312 0.831595
0.000000 0.348320 0.831595
0.065295 0.348320 0.831595
0.197266 0.348320 0.831595
0.340354 0.348320 0.831595
0.489000 0.348320 0.831595
0.637646 0.348320 0.831595
0.780734 0.348320 0.831595
0.912705 0.348320 0.831595
1.000000 0.348320 0.831595
0.000000 0.500000 0.831595
0.065295 0.500000 0.831595
0.197266 0.500000 0.831595
0.340354 0.500000 0.831595
0.489000 0.500000 0.831595
0.637646 0.500000 0.831595
0.780734 0.500000 0.831595
0.912705 0.500000 0.831595
1.000000 0.500000 0.831595
0.000000 0.651680 0.831595
0.065295 0.651680 0.831595
0.197266 0.651680 0.831595
0.340354 0.651680 0.831595
0.489000 0.651680 0.831595
0.637646 0.651680 0.831595
0.780734 0.651680 0.831595
0.912705 0.651680 0.831595
1.000000 0.651680 0.831595
0.000000 0.797688 0.831595
0.065295 0.797688 0.831595
0.197266 0.797688 0.831595
0.340354 0.797688 0.831595
0.489000 0.797688 0.831595
0.637646 0.797688 0.831595
0.780734 0.797688 0.831595
0.912705 0.797688 0.831595
1.000000 0.797688 0.831595
0.000000 0.932352 0.831595
0.065295 0.932352 0.831595
0.197266 0.932352 0.831595
0.340354 0.932352 0.831595
0.489000 0.932352 0.831595
0.637646 0.932352 0.831595
0.780734 0.932352 0.831595
0.912705 0.932352 0.831595
1.000000 0.932352 0.831595
0.000000 1.000000 0.831595
0.065295 1.000000 0.831595
0.197266 1.000000 0.831595
0.340354 1.000000 0.831595
0.489000 1.000000 0.831595
0.637646 1.000000 0.831595
0.780734 1.000000 0.831595
0.912705 1.000000 0.831595
1.000000 1.000000 0.831595
0.000000 0.000000 0.971646
0.065295 0.000000 0.971646
0.197266 0.000000 0.971646
0.340354 0.000000 0.971646
0.489000 0.000000 0.971646
0.637646 0.000000 0.971646
0.780734 0.000000 0.971646
0.912705 0.000000 0.971646
1.000000 0.000000 0.971646
0.000000 0.067648 0.971646
0.065295 0.067648 0.971646
0.197266 0.067648 0.971646
0.340354 0.067648 0.971646
0.489000 0.067648 0.971646
0.637646 0.067648 0.971646
0.780734 0.067648 0.971646
0.912705 0.067648 0.971646
1.000000 0.067648 0.971646
0.000000 0.202312 0.971646
0.065295 0.202312 0.971646
0.197266 0.202312 0.971646
0.340354 0.202312 0.971646
0.489000 0.202312 0.971646
0.637646 0.202312 0.971646
0.780734 0.202312 0.971646
0.912705 0.202312 0.971646
1.000000 0.202312 0.971646
0.000000 0.348320 0.971646
0.065295 0.348320 0.971646
0.197266 0.348320 0.971646
0.340354 0.348320 0.971646
0.489000 0.348320 0.971646
0.637646 0.348320 0.971646
0.780734 0.348320 0.971646
0.912705 0.348320 0.971646
1.000000 0.348320 0.971646
0.000000 0.500000 0.971646
0.065295 0.500000 0.971646
0.197266 0.500000 0.971646
0.340354 0.500000 0.971646
0.489000 0.500000 0.971646
0.637646 0.500000 0.971646
0.780734 0.500000 0.971646
0.912705 0.500000 0.971646
1.000000 0.500000 0.971646
0.000000 0.651680 0.971646
0.065295 0.651680 0.971646
0.197266 0.651680 0.971646
0.340354 0.651680 0.971646
0.489000 0.651680 0.971646
0.637646 0.651680 0.971646
0.780734 0.651680 0.971646
0.912705 0.651680 0.971646
1.000000 0.651680 0.971646
0.000000 0.797688 0.971646
0.065295 0.797688 0.971646
0.197266 0.797688 0.971646
0.340354 0.797688 0.971646
0.489000 0.797688 0.971646
0.637646 0.797688 0.971646
0.780734 0.797688 0.971646
0.912705 0.797688 0.971646
1.000000 0.797688 0.971646
0.000000 0.932352 0.971646
0.065295 0.932352 0.971646
0.197266 0.932352 0.971646
0.340354 0.932352 0.971646
0.489000 0.932352 0.971646
0.637646 0.932352 0.971646
0.780734 0.932352 0.971646
0.912705 0.932352 0.971646
1.000000 0.932352 0.971646
0.000000 1.000000 0.971646
0.065295 1.000000 0.971646
0.197266 1.000000 0.971646
0.340354 1.000000 0.971646
0.489000 1.000000 0.971646
0.637646 1.000000 0.971646
0.780734 1.000000 0.971646
0.912705 1.000000 0.971646
1.000000 1.000000 0.971646
0.000000 0.000000 1.000000
0.065295 0.000000 1.000000
0.197266 0.000000 1.000000
0.340354 0.000000 1.000000
0.489000 0.000000 1.000000
0.637646 0.000000 1.000000
0.780734 0.000000 1.000000
0.912705 0.000000 1.000000
1.000000 0.000000 1.000000
0.000000 0.067648 1.000000
0.065295 0.067648 1.000000
0.197266 0.067648 1.000000
0.340354 0.067648 1.000000
0.489000 0.067648 1.000000
0.637646 0.067648 1.000000
0.780734 0.067648 1.000000
0.912705 0.067648 1.000000
1.000000 0.067648 1.000000
0.000000 0.202312 1.000000
0.065295 0.202312 1.000000
0.197266 0.202312 1.000000
0.340354 0.202312 1.000000
0.489000 0.202312 1.000000
0.637646 0.202312 1.000000
0.780734 0.202312 1.000000
0.912705 0.202312 1.000000
1.000000 0.202312 1.000000
0.000000 0.348320 1.000000
0.065295 0.348320 1.000000
0.197266 0.348320 1.000000
0.340354 0.348320 1.000000
0.489000 0.348320 1.000000
0.637646 0.348320 1.000000
0.780734 0.348320 1.000000
0.912705 0.348320 1.000000
1.000000 0.348320 1.000000
0.000000 0.500000 1.000000
0.065295 0.500000 1.000000
0.197266 0.500000 1.000000
0.340354 0.500000 1.000000
0.489000 0.500000 1.000000
0.637646 0.500000 1.000000
0.780734 0.500000 1.000000
0.912705 0.500000 1.000000
1.000000 0.500000 1.000000
0.000000 0.651680 1.000000
0.065295 0.651680 1.000000
0.197266 0.651680 1.000000
0.340354 0.651680 1.000000
0.489000 0.651680 1.000000
0.637646 0.651680 1.000000
0.780734 0.651680 1.000000
0.912705 0.651680 1.000000
1.000000 0.651680 1.000000
0.000000 0.797688 1.000000
0.065295 0.797688 1.000000
0.197266 0.797688 1.000000
0.340354 0.797688 1.000000
0.489000 0.797688 1.000000
0.637646 0.797688 1.000000
0.780734 0.797688 1.000000
0.912705 0.797688 1.000000
1.000000 0.797688 1.000000
0.000000 0.932352 1.000000
0.065295 0.932352 1.000000
0.197266 0.932352 1.000000
0.340354 0.932352 1.000000
0.489000 0.932352 1.000000
0.637646 0.932352 1.000000
0.780734 0.932352 1.000000
0.912705 0.932352 1.000000
1.000000 0.932352 1.000000
0.000000 1.000000 1.000000
0.065295 1.000000 1.000000
0.197266 1.000000 1.000000
0.340354 1.000000 1.000000
0.489000 1.000000 1.000000
0.637646 1.000000 1.000000
0.780734 1.000000 1.000000
0.912705 1.000000 1.000000
1.000000 1.000000 1.000000
