assets/luts/cyberpunk.cube
# Cyberpunk — Studio filter "cyberpunk"
# Generated by scripts/generate-filter-luts.mjs — do not edit by hand.
LUT_3D_SIZE 5
DOMAIN_MIN 0.0 0.0 0.0
DOMAIN_MAX 1.0 1.0 1.0
0.122584 0.029681 0.166369
0.411528 0.017041 0.150189
0.728169 0.003189 0.132459
1.000000 0.000000 0.115834
1.000000 0.000000 0.115748
0.058154 0.296380 0.115631
0.343356 0.283755 0.114613
0.659876 0.269964 0.113481
0.970569 0.256426 0.112370
1.000000 0.244075 0.112248
0.037922 0.589382 0.111584
0.268395 0.576162 0.110805
0.584915 0.562370 0.109673
0.895607 0.548833 0.108561
1.000000 0.537077 0.108201
0.018062 0.876988 0.107612
0.194814 0.863185 0.107066
0.511334 0.849393 0.105934
0.822026 0.835855 0.104823
1.000000 0.824683 0.104230
0.008480 1.000000 0.105696
0.142477 1.000000 0.105114
0.457809 1.000000 0.103744
0.767334 1.000000 0.102399
0.987220 1.000000 0.101444
0.115715 0.025388 0.470043
0.404660 0.012748 0.453864
0.721301 0.000000 0.436134
1.000000 0.000000 0.418645
1.000000 0.000000 0.405899
0.056354 0.292129 0.415577
0.336624 0.279395 0.399435
0.653265 0.265543 0.381705
0.964074 0.251946 0.364301
1.000000 0.239605 0.351519
0.036526 0.584928 0.355693
0.262066 0.571600 0.339789
0.578707 0.557748 0.322058
0.889517 0.544151 0.304655
1.000000 0.532404 0.291636
0.017063 0.872336 0.296912
0.188882 0.858424 0.281241
0.505522 0.844572 0.263511
0.816332 0.830975 0.246107
1.000000 0.819812 0.232854
0.007419 1.000000 0.252409
0.136484 1.000000 0.236702
0.451936 1.000000 0.218734
0.761579 1.000000 0.201097
0.986598 1.000000 0.187483
0.108189 0.020684 0.802826
0.397134 0.008044 0.786646
0.713774 0.000000 0.768916
1.000000 0.000000 0.751346
1.000000 0.000000 0.738577
0.054352 0.287485 0.748335
0.329097 0.274690 0.732217
0.645738 0.260839 0.714487
0.956548 0.247242 0.697083
1.000000 0.234960 0.684278
0.034524 0.580284 0.688451
0.254540 0.566895 0.672571
0.571180 0.553044 0.654841
0.881990 0.539447 0.637437
1.000000 0.527760 0.624394
0.015061 0.867692 0.629670
0.181355 0.853720 0.614023
0.497996 0.839868 0.596293
0.808805 0.826271 0.578889
0.998585 0.815168 0.565613
0.005014 1.000000 0.585086
0.128554 1.000000 0.569404
0.444006 1.000000 0.551436
0.753649 1.000000 0.533798
0.984192 1.000000 0.520160
0.100884 0.016025 1.000000
0.389745 0.003426 1.000000
0.706328 0.000000 1.000000
1.000000 0.000000 1.000000
1.000000 0.000000 1.000000
0.052387 0.282926 1.000000
0.321709 0.270073 1.000000
0.638350 0.256221 1.000000
0.949160 0.242624 1.000000
1.000000 0.230402 1.000000
0.032559 0.575726 1.000000
0.247152 0.562278 0.999225
0.563792 0.548426 0.981495
0.874602 0.534829 0.964091
1.000000 0.523201 0.951025
0.013096 0.863133 0.956301
0.173967 0.849102 0.940678
0.490607 0.835250 0.922947
0.801417 0.821654 0.905543
0.996620 0.810609 0.892243
0.002653 1.000000 0.911638
0.120770 1.000000 0.895979
0.436221 1.000000 0.878011
0.745864 1.000000 0.860373
0.981831 1.000000 0.846711
0.096985 0.011528 1.000000
0.385820 0.000000 1.000000
0.701975 0.000000 1.000000
1.000000 0.000000 1.000000
1.000000 0.000000 1.000000
0.052410 0.278617 1.000000
0.317415 0.265773 1.000000
0.633936 0.251981 1.000000
0.944628 0.238443 1.000000
1.000000 0.226312 1.000000
0.032178 0.571619 1.000000
0.242454 0.558180 1.000000
0.558975 0.544388 1.000000
0.869667 0.530850 1.000000
1.000000 0.519314 1.000000
0.012318 0.859225 1.000000
0.168873 0.845202 1.000000
0.485394 0.831410 1.000000
0.796086 0.817873 1.000000
0.995404 0.806919 1.000000
0.001260 1.000000 1.000000
0.115061 1.000000 1.000000
0.430393 1.000000 1.000000
0.739918 1.000000 1.000000
0.980000 1.000000 1.000000
