assets/luts/cyberpunk.cube
# Cyberpunk — Studio filter "cyberpunk"
# Generated by scripts/generate-filter-luts.mjs — do not edit by hand.
LUT_3D_SIZE 9
DOMAIN_MIN 0.0 0.0 0.0
DOMAIN_MAX 1.0 1.0 1.0
0.122584 0.029681 0.166369
0.261499 0.023604 0.158590
0.411528 0.017041 0.150189
0.568482 0.010175 0.141401
0.728169 0.003189 0.132459
0.886398 0.000000 0.123599
1.000000 0.000000 0.115834
1.000000 0.000000 0.115748
1.000000 0.000000 0.115748
0.089874 0.157876 0.140201
0.228789 0.151799 0.132423
0.378819 0.145236 0.124022
0.535768 0.138372 0.115857
0.695394 0.131416 0.115286
0.853564 0.124524 0.114720
1.000000 0.117878 0.114175
1.000000 0.110593 0.114091
1.000000 0.105246 0.114165
0.058154 0.296380 0.115631
0.193383 0.290290 0.115150
0.343356 0.283755 0.114613
0.500250 0.276919 0.114052
0.659876 0.269964 0.113481
0.818046 0.263072 0.112915
0.970569 0.256426 0.112370
1.000000 0.249422 0.112174
1.000000 0.244075 0.112248
0.048125 0.441617 0.113625
0.156226 0.435232 0.113262
0.306199 0.428697 0.112726
0.463093 0.421861 0.112164
0.622719 0.414905 0.111593
0.780889 0.408013 0.111028
0.933411 0.401367 0.110482
1.000000 0.394658 0.110168
1.000000 0.389311 0.110242
0.037922 0.589382 0.111584
0.118422 0.582697 0.111341
0.268395 0.576162 0.110805
0.425289 0.569326 0.110244
0.584915 0.562370 0.109673
0.743084 0.555479 0.109107
0.895607 0.548833 0.108561
1.000000 0.542423 0.108128
1.000000 0.537077 0.108201
0.027812 0.735798 0.109562
0.080963 0.728816 0.109438
0.230935 0.722282 0.108902
0.387830 0.715445 0.108340
0.547456 0.708490 0.107769
0.705625 0.701598 0.107204
0.858148 0.694952 0.106658
1.000000 0.688735 0.106148
1.000000 0.683493 0.106179
0.018062 0.876988 0.107612
0.044841 0.869720 0.107603
0.194814 0.863185 0.107066
0.351708 0.856348 0.106505
0.511334 0.849393 0.105934
0.669503 0.842501 0.105368
0.822026 0.835855 0.104823
0.964713 0.829638 0.104312
1.000000 0.824683 0.104230
0.008942 1.000000 0.105788
0.011048 1.000000 0.105886
0.161021 0.995002 0.105349
0.317915 0.988165 0.104788
0.477542 0.981210 0.104217
0.635711 0.974318 0.103651
0.788234 0.967672 0.103106
0.930921 0.961455 0.102596
0.992027 0.956767 0.102405
0.008480 1.000000 0.105696
0.008480 1.000000 0.105696
0.142477 1.000000 0.105114
0.298782 1.000000 0.104435
0.457809 1.000000 0.103744
0.615384 1.000000 0.103059
0.767334 1.000000 0.102399
0.909486 1.000000 0.101782
0.987220 1.000000 0.101444
0.119282 0.027617 0.312366
0.258197 0.021540 0.304587
0.408226 0.014977 0.296186
0.565180 0.008111 0.287397
0.724867 0.001125 0.278456
0.883096 0.000000 0.269596
1.000000 0.000000 0.261005
1.000000 0.000000 0.253426
1.000000 0.000000 0.248271
0.086572 0.155812 0.286198
0.225487 0.149735 0.278419
0.375517 0.143172 0.270018
0.532471 0.136306 0.261230
0.692157 0.129320 0.252288
0.850387 0.122398 0.243428
1.000000 0.115723 0.234884
1.000000 0.108437 0.227308
1.000000 0.103072 0.222227
0.057302 0.294330 0.257910
0.190160 0.288187 0.250158
0.340190 0.281623 0.241757
0.497144 0.274757 0.232968
0.656831 0.267772 0.224027
0.815060 0.260850 0.215167
0.967641 0.254175 0.206623
1.000000 0.247171 0.198934
1.000000 0.241805 0.193853
0.047474 0.439466 0.228227
0.153203 0.433028 0.220592
0.303233 0.426465 0.212191
0.460187 0.419599 0.203403
0.619874 0.412613 0.194461
0.778103 0.405691 0.185601
0.930684 0.399016 0.177057
1.000000 0.392307 0.169250
1.000000 0.386941 0.164169
0.037474 0.587129 0.198026
0.115603 0.580392 0.190512
0.265633 0.573829 0.182111
0.422586 0.566962 0.173322
0.582273 0.559977 0.164381
0.740502 0.553055 0.155520
0.893083 0.546380 0.146977
1.000000 0.539970 0.139050
1.000000 0.534605 0.133969
0.027566 0.733444 0.168102
0.078345 0.726410 0.160706
0.228375 0.719847 0.152305
0.385329 0.712981 0.143516
0.545016 0.705995 0.134575
0.703245 0.699073 0.125715
0.855826 0.692398 0.117171
0.998567 0.686154 0.109178
1.000000 0.680928 0.106215
0.018011 0.874537 0.139245
0.042418 0.867216 0.131964
0.192448 0.860653 0.123563
0.349402 0.853787 0.114774
0.509087 0.846801 0.105980
0.667257 0.839910 0.105414
0.819779 0.833264 0.104869
0.962467 0.827046 0.104358
1.000000 0.822117 0.104265
0.009072 1.000000 0.112250
0.009640 0.998954 0.105928
0.158774 0.992410 0.105395
0.315668 0.985574 0.104834
0.475295 0.978618 0.104263
0.633464 0.971726 0.103697
0.785987 0.965080 0.103152
0.928674 0.958863 0.102641
0.992205 0.954202 0.102441
0.008480 1.000000 0.105696
0.008480 1.000000 0.105696
0.140054 1.000000 0.105124
0.296358 1.000000 0.104445
0.455385 1.000000 0.103754
0.612960 1.000000 0.103070
0.764910 1.000000 0.102410
0.907062 1.000000 0.101792
0.987220 1.000000 0.101444
0.115715 0.025388 0.470043
0.254630 0.019311 0.462265
0.404660 0.012748 0.453864
0.561614 0.005882 0.445075
0.721301 0.000000 0.436134
0.879530 0.000000 0.427273
1.000000 0.000000 0.418645
1.000000 0.000000 0.411054
1.000000 0.000000 0.405899
0.083006 0.153583 0.443876
0.221921 0.147506 0.436097
0.371951 0.140943 0.427696
0.528904 0.134077 0.418908
0.688591 0.127091 0.409966
0.846820 0.120169 0.401106
0.999401 0.113494 0.392562
1.000000 0.106237 0.384974
1.000000 0.100871 0.379893
0.056354 0.292129 0.415577
0.186594 0.285958 0.407836
0.336624 0.279395 0.399435
0.493578 0.272528 0.390646
0.653265 0.265543 0.381705
0.811494 0.258621 0.372844
0.964074 0.251946 0.364301
1.000000 0.244970 0.356600
1.000000 0.239605 0.351519
0.046525 0.437265 0.385893
0.149637 0.430799 0.378270
0.299667 0.424236 0.369869
0.456621 0.417370 0.361081
0.616307 0.410384 0.352139
0.774537 0.403462 0.343279
0.927117 0.396787 0.334735
1.000000 0.390106 0.326917
1.000000 0.384741 0.321836
0.036526 0.584928 0.355693
0.112037 0.578163 0.348190
0.262066 0.571600 0.339789
0.419020 0.564733 0.331000
0.578707 0.557748 0.322058
0.736936 0.550826 0.313198
0.889517 0.544151 0.304655
1.000000 0.537770 0.296717
1.000000 0.532404 0.291636
0.026617 0.731244 0.325768
0.074779 0.724181 0.318384
0.224809 0.717618 0.309983
0.381763 0.710752 0.301194
0.541450 0.703766 0.292253
0.699679 0.696844 0.283393
0.852259 0.690169 0.274849
0.995001 0.683925 0.266856
1.000000 0.678720 0.261711
0.017063 0.872336 0.296912
0.038852 0.864987 0.289642
0.188882 0.858424 0.281241
0.345835 0.851558 0.272452
0.505522 0.844572 0.263511
0.663751 0.837650 0.254651
0.816332 0.830975 0.246107
0.959073 0.824731 0.238114
1.000000 0.819812 0.232854
0.008124 1.000000 0.269916
0.008698 0.996751 0.262739
0.155271 0.990150 0.254353
0.312225 0.983284 0.245564
0.471912 0.976298 0.236622
0.630141 0.969376 0.227762
0.782722 0.962701 0.219218
0.925463 0.956457 0.211226
0.991648 0.951806 0.205859
0.007419 1.000000 0.252409
0.007472 1.000000 0.245127
0.136484 1.000000 0.236702
0.292849 1.000000 0.227796
0.451936 1.000000 0.218734
0.609571 1.000000 0.209755
0.761579 1.000000 0.201097
0.903785 1.000000 0.192997
0.986598 1.000000 0.187483
0.111985 0.023057 0.634998
0.250900 0.016980 0.627220
0.400929 0.010416 0.618819
0.557883 0.003550 0.610030
0.717570 0.000000 0.601088
0.875747 0.000000 0.592218
1.000000 0.000000 0.583560
1.000000 0.000000 0.575957
1.000000 0.000000 0.570802
0.079275 0.151251 0.608831
0.218190 0.145174 0.601052
0.368220 0.138611 0.592651
0.525173 0.131745 0.583863
0.684860 0.124759 0.574921
0.843090 0.117837 0.566061
0.995670 0.111162 0.557517
1.000000 0.103935 0.549917
1.000000 0.098569 0.544836
0.055362 0.289827 0.580520
0.182863 0.283626 0.572791
0.332893 0.277063 0.564390
0.489847 0.270197 0.555601
0.649534 0.263211 0.546659
0.807763 0.256289 0.537799
0.960344 0.249614 0.529256
1.000000 0.242668 0.521543
1.000000 0.237303 0.516462
0.045533 0.434963 0.550836
0.145906 0.428467 0.543225
0.295936 0.421904 0.534824
0.452890 0.415038 0.526036
0.612577 0.408052 0.517094
0.770806 0.401130 0.508234
0.923387 0.394456 0.499690
1.000000 0.387804 0.491860
1.000000 0.382439 0.486779
0.035533 0.582626 0.520636
0.108306 0.575831 0.513145
0.258335 0.569268 0.504744
0.415289 0.562402 0.495955
0.574976 0.555416 0.487013
0.733205 0.548494 0.478153
0.885786 0.541819 0.469609
1.000000 0.535468 0.461660
1.000000 0.530102 0.456579
0.025625 0.728942 0.490711
0.071048 0.721850 0.483339
0.221078 0.715286 0.474938
0.378032 0.708420 0.466149
0.537719 0.701434 0.457207
0.695948 0.694512 0.448347
0.848529 0.687838 0.439804
0.991270 0.681593 0.431811
1.000000 0.676417 0.426654
0.016070 0.870034 0.461855
0.035121 0.862655 0.454597
0.185151 0.856092 0.446196
0.342104 0.849226 0.437407
0.501791 0.842240 0.428466
0.660021 0.835318 0.419606
0.812601 0.828643 0.411062
0.955343 0.822399 0.403069
0.999595 0.817510 0.397797
0.007132 1.000000 0.434859
0.007706 0.994449 0.427682
0.151540 0.987818 0.419308
0.308494 0.980952 0.410519
0.468181 0.973966 0.401577
0.626410 0.967044 0.392717
0.778991 0.960369 0.384173
0.921732 0.954125 0.376180
0.990656 0.949504 0.370802
0.006227 1.000000 0.417312
0.006280 1.000000 0.410030
0.132553 1.000000 0.401617
0.288918 1.000000 0.392711
0.448005 1.000000 0.383649
0.605640 1.000000 0.374670
0.757648 1.000000 0.366012
0.899854 1.000000 0.357912
0.985406 1.000000 0.352385
0.108189 0.020684 0.802826
0.247104 0.014607 0.795047
0.397134 0.008044 0.786646
0.554087 0.001178 0.777857
0.713774 0.000000 0.768916
0.871747 0.000000 0.760005
1.000000 0.000000 0.751346
1.000000 0.000000 0.743732
1.000000 0.000000 0.738577
0.075479 0.148879 0.776658
0.214394 0.142802 0.768879
0.364424 0.136239 0.760479
0.521378 0.129373 0.751690
0.681065 0.122387 0.742748
0.839294 0.115465 0.733888
0.991874 0.108790 0.725344
1.000000 0.101593 0.717733
1.000000 0.096227 0.712652
0.054352 0.287485 0.748335
0.179068 0.281254 0.740618
0.329097 0.274690 0.732217
0.486051 0.267824 0.723429
0.645738 0.260839 0.714487
0.803967 0.253917 0.705627
0.956548 0.247242 0.697083
1.000000 0.240326 0.689359
1.000000 0.234960 0.684278
0.044524 0.432621 0.718652
0.142110 0.426095 0.711052
0.292140 0.419532 0.702652
0.449094 0.412666 0.693863
0.608781 0.405680 0.684921
0.767010 0.398758 0.676061
0.919591 0.392083 0.667517
1.000000 0.385462 0.659675
1.000000 0.380097 0.654594
0.034524 0.580284 0.688451
0.104510 0.573459 0.680972
0.254540 0.566895 0.672571
0.411493 0.560029 0.663782
0.571180 0.553044 0.654841
0.729409 0.546122 0.645981
0.881990 0.539447 0.637437
1.000000 0.533125 0.629475
1.000000 0.527760 0.624394
0.024616 0.726600 0.658526
0.067253 0.719477 0.651166
0.217282 0.712914 0.642765
0.374236 0.706048 0.633977
0.533923 0.699062 0.625035
0.692152 0.692140 0.616175
0.844733 0.685465 0.607631
0.987474 0.679221 0.599638
1.000000 0.674075 0.594469
0.015061 0.867692 0.629670
0.031325 0.860283 0.622424
0.181355 0.853720 0.614023
0.338309 0.846854 0.605235
0.497996 0.839868 0.596293
0.656225 0.832946 0.587433
0.808805 0.826271 0.578889
0.951547 0.820027 0.570896
0.998585 0.815168 0.565613
0.006122 0.999686 0.602674
0.006697 0.992106 0.595497
0.147744 0.985446 0.587135
0.304698 0.978579 0.578346
0.464385 0.971594 0.569405
0.622614 0.964672 0.560544
0.775195 0.957997 0.552001
0.917936 0.951753 0.544008
0.989647 0.947161 0.538617
0.005014 1.000000 0.585086
0.005066 1.000000 0.577805
0.128554 1.000000 0.569404
0.284918 1.000000 0.560497
0.444006 1.000000 0.551436
0.601641 1.000000 0.542457
0.753649 1.000000 0.533798
0.895854 1.000000 0.525698
0.984192 1.000000 0.520160
0.104428 0.018333 0.969121
0.243343 0.012256 0.961342
0.393372 0.005693 0.952942
0.550326 0.000000 0.944153
0.710013 0.000000 0.935211
0.867784 0.000000 0.926260
1.000000 0.000000 0.917601
1.000000 0.000000 0.909975
1.000000 0.000000 0.904820
0.071718 0.146528 0.942953
0.210633 0.140451 0.935175
0.360663 0.133888 0.926774
0.517617 0.127022 0.917985
0.677303 0.120036 0.909044
0.835533 0.113114 0.900183
0.988113 0.106439 0.891640
1.000000 0.099272 0.884016
1.000000 0.093906 0.878935
0.053352 0.285164 0.914618
0.175306 0.278903 0.906913
0.325336 0.272340 0.898513
0.482290 0.265474 0.889724
0.641977 0.258488 0.880782
0.800206 0.251566 0.871922
0.952787 0.244891 0.863378
1.000000 0.238005 0.855642
1.000000 0.232640 0.850561
0.043523 0.430300 0.884935
0.138349 0.423744 0.877348
0.288379 0.417181 0.868947
0.445333 0.410315 0.860158
0.605020 0.403329 0.851217
0.763249 0.396407 0.842356
0.915830 0.389732 0.833813
1.000000 0.383141 0.825959
1.000000 0.377776 0.820878
0.033524 0.577964 0.854735
0.100749 0.571108 0.847267
0.250778 0.564545 0.838866
0.407732 0.557679 0.830078
0.567419 0.550693 0.821136
0.725648 0.543771 0.812276
0.878229 0.537096 0.803732
1.000000 0.530805 0.795758
1.000000 0.525439 0.790677
0.023615 0.724279 0.824810
0.063491 0.717126 0.817461
0.213521 0.710563 0.809061
0.370475 0.703697 0.800272
0.530162 0.696711 0.791330
0.688391 0.689789 0.782470
0.840972 0.683115 0.773926
0.983713 0.676870 0.765933
1.000000 0.671755 0.760752
0.014061 0.865371 0.795953
0.027564 0.857932 0.788720
0.177594 0.851369 0.780319
0.334548 0.844503 0.771530
0.494234 0.837517 0.762588
0.652464 0.830595 0.753728
0.805044 0.823920 0.745184
0.947786 0.817676 0.737192
0.997585 0.812847 0.731896
0.005122 0.997365 0.768958
0.005696 0.989786 0.761780
0.143983 0.983095 0.753430
0.300937 0.976229 0.744642
0.460624 0.969243 0.735700
0.618853 0.962321 0.726840
0.771434 0.955646 0.718296
0.914175 0.949402 0.710303
0.988646 0.944841 0.704900
0.003812 1.000000 0.751329
0.003864 1.000000 0.744048
0.124591 1.000000 0.735659
0.280956 1.000000 0.726752
0.440043 1.000000 0.717691
0.597678 1.000000 0.708712
0.749686 1.000000 0.700053
0.891891 1.000000 0.691953
0.982990 1.000000 0.686403
0.100884 0.016025 1.000000
0.239746 0.009974 1.000000
0.389745 0.003426 1.000000
0.546699 0.000000 1.000000
0.706328 0.000000 1.000000
0.863963 0.000000 1.000000
1.000000 0.000000 1.000000
1.000000 0.000000 1.000000
1.000000 0.000000 1.000000
0.068091 0.144261 1.000000
0.207006 0.138184 1.000000
0.357036 0.131621 1.000000
0.513990 0.124755 1.000000
0.673676 0.117769 1.000000
0.831906 0.110847 1.000000
0.984486 0.104172 1.000000
1.000000 0.097034 1.000000
1.000000 0.091668 1.000000
0.052387 0.282926 1.000000
0.171679 0.276636 1.000000
0.321709 0.270073 1.000000
0.478663 0.263207 1.000000
0.638350 0.256221 1.000000
0.796579 0.249299 1.000000
0.949160 0.242624 1.000000
1.000000 0.235767 1.000000
1.000000 0.230402 1.000000
0.042559 0.428062 1.000000
0.134722 0.421478 1.000000
0.284752 0.414914 1.000000
0.441706 0.408048 1.000000
0.601393 0.401062 1.000000
0.759622 0.394141 1.000000
0.912203 0.387466 0.994172
1.000000 0.380903 0.986306
1.000000 0.375538 0.981225
0.032559 0.575726 1.000000
0.097122 0.568841 1.000000
0.247152 0.562278 0.999225
0.404105 0.555412 0.990437
0.563792 0.548426 0.981495
0.722021 0.541504 0.972635
0.874602 0.534829 0.964091
1.000000 0.528567 0.956105
1.000000 0.523201 0.951025
0.022651 0.722041 0.985157
0.059864 0.714860 0.977820
0.209894 0.708296 0.969419
0.366848 0.701430 0.960631
0.526535 0.694445 0.951689
0.684764 0.687523 0.942829
0.837345 0.680848 0.934285
0.980086 0.674603 0.926292
1.000000 0.669517 0.921100
0.013096 0.863133 0.956301
0.023937 0.855665 0.949079
0.173967 0.849102 0.940678
0.330921 0.842236 0.931889
0.490607 0.835250 0.922947
0.648837 0.828328 0.914087
0.801417 0.821654 0.905543
0.944159 0.815409 0.897550
0.996620 0.810609 0.892243
0.004158 0.995127 0.929305
0.004732 0.987548 0.922128
0.140356 0.980828 0.913789
0.297310 0.973962 0.905000
0.456997 0.966976 0.896059
0.615226 0.960054 0.887199
0.767807 0.953379 0.878655
0.910548 0.947135 0.870662
0.987682 0.942603 0.865248
0.002653 1.000000 0.911638
0.002705 1.000000 0.904356
0.120770 1.000000 0.895979
0.277134 1.000000 0.887072
0.436221 1.000000 0.878011
0.593857 1.000000 0.869032
0.745864 1.000000 0.860373
0.888070 1.000000 0.852273
0.981831 1.000000 0.846711
0.098575 0.013362 1.000000
0.237438 0.007312 1.000000
0.387410 0.000777 1.000000
0.544305 0.000000 1.000000
0.703691 0.000000 1.000000
0.861266 0.000000 1.000000
1.000000 0.000000 1.000000
1.000000 0.000000 1.000000
1.000000 0.000000 1.000000
0.065689 0.141646 1.000000
0.204551 0.135595 1.000000
0.354524 0.129060 1.000000
0.511418 0.122224 1.000000
0.671044 0.115268 1.000000
0.829214 0.108376 1.000000
0.981736 0.101730 1.000000
1.000000 0.094646 1.000000
1.000000 0.089299 1.000000
0.052284 0.280433 1.000000
0.169033 0.274142 1.000000
0.319006 0.267607 1.000000
0.475900 0.260771 1.000000
0.635526 0.253816 1.000000
0.793696 0.246924 1.000000
0.946218 0.240278 1.000000
1.000000 0.233475 1.000000
1.000000 0.228128 1.000000
0.042255 0.425669 1.000000
0.131876 0.419084 1.000000
0.281849 0.412549 1.000000
0.438743 0.405713 1.000000
0.598369 0.398757 1.000000
0.756538 0.391865 1.000000
0.909061 0.385219 1.000000
1.000000 0.378711 1.000000
1.000000 0.373364 1.000000
0.032052 0.573434 1.000000
0.094072 0.566549 1.000000
0.244044 0.560014 1.000000
0.400939 0.553178 1.000000
0.560565 0.546223 1.000000
0.718734 0.539331 1.000000
0.871257 0.532685 1.000000
1.000000 0.526464 1.000000
1.000000 0.521108 1.000000
0.021942 0.719851 1.000000
0.056612 0.712668 1.000000
0.206585 0.706134 1.000000
0.363480 0.699297 1.000000
0.523142 0.692324 1.000000
0.681371 0.685402 1.000000
0.833952 0.678727 1.000000
0.976693 0.672483 1.000000
1.000000 0.667423 1.000000
0.012194 0.861040 1.000000
0.020544 0.853545 1.000000
0.170574 0.846982 1.000000
0.327528 0.840115 1.000000
0.487214 0.833130 1.000000
0.645444 0.826208 1.000000
0.798024 0.819533 1.000000
0.940766 0.813289 1.000000
0.995718 0.808515 1.000000
0.003255 0.993034 1.000000
0.003829 0.985454 1.000000
0.136963 0.978707 1.000000
0.293917 0.971841 1.000000
0.453604 0.964856 1.000000
0.611833 0.957934 1.000000
0.764414 0.951259 1.000000
0.907155 0.945014 1.000000
0.986780 0.940509 1.000000
0.001568 1.000000 1.000000
0.001621 1.000000 1.000000
0.117195 1.000000 1.000000
0.273559 1.000000 1.000000
0.432646 1.000000 1.000000
0.590282 1.000000 1.000000
0.742289 1.000000 1.000000
0.884495 1.000000 1.000000
0.980747 1.000000 0.996682
0.096985 0.011528 1.000000
0.235847 0.005477 1.000000
0.385820 0.000000 1.000000
0.542714 0.000000 1.000000
0.701975 0.000000 1.000000
0.859550 0.000000 1.000000
1.000000 0.000000 1.000000
1.000000 0.000000 1.000000
1.000000 0.000000 1.000000
0.064098 0.139811 1.000000
0.202960 0.133760 1.000000
0.352933 0.127226 1.000000
0.509828 0.120389 1.000000
0.669454 0.113434 1.000000
0.827623 0.106542 1.000000
0.980146 0.099896 1.000000
1.000000 0.092830 1.000000
1.000000 0.087483 1.000000
0.052410 0.278617 1.000000
0.167442 0.272308 1.000000
0.317415 0.265773 1.000000
0.474310 0.258937 1.000000
0.633936 0.251981 1.000000
0.792105 0.245089 1.000000
0.944628 0.238443 1.000000
1.000000 0.231659 1.000000
1.000000 0.226312 1.000000
0.042381 0.423853 1.000000
0.130285 0.417249 1.000000
0.280258 0.410714 1.000000
0.437152 0.403878 1.000000
0.596779 0.396923 1.000000
0.754948 0.390031 1.000000
0.907471 0.383385 1.000000
1.000000 0.376895 1.000000
1.000000 0.371548 1.000000
0.032178 0.571619 1.000000
0.092481 0.564715 1.000000
0.242454 0.558180 1.000000
0.399348 0.551344 1.000000
0.558975 0.544388 1.000000
0.717144 0.537496 1.000000
0.869667 0.530850 1.000000
1.000000 0.524633 1.000000
1.000000 0.519314 1.000000
0.022067 0.718035 1.000000
0.055022 0.710834 1.000000
0.204995 0.704299 1.000000
0.361889 0.697463 1.000000
0.521515 0.690507 1.000000
0.679685 0.683615 1.000000
0.832207 0.676969 1.000000
0.974895 0.670752 1.000000
1.000000 0.665730 1.000000
0.012318 0.859225 1.000000
0.018900 0.851737 1.000000
0.168873 0.845202 1.000000
0.325767 0.838366 1.000000
0.485394 0.831410 1.000000
0.643563 0.824519 1.000000
0.796086 0.817873 1.000000
0.938773 0.811655 1.000000
0.995404 0.806919 1.000000
0.003198 0.991309 1.000000
0.003719 0.983756 1.000000
0.135080 0.977019 1.000000
0.291975 0.970183 1.000000
0.451601 0.963227 1.000000
0.609770 0.956335 1.000000
0.762293 0.949689 1.000000
0.904980 0.943472 1.000000
0.986283 0.939004 1.000000
0.001260 1.000000 1.000000
0.001260 1.000000 1.000000
0.115061 1.000000 1.000000
0.271366 1.000000 1.000000
0.430393 1.000000 1.000000
0.587968 1.000000 1.000000
0.739918 1.000000 1.000000
0.882069 1.000000 1.000000
0.980000 1.000000 1.000000
