assets/luts/cyberpunk.cube
# Cyberpunk — Studio filter "cyberpunk"
# Generated by scripts/generate-filter-luts.mjs — do not edit by hand.
LUT_3D_SIZE 17
DOMAIN_MIN 0.0 0.0 0.0
DOMAIN_MAX 1.0 1.0 1.0
0.122584 0.029681 0.166369
0.190390 0.026715 0.162572
0.261499 0.023604 0.158590
0.335386 0.020372 0.154453
0.411528 0.017041 0.150189
0.489402 0.013634 0.145829
0.568482 0.010175 0.141401
0.648246 0.006685 0.136934
0.728169 0.003189 0.132459
0.807728 0.000000 0.128004
0.886398 0.000000 0.123599
0.963657 0.000000 0.119273
1.000000 0.000000 0.115834
1.000000 0.000000 0.115748
1.000000 0.000000 0.115748
1.000000 0.000000 0.115748
1.000000 0.000000 0.115748
0.106618 0.092255 0.153596
0.174424 0.089288 0.149799
0.245533 0.086178 0.145818
0.319420 0.082945 0.141680
0.395563 0.079614 0.137417
0.473436 0.076208 0.133056
0.552516 0.072748 0.128628
0.632280 0.069259 0.124162
0.712203 0.065762 0.119686
0.791757 0.062284 0.115857
0.870398 0.058858 0.115575
0.947627 0.055493 0.115299
1.000000 0.052212 0.115030
1.000000 0.048593 0.114948
1.000000 0.044793 0.115000
1.000000 0.041184 0.115050
1.000000 0.039446 0.115074
0.089874 0.157876 0.140201
0.157680 0.154909 0.136404
0.228789 0.151799 0.132423
0.302677 0.148566 0.128285
0.378819 0.145236 0.124022
0.456692 0.141829 0.119661
0.535768 0.138372 0.115857
0.615502 0.134897 0.115572
0.695394 0.131416 0.115286
0.774923 0.127951 0.115001
0.853564 0.124524 0.114720
0.930793 0.121159 0.114444
1.000000 0.117878 0.114175
1.000000 0.114393 0.114039
1.000000 0.110593 0.114091
1.000000 0.106984 0.114141
1.000000 0.105246 0.114165
0.072476 0.226061 0.126283
0.140283 0.223095 0.122486
0.211391 0.219984 0.118504
0.285268 0.216757 0.115802
0.361382 0.213441 0.115529
0.439226 0.210049 0.115251
0.518276 0.206604 0.114968
0.598010 0.203130 0.114683
0.677902 0.199649 0.114397
0.757431 0.196183 0.114113
0.836072 0.192757 0.113831
0.913301 0.189392 0.113555
0.988594 0.186111 0.113286
1.000000 0.182764 0.113095
1.000000 0.178964 0.113147
1.000000 0.175356 0.113197
1.000000 0.173618 0.113221
0.058154 0.296380 0.115631
0.122301 0.293388 0.115404
0.193383 0.290290 0.115150
0.267242 0.287072 0.114886
0.343356 0.283755 0.114613
0.421200 0.280364 0.114335
0.500250 0.276919 0.114052
0.579984 0.273445 0.113767
0.659876 0.269964 0.113481
0.739405 0.266498 0.113197
0.818046 0.263072 0.112915
0.895275 0.259707 0.112639
0.970569 0.256426 0.112370
1.000000 0.253222 0.112122
1.000000 0.249422 0.112174
1.000000 0.245813 0.112224
1.000000 0.244075 0.112248
0.053178 0.368440 0.114636
0.103866 0.365301 0.114467
0.174947 0.362204 0.114213
0.248807 0.358985 0.113949
0.324920 0.355669 0.113677
0.402764 0.352277 0.113398
0.481814 0.348832 0.113116
0.561548 0.345358 0.112830
0.641441 0.341877 0.112545
0.720969 0.338412 0.112260
0.799610 0.334985 0.111979
0.876839 0.331620 0.111703
0.952133 0.328339 0.111433
1.000000 0.325165 0.111173
1.000000 0.321482 0.111179
1.000000 0.317873 0.111229
1.000000 0.316135 0.111253
0.048125 0.441617 0.113625
0.085144 0.438329 0.113516
0.156226 0.435232 0.113262
0.230085 0.432013 0.112998
0.306199 0.428697 0.112726
0.384043 0.425305 0.112447
0.463093 0.421861 0.112164
0.542826 0.418386 0.111879
0.622719 0.414905 0.111593
0.702248 0.411440 0.111309
0.780889 0.408013 0.111028
0.858118 0.404648 0.110751
0.933411 0.401367 0.110482
1.000000 0.398194 0.110222
1.000000 0.394658 0.110168
1.000000 0.391049 0.110218
1.000000 0.389311 0.110242
0.043028 0.515425 0.112606
0.066261 0.511988 0.112557
0.137343 0.508891 0.112303
0.211202 0.505673 0.112038
0.287316 0.502356 0.111766
0.365159 0.498964 0.111488
0.444210 0.495520 0.111205
0.523943 0.492045 0.110920
0.603836 0.488564 0.110634
0.683365 0.485099 0.110349
0.762005 0.481672 0.110068
0.839234 0.478307 0.109792
0.914528 0.475026 0.109523
0.987363 0.471853 0.109262
1.000000 0.468467 0.109149
1.000000 0.464858 0.109199
1.000000 0.463120 0.109223
0.037922 0.589382 0.111584
0.047340 0.585794 0.111595
0.118422 0.582697 0.111341
0.192281 0.579479 0.111077
0.268395 0.576162 0.110805
0.346238 0.572770 0.110526
0.425289 0.569326 0.110244
0.505022 0.565852 0.109958
0.584915 0.562370 0.109673
0.664444 0.558905 0.109388
0.743084 0.555479 0.109107
0.820313 0.552113 0.108831
0.895607 0.548833 0.108561
0.968442 0.545659 0.108301
1.000000 0.542423 0.108128
1.000000 0.538815 0.108177
1.000000 0.537077 0.108201
0.032838 0.663001 0.110568
0.033093 0.659314 0.110619
0.099587 0.656167 0.110384
0.173446 0.652949 0.110120
0.249560 0.649632 0.109848
0.327404 0.646240 0.109569
0.406454 0.642796 0.109287
0.486188 0.639321 0.109001
0.566080 0.635840 0.108716
0.645609 0.632375 0.108431
0.724250 0.628948 0.108150
0.801479 0.625583 0.107874
0.876773 0.622302 0.107604
0.949607 0.619129 0.107344
1.000000 0.616043 0.107111
1.000000 0.612434 0.107161
1.000000 0.610696 0.107185
0.027812 0.735798 0.109562
0.028066 0.732111 0.109613
0.080963 0.728816 0.109438
0.154822 0.725598 0.109174
0.230935 0.722282 0.108902
0.308779 0.718890 0.108623
0.387830 0.715445 0.108340
0.467563 0.711971 0.108055
0.547456 0.708490 0.107769
0.626985 0.705024 0.107485
0.705625 0.701598 0.107204
0.782854 0.698233 0.106927
0.858148 0.694952 0.106658
0.930983 0.691778 0.106398
1.000000 0.688735 0.106148
1.000000 0.685231 0.106155
1.000000 0.683493 0.106179
0.022875 0.807289 0.108575
0.023130 0.803602 0.108626
0.062672 0.800162 0.108509
0.136532 0.796944 0.108245
0.212645 0.793627 0.107972
0.290489 0.790235 0.107694
0.369540 0.786791 0.107411
0.449273 0.783316 0.107126
0.529166 0.779835 0.106840
0.608694 0.776370 0.106556
0.687335 0.772943 0.106274
0.764564 0.769578 0.105998
0.839858 0.766297 0.105729
0.912693 0.763124 0.105468
0.982545 0.760080 0.105218
1.000000 0.756722 0.105168
1.000000 0.754983 0.105192
0.018062 0.876988 0.107612
0.018317 0.873301 0.107663
0.044841 0.869720 0.107603
0.118700 0.866501 0.107339
0.194814 0.863185 0.107066
0.272657 0.859793 0.106788
0.351708 0.856348 0.106505
0.431441 0.852874 0.106220
0.511334 0.849393 0.105934
0.590863 0.845928 0.105650
0.669503 0.842501 0.105368
0.746732 0.839136 0.105092
0.822026 0.835855 0.104823
0.894861 0.832681 0.104562
0.964713 0.829638 0.104312
1.000000 0.826421 0.104206
1.000000 0.824683 0.104230
0.013407 0.944410 0.106681
0.013661 0.940724 0.106732
0.027591 0.937006 0.106726
0.101451 0.933787 0.106462
0.177564 0.930471 0.106190
0.255408 0.927079 0.105911
0.334458 0.923634 0.105629
0.414192 0.920160 0.105343
0.494085 0.916679 0.105058
0.573613 0.913214 0.104773
0.652254 0.909787 0.104492
0.729483 0.906422 0.104216
0.804777 0.903141 0.103946
0.877612 0.899967 0.103686
0.947464 0.896924 0.103436
0.996372 0.893843 0.103274
0.996492 0.892105 0.103298
0.008942 1.000000 0.105788
0.009196 1.000000 0.105839
0.011048 1.000000 0.105886
0.084908 0.998318 0.105622
0.161021 0.995002 0.105349
0.238865 0.991610 0.105071
0.317915 0.988165 0.104788
0.397649 0.984691 0.104503
0.477542 0.981210 0.104217
0.557070 0.977744 0.103933
0.635711 0.974318 0.103651
0.712940 0.970953 0.103375
0.788234 0.967672 0.103106
0.861069 0.964498 0.102845
0.930921 0.961455 0.102596
0.991907 0.958505 0.102381
0.992027 0.956767 0.102405
0.008480 1.000000 0.105696
0.008480 1.000000 0.105696
0.008480 1.000000 0.105696
0.072175 1.000000 0.105419
0.148003 1.000000 0.105090
0.225554 1.000000 0.104753
0.304307 1.000000 0.104411
0.383741 1.000000 0.104066
0.463334 1.000000 0.103720
0.542564 1.000000 0.103376
0.620909 1.000000 0.103035
0.697848 1.000000 0.102701
0.772859 1.000000 0.102375
0.845421 1.000000 0.102060
0.915208 1.000000 0.101797
0.981554 1.000000 0.101560
0.987787 1.000000 0.101557
0.008480 1.000000 0.105696
0.008480 1.000000 0.105696
0.008480 1.000000 0.105696
0.066650 1.000000 0.105443
0.142477 1.000000 0.105114
0.220029 1.000000 0.104777
0.298782 1.000000 0.104435
0.378216 1.000000 0.104090
0.457809 1.000000 0.103744
0.537039 1.000000 0.103400
0.615384 1.000000 0.103059
0.692323 1.000000 0.102725
0.767334 1.000000 0.102399
0.839896 1.000000 0.102084
0.909486 1.000000 0.101782
0.975583 1.000000 0.101495
0.987220 1.000000 0.101444
0.120972 0.028674 0.237632
0.188778 0.025707 0.233835
0.259887 0.022597 0.229853
0.333774 0.019364 0.225716
0.409917 0.016033 0.221452
0.487790 0.012627 0.217092
0.566870 0.009167 0.212664
0.646634 0.005678 0.208197
0.726557 0.002182 0.203722
0.806116 0.000000 0.199267
0.884786 0.000000 0.194862
0.962045 0.000000 0.190536
1.000000 0.000000 0.186289
1.000000 0.000000 0.182379
1.000000 0.000000 0.178716
1.000000 0.000000 0.175236
1.000000 0.000000 0.173561
0.105006 0.091247 0.224859
0.172812 0.088281 0.221062
0.243921 0.085170 0.217080
0.317808 0.081938 0.212943
0.393951 0.078607 0.208679
0.471824 0.075200 0.204319
0.550904 0.071741 0.199891
0.630668 0.068251 0.195424
0.710591 0.064755 0.190949
0.790150 0.061275 0.186494
0.868821 0.057833 0.182089
0.946079 0.054453 0.177763
1.000000 0.051158 0.173545
1.000000 0.047538 0.169638
1.000000 0.043725 0.166028
1.000000 0.040104 0.162598
1.000000 0.038360 0.160947
0.088262 0.156868 0.211464
0.156069 0.153902 0.207667
0.227177 0.150791 0.203686
0.301065 0.147559 0.199548
0.377207 0.144228 0.195285
0.455080 0.140821 0.190924
0.534161 0.137362 0.186496
0.613925 0.133873 0.182030
0.693848 0.130376 0.177554
0.773406 0.126896 0.173099
0.852077 0.123454 0.168694
0.929335 0.120075 0.164368
1.000000 0.116780 0.160150
1.000000 0.113293 0.156190
1.000000 0.109480 0.152580
1.000000 0.105859 0.149150
1.000000 0.104115 0.147499
0.070865 0.225054 0.197546
0.138671 0.222088 0.193749
0.209780 0.218977 0.189767
0.283667 0.215745 0.185630
0.359809 0.212414 0.181366
0.437683 0.209007 0.177006
0.516763 0.205547 0.172578
0.596527 0.202058 0.168111
0.676450 0.198562 0.163636
0.756009 0.195081 0.159181
0.834679 0.191640 0.154776
0.911937 0.188260 0.150450
0.987260 0.184965 0.146232
1.000000 0.181617 0.142216
1.000000 0.177804 0.138606
1.000000 0.174183 0.135176
1.000000 0.172439 0.133525
0.057752 0.295372 0.183182
0.120742 0.292354 0.179406
0.191851 0.289243 0.175424
0.265738 0.286011 0.171287
0.341880 0.282680 0.167023
0.419754 0.279273 0.162663
0.498834 0.275814 0.158235
0.578598 0.272324 0.153768
0.658521 0.268828 0.149293
0.738080 0.265348 0.144838
0.816750 0.261906 0.140433
0.894009 0.258526 0.136107
0.969331 0.255231 0.131889
1.000000 0.252026 0.127816
1.000000 0.248214 0.124206
1.000000 0.244592 0.120776
1.000000 0.242848 0.119125
0.052875 0.367382 0.168454
0.102406 0.364218 0.164737
0.173514 0.361107 0.160755
0.247402 0.357875 0.156618
0.323544 0.354544 0.152354
0.401417 0.351137 0.147994
0.480498 0.347677 0.143565
0.560261 0.344188 0.139099
0.640185 0.340692 0.134624
0.719743 0.337211 0.130169
0.798414 0.333770 0.125764
0.875672 0.330390 0.121438
0.950995 0.327095 0.117220
1.000000 0.323908 0.113140
1.000000 0.320230 0.111196
1.000000 0.316621 0.111246
1.000000 0.314883 0.111270
0.047923 0.440509 0.153498
0.083785 0.437195 0.149840
0.154894 0.434085 0.145859
0.228781 0.430852 0.141721
0.304923 0.427521 0.137458
0.382797 0.424115 0.133097
0.461877 0.420655 0.128669
0.541641 0.417166 0.124203
0.621564 0.413669 0.119727
0.701123 0.410189 0.115272
0.779792 0.406748 0.111050
0.857021 0.403383 0.110774
0.932315 0.400102 0.110504
1.000000 0.396929 0.110244
1.000000 0.393406 0.110186
1.000000 0.389797 0.110235
1.000000 0.388059 0.110259
0.042928 0.514267 0.138413
0.065003 0.510804 0.134815
0.136112 0.507693 0.130833
0.210000 0.504461 0.126696
0.286142 0.501130 0.122432
0.364015 0.497723 0.118072
0.443096 0.494263 0.113644
0.522847 0.490780 0.110942
0.602739 0.487299 0.110656
0.682268 0.483834 0.110372
0.760909 0.480407 0.110091
0.838138 0.477042 0.109814
0.913431 0.473761 0.109545
0.986266 0.470588 0.109285
1.000000 0.467215 0.109166
1.000000 0.463606 0.109216
1.000000 0.461868 0.109240
0.037924 0.588172 0.123298
0.046184 0.584559 0.119760
0.117293 0.581448 0.115778
0.191181 0.578216 0.111641
0.267298 0.574897 0.110827
0.345142 0.571506 0.110549
0.424192 0.568061 0.110266
0.503926 0.564587 0.109981
0.583818 0.561106 0.109695
0.663347 0.557640 0.109411
0.741988 0.554214 0.109129
0.819217 0.550848 0.108853
0.894511 0.547568 0.108584
0.967345 0.544394 0.108323
1.000000 0.541171 0.108145
1.000000 0.537563 0.108195
1.000000 0.535825 0.108219
0.032925 0.661749 0.110585
0.033179 0.658062 0.110636
0.098490 0.654902 0.110407
0.172350 0.651684 0.110142
0.248463 0.648367 0.109870
0.326307 0.644975 0.109592
0.405357 0.641531 0.109309
0.485091 0.638057 0.109024
0.564984 0.634575 0.108738
0.644512 0.631110 0.108454
0.723153 0.627683 0.108172
0.800382 0.624318 0.107896
0.875676 0.621037 0.107627
0.948511 0.617864 0.107366
1.000000 0.614791 0.107128
1.000000 0.611182 0.107178
1.000000 0.609444 0.107202
0.027898 0.734546 0.109580
0.028153 0.730859 0.109631
0.079866 0.727552 0.109460
0.153725 0.724333 0.109196
0.229839 0.721017 0.108924
0.307683 0.717625 0.108646
0.386733 0.714180 0.108363
0.466466 0.710706 0.108078
0.546359 0.707225 0.107792
0.625888 0.703760 0.107507
0.704529 0.700333 0.107226
0.781758 0.696968 0.106950
0.857051 0.693687 0.106681
0.929886 0.690513 0.106420
0.999739 0.687470 0.106170
1.000000 0.683979 0.106173
1.000000 0.682241 0.106197
0.022962 0.806036 0.108592
0.023216 0.802350 0.108643
0.061576 0.798897 0.108531
0.135435 0.795679 0.108267
0.211549 0.792362 0.107995
0.289392 0.788970 0.107716
0.368443 0.785526 0.107434
0.448176 0.782052 0.107148
0.528069 0.778570 0.106863
0.607598 0.775105 0.106578
0.686238 0.771678 0.106297
0.763468 0.768313 0.106021
0.838761 0.765032 0.105751
0.911596 0.761859 0.105491
0.981449 0.758815 0.105241
1.000000 0.755469 0.105185
1.000000 0.753731 0.105209
0.018149 0.875736 0.107630
0.018403 0.872049 0.107681
0.043744 0.868455 0.107625
0.117603 0.865236 0.107361
0.193717 0.861920 0.107089
0.271561 0.858528 0.106810
0.350611 0.855083 0.106528
0.430345 0.851609 0.106242
0.510237 0.848128 0.105957
0.589766 0.844663 0.105672
0.668407 0.841236 0.105391
0.745636 0.837871 0.105115
0.820930 0.834590 0.104845
0.893764 0.831416 0.104585
0.963617 0.828373 0.104335
1.000000 0.825169 0.104223
1.000000 0.823430 0.104247
0.013493 0.943158 0.106699
0.013748 0.939472 0.106750
0.026495 0.935741 0.106749
0.100354 0.932522 0.106485
0.176467 0.929206 0.106212
0.254311 0.925814 0.105934
0.333362 0.922370 0.105651
0.413095 0.918895 0.105366
0.492988 0.915414 0.105080
0.572517 0.911949 0.104796
0.651157 0.908522 0.104514
0.728386 0.905157 0.104238
0.803680 0.901876 0.103969
0.876515 0.898703 0.103708
0.946367 0.895659 0.103458
0.996459 0.892591 0.103292
0.996579 0.890853 0.103316
0.009028 1.000000 0.105806
0.009283 1.000000 0.105857
0.009951 1.000000 0.105908
0.083811 0.997053 0.105644
0.159924 0.993737 0.105372
0.237768 0.990345 0.105093
0.316819 0.986900 0.104811
0.396552 0.983426 0.104525
0.476445 0.979945 0.104240
0.555973 0.976480 0.103955
0.634614 0.973053 0.103674
0.711843 0.969688 0.103398
0.787137 0.966407 0.103128
0.859972 0.963233 0.102868
0.929824 0.960190 0.102618
0.991994 0.957253 0.102399
0.992114 0.955515 0.102423
0.008480 1.000000 0.105696
0.008480 1.000000 0.105696
0.008480 1.000000 0.105696
0.070992 1.000000 0.105424
0.146819 1.000000 0.105095
0.224371 1.000000 0.104758
0.303124 1.000000 0.104416
0.382558 1.000000 0.104071
0.462151 1.000000 0.103725
0.541381 1.000000 0.103381
0.619726 1.000000 0.103041
0.696665 1.000000 0.102706
0.771676 1.000000 0.102380
0.844259 1.000000 0.102069
0.914112 1.000000 0.101820
0.980458 1.000000 0.101582
0.987873 1.000000 0.101575
0.008480 1.000000 0.105696
0.008480 1.000000 0.105696
0.008480 1.000000 0.105696
0.065467 1.000000 0.105448
0.141294 1.000000 0.105119
0.218846 1.000000 0.104782
0.297599 1.000000 0.104440
0.377033 1.000000 0.104095
0.456626 1.000000 0.103749
0.535856 1.000000 0.103405
0.614201 1.000000 0.103065
0.691140 1.000000 0.102730
0.766151 1.000000 0.102404
0.838713 1.000000 0.102089
0.908303 1.000000 0.101787
0.974400 1.000000 0.101500
0.987220 1.000000 0.101444
0.119282 0.027617 0.312366
0.187088 0.024651 0.308569
0.258197 0.021540 0.304587
0.332084 0.018308 0.300450
0.408226 0.014977 0.296186
0.486100 0.011570 0.291825
0.565180 0.008111 0.287397
0.644944 0.004621 0.282931
0.724867 0.001125 0.278456
0.804426 0.000000 0.274001
0.883096 0.000000 0.269596
0.960355 0.000000 0.265269
1.000000 0.000000 0.261005
1.000000 0.000000 0.257089
1.000000 0.000000 0.253426
1.000000 0.000000 0.249947
1.000000 0.000000 0.248271
0.103316 0.090191 0.299593
0.171122 0.087225 0.295796
0.242231 0.084114 0.291814
0.316118 0.080881 0.287677
0.392260 0.077551 0.283413
0.470134 0.074144 0.279053
0.549214 0.070684 0.274625
0.628978 0.067195 0.270158
0.708901 0.063699 0.265683
0.788460 0.060218 0.261228
0.867130 0.056777 0.256823
0.944389 0.053397 0.252497
1.000000 0.050102 0.248279
1.000000 0.046495 0.244367
1.000000 0.042682 0.240756
1.000000 0.039061 0.237327
1.000000 0.037317 0.235675
0.086572 0.155812 0.286198
0.154378 0.152846 0.282401
0.225487 0.149735 0.278419
0.299375 0.146503 0.274282
0.375517 0.143172 0.270018
0.453390 0.139765 0.265658
0.532471 0.136306 0.261230
0.612234 0.132816 0.256763
0.692157 0.129320 0.252288
0.771716 0.125839 0.247833
0.850387 0.122398 0.243428
0.927645 0.119018 0.239102
1.000000 0.115723 0.234884
1.000000 0.112250 0.230918
1.000000 0.108437 0.227308
1.000000 0.104816 0.223879
1.000000 0.103072 0.222227
0.069174 0.223997 0.272280
0.136980 0.221031 0.268483
0.208089 0.217920 0.264501
0.281977 0.214688 0.260364
0.358119 0.211357 0.256100
0.435992 0.207951 0.251740
0.515073 0.204491 0.247311
0.594836 0.201002 0.242845
0.674760 0.197505 0.238370
0.754318 0.194025 0.233915
0.832989 0.190583 0.229510
0.910247 0.187204 0.225183
0.985569 0.183909 0.220966
1.000000 0.180574 0.216945
1.000000 0.176761 0.213334
1.000000 0.173140 0.209905
1.000000 0.171396 0.208253
0.057302 0.294330 0.257910
0.119052 0.291297 0.254140
0.190160 0.288187 0.250158
0.264048 0.284954 0.246021
0.340190 0.281623 0.241757
0.418063 0.278217 0.237396
0.497144 0.274757 0.232968
0.576908 0.271268 0.228502
0.656831 0.267772 0.224027
0.736389 0.264291 0.219572
0.815060 0.260850 0.215167
0.892318 0.257470 0.210840
0.967641 0.254175 0.206623
1.000000 0.250983 0.202544
1.000000 0.247171 0.198934
1.000000 0.243549 0.195505
1.000000 0.241805 0.193853
0.052426 0.366339 0.243183
0.100715 0.363161 0.239471
0.171824 0.360050 0.235489
0.245711 0.356818 0.231351
0.321854 0.353487 0.227088
0.399727 0.350081 0.222727
0.478808 0.346621 0.218299
0.558571 0.343132 0.213833
0.638494 0.339635 0.209358
0.718053 0.336155 0.204903
0.796724 0.332713 0.200497
0.873982 0.329334 0.196171
0.949304 0.326039 0.191954
1.000000 0.322851 0.187874
1.000000 0.319181 0.184206
1.000000 0.315559 0.180777
1.000000 0.313815 0.179125
0.047474 0.439466 0.228227
0.082095 0.436139 0.224574
0.153203 0.433028 0.220592
0.227091 0.429796 0.216455
0.303233 0.426465 0.212191
0.381106 0.423058 0.207831
0.460187 0.419599 0.203403
0.539951 0.416109 0.198936
0.619874 0.412613 0.194461
0.699432 0.409133 0.190006
0.778103 0.405691 0.185601
0.855361 0.402311 0.181275
0.930684 0.399016 0.177057
1.000000 0.395829 0.172977
1.000000 0.392307 0.169250
1.000000 0.388685 0.165821
1.000000 0.386941 0.164169
0.042479 0.513224 0.213142
0.063313 0.509747 0.209549
0.134422 0.506636 0.205567
0.208309 0.503404 0.201430
0.284452 0.500073 0.197166
0.362325 0.496666 0.192806
0.441405 0.493207 0.188377
0.521169 0.489718 0.183911
0.601092 0.486221 0.179436
0.680651 0.482741 0.174981
0.759321 0.479299 0.170576
0.836580 0.475920 0.166250
0.911902 0.472625 0.162032
0.984765 0.469437 0.157952
1.000000 0.466065 0.154165
1.000000 0.462443 0.150736
1.000000 0.460699 0.149084
0.037474 0.587129 0.198026
0.044494 0.583503 0.194494
0.115603 0.580392 0.190512
0.189490 0.577159 0.186375
0.265633 0.573829 0.182111
0.343506 0.570422 0.177750
0.422586 0.566962 0.173322
0.502350 0.563473 0.168856
0.582273 0.559977 0.164381
0.661832 0.556496 0.159926
0.740502 0.553055 0.155520
0.817761 0.549675 0.151194
0.893083 0.546380 0.146977
0.965946 0.543192 0.142897
1.000000 0.539970 0.139050
1.000000 0.536349 0.135621
1.000000 0.534605 0.133969
0.032492 0.660697 0.182980
0.032772 0.656998 0.179477
0.096870 0.653811 0.175525
0.170757 0.650579 0.171388
0.246899 0.647248 0.167124
0.324773 0.643841 0.162764
0.403853 0.640381 0.158336
0.483617 0.636892 0.153869
0.563540 0.633396 0.149394
0.643099 0.629915 0.144939
0.721769 0.626474 0.140534
0.799027 0.623094 0.136208
0.874350 0.619799 0.131990
0.947212 0.616611 0.127910
1.000000 0.613538 0.124004
1.000000 0.609917 0.120574
1.000000 0.608173 0.118923
0.027566 0.733444 0.168102
0.027846 0.729745 0.164598
0.078345 0.726410 0.160706
0.152233 0.723178 0.156569
0.228375 0.719847 0.152305
0.306248 0.716440 0.147944
0.385329 0.712981 0.143516
0.465093 0.709491 0.139050
0.545016 0.705995 0.134575
0.624574 0.702515 0.130120
0.703245 0.699073 0.125715
0.780503 0.695693 0.121388
0.855826 0.692398 0.117171
0.928688 0.689211 0.113091
0.998567 0.686154 0.109178
1.000000 0.682666 0.106191
1.000000 0.680928 0.106215
0.022728 0.804886 0.153490
0.023008 0.801186 0.149987
0.060154 0.797706 0.146153
0.134041 0.794474 0.142015
0.210184 0.791143 0.137752
0.288057 0.787736 0.133391
0.367137 0.784277 0.128963
0.446901 0.780788 0.124497
0.526824 0.777291 0.120021
0.606383 0.773811 0.115566
0.685053 0.770369 0.111161
0.762312 0.766990 0.106835
0.837611 0.763706 0.105775
0.910446 0.760532 0.105514
0.980299 0.757489 0.105264
1.000000 0.754156 0.105204
1.000000 0.752418 0.105228
0.018011 0.874537 0.139245
0.018291 0.870837 0.135742
0.042418 0.867216 0.131964
0.116306 0.863984 0.127827
0.192448 0.860653 0.123563
0.270321 0.857246 0.119203
0.349402 0.853787 0.114774
0.429165 0.850297 0.110308
0.509087 0.846801 0.105980
0.588616 0.843336 0.105696
0.667257 0.839910 0.105414
0.744486 0.836544 0.105138
0.819779 0.833264 0.104869
0.892614 0.830090 0.104608
0.962467 0.827046 0.104358
1.000000 0.823855 0.104241
1.000000 0.822117 0.104265
0.013448 0.941913 0.125465
0.013729 0.938213 0.121962
0.025262 0.934456 0.118239
0.099149 0.931223 0.114102
0.175291 0.927892 0.109838
0.253161 0.924488 0.105957
0.332212 0.921043 0.105675
0.411945 0.917569 0.105389
0.491838 0.914088 0.105104
0.571366 0.910622 0.104819
0.650007 0.907196 0.104538
0.727236 0.903830 0.104262
0.802530 0.900550 0.103992
0.875365 0.897376 0.103732
0.945217 0.894332 0.103482
0.996550 0.891278 0.103310
0.996670 0.889540 0.103334
0.009072 1.000000 0.112250
0.009353 1.000000 0.108746
0.009640 0.998954 0.105928
0.082661 0.995727 0.105668
0.158774 0.992410 0.105395
0.236618 0.989018 0.105117
0.315668 0.985574 0.104834
0.395402 0.982100 0.104549
0.475295 0.978618 0.104263
0.554823 0.975153 0.103979
0.633464 0.971726 0.103697
0.710693 0.968361 0.103421
0.785987 0.965080 0.103152
0.858822 0.961907 0.102891
0.928674 0.958863 0.102641
0.992085 0.955940 0.102417
0.992205 0.954202 0.102441
0.008480 1.000000 0.105696
0.008480 1.000000 0.105696
0.008480 1.000000 0.105696
0.069751 1.000000 0.105430
0.145579 1.000000 0.105100
0.223130 1.000000 0.104763
0.301884 1.000000 0.104421
0.381318 1.000000 0.104076
0.460910 1.000000 0.103730
0.540140 1.000000 0.103386
0.618486 1.000000 0.103046
0.695425 1.000000 0.102712
0.770436 1.000000 0.102386
0.843109 1.000000 0.102093
0.912961 1.000000 0.101843
0.979308 1.000000 0.101606
0.987964 1.000000 0.101593
0.008480 1.000000 0.105696
0.008480 1.000000 0.105696
0.008480 1.000000 0.105696
0.064226 1.000000 0.105454
0.140054 1.000000 0.105124
0.217605 1.000000 0.104787
0.296358 1.000000 0.104445
0.375792 1.000000 0.104100
0.455385 1.000000 0.103754
0.534615 1.000000 0.103410
0.612960 1.000000 0.103070
0.689899 1.000000 0.102736
0.764910 1.000000 0.102410
0.837472 1.000000 0.102095
0.907062 1.000000 0.101792
0.973159 1.000000 0.101505
0.987220 1.000000 0.101444
0.117525 0.026520 0.390020
0.185332 0.023553 0.386223
0.256440 0.020443 0.382241
0.330328 0.017210 0.378104
0.406470 0.013879 0.373840
0.484343 0.010473 0.369480
0.563424 0.007013 0.365051
0.643188 0.003524 0.360585
0.723111 0.000027 0.356110
0.802669 0.000000 0.351655
0.881340 0.000000 0.347250
0.958553 0.000000 0.342914
1.000000 0.000000 0.338640
1.000000 0.000000 0.334719
1.000000 0.000000 0.331056
