assets/luts/desert.cube
# Desert — Studio filter "desert"
# Generated by scripts/generate-filter-luts.mjs — do not edit by hand.
LUT_3D_SIZE 5
DOMAIN_MIN 0.0 0.0 0.0
DOMAIN_MAX 1.0 1.0 1.0
0.049283 0.030083 0.001283
0.276625 0.033537 0.003321
0.540833 0.037551 0.005690
0.805041 0.041565 0.008058
0.969545 0.044468 0.009545
0.067254 0.263703 0.008139
0.294595 0.267157 0.010177
0.558804 0.271171 0.012546
0.823012 0.275185 0.014914
0.976302 0.277988 0.016302
0.088138 0.535206 0.016107
0.315480 0.538660 0.018145
0.579688 0.542674 0.020514
0.843896 0.546688 0.022882
0.984156 0.549377 0.024156
0.109022 0.806710 0.024075
0.336364 0.810163 0.026113
0.600572 0.814177 0.028482
0.864780 0.818191 0.030850
0.992009 0.820766 0.032009
0.125520 0.989459 0.029459
0.352820 0.991455 0.031455
0.616979 0.993774 0.033774
0.881138 0.996094 0.036094
0.997112 0.997112 0.037112
0.051039 0.031198 0.204396
0.278378 0.034649 0.205487
0.542583 0.038659 0.206756
0.806787 0.042670 0.208024
0.970156 0.045560 0.208553
0.068999 0.264807 0.208067
0.296338 0.268258 0.209158
0.560543 0.272269 0.210427
0.824748 0.276280 0.211695
0.976904 0.279071 0.212126
0.089873 0.536300 0.212333
0.317212 0.539751 0.213425
0.581416 0.543761 0.214693
0.845621 0.547772 0.215961
0.984746 0.550449 0.216278
0.110746 0.807792 0.216600
0.338085 0.811243 0.217691
0.602290 0.815254 0.218959
0.866494 0.819265 0.220227
0.992588 0.821827 0.220430
0.127220 0.990037 0.218784
0.354517 0.992030 0.219833
0.618673 0.994346 0.221052
0.882828 0.996662 0.222272
0.997668 0.997668 0.222333
0.053146 0.032560 0.462827
0.280485 0.036011 0.463918
0.544690 0.040022 0.465186
0.808894 0.044032 0.466455
0.970948 0.046910 0.466973
0.071107 0.266169 0.466498
0.298446 0.269621 0.467589
0.562650 0.273631 0.468857
0.826855 0.277642 0.470125
0.977696 0.280421 0.470545
0.091980 0.537662 0.470764
0.319319 0.541113 0.471855
0.583524 0.545124 0.473124
0.847728 0.549134 0.474392
0.985538 0.551799 0.474697
0.112853 0.809154 0.475030
0.340192 0.812605 0.476122
0.604397 0.816616 0.477390
0.868602 0.820627 0.478658
0.993380 0.823177 0.478849
0.129311 0.990823 0.477198
0.356607 0.992816 0.478247
0.620763 0.995132 0.479466
0.884919 0.997449 0.480686
0.998443 0.998443 0.480736
0.055253 0.033922 0.721258
0.282592 0.037373 0.722349
0.546797 0.041384 0.723617
0.811002 0.045394 0.724885
0.971739 0.048261 0.725392
0.073214 0.267531 0.724929
0.300553 0.270983 0.726020
0.564758 0.274993 0.727288
0.828962 0.279004 0.728556
0.978487 0.281772 0.728964
0.094087 0.539024 0.729195
0.321426 0.542475 0.730286
0.585631 0.546486 0.731554
0.849835 0.550496 0.732822
0.986329 0.553150 0.733116
0.114960 0.810516 0.733461
0.342299 0.813967 0.734552
0.606504 0.817978 0.735820
0.870709 0.821989 0.737089
0.994172 0.824528 0.737268
0.131401 0.991610 0.735612
0.358698 0.993603 0.736661
0.622854 0.995919 0.737881
0.887009 0.998235 0.739100
0.999218 0.999218 0.739138
0.057066 0.035094 0.943628
0.284405 0.038545 0.944719
0.548610 0.042556 0.945988
0.812815 0.046566 0.947256
0.972420 0.049423 0.947752
0.075027 0.268703 0.947299
0.302366 0.272155 0.948390
0.566571 0.276165 0.949659
0.830775 0.280176 0.950927
0.979168 0.282934 0.951325
0.095900 0.540196 0.951565
0.323239 0.543647 0.952657
0.587444 0.547658 0.953925
0.851649 0.551668 0.955193
0.987011 0.554312 0.955477
0.116773 0.811688 0.955832
0.344112 0.815139 0.956923
0.608317 0.819150 0.958191
0.872522 0.823161 0.959459
0.994853 0.825690 0.959628
0.133200 0.992287 0.957969
0.360497 0.994280 0.959018
0.624652 0.996596 0.960237
0.888808 0.998912 0.961456
0.999884 0.999884 0.961484
