assets/luts/desert.cube
# Desert — Studio filter "desert"
# Generated by scripts/generate-filter-luts.mjs — do not edit by hand.
LUT_3D_SIZE 17
DOMAIN_MIN 0.0 0.0 0.0
DOMAIN_MAX 1.0 1.0 1.0
0.049283 0.030083 0.001283
0.100647 0.030864 0.001744
0.156042 0.031705 0.002240
0.214894 0.032599 0.002768
0.276625 0.033537 0.003321
0.340661 0.034510 0.003896
0.406425 0.035509 0.004485
0.473341 0.036526 0.005085
0.540833 0.037551 0.005690
0.608325 0.038577 0.006295
0.675241 0.039593 0.006895
0.741005 0.040593 0.007484
0.805041 0.041565 0.008058
0.866773 0.042503 0.008612
0.925625 0.043397 0.009139
0.969535 0.044138 0.009535
0.969545 0.044468 0.009545
0.053343 0.082865 0.002832
0.104707 0.083645 0.003293
0.160102 0.084487 0.003789
0.218953 0.085381 0.004317
0.280685 0.086319 0.004870
0.344721 0.087292 0.005444
0.410485 0.088291 0.006034
0.477401 0.089307 0.006634
0.544893 0.090333 0.007239
0.612385 0.091358 0.007844
0.679301 0.092375 0.008444
0.745065 0.093374 0.009033
0.809101 0.094347 0.009607
0.870833 0.095285 0.010161
0.929685 0.096179 0.010688
0.971062 0.096897 0.011062
0.971071 0.097227 0.011071
0.057722 0.139790 0.004503
0.109085 0.140570 0.004963
0.164481 0.141412 0.005460
0.223332 0.142306 0.005988
0.285064 0.143244 0.006541
0.349100 0.144217 0.007115
0.414864 0.145216 0.007705
0.481780 0.146232 0.008304
0.549272 0.147258 0.008909
0.616764 0.148283 0.009515
0.683680 0.149300 0.010114
0.749444 0.150299 0.010704
0.813480 0.151272 0.011278
0.875212 0.152210 0.011831
0.934063 0.153104 0.012359
0.972708 0.153798 0.012708
0.972718 0.154128 0.012718
0.062374 0.200266 0.006278
0.113737 0.201047 0.006738
0.169133 0.201888 0.007235
0.227984 0.202782 0.007762
0.289716 0.203720 0.008316
0.353752 0.204693 0.008890
0.419516 0.205692 0.009479
0.486432 0.206709 0.010079
0.553924 0.207734 0.010684
0.621416 0.208760 0.011289
0.688332 0.209776 0.011889
0.754096 0.210775 0.012479
0.818132 0.211748 0.013053
0.879864 0.212686 0.013606
0.938715 0.213580 0.014134
0.974458 0.214249 0.014458
0.974467 0.214579 0.014467
0.067254 0.263703 0.008139
0.118617 0.264483 0.008600
0.174012 0.265325 0.009096
0.232864 0.266219 0.009624
0.294595 0.267157 0.010177
0.358631 0.268129 0.010751
0.424395 0.269129 0.011341
0.491311 0.270145 0.011941
0.558804 0.271171 0.012546
0.626296 0.272196 0.013151
0.693212 0.273213 0.013751
0.758976 0.274212 0.014340
0.823012 0.275185 0.014914
0.884743 0.276123 0.015468
0.943595 0.277017 0.015995
0.976293 0.277659 0.016293
0.976302 0.277988 0.016302
0.072315 0.329507 0.010071
0.123678 0.330287 0.010531
0.179074 0.331129 0.011028
0.237925 0.332023 0.011555
0.299657 0.332961 0.012109
0.363693 0.333934 0.012683
0.429457 0.334933 0.013272
0.496373 0.335949 0.013872
0.563865 0.336975 0.014477
0.631357 0.338000 0.015082
0.698273 0.339017 0.015682
0.764037 0.340016 0.016272
0.828073 0.340989 0.016846
0.889805 0.341927 0.017399
0.948657 0.342821 0.017927
0.978196 0.343435 0.018196
0.978206 0.343765 0.018206
0.077514 0.397087 0.012054
0.128877 0.397867 0.012514
0.184272 0.398709 0.013011
0.243124 0.399603 0.013538
0.304855 0.400541 0.014092
0.368891 0.401513 0.014666
0.434655 0.402513 0.015255
0.501571 0.403529 0.015855
0.569064 0.404555 0.016460
0.636556 0.405580 0.017065
0.703472 0.406597 0.017665
0.769236 0.407596 0.018255
0.833272 0.408569 0.018829
0.895003 0.409506 0.019382
0.953855 0.410401 0.019910
0.980151 0.410987 0.020151
0.980160 0.411316 0.020160
0.082803 0.465850 0.014072
0.134166 0.466631 0.014532
0.189562 0.467472 0.015029
0.248413 0.468366 0.015556
0.310145 0.469304 0.016110
0.374181 0.470277 0.016684
0.439945 0.471276 0.017273
0.506861 0.472293 0.017873
0.574353 0.473318 0.018478
0.641845 0.474344 0.019083
0.708761 0.475360 0.019683
0.774525 0.476359 0.020273
0.838561 0.477332 0.020847
0.900293 0.478270 0.021400
0.959144 0.479164 0.021928
0.982140 0.479721 0.022140
0.982149 0.480051 0.022149
0.088138 0.535206 0.016107
0.139501 0.535986 0.016568
0.194896 0.536828 0.017064
0.253748 0.537722 0.017592
0.315480 0.538660 0.018145
0.379516 0.539633 0.018719
0.445280 0.540632 0.019309
0.512196 0.541649 0.019909
0.579688 0.542674 0.020514
0.647180 0.543699 0.021119
0.714096 0.544716 0.021719
0.779860 0.545715 0.022308
0.843896 0.546688 0.022882
0.905628 0.547626 0.023436
0.964479 0.548520 0.023963
0.984146 0.549048 0.024146
0.984156 0.549377 0.024156
0.093473 0.604562 0.018143
0.144836 0.605342 0.018603
0.200231 0.606184 0.019100
0.259083 0.607078 0.019627
0.320815 0.608016 0.020181
0.384851 0.608989 0.020755
0.450615 0.609988 0.021344
0.517531 0.611004 0.021944
0.585023 0.612030 0.022549
0.652515 0.613055 0.023154
0.719431 0.614072 0.023754
0.785195 0.615071 0.024344
0.849231 0.616044 0.024918
0.910963 0.616982 0.025471
0.969814 0.617876 0.025999
0.986152 0.618374 0.026152
0.986162 0.618704 0.026162
0.098762 0.673326 0.020161
0.150125 0.674106 0.020621
0.205521 0.674948 0.021118
0.264372 0.675842 0.021645
0.326104 0.676780 0.022199
0.390140 0.677752 0.022773
0.455904 0.678752 0.023362
0.522820 0.679768 0.023962
0.590312 0.680794 0.024567
0.657804 0.681819 0.025172
0.724720 0.682836 0.025772
0.790484 0.683835 0.026362
0.854520 0.684808 0.026936
0.916252 0.685745 0.027489
0.975103 0.686640 0.028017
0.988141 0.687109 0.028141
0.988151 0.687439 0.028151
0.103961 0.740905 0.022144
0.155324 0.741686 0.022604
0.210719 0.742527 0.023101
0.269571 0.743422 0.023628
0.331302 0.744359 0.024182
0.395338 0.745332 0.024756
0.461102 0.746331 0.025345
0.528018 0.747348 0.025945
0.595510 0.748373 0.026550
0.663002 0.749399 0.027155
0.729919 0.750415 0.027755
0.795683 0.751415 0.028345
0.859718 0.752387 0.028919
0.921450 0.753325 0.029472
0.980302 0.754219 0.030000
0.990096 0.754661 0.030096
0.990106 0.754990 0.030106
0.109022 0.806710 0.024075
0.160385 0.807490 0.024535
0.215781 0.808331 0.025032
0.274632 0.809226 0.025560
0.336364 0.810163 0.026113
0.400400 0.811136 0.026687
0.466164 0.812135 0.027277
0.533080 0.813152 0.027876
0.600572 0.814177 0.028482
0.668064 0.815203 0.029087
0.734980 0.816219 0.029686
0.800744 0.817219 0.030276
0.864780 0.818191 0.030850
0.926512 0.819129 0.031403
0.985363 0.820023 0.031931
0.991999 0.820437 0.031999
0.992009 0.820766 0.032009
0.113902 0.870146 0.025937
0.165265 0.870926 0.026397
0.220660 0.871768 0.026894
0.279512 0.872662 0.027421
0.341244 0.873600 0.027975
0.405280 0.874573 0.028549
0.471044 0.875572 0.029138
0.537960 0.876588 0.029738
0.605452 0.877614 0.030343
0.672944 0.878639 0.030948
0.739860 0.879656 0.031548
0.805624 0.880655 0.032138
0.869660 0.881628 0.032712
0.931391 0.882566 0.033265
0.990243 0.883460 0.033793
0.993834 0.883847 0.033834
0.993844 0.884176 0.033844
0.118554 0.930622 0.027711
0.169917 0.931403 0.028172
0.225312 0.932244 0.028668
0.284164 0.933138 0.029196
0.345896 0.934076 0.029749
0.409931 0.935049 0.030324
0.475695 0.936048 0.030913
0.542611 0.937065 0.031513
0.610104 0.938090 0.032118
0.677596 0.939116 0.032723
0.744512 0.940132 0.033323
0.810276 0.941132 0.033912
0.874312 0.942104 0.034486
0.936043 0.943042 0.035040
0.994895 0.943936 0.035567
0.995584 0.944298 0.035584
0.995593 0.944627 0.035593
0.122932 0.987547 0.029382
0.174296 0.988328 0.029842
0.229691 0.989169 0.030339
0.288543 0.990063 0.030867
0.350274 0.991001 0.031420
0.414310 0.991974 0.031994
0.480063 0.992572 0.032572
0.546966 0.993159 0.033159
0.614446 0.993752 0.033752
0.681925 0.994344 0.034344
0.748829 0.994932 0.034932
0.814581 0.995509 0.035509
0.878605 0.996071 0.036071
0.940325 0.996613 0.036613
0.997112 0.997112 0.037112
0.997112 0.997112 0.037112
0.997112 0.997112 0.037112
0.125520 0.989459 0.029459
0.176874 0.989910 0.029910
0.232259 0.990396 0.030396
0.291100 0.990913 0.030913
0.352820 0.991455 0.031455
0.416844 0.992017 0.032017
0.482596 0.992594 0.032594
0.549499 0.993182 0.033182
0.616979 0.993774 0.033774
0.684459 0.994367 0.034367
0.751362 0.994954 0.034954
0.817114 0.995532 0.035532
0.881138 0.996094 0.036094
0.942858 0.996636 0.036636
0.997112 0.997112 0.037112
0.997112 0.997112 0.037112
0.997112 0.997112 0.037112
0.049635 0.030290 0.032266
0.100998 0.031070 0.032512
0.156392 0.031911 0.032778
0.215243 0.032804 0.033061
0.276974 0.033742 0.033357
0.341009 0.034714 0.033664
0.406773 0.035712 0.033980
0.473688 0.036728 0.034301
0.541179 0.037752 0.034625
0.608670 0.038777 0.034949
0.675586 0.039793 0.035270
0.741349 0.040791 0.035586
0.805384 0.041763 0.035893
0.867115 0.042700 0.036190
0.925966 0.043593 0.036472
0.969620 0.044331 0.036635
0.969629 0.044660 0.036430
0.053693 0.083070 0.033095
0.105056 0.083849 0.033342
0.160450 0.084690 0.033607
0.219301 0.085584 0.033890
0.281032 0.086521 0.034186
0.345067 0.087493 0.034494
0.410830 0.088491 0.034809
0.477746 0.089507 0.035130
0.545237 0.090531 0.035454
0.612728 0.091556 0.035778
0.679643 0.092572 0.036100
0.745407 0.093570 0.036415
0.809442 0.094542 0.036723
0.871173 0.095479 0.037019
0.930023 0.096373 0.037301
0.971144 0.097088 0.037442
0.971153 0.097417 0.037238
0.058070 0.139992 0.033990
0.109432 0.140772 0.034236
0.164827 0.141613 0.034502
0.223678 0.142506 0.034784
0.285409 0.143443 0.035081
0.349444 0.144415 0.035388
0.415207 0.145414 0.035704
0.482122 0.146430 0.036025
0.549613 0.147454 0.036349
0.617105 0.148479 0.036673
0.684020 0.149494 0.036994
0.749783 0.150493 0.037310
0.813818 0.151465 0.037617
0.875549 0.152402 0.037913
0.934400 0.153295 0.038196
0.972788 0.153987 0.038312
0.972797 0.154316 0.038108
0.062719 0.200466 0.034940
0.114081 0.201246 0.035186
0.169476 0.202087 0.035452
0.228327 0.202980 0.035735
0.290058 0.203918 0.036031
0.354093 0.204890 0.036338
0.419856 0.205888 0.036654
0.486771 0.206904 0.036975
0.554263 0.207928 0.037299
0.621754 0.208953 0.037623
0.688669 0.209969 0.037944
0.754432 0.210967 0.038260
0.818467 0.211939 0.038567
0.880198 0.212876 0.038864
0.939049 0.213769 0.039146
0.974535 0.214436 0.039237
0.974544 0.214764 0.039033
0.067596 0.263900 0.035937
0.118958 0.264680 0.036183
0.174353 0.265521 0.036449
0.233204 0.266414 0.036732
0.294935 0.267351 0.037028
0.358970 0.268323 0.037335
0.424733 0.269322 0.037651
0.491648 0.270337 0.037972
0.559140 0.271362 0.038296
0.626631 0.272386 0.038620
0.693546 0.273402 0.038941
0.759309 0.274401 0.039257
0.823344 0.275373 0.039564
0.885075 0.276310 0.039861
0.943926 0.277203 0.040143
0.976368 0.277843 0.040207
0.976377 0.278171 0.040003
0.072655 0.329702 0.036971
0.124017 0.330481 0.037217
0.179412 0.331322 0.037483
0.238263 0.332216 0.037766
0.299994 0.333153 0.038062
0.364029 0.334125 0.038369
0.429792 0.335123 0.038685
0.496707 0.336139 0.039006
0.564199 0.337163 0.039330
0.631690 0.338188 0.039654
0.698605 0.339204 0.039975
0.764368 0.340202 0.040291
0.828403 0.341174 0.040598
0.890134 0.342111 0.040895
0.948985 0.343005 0.041177
0.978268 0.343616 0.041214
0.978277 0.343945 0.041009
0.077851 0.397279 0.038033
0.129213 0.398058 0.038279
0.184608 0.398899 0.038545
0.243459 0.399793 0.038827
0.305190 0.400730 0.039124
0.369225 0.401702 0.039431
0.434988 0.402700 0.039747
0.501903 0.403716 0.040068
0.569394 0.404740 0.040392
0.636886 0.405765 0.040716
0.703801 0.406781 0.041037
0.769564 0.407779 0.041353
0.833599 0.408751 0.041660
0.895330 0.409688 0.041956
0.954181 0.410582 0.042239
0.980220 0.411165 0.042247
0.980229 0.411494 0.042043
0.083137 0.466040 0.039113
0.134500 0.466819 0.039360
0.189894 0.467660 0.039625
0.248745 0.468554 0.039908
0.310476 0.469491 0.040204
0.374511 0.470463 0.040512
0.440274 0.471461 0.040827
0.507190 0.472477 0.041148
0.574681 0.473501 0.041472
0.642172 0.474526 0.041796
0.709087 0.475542 0.042118
0.774850 0.476540 0.042433
0.838886 0.477512 0.042741
0.900617 0.478449 0.043037
0.959467 0.479343 0.043319
0.982207 0.479897 0.043299
0.982216 0.480226 0.043094
0.088469 0.535392 0.040203
0.139832 0.536172 0.040449
0.195226 0.537013 0.040715
0.254077 0.537906 0.040998
0.315808 0.538844 0.041294
0.379843 0.539816 0.041601
0.445606 0.540814 0.041917
0.512522 0.541830 0.042238
0.580013 0.542854 0.042562
0.647504 0.543879 0.042886
0.714419 0.544895 0.043207
0.780183 0.545893 0.043523
0.844218 0.546865 0.043830
0.905949 0.547802 0.044127
0.964799 0.548695 0.044409
0.984210 0.549220 0.044359
0.984219 0.549549 0.044155
0.093801 0.604745 0.041293
0.145164 0.605525 0.041539
0.200558 0.606366 0.041805
0.259409 0.607259 0.042088
0.321140 0.608196 0.042384
0.385175 0.609169 0.042691
0.450938 0.610167 0.043007
0.517854 0.611183 0.043328
0.585345 0.612207 0.043652
0.652836 0.613232 0.043976
0.719751 0.614247 0.044297
0.785515 0.615246 0.044613
0.849550 0.616218 0.044920
0.911281 0.617155 0.045217
0.970132 0.618048 0.045499
0.986213 0.618544 0.045420
0.986222 0.618873 0.045215
0.099088 0.673506 0.042373
0.150450 0.674286 0.042620
0.205845 0.675127 0.042886
0.264696 0.676020 0.043168
0.326427 0.676957 0.043464
0.390462 0.677929 0.043772
0.456225 0.678928 0.044087
0.523140 0.679944 0.044409
0.590632 0.680968 0.044733
0.658123 0.681993 0.045057
0.725038 0.683008 0.045378
0.790801 0.684007 0.045693
0.854836 0.684979 0.046001
0.916567 0.685916 0.046297
0.975418 0.686809 0.046580
0.988199 0.687276 0.046471
0.988208 0.687605 0.046267
0.104283 0.741083 0.043435
0.155646 0.741863 0.043682
0.211040 0.742704 0.043948
0.269891 0.743597 0.044230
0.331622 0.744535 0.044526
0.395657 0.745507 0.044834
0.461421 0.746505 0.045149
0.528336 0.747521 0.045471
0.595827 0.748545 0.045795
0.663318 0.749570 0.046118
0.730234 0.750586 0.046440
0.795997 0.751584 0.046755
0.860032 0.752556 0.047063
0.921763 0.753493 0.047359
0.980614 0.754386 0.047641
0.990151 0.754825 0.047505
0.990160 0.755153 0.047300
0.109342 0.806885 0.044469
0.160705 0.807665 0.044716
0.216100 0.808505 0.044982
0.274950 0.809399 0.045264
0.336681 0.810336 0.045560
0.400716 0.811308 0.045868
0.466480 0.812306 0.046183
0.533395 0.813322 0.046505
0.600886 0.814347 0.046829
0.668377 0.815371 0.047152
0.735293 0.816387 0.047474
0.801056 0.817385 0.047789
0.865091 0.818357 0.048097
0.926822 0.819294 0.048393
0.985673 0.820188 0.048675
0.992052 0.820598 0.048511
0.992061 0.820927 0.048307
0.114219 0.870319 0.045466
0.165582 0.871098 0.045712
0.220976 0.871939 0.045978
0.279827 0.872832 0.046261
0.341558 0.873770 0.046557
0.405593 0.874742 0.046865
0.471357 0.875740 0.047180
0.538272 0.876756 0.047501
0.605763 0.877780 0.047825
0.673254 0.878805 0.048149
0.740170 0.879821 0.048470
0.805933 0.880819 0.048786
0.869968 0.881791 0.049093
0.931699 0.882728 0.049390
0.990550 0.883622 0.049672
0.993885 0.884005 0.049481
0.993893 0.884334 0.049277
0.118869 0.930793 0.046416
0.170231 0.931572 0.046663
0.225626 0.932413 0.046929
0.284477 0.933307 0.047211
0.346208 0.934244 0.047507
0.410243 0.935216 0.047815
0.476006 0.936214 0.048130
0.542921 0.937230 0.048452
0.610413 0.938254 0.048776
0.677904 0.939279 0.049100
0.744819 0.940295 0.049421
0.810582 0.941293 0.049736
0.874617 0.942265 0.050044
0.936348 0.943202 0.050340
0.995199 0.944096 0.050623
0.995631 0.944454 0.050406
0.995640 0.944783 0.050202
0.123245 0.987715 0.047311
0.174608 0.988495 0.047557
0.230002 0.989336 0.047823
0.288853 0.990229 0.048106
0.350584 0.991166 0.048402
0.414617 0.992047 0.048707
0.480368 0.992624 0.049010
0.547270 0.993210 0.049319
0.614749 0.993802 0.049630
0.682228 0.994394 0.049942
0.749131 0.994980 0.050251
0.814882 0.995557 0.050554
0.878905 0.996118 0.050849
0.940624 0.996659 0.051134
0.997155 0.997155 0.051386
0.997154 0.997154 0.051155
0.997153 0.997153 0.050941
0.125828 0.989513 0.046665
0.177181 0.989963 0.046902
0.232565 0.990449 0.047157
0.291405 0.990965 0.047429
0.353124 0.991506 0.047714
0.417148 0.992067 0.048009
0.482899 0.992644 0.048313
0.549801 0.993230 0.048622
0.617280 0.993822 0.048933
0.684759 0.994414 0.049244
0.751662 0.995000 0.049553
0.817413 0.995577 0.049857
0.881436 0.996138 0.050152
0.943155 0.996679 0.050437
0.997153 0.997153 0.050666
0.997152 0.997152 0.050435
0.997151 0.997151 0.050221
0.050077 0.030576 0.086450
0.101440 0.031356 0.086696
0.156834 0.032197 0.086962
0.215685 0.033090 0.087245
0.277416 0.034027 0.087541
0.341451 0.034999 0.087848
0.407214 0.035998 0.088164
0.474130 0.037013 0.088485
0.541621 0.038038 0.088809
0.609112 0.039062 0.089133
0.676027 0.040078 0.089454
0.741791 0.041077 0.089770
0.805826 0.042049 0.090077
0.867557 0.042986 0.090374
0.926407 0.043879 0.090656
0.969786 0.044614 0.090816
0.969795 0.044943 0.090612
0.054135 0.083355 0.087279
0.105497 0.084135 0.087526
0.160892 0.084976 0.087792
0.219743 0.085869 0.088074
0.281474 0.086806 0.088370
0.345509 0.087778 0.088678
0.411272 0.088777 0.088993
0.478187 0.089793 0.089315
0.545679 0.090817 0.089638
0.613170 0.091842 0.089962
0.680085 0.092857 0.090284
0.745848 0.093856 0.090599
0.809883 0.094828 0.090907
0.871614 0.095765 0.091203
0.930465 0.096658 0.091485
0.971310 0.097371 0.091624
0.971319 0.097700 0.091419
0.058511 0.140278 0.088174
0.109874 0.141058 0.088420
0.165269 0.141899 0.088686
0.224119 0.142792 0.088968
0.285850 0.143729 0.089265
0.349885 0.144701 0.089572
0.415649 0.145699 0.089888
0.482564 0.146715 0.090209
0.550055 0.147740 0.090533
0.617546 0.148764 0.090857
0.684462 0.149780 0.091178
0.750225 0.150778 0.091494
0.814260 0.151750 0.091801
0.875991 0.152688 0.092097
0.934842 0.153581 0.092380
0.972954 0.154270 0.092494
0.972963 0.154599 0.092290
0.063161 0.200752 0.089124
0.114523 0.201532 0.089370
0.169918 0.202373 0.089636
0.228769 0.203266 0.089919
0.290500 0.204203 0.090215
0.354535 0.205175 0.090522
0.420298 0.206173 0.090838
0.487213 0.207189 0.091159
0.554705 0.208214 0.091483
0.622196 0.209238 0.091807
0.689111 0.210254 0.092128
0.754874 0.211252 0.092444
0.818909 0.212225 0.092751
0.880640 0.213162 0.093048
0.939491 0.214055 0.093330
0.974701 0.214719 0.093419
0.974710 0.215047 0.093215
0.068038 0.264186 0.090121
0.119400 0.264965 0.090367
0.174795 0.265806 0.090633
0.233646 0.266700 0.090916
0.295377 0.267637 0.091212
0.359412 0.268609 0.091519
0.425175 0.269607 0.091835
0.492090 0.270623 0.092156
0.559582 0.271648 0.092480
0.627073 0.272672 0.092804
0.693988 0.273688 0.093125
0.759751 0.274686 0.093441
0.823786 0.275658 0.093748
0.885517 0.276595 0.094045
0.944368 0.277489 0.094327
0.976534 0.278126 0.094389
0.976543 0.278454 0.094185
0.073097 0.329987 0.091155
0.124459 0.330767 0.091401
0.179854 0.331608 0.091667
0.238705 0.332501 0.091950
0.300436 0.333438 0.092246
0.364471 0.334410 0.092553
0.430234 0.335409 0.092869
0.497149 0.336424 0.093190
0.564641 0.337449 0.093514
0.632132 0.338473 0.093838
0.699047 0.339489 0.094159
0.764810 0.340488 0.094475
0.828845 0.341460 0.094782
0.890576 0.342397 0.095079
0.949427 0.343290 0.095361
0.978434 0.343899 0.095395
0.978443 0.344228 0.095191
0.078292 0.397564 0.092217
0.129655 0.398344 0.092463
0.185049 0.399185 0.092729
0.243900 0.400078 0.093011
0.305631 0.401015 0.093308
0.369666 0.401987 0.093615
0.435430 0.402986 0.093931
0.502345 0.404001 0.094252
0.569836 0.405026 0.094576
0.637327 0.406051 0.094900
0.704243 0.407066 0.095221
0.770006 0.408065 0.095537
0.834041 0.409037 0.095844
0.895772 0.409974 0.096140
0.954623 0.410867 0.096423
0.980386 0.411448 0.096429
0.980395 0.411777 0.096224
0.083579 0.466325 0.093297
0.134941 0.467105 0.093544
0.190336 0.467946 0.093810
0.249187 0.468839 0.094092
0.310918 0.469776 0.094388
0.374953 0.470748 0.094696
0.440716 0.471747 0.095011
0.507631 0.472762 0.095333
0.575123 0.473787 0.095657
0.642614 0.474812 0.095980
0.709529 0.475827 0.096302
0.775292 0.476826 0.096617
0.839327 0.477798 0.096925
0.901058 0.478735 0.097221
0.959909 0.479628 0.097503
0.982373 0.480180 0.097480
0.982381 0.480509 0.097276
0.088911 0.535678 0.094387
0.140273 0.536458 0.094633
0.195668 0.537299 0.094899
0.254519 0.538192 0.095182
0.316250 0.539129 0.095478
0.380285 0.540101 0.095786
0.446048 0.541100 0.096101
0.512963 0.542115 0.096422
0.580455 0.543140 0.096746
0.647946 0.544164 0.097070
0.714861 0.545180 0.097391
0.780624 0.546179 0.097707
0.844659 0.547151 0.098015
0.906390 0.548088 0.098311
0.965241 0.548981 0.098593
0.984376 0.549504 0.098541
0.984385 0.549832 0.098336
0.094243 0.605031 0.095477
0.145606 0.605811 0.095723
0.201000 0.606652 0.095989
0.259851 0.607545 0.096272
0.321582 0.608482 0.096568
0.385617 0.609454 0.096875
0.451380 0.610452 0.097191
0.518296 0.611468 0.097512
0.585787 0.612493 0.097836
0.653278 0.613517 0.098160
0.720193 0.614533 0.098481
0.785956 0.615531 0.098797
0.849992 0.616503 0.099104
0.911722 0.617441 0.099401
0.970573 0.618334 0.099683
0.986379 0.618827 0.099601
0.986388 0.619156 0.099397
0.099530 0.673792 0.096557
0.150892 0.674572 0.096804
0.206287 0.675412 0.097070
0.265138 0.676306 0.097352
0.326869 0.677243 0.097648
0.390904 0.678215 0.097956
0.456667 0.679213 0.098271
0.523582 0.680229 0.098593
0.591073 0.681254 0.098917
0.658565 0.682278 0.099241
0.725480 0.683294 0.099562
0.791243 0.684292 0.099877
0.855278 0.685264 0.100185
0.917009 0.686202 0.100481
0.975860 0.687095 0.100764
0.988365 0.687559 0.100653
0.988374 0.687888 0.100449
0.104725 0.741369 0.097619
0.156088 0.742149 0.097866
0.211482 0.742990 0.098132
0.270333 0.743883 0.098414
0.332064 0.744820 0.098710
0.396099 0.745792 0.099018
0.461862 0.746790 0.099333
0.528778 0.747806 0.099655
0.596269 0.748831 0.099979
0.663760 0.749855 0.100303
0.730675 0.750871 0.100624
0.796439 0.751869 0.100939
0.860474 0.752842 0.101247
0.922205 0.753779 0.101543
0.981055 0.754672 0.101826
0.990317 0.755108 0.101686
0.990326 0.755437 0.101482
0.109784 0.807170 0.098653
0.161147 0.807950 0.098900
0.216541 0.808791 0.099166
0.275392 0.809684 0.099448
0.337123 0.810621 0.099744
0.401158 0.811594 0.100052
0.466921 0.812592 0.100367
0.533837 0.813608 0.100689
0.601328 0.814632 0.101013
0.668819 0.815657 0.101337
0.735734 0.816673 0.101658
0.801498 0.817671 0.101973
0.865533 0.818643 0.102281
0.927264 0.819580 0.102577
0.986114 0.820473 0.102860
0.992218 0.820881 0.102693
0.992227 0.821210 0.102488
0.114661 0.870604 0.099650
0.166024 0.871384 0.099896
0.221418 0.872225 0.100162
0.280269 0.873118 0.100445
0.342000 0.874055 0.100741
0.406035 0.875027 0.101049
0.471798 0.876026 0.101364
0.538714 0.877041 0.101685
0.606205 0.878066 0.102009
0.673696 0.879090 0.102333
0.740611 0.880106 0.102655
0.806375 0.881105 0.102970
0.870410 0.882077 0.103278
0.932141 0.883014 0.103574
0.990991 0.883907 0.103856
0.994051 0.884288 0.103663
0.994059 0.884617 0.103458
0.119311 0.931078 0.100600
0.170673 0.931858 0.100847
0.226068 0.932699 0.101113
0.284919 0.933592 0.101395
0.346650 0.934529 0.101691
0.410685 0.935501 0.101999
0.476448 0.936500 0.102315
0.543363 0.937515 0.102636
0.610854 0.938540 0.102960
0.678346 0.939565 0.103284
0.745261 0.940580 0.103605
0.811024 0.941579 0.103920
0.875059 0.942551 0.104228
0.936790 0.943488 0.104524
0.995641 0.944381 0.104807
0.995797 0.944737 0.104588
0.995806 0.945066 0.104383
0.123687 0.988001 0.101495
0.175049 0.988781 0.101741
0.230444 0.989621 0.102007
0.289295 0.990515 0.102290
0.351026 0.991452 0.102586
0.415055 0.992212 0.102887
0.480806 0.992788 0.103191
0.547709 0.993375 0.103499
0.615187 0.993967 0.103811
0.682666 0.994558 0.104122
0.749569 0.995145 0.104431
0.815320 0.995722 0.104735
0.879343 0.996283 0.105030
0.941063 0.996824 0.105315
0.997317 0.997317 0.105564
0.997317 0.997317 0.105333
0.997316 0.997316 0.105119
0.126266 0.989678 0.100845
0.177619 0.990128 0.101082
0.233003 0.990614 0.101338
0.291843 0.991130 0.101610
0.353563 0.991671 0.101894
0.417586 0.992232 0.102190
0.483337 0.992809 0.102493
0.550240 0.993395 0.102802
0.617719 0.993987 0.103114
0.685197 0.994579 0.103425
0.752100 0.995165 0.103734
0.817851 0.995742 0.104037
0.881874 0.996303 0.104333
0.943594 0.996844 0.104618
0.997315 0.997315 0.104844
0.997314 0.997314 0.104613
0.997314 0.997314 0.104400
0.050546 0.030879 0.144014
0.101909 0.031659 0.144261
0.157304 0.032500 0.144527
0.216154 0.033393 0.144809
0.277885 0.034331 0.145106
0.341921 0.035303 0.145413
0.407684 0.036301 0.145729
0.474599 0.037317 0.146050
0.542090 0.038341 0.146374
0.609581 0.039366 0.146698
0.676497 0.040382 0.147019
0.742260 0.041380 0.147335
0.806295 0.042352 0.147642
0.868026 0.043289 0.147938
0.926877 0.044182 0.148221
