assets/luts/desert.cube
# Desert — Studio filter "desert"
# Generated by scripts/generate-filter-luts.mjs — do not edit by hand.
LUT_3D_SIZE 9
DOMAIN_MIN 0.0 0.0 0.0
DOMAIN_MAX 1.0 1.0 1.0
0.049283 0.030083 0.001283
0.156042 0.031705 0.002240
0.276625 0.033537 0.003321
0.406425 0.035509 0.004485
0.540833 0.037551 0.005690
0.675241 0.039593 0.006895
0.805041 0.041565 0.008058
0.925625 0.043397 0.009139
0.969545 0.044468 0.009545
0.057722 0.139790 0.004503
0.164481 0.141412 0.005460
0.285064 0.143244 0.006541
0.414864 0.145216 0.007705
0.549272 0.147258 0.008909
0.683680 0.149300 0.010114
0.813480 0.151272 0.011278
0.934063 0.153104 0.012359
0.972718 0.154128 0.012718
0.067254 0.263703 0.008139
0.174012 0.265325 0.009096
0.294595 0.267157 0.010177
0.424395 0.269129 0.011341
0.558804 0.271171 0.012546
0.693212 0.273213 0.013751
0.823012 0.275185 0.014914
0.943595 0.277017 0.015995
0.976302 0.277988 0.016302
0.077514 0.397087 0.012054
0.184272 0.398709 0.013011
0.304855 0.400541 0.014092
0.434655 0.402513 0.015255
0.569064 0.404555 0.016460
0.703472 0.406597 0.017665
0.833272 0.408569 0.018829
0.953855 0.410401 0.019910
0.980160 0.411316 0.020160
0.088138 0.535206 0.016107
0.194896 0.536828 0.017064
0.315480 0.538660 0.018145
0.445280 0.540632 0.019309
0.579688 0.542674 0.020514
0.714096 0.544716 0.021719
0.843896 0.546688 0.022882
0.964479 0.548520 0.023963
0.984156 0.549377 0.024156
0.098762 0.673326 0.020161
0.205521 0.674948 0.021118
0.326104 0.676780 0.022199
0.455904 0.678752 0.023362
0.590312 0.680794 0.024567
0.724720 0.682836 0.025772
0.854520 0.684808 0.026936
0.975103 0.686640 0.028017
0.988151 0.687439 0.028151
0.109022 0.806710 0.024075
0.215781 0.808331 0.025032
0.336364 0.810163 0.026113
0.466164 0.812135 0.027277
0.600572 0.814177 0.028482
0.734980 0.816219 0.029686
0.864780 0.818191 0.030850
0.985363 0.820023 0.031931
0.992009 0.820766 0.032009
0.118554 0.930622 0.027711
0.225312 0.932244 0.028668
0.345896 0.934076 0.029749
0.475695 0.936048 0.030913
0.610104 0.938090 0.032118
0.744512 0.940132 0.033323
0.874312 0.942104 0.034486
0.994895 0.943936 0.035567
0.995593 0.944627 0.035593
0.125520 0.989459 0.029459
0.232259 0.990396 0.030396
0.352820 0.991455 0.031455
0.482596 0.992594 0.032594
0.616979 0.993774 0.033774
0.751362 0.994954 0.034954
0.881138 0.996094 0.036094
0.997112 0.997112 0.037112
0.997112 0.997112 0.037112
0.050077 0.030576 0.086450
0.156834 0.032197 0.086962
0.277416 0.034027 0.087541
0.407214 0.035998 0.088164
0.541621 0.038038 0.088809
0.676027 0.040078 0.089454
0.805826 0.042049 0.090077
0.926407 0.043879 0.090656
0.969795 0.044943 0.090612
0.058511 0.140278 0.088174
0.165269 0.141899 0.088686
0.285850 0.143729 0.089265
0.415649 0.145699 0.089888
0.550055 0.147740 0.090533
0.684462 0.149780 0.091178
0.814260 0.151750 0.091801
0.934842 0.153581 0.092380
0.972963 0.154599 0.092290
0.068038 0.264186 0.090121
0.174795 0.265806 0.090633
0.295377 0.267637 0.091212
0.425175 0.269607 0.091835
0.559582 0.271648 0.092480
0.693988 0.273688 0.093125
0.823786 0.275658 0.093748
0.944368 0.277489 0.094327
0.976543 0.278454 0.094185
0.078292 0.397564 0.092217
0.185049 0.399185 0.092729
0.305631 0.401015 0.093308
0.435430 0.402986 0.093931
0.569836 0.405026 0.094576
0.704243 0.407066 0.095221
0.834041 0.409037 0.095844
0.954623 0.410867 0.096423
0.980395 0.411777 0.096224
0.088911 0.535678 0.094387
0.195668 0.537299 0.094899
0.316250 0.539129 0.095478
0.446048 0.541100 0.096101
0.580455 0.543140 0.096746
0.714861 0.545180 0.097391
0.844659 0.547151 0.098015
0.965241 0.548981 0.098593
0.984385 0.549832 0.098336
0.099530 0.673792 0.096557
0.206287 0.675412 0.097070
0.326869 0.677243 0.097648
0.456667 0.679213 0.098271
0.591073 0.681254 0.098917
0.725480 0.683294 0.099562
0.855278 0.685264 0.100185
0.975860 0.687095 0.100764
0.988374 0.687888 0.100449
0.109784 0.807170 0.098653
0.216541 0.808791 0.099166
0.337123 0.810621 0.099744
0.466921 0.812592 0.100367
0.601328 0.814632 0.101013
0.735734 0.816673 0.101658
0.865533 0.818643 0.102281
0.986114 0.820473 0.102860
0.992227 0.821210 0.102488
0.119311 0.931078 0.100600
0.226068 0.932699 0.101113
0.346650 0.934529 0.101691
0.476448 0.936500 0.102315
0.610854 0.938540 0.102960
0.745261 0.940580 0.103605
0.875059 0.942551 0.104228
0.995641 0.944381 0.104807
0.995806 0.945066 0.104383
0.126266 0.989678 0.100845
0.233003 0.990614 0.101338
0.353563 0.991671 0.101894
0.483337 0.992809 0.102493
0.617719 0.993987 0.103114
0.752100 0.995165 0.103734
0.881874 0.996303 0.104333
0.997315 0.997315 0.104844
0.997314 0.997314 0.104400
0.051039 0.031198 0.204396
0.157796 0.032818 0.204909
0.278378 0.034649 0.205487
0.408176 0.036619 0.206111
0.542583 0.038659 0.206756
0.676989 0.040700 0.207401
0.806787 0.042670 0.208024
0.927369 0.044501 0.208603
0.970156 0.045560 0.208553
0.059473 0.140900 0.206120
0.166230 0.142520 0.206633
0.286812 0.144351 0.207211
0.416610 0.146321 0.207834
0.551017 0.148361 0.208480
0.685423 0.150402 0.209125
0.815222 0.152372 0.209748
0.935803 0.154203 0.210327
0.973325 0.155215 0.210231
0.068999 0.264807 0.208067
0.175757 0.266428 0.208580
0.296338 0.268258 0.209158
0.426137 0.270229 0.209781
0.560543 0.272269 0.210427
0.694950 0.274310 0.211072
0.824748 0.276280 0.211695
0.945330 0.278110 0.212274
0.976904 0.279071 0.212126
0.079254 0.398186 0.210163
0.186011 0.399806 0.210676
0.306593 0.401637 0.211254
0.436391 0.403607 0.211877
0.570798 0.405648 0.212523
0.705204 0.407688 0.213168
0.835003 0.409658 0.213791
0.955584 0.411489 0.214370
0.980757 0.412393 0.214166
0.089873 0.536300 0.212333
0.196630 0.537920 0.212846
0.317212 0.539751 0.213425
0.447010 0.541721 0.214048
0.581416 0.543761 0.214693
0.715823 0.545802 0.215338
0.845621 0.547772 0.215961
0.966203 0.549603 0.216540
0.984746 0.550449 0.216278
0.100491 0.674414 0.214504
0.207248 0.676034 0.215016
0.327830 0.677865 0.215595
0.457629 0.679835 0.216218
0.592035 0.681875 0.216863
0.726442 0.683916 0.217508
0.856240 0.685886 0.218131
0.976822 0.687717 0.218710
0.988736 0.688504 0.218390
0.110746 0.807792 0.216600
0.217503 0.809413 0.217112
0.338085 0.811243 0.217691
0.467883 0.813213 0.218314
0.602290 0.815254 0.218959
0.736696 0.817294 0.219604
0.866494 0.819265 0.220227
0.987076 0.821095 0.220806
0.992588 0.821827 0.220430
0.120272 0.931700 0.218547
0.227029 0.933320 0.219059
0.347611 0.935151 0.219638
0.477410 0.937121 0.220261
0.611816 0.939162 0.220906
0.746223 0.941202 0.221551
0.876021 0.943172 0.222174
0.996149 0.944999 0.222749
0.996168 0.945682 0.222324
0.127220 0.990037 0.218784
0.233957 0.990973 0.219277
0.354517 0.992030 0.219833
0.484291 0.993168 0.220432
0.618673 0.994346 0.221052
0.753054 0.995524 0.221673
0.882828 0.996662 0.222272
0.997669 0.997669 0.222778
0.997668 0.997668 0.222333
0.052074 0.031867 0.331358
0.158831 0.033487 0.331870
0.279413 0.035318 0.332449
0.409211 0.037288 0.333072
0.543618 0.039329 0.333717
0.678024 0.041369 0.334362
0.807823 0.043339 0.334985
0.928404 0.045170 0.335564
0.970545 0.046223 0.335509
0.060508 0.141569 0.333082
0.167265 0.143189 0.333594
0.287847 0.145020 0.334173
0.417645 0.146990 0.334796
0.552052 0.149030 0.335441
0.686458 0.151071 0.336086
0.816257 0.153041 0.336709
0.936839 0.154872 0.337288
0.973714 0.155879 0.337187
0.070035 0.265477 0.335029
0.176792 0.267097 0.335541
0.297374 0.268928 0.336120
0.427172 0.270898 0.336743
0.561578 0.272938 0.337388
0.695985 0.274979 0.338033
0.825783 0.276949 0.338656
0.946365 0.278780 0.339235
0.977293 0.279734 0.339082
0.080289 0.398855 0.337125
0.187046 0.400476 0.337637
0.307628 0.402306 0.338216
0.437426 0.404276 0.338839
0.571833 0.406317 0.339484
0.706239 0.408357 0.340129
0.836038 0.410328 0.340752
0.956620 0.412158 0.341331
0.981146 0.413057 0.341122
0.090908 0.536969 0.339295
0.197665 0.538589 0.339807
0.318247 0.540420 0.340386
0.448045 0.542390 0.341009
0.582452 0.544431 0.341654
0.716858 0.546471 0.342300
0.846656 0.548441 0.342923
0.967238 0.550272 0.343501
0.985135 0.551112 0.343234
0.101527 0.675083 0.341465
0.208284 0.676703 0.341978
0.328865 0.678534 0.342557
0.458664 0.680504 0.343180
0.593070 0.682544 0.343825
0.727477 0.684585 0.344470
0.857275 0.686555 0.345093
0.977857 0.688386 0.345672
0.989125 0.689168 0.345346
0.111781 0.808461 0.343561
0.218538 0.810082 0.344074
0.339120 0.811912 0.344653
0.468918 0.813883 0.345276
0.603325 0.815923 0.345921
0.737731 0.817963 0.346566
0.867530 0.819934 0.347189
0.988111 0.821764 0.347768
0.992977 0.822490 0.347385
0.121307 0.932369 0.345508
0.228065 0.933990 0.346021
0.348646 0.935820 0.346600
0.478445 0.937790 0.347223
0.612851 0.939831 0.347868
0.747258 0.941871 0.348513
0.877056 0.943842 0.349136
0.996538 0.945662 0.349705
0.996556 0.946346 0.349280
0.128247 0.990423 0.345738
0.234984 0.991359 0.346230
0.355544 0.992416 0.346787
0.485318 0.993554 0.347386
0.619700 0.994732 0.348006
0.754081 0.995911 0.348626
0.883855 0.997048 0.349225
0.998050 0.998050 0.349726
0.998048 0.998048 0.349281
0.053146 0.032560 0.462827
0.159903 0.034180 0.463339
0.280485 0.036011 0.463918
0.410283 0.037981 0.464541
0.544690 0.040022 0.465186
0.679096 0.042062 0.465832
0.808894 0.044032 0.466455
0.929476 0.045863 0.467033
0.970948 0.046910 0.466973
0.061580 0.142262 0.464551
0.168337 0.143882 0.465063
0.288919 0.145713 0.465642
0.418717 0.147683 0.466265
0.553124 0.149723 0.466910
0.687530 0.151764 0.467555
0.817329 0.153734 0.468178
0.937911 0.155565 0.468757
0.974116 0.156566 0.468650
0.071107 0.266169 0.466498
0.177864 0.267790 0.467010
0.298446 0.269621 0.467589
0.428244 0.271591 0.468212
0.562650 0.273631 0.468857
0.697057 0.275672 0.469502
0.826855 0.277642 0.470125
0.947437 0.279472 0.470704
0.977696 0.280421 0.470545
0.081361 0.399548 0.468594
0.188118 0.401169 0.469106
0.308700 0.402999 0.469685
0.438498 0.404969 0.470308
0.572905 0.407010 0.470953
0.707311 0.409050 0.471598
0.837110 0.411020 0.472221
0.957692 0.412851 0.472800
0.981548 0.413744 0.472585
0.091980 0.537662 0.470764
0.198737 0.539282 0.471277
0.319319 0.541113 0.471855
0.449117 0.543083 0.472478
0.583524 0.545124 0.473124
0.717930 0.547164 0.473769
0.847728 0.549134 0.474392
0.968310 0.550965 0.474971
0.985538 0.551799 0.474697
0.102598 0.675776 0.472934
0.209356 0.677396 0.473447
0.329937 0.679227 0.474026
0.459736 0.681197 0.474649
0.594142 0.683237 0.475294
0.728549 0.685278 0.475939
0.858347 0.687248 0.476562
0.978929 0.689079 0.477141
0.989527 0.689855 0.476809
0.112853 0.809154 0.475030
0.219610 0.810775 0.475543
0.340192 0.812605 0.476122
0.469990 0.814576 0.476745
0.604397 0.816616 0.477390
0.738803 0.818656 0.478035
0.868602 0.820627 0.478658
0.989183 0.822457 0.479237
0.993380 0.823177 0.478849
0.122379 0.933062 0.476977
0.229137 0.934683 0.477490
0.349718 0.936513 0.478069
0.479517 0.938483 0.478692
0.613923 0.940524 0.479337
0.748330 0.942564 0.479982
0.878128 0.944534 0.480605
0.996941 0.946349 0.481168
0.996959 0.947033 0.480744
0.129311 0.990823 0.477198
0.236048 0.991759 0.477691
0.356607 0.992816 0.478247
0.486382 0.993954 0.478846
0.620763 0.995132 0.479466
0.755145 0.996311 0.480087
0.884919 0.997449 0.480686
0.998444 0.998444 0.481180
0.998443 0.998443 0.480736
0.054218 0.033253 0.594296
0.160975 0.034873 0.594808
0.281557 0.036704 0.595387
0.411355 0.038674 0.596010
0.545762 0.040714 0.596655
0.680168 0.042755 0.597301
0.809966 0.044725 0.597924
0.930548 0.046556 0.598502
0.971350 0.047597 0.598436
0.062652 0.142954 0.596020
0.169409 0.144575 0.596532
0.289991 0.146406 0.597111
0.419789 0.148376 0.597734
0.554196 0.150416 0.598379
0.688602 0.152457 0.599024
0.818401 0.154427 0.599647
0.938982 0.156258 0.600226
0.974519 0.157253 0.600113
0.072179 0.266862 0.597967
0.178936 0.268483 0.598479
0.299518 0.270313 0.599058
0.429316 0.272284 0.599681
0.563722 0.274324 0.600326
0.698129 0.276364 0.600972
0.827927 0.278335 0.601595
0.948509 0.280165 0.602173
0.978098 0.281108 0.602008
0.082433 0.400241 0.600063
0.189190 0.401861 0.600575
0.309772 0.403692 0.601154
0.439570 0.405662 0.601777
0.573977 0.407703 0.602422
0.708383 0.409743 0.603067
0.838182 0.411713 0.603691
0.958763 0.413544 0.604269
0.981951 0.414431 0.604048
0.093052 0.538355 0.602233
0.199809 0.539975 0.602746
0.320391 0.541806 0.603324
0.450189 0.543776 0.603948
0.584596 0.545816 0.604593
0.719002 0.547857 0.605238
0.848800 0.549827 0.605861
0.969382 0.551658 0.606440
0.985941 0.552486 0.606160
0.103670 0.676468 0.604404
0.210428 0.678089 0.604916
0.331009 0.679920 0.605495
0.460808 0.681890 0.606118
0.595214 0.683930 0.606763
0.729621 0.685971 0.607408
0.859419 0.687941 0.608031
0.980001 0.689771 0.608610
0.989930 0.690542 0.608272
0.113925 0.809847 0.606499
0.220682 0.811468 0.607012
0.341264 0.813298 0.607591
0.471062 0.815268 0.608214
0.605469 0.817309 0.608859
0.739875 0.819349 0.609504
0.869673 0.821320 0.610127
0.990255 0.823150 0.610706
0.993783 0.823864 0.610312
0.123451 0.933755 0.608447
0.230209 0.935375 0.608959
0.350790 0.937206 0.609538
0.480589 0.939176 0.610161
0.614995 0.941217 0.610806
0.749402 0.943257 0.611451
0.879200 0.945227 0.612074
0.997344 0.947036 0.612632
0.997362 0.947720 0.612207
0.130374 0.991223 0.608659
0.237111 0.992159 0.609152
0.357671 0.993216 0.609708
0.487445 0.994354 0.610307
0.621827 0.995533 0.610927
0.756208 0.996711 0.611547
0.885982 0.997849 0.612146
0.998838 0.998838 0.612635
0.998837 0.998837 0.612190
0.055253 0.033922 0.721258
0.162010 0.035542 0.721770
0.282592 0.037373 0.722349
0.412390 0.039343 0.722972
0.546797 0.041384 0.723617
0.681203 0.043424 0.724262
0.811002 0.045394 0.724885
0.931583 0.047225 0.725464
0.971739 0.048261 0.725392
0.063687 0.143624 0.722981
0.170445 0.145244 0.723494
0.291026 0.147075 0.724073
0.420825 0.149045 0.724696
0.555231 0.151085 0.725341
0.689638 0.153126 0.725986
0.819436 0.155096 0.726609
0.940018 0.156927 0.727188
0.974908 0.157916 0.727069
0.073214 0.267531 0.724929
0.179971 0.269152 0.725441
0.300553 0.270983 0.726020
0.430351 0.272953 0.726643
0.564758 0.274993 0.727288
0.699164 0.277034 0.727933
0.828962 0.279004 0.728556
0.949544 0.280834 0.729135
0.978487 0.281772 0.728964
0.083468 0.400910 0.727025
0.190226 0.402531 0.727537
0.310807 0.404361 0.728116
0.440606 0.406331 0.728739
0.575012 0.408372 0.729384
0.709419 0.410412 0.730029
0.839217 0.412383 0.730652
0.959799 0.414213 0.731231
0.982340 0.415094 0.731004
0.094087 0.539024 0.729195
0.200844 0.540644 0.729707
0.321426 0.542475 0.730286
0.451224 0.544445 0.730909
0.585631 0.546486 0.731554
0.720037 0.548526 0.732199
0.849835 0.550496 0.732822
0.970417 0.552327 0.733401
0.986329 0.553150 0.733116
0.104706 0.677138 0.731365
0.211463 0.678758 0.731878
0.332045 0.680589 0.732456
0.461843 0.682559 0.733079
0.596249 0.684599 0.733725
0.730656 0.686640 0.734370
0.860454 0.688610 0.734993
0.981036 0.690441 0.735572
0.990319 0.691205 0.735228
0.114960 0.810516 0.733461
0.221717 0.812137 0.733974
0.342299 0.813967 0.734552
0.472097 0.815938 0.735175
0.606504 0.817978 0.735820
0.740910 0.820018 0.736466
0.870709 0.821989 0.737089
0.991290 0.823819 0.737667
0.994172 0.824528 0.737268
0.124487 0.934424 0.735408
0.231244 0.936045 0.735921
0.351826 0.937875 0.736499
0.481624 0.939845 0.737122
0.616030 0.941886 0.737768
0.750437 0.943926 0.738413
0.880235 0.945897 0.739036
0.997732 0.947700 0.739587
0.997751 0.948383 0.739163
0.131401 0.991610 0.735612
0.238138 0.992546 0.736105
0.358698 0.993603 0.736661
0.488472 0.994741 0.737260
0.622854 0.995919 0.737881
0.757235 0.997097 0.738501
0.887009 0.998235 0.739100
0.999219 0.999219 0.739583
0.999218 0.999218 0.739138
0.056215 0.034543 0.839204
0.162972 0.036164 0.839717
0.283554 0.037995 0.840295
0.413352 0.039965 0.840918
0.547759 0.042005 0.841564
0.682165 0.044046 0.842209
0.811963 0.046016 0.842832
0.932545 0.047846 0.843411
0.972101 0.048877 0.843333
0.064649 0.144245 0.840928
0.171406 0.145866 0.841440
0.291988 0.147696 0.842019
0.421786 0.149667 0.842642
0.556193 0.151707 0.843287
0.690599 0.153747 0.843933
0.820398 0.155718 0.844556
0.940979 0.157548 0.845134
0.975269 0.158533 0.845011
0.074176 0.268153 0.842875
0.180933 0.269774 0.843388
0.301514 0.271604 0.843966
0.431313 0.273575 0.844589
0.565719 0.275615 0.845235
0.700126 0.277655 0.845880
0.829924 0.279626 0.846503
0.950506 0.281456 0.847082
0.978849 0.282388 0.846905
0.084430 0.401532 0.844971
0.191187 0.403152 0.845483
0.311769 0.404983 0.846062
0.441567 0.406953 0.846685
0.575974 0.408993 0.847330
0.710380 0.411034 0.847976
0.840179 0.413004 0.848599
0.960760 0.414835 0.849177
0.982701 0.415711 0.848945
0.095049 0.539645 0.847141
0.201806 0.541266 0.847654
0.322388 0.543097 0.848233
0.452186 0.545067 0.848856
0.586592 0.547107 0.849501
0.720999 0.549148 0.850146
0.850797 0.551118 0.850769
0.971379 0.552948 0.851348
0.986691 0.553766 0.851057
0.105667 0.677759 0.849312
0.212424 0.679380 0.849824
0.333006 0.681210 0.850403
0.462805 0.683181 0.851026
0.597211 0.685221 0.851671
0.731618 0.687261 0.852316
0.861416 0.689232 0.852939
0.981998 0.691062 0.853518
0.990680 0.691822 0.853169
0.115922 0.811138 0.851408
0.222679 0.812758 0.851920
0.343261 0.814589 0.852499
0.473059 0.816559 0.853122
0.607466 0.818600 0.853767
0.741872 0.820640 0.854412
0.871670 0.822610 0.855035
0.992252 0.824441 0.855614
0.994533 0.825144 0.855209
0.125448 0.935046 0.853355
0.232205 0.936666 0.853867
0.352787 0.938497 0.854446
0.482586 0.940467 0.855069
0.616992 0.942507 0.855714
0.751399 0.944548 0.856359
0.881197 0.946518 0.856982
0.998094 0.948316 0.857529
0.998112 0.949000 0.857104
0.132355 0.991969 0.853551
0.239093 0.992905 0.854044
0.359652 0.993962 0.854600
0.489426 0.995100 0.855199
0.623808 0.996278 0.855819
0.758189 0.997456 0.856440
0.887963 0.998594 0.857039
0.999573 0.999573 0.857516
0.999571 0.999571 0.857072
0.057066 0.035094 0.943628
0.163823 0.036714 0.944141
0.284405 0.038545 0.944719
0.414204 0.040515 0.945342
0.548610 0.042556 0.945988
0.683017 0.044596 0.946633
0.812815 0.046566 0.947256
0.933397 0.048397 0.947835
0.972420 0.049423 0.947752
0.065501 0.144796 0.945352
0.172258 0.146416 0.945865
0.292839 0.148247 0.946443
0.422638 0.150217 0.947066
0.557044 0.152257 0.947711
0.691451 0.154298 0.948357
0.821249 0.156268 0.948980
0.941831 0.158099 0.949558
0.975589 0.159078 0.949430
0.075027 0.268703 0.947299
0.181784 0.270324 0.947812
0.302366 0.272155 0.948390
0.432164 0.274125 0.949013
0.566571 0.276165 0.949659
0.700977 0.278206 0.950304
0.830775 0.280176 0.950927
0.951357 0.282006 0.951506
0.979168 0.282934 0.951325
0.085282 0.402082 0.949395
0.192039 0.403703 0.949908
0.312620 0.405533 0.950486
0.442419 0.407503 0.951109
0.576825 0.409544 0.951754
0.711232 0.411584 0.952400
0.841030 0.413555 0.953023
0.961612 0.415385 0.953601
0.983021 0.416256 0.953365
0.095900 0.540196 0.951565
0.202657 0.541816 0.952078
0.323239 0.543647 0.952657
0.453037 0.545617 0.953280
0.587444 0.547658 0.953925
0.721850 0.549698 0.954570
0.851649 0.551668 0.955193
0.972230 0.553499 0.955772
0.987011 0.554312 0.955477
0.106519 0.678310 0.953736
0.213276 0.679930 0.954248
0.333858 0.681761 0.954827
0.463656 0.683731 0.955450
0.598062 0.685771 0.956095
0.732469 0.687812 0.956740
0.862267 0.689782 0.957363
0.982849 0.691613 0.957942
0.991000 0.692367 0.957589
0.116773 0.811688 0.955832
0.223530 0.813309 0.956344
0.344112 0.815139 0.956923
0.473911 0.817110 0.957546
0.608317 0.819150 0.958191
0.742724 0.821190 0.958836
0.872522 0.823161 0.959459
0.993104 0.824991 0.960038
0.994853 0.825690 0.959628
0.126300 0.935596 0.957779
0.233057 0.937217 0.958291
0.353639 0.939047 0.958870
0.483437 0.941017 0.959493
0.617843 0.943058 0.960138
0.752250 0.945098 0.960783
0.882048 0.947069 0.961406
0.998414 0.948862 0.961948
0.998432 0.949545 0.961523
0.133200 0.992287 0.957969
0.239937 0.993223 0.958461
0.360497 0.994280 0.959018
0.490271 0.995418 0.959617
0.624652 0.996596 0.960237
0.759034 0.997774 0.960857
0.888808 0.998912 0.961456
0.999886 0.999886 0.961929
0.999884 0.999884 0.961484
