assets/luts/dusk.cube
# Dusk — Studio filter "dusk"
# Generated by scripts/generate-filter-luts.mjs — do not edit by hand.
LUT_3D_SIZE 17
DOMAIN_MIN 0.0 0.0 0.0
DOMAIN_MAX 1.0 1.0 1.0
0.060000 0.000000 0.090000
0.111315 0.000000 0.089889
0.167273 0.000000 0.089767
0.225129 0.000000 0.089642
0.284252 0.000000 0.089514
0.344336 0.000000 0.089383
0.405198 0.000000 0.089251
0.466713 0.000000 0.089118
0.528793 0.000000 0.088983
0.591372 0.000000 0.088847
0.654398 0.000000 0.088711
0.717827 0.000000 0.088573
0.781627 0.000000 0.088435
0.845766 0.000000 0.088295
0.910222 0.000000 0.088156
0.974973 0.000000 0.088015
1.000000 0.000000 0.087874
0.060000 0.042439 0.089626
0.111315 0.042773 0.089514
0.167273 0.043137 0.089393
0.225129 0.043514 0.089267
0.284252 0.043898 0.089139
0.344336 0.044289 0.089009
0.405198 0.044685 0.088877
0.466713 0.045086 0.088743
0.528793 0.045490 0.088609
0.591372 0.045897 0.088473
0.654398 0.046307 0.088336
0.717827 0.046720 0.088198
0.781627 0.047135 0.088060
0.845766 0.047553 0.087921
0.910222 0.047972 0.087781
0.974973 0.048394 0.087641
1.000000 0.048817 0.087500
0.060000 0.099622 0.089217
0.111315 0.099956 0.089106
0.167273 0.100320 0.088984
0.225129 0.100697 0.088859
0.284252 0.101082 0.088731
0.344336 0.101473 0.088600
0.405198 0.101869 0.088468
0.466713 0.102269 0.088335
0.528793 0.102673 0.088200
0.591372 0.103080 0.088064
0.654398 0.103490 0.087928
0.717827 0.103903 0.087790
0.781627 0.104318 0.087652
0.845766 0.104736 0.087512
0.910222 0.105155 0.087373
0.974973 0.105577 0.087232
1.000000 0.106000 0.087091
0.060000 0.158744 0.088795
0.111315 0.159078 0.088684
0.167273 0.159442 0.088562
0.225129 0.159819 0.088437
0.284252 0.160204 0.088308
0.344336 0.160595 0.088178
0.405198 0.160991 0.088046
0.466713 0.161391 0.087913
0.528793 0.161795 0.087778
0.591372 0.162203 0.087642
0.654398 0.162613 0.087505
0.717827 0.163025 0.087368
0.781627 0.163441 0.087229
0.845766 0.163858 0.087090
0.910222 0.164278 0.086950
0.974973 0.164699 0.086810
1.000000 0.165122 0.086669
0.060000 0.219162 0.088363
0.111315 0.219496 0.088252
0.167273 0.219860 0.088131
0.225129 0.220237 0.088005
0.284252 0.220621 0.087877
0.344336 0.221012 0.087747
0.405198 0.221409 0.087615
0.466713 0.221809 0.087481
0.528793 0.222213 0.087346
0.591372 0.222620 0.087211
0.654398 0.223030 0.087074
0.717827 0.223443 0.086936
0.781627 0.223858 0.086798
0.845766 0.224276 0.086659
0.910222 0.224695 0.086519
0.974973 0.225117 0.086378
1.000000 0.225540 0.086237
0.060000 0.280562 0.087925
0.111315 0.280896 0.087814
0.167273 0.281260 0.087692
0.225129 0.281636 0.087567
0.284252 0.282021 0.087438
0.344336 0.282412 0.087308
0.405198 0.282808 0.087176
0.466713 0.283209 0.087043
0.528793 0.283613 0.086908
0.591372 0.284020 0.086772
0.654398 0.284430 0.086635
0.717827 0.284843 0.086498
0.781627 0.285258 0.086359
0.845766 0.285676 0.086220
0.910222 0.286095 0.086080
0.974973 0.286516 0.085940
1.000000 0.286940 0.085799
0.060000 0.342755 0.087481
0.111315 0.343089 0.087369
0.167273 0.343454 0.087248
0.225129 0.343830 0.087123
0.284252 0.344215 0.086994
0.344336 0.344606 0.086864
0.405198 0.345002 0.086732
0.466713 0.345402 0.086598
0.528793 0.345806 0.086464
0.591372 0.346214 0.086328
0.654398 0.346624 0.086191
0.717827 0.347037 0.086054
0.781627 0.347452 0.085915
0.845766 0.347869 0.085776
0.910222 0.348289 0.085636
0.974973 0.348710 0.085496
1.000000 0.349133 0.085355
0.060000 0.405617 0.087032
0.111315 0.405951 0.086921
0.167273 0.406315 0.086799
0.225129 0.406692 0.086674
0.284252 0.407077 0.086545
0.344336 0.407468 0.086415
0.405198 0.407864 0.086283
0.466713 0.408264 0.086150
0.528793 0.408668 0.086015
0.591372 0.409076 0.085879
0.654398 0.409486 0.085742
0.717827 0.409899 0.085605
0.781627 0.410314 0.085466
0.845766 0.410731 0.085327
0.910222 0.411151 0.085187
0.974973 0.411572 0.085047
1.000000 0.411995 0.084906
0.060000 0.469057 0.086579
0.111315 0.469391 0.086467
0.167273 0.469755 0.086346
0.225129 0.470132 0.086221
0.284252 0.470516 0.086092
0.344336 0.470908 0.085962
0.405198 0.471304 0.085830
0.466713 0.471704 0.085696
0.528793 0.472108 0.085562
0.591372 0.472515 0.085426
0.654398 0.472925 0.085289
0.717827 0.473338 0.085152
0.781627 0.473753 0.085013
0.845766 0.474171 0.084874
0.910222 0.474590 0.084734
0.974973 0.475012 0.084594
1.000000 0.475435 0.084453
0.060000 0.533006 0.086122
0.111315 0.533340 0.086011
0.167273 0.533704 0.085889
0.225129 0.534081 0.085764
0.284252 0.534466 0.085636
0.344336 0.534857 0.085505
0.405198 0.535253 0.085373
0.466713 0.535653 0.085240
0.528793 0.536057 0.085105
0.591372 0.536464 0.084969
0.654398 0.536875 0.084833
0.717827 0.537287 0.084695
0.781627 0.537703 0.084557
0.845766 0.538120 0.084417
0.910222 0.538540 0.084278
0.974973 0.538961 0.084137
1.000000 0.539384 0.083996
0.060000 0.597411 0.085662
0.111315 0.597745 0.085551
0.167273 0.598110 0.085429
0.225129 0.598486 0.085304
0.284252 0.598871 0.085176
0.344336 0.599262 0.085045
0.405198 0.599658 0.084913
0.466713 0.600058 0.084780
0.528793 0.600462 0.084645
0.591372 0.600870 0.084509
0.654398 0.601280 0.084373
0.717827 0.601693 0.084235
0.781627 0.602108 0.084097
0.845766 0.602525 0.083957
0.910222 0.602945 0.083818
0.974973 0.603366 0.083677
1.000000 0.603789 0.083536
0.060000 0.662230 0.085199
0.111315 0.662564 0.085088
0.167273 0.662928 0.084966
0.225129 0.663304 0.084841
0.284252 0.663689 0.084713
0.344336 0.664080 0.084582
0.405198 0.664476 0.084450
0.466713 0.664877 0.084317
0.528793 0.665281 0.084182
0.591372 0.665688 0.084046
0.654398 0.666098 0.083910
0.717827 0.666511 0.083772
0.781627 0.666926 0.083634
0.845766 0.667344 0.083495
0.910222 0.667763 0.083355
0.974973 0.668185 0.083214
1.000000 0.668608 0.083073
0.060000 0.727426 0.084734
0.111315 0.727760 0.084622
0.167273 0.728124 0.084501
0.225129 0.728500 0.084375
0.284252 0.728885 0.084247
0.344336 0.729276 0.084117
0.405198 0.729672 0.083985
0.466713 0.730073 0.083851
0.528793 0.730477 0.083717
0.591372 0.730884 0.083581
0.654398 0.731294 0.083444
0.717827 0.731707 0.083307
0.781627 0.732122 0.083168
0.845766 0.732540 0.083029
0.910222 0.732959 0.082889
0.974973 0.733381 0.082749
1.000000 0.733804 0.082608
0.060000 0.792970 0.084266
0.111315 0.793304 0.084154
0.167273 0.793668 0.084033
0.225129 0.794045 0.083907
0.284252 0.794429 0.083779
0.344336 0.794820 0.083649
0.405198 0.795217 0.083517
0.466713 0.795617 0.083383
0.528793 0.796021 0.083249
0.591372 0.796428 0.083113
0.654398 0.796838 0.082976
0.717827 0.797251 0.082838
0.781627 0.797666 0.082700
0.845766 0.798084 0.082561
0.910222 0.798503 0.082421
0.974973 0.798925 0.082281
1.000000 0.799348 0.082140
0.060000 0.858837 0.083795
0.111315 0.859171 0.083684
0.167273 0.859535 0.083562
0.225129 0.859912 0.083437
0.284252 0.860296 0.083309
0.344336 0.860688 0.083178
0.405198 0.861084 0.083046
0.466713 0.861484 0.082913
0.528793 0.861888 0.082778
0.591372 0.862295 0.082642
0.654398 0.862705 0.082506
0.717827 0.863118 0.082368
0.781627 0.863533 0.082230
0.845766 0.863951 0.082090
0.910222 0.864370 0.081951
0.974973 0.864792 0.081810
1.000000 0.865215 0.081669
0.060000 0.925005 0.083323
0.111315 0.925339 0.083211
0.167273 0.925703 0.083090
0.225129 0.926080 0.082964
0.284252 0.926465 0.082836
0.344336 0.926856 0.082706
0.405198 0.927252 0.082574
0.466713 0.927652 0.082440
0.528793 0.928056 0.082306
0.591372 0.928464 0.082170
0.654398 0.928874 0.082033
0.717827 0.929287 0.081895
0.781627 0.929702 0.081757
0.845766 0.930119 0.081618
0.910222 0.930539 0.081478
0.974973 0.930960 0.081338
1.000000 0.931383 0.081197
0.060000 0.991456 0.082848
0.111315 0.991790 0.082737
0.167273 0.992154 0.082615
0.225129 0.992531 0.082490
0.284252 0.992915 0.082362
0.344336 0.993307 0.082231
0.405198 0.993703 0.082099
0.466713 0.994103 0.081966
0.528793 0.994507 0.081831
0.591372 0.994914 0.081695
0.654398 0.995324 0.081559
0.717827 0.995737 0.081421
0.781627 0.996152 0.081283
0.845766 0.996570 0.081143
0.910222 0.996989 0.081004
0.974973 0.997411 0.080863
1.000000 0.997834 0.080722
0.060000 0.000000 0.141278
0.111315 0.000000 0.141166
0.167273 0.000000 0.141045
0.225129 0.000000 0.140919
0.284252 0.000000 0.140791
0.344336 0.000000 0.140661
0.405198 0.000000 0.140529
0.466713 0.000000 0.140395
0.528793 0.000000 0.140261
0.591372 0.000000 0.140125
0.654398 0.000000 0.139988
0.717827 0.000000 0.139850
0.781627 0.000000 0.139712
0.845766 0.000000 0.139573
0.910222 0.000000 0.139433
0.974973 0.000000 0.139293
1.000000 0.000000 0.139152
0.060000 0.042552 0.140903
0.111315 0.042886 0.140792
0.167273 0.043250 0.140670
0.225129 0.043627 0.140545
0.284252 0.044012 0.140417
0.344336 0.044403 0.140286
0.405198 0.044799 0.140154
0.466713 0.045199 0.140021
0.528793 0.045603 0.139886
0.591372 0.046011 0.139750
0.654398 0.046421 0.139614
0.717827 0.046834 0.139476
0.781627 0.047249 0.139338
0.845766 0.047666 0.139198
0.910222 0.048086 0.139059
0.974973 0.048507 0.138918
1.000000 0.048930 0.138777
0.060000 0.099735 0.140495
0.111315 0.100069 0.140383
0.167273 0.100434 0.140262
0.225129 0.100810 0.140136
0.284252 0.101195 0.140008
0.344336 0.101586 0.139878
0.405198 0.101982 0.139746
0.466713 0.102382 0.139612
0.528793 0.102786 0.139478
0.591372 0.103194 0.139342
0.654398 0.103604 0.139205
0.717827 0.104017 0.139068
0.781627 0.104432 0.138929
0.845766 0.104849 0.138790
0.910222 0.105269 0.138650
0.974973 0.105690 0.138510
1.000000 0.106113 0.138369
0.060000 0.158858 0.140072
0.111315 0.159192 0.139961
0.167273 0.159556 0.139840
0.225129 0.159932 0.139714
0.284252 0.160317 0.139586
0.344336 0.160708 0.139456
0.405198 0.161104 0.139324
0.466713 0.161505 0.139190
0.528793 0.161909 0.139055
0.591372 0.162316 0.138920
0.654398 0.162726 0.138783
0.717827 0.163139 0.138645
0.781627 0.163554 0.138507
0.845766 0.163972 0.138368
0.910222 0.164391 0.138228
0.974973 0.164812 0.138088
1.000000 0.165236 0.137946
0.060000 0.219275 0.139641
0.111315 0.219609 0.139530
0.167273 0.219974 0.139408
0.225129 0.220350 0.139283
0.284252 0.220735 0.139154
0.344336 0.221126 0.139024
0.405198 0.221522 0.138892
0.466713 0.221922 0.138759
0.528793 0.222326 0.138624
0.591372 0.222734 0.138488
0.654398 0.223144 0.138351
0.717827 0.223557 0.138214
0.781627 0.223972 0.138075
0.845766 0.224389 0.137936
0.910222 0.224809 0.137797
0.974973 0.225230 0.137656
1.000000 0.225653 0.137515
0.060000 0.280675 0.139202
0.111315 0.281009 0.139091
0.167273 0.281373 0.138970
0.225129 0.281750 0.138844
0.284252 0.282135 0.138716
0.344336 0.282526 0.138586
0.405198 0.282922 0.138454
0.466713 0.283322 0.138320
0.528793 0.283726 0.138185
0.591372 0.284133 0.138050
0.654398 0.284543 0.137913
0.717827 0.284956 0.137775
0.781627 0.285372 0.137637
0.845766 0.285789 0.137498
0.910222 0.286208 0.137358
0.974973 0.286630 0.137218
1.000000 0.287053 0.137076
0.060000 0.342869 0.138758
0.111315 0.343203 0.138647
0.167273 0.343567 0.138526
0.225129 0.343943 0.138400
0.284252 0.344328 0.138272
0.344336 0.344719 0.138141
0.405198 0.345115 0.138009
0.466713 0.345516 0.137876
0.528793 0.345920 0.137741
0.591372 0.346327 0.137606
0.654398 0.346737 0.137469
0.717827 0.347150 0.137331
0.781627 0.347565 0.137193
0.845766 0.347983 0.137054
0.910222 0.348402 0.136914
0.974973 0.348824 0.136773
1.000000 0.349247 0.136632
0.060000 0.405731 0.138309
0.111315 0.406065 0.138198
0.167273 0.406429 0.138077
0.225129 0.406805 0.137951
0.284252 0.407190 0.137823
0.344336 0.407581 0.137693
0.405198 0.407977 0.137561
0.466713 0.408378 0.137427
0.528793 0.408782 0.137292
0.591372 0.409189 0.137157
0.654398 0.409599 0.137020
0.717827 0.410012 0.136882
0.781627 0.410427 0.136744
0.845766 0.410845 0.136605
0.910222 0.411264 0.136465
0.974973 0.411686 0.136324
1.000000 0.412109 0.136183
0.060000 0.469170 0.137856
0.111315 0.469504 0.137745
0.167273 0.469869 0.137624
0.225129 0.470245 0.137498
0.284252 0.470630 0.137370
0.344336 0.471021 0.137239
0.405198 0.471417 0.137107
0.466713 0.471817 0.136974
0.528793 0.472221 0.136839
0.591372 0.472629 0.136704
0.654398 0.473039 0.136567
0.717827 0.473452 0.136429
0.781627 0.473867 0.136291
0.845766 0.474284 0.136152
0.910222 0.474704 0.136012
0.974973 0.475125 0.135871
1.000000 0.475548 0.135730
0.060000 0.533120 0.137400
0.111315 0.533454 0.137288
0.167273 0.533818 0.137167
0.225129 0.534194 0.137041
0.284252 0.534579 0.136913
0.344336 0.534970 0.136783
0.405198 0.535366 0.136651
0.466713 0.535767 0.136517
0.528793 0.536171 0.136383
0.591372 0.536578 0.136247
0.654398 0.536988 0.136110
0.717827 0.537401 0.135973
0.781627 0.537816 0.135834
0.845766 0.538233 0.135695
0.910222 0.538653 0.135555
0.974973 0.539074 0.135415
1.000000 0.539498 0.135274
0.060000 0.597525 0.136940
0.111315 0.597859 0.136828
0.167273 0.598223 0.136707
0.225129 0.598600 0.136581
0.284252 0.598984 0.136453
0.344336 0.599375 0.136323
0.405198 0.599771 0.136191
0.466713 0.600172 0.136057
0.528793 0.600576 0.135923
0.591372 0.600983 0.135787
0.654398 0.601393 0.135650
0.717827 0.601806 0.135513
0.781627 0.602221 0.135374
0.845766 0.602639 0.135235
0.910222 0.603058 0.135095
0.974973 0.603480 0.134955
1.000000 0.603903 0.134814
0.060000 0.662343 0.136477
0.111315 0.662677 0.136365
0.167273 0.663041 0.136244
0.225129 0.663418 0.136119
0.284252 0.663803 0.135990
0.344336 0.664194 0.135860
0.405198 0.664590 0.135728
0.466713 0.664990 0.135594
0.528793 0.665394 0.135460
0.591372 0.665801 0.135324
0.654398 0.666212 0.135187
0.717827 0.666624 0.135050
0.781627 0.667040 0.134911
0.845766 0.667457 0.134772
0.910222 0.667877 0.134632
0.974973 0.668298 0.134492
1.000000 0.668721 0.134351
0.060000 0.727539 0.136011
0.111315 0.727873 0.135900
0.167273 0.728237 0.135778
0.225129 0.728614 0.135653
0.284252 0.728999 0.135525
0.344336 0.729390 0.135394
0.405198 0.729786 0.135262
0.466713 0.730186 0.135129
0.528793 0.730590 0.134994
0.591372 0.730997 0.134858
0.654398 0.731408 0.134722
0.717827 0.731820 0.134584
0.781627 0.732236 0.134446
0.845766 0.732653 0.134307
0.910222 0.733073 0.134167
0.974973 0.733494 0.134026
1.000000 0.733917 0.133885
0.060000 0.793083 0.135543
0.111315 0.793417 0.135432
0.167273 0.793782 0.135310
0.225129 0.794158 0.135185
0.284252 0.794543 0.135057
0.344336 0.794934 0.134926
0.405198 0.795330 0.134794
0.466713 0.795730 0.134661
0.528793 0.796134 0.134526
0.591372 0.796542 0.134390
0.654398 0.796952 0.134254
0.717827 0.797365 0.134116
0.781627 0.797780 0.133978
0.845766 0.798197 0.133838
0.910222 0.798617 0.133699
0.974973 0.799038 0.133558
1.000000 0.799461 0.133417
0.060000 0.858950 0.135073
0.111315 0.859284 0.134961
0.167273 0.859649 0.134840
0.225129 0.860025 0.134714
0.284252 0.860410 0.134586
0.344336 0.860801 0.134456
0.405198 0.861197 0.134324
0.466713 0.861597 0.134190
0.528793 0.862001 0.134056
0.591372 0.862409 0.133920
0.654398 0.862819 0.133783
0.717827 0.863232 0.133646
0.781627 0.863647 0.133507
0.845766 0.864064 0.133368
0.910222 0.864484 0.133228
0.974973 0.864905 0.133088
1.000000 0.865328 0.132947
0.060000 0.925119 0.134600
0.111315 0.925453 0.134489
0.167273 0.925817 0.134367
0.225129 0.926193 0.134242
0.284252 0.926578 0.134114
0.344336 0.926969 0.133983
0.405198 0.927365 0.133851
0.466713 0.927766 0.133718
0.528793 0.928170 0.133583
0.591372 0.928577 0.133447
0.654398 0.928987 0.133311
0.717827 0.929400 0.133173
0.781627 0.929815 0.133035
0.845766 0.930233 0.132895
0.910222 0.930652 0.132756
0.974973 0.931074 0.132615
1.000000 0.931497 0.132474
0.060000 0.991569 0.134126
0.111315 0.991903 0.134014
0.167273 0.992268 0.133893
0.225129 0.992644 0.133767
0.284252 0.993029 0.133639
0.344336 0.993420 0.133509
0.405198 0.993816 0.133377
0.466713 0.994216 0.133243
0.528793 0.994620 0.133109
0.591372 0.995028 0.132973
0.654398 0.995438 0.132836
0.717827 0.995851 0.132698
0.781627 0.996266 0.132560
0.845766 0.996683 0.132421
0.910222 0.997103 0.132281
0.974973 0.997524 0.132141
1.000000 0.997947 0.132000
0.060000 0.000000 0.197194
0.111315 0.000000 0.197083
0.167273 0.000000 0.196962
0.225129 0.000000 0.196836
0.284252 0.000000 0.196708
0.344336 0.000000 0.196578
0.405198 0.000000 0.196446
0.466713 0.000000 0.196312
0.528793 0.000000 0.196177
0.591372 0.000000 0.196042
0.654398 0.000000 0.195905
0.717827 0.000000 0.195767
0.781627 0.000000 0.195629
0.845766 0.000000 0.195490
0.910222 0.000000 0.195350
0.974973 0.000000 0.195209
1.000000 0.000000 0.195068
0.060000 0.042676 0.196820
0.111315 0.043010 0.196709
0.167273 0.043374 0.196587
0.225129 0.043751 0.196462
0.284252 0.044135 0.196333
0.344336 0.044526 0.196203
0.405198 0.044923 0.196071
0.466713 0.045323 0.195938
0.528793 0.045727 0.195803
0.591372 0.046134 0.195667
0.654398 0.046544 0.195530
0.717827 0.046957 0.195393
0.781627 0.047372 0.195254
0.845766 0.047790 0.195115
0.910222 0.048209 0.194975
0.974973 0.048631 0.194835
1.000000 0.049054 0.194694
0.060000 0.099859 0.196411
0.111315 0.100193 0.196300
0.167273 0.100557 0.196179
0.225129 0.100934 0.196053
0.284252 0.101319 0.195925
0.344336 0.101710 0.195795
0.405198 0.102106 0.195663
0.466713 0.102506 0.195529
0.528793 0.102910 0.195394
0.591372 0.103317 0.195259
0.654398 0.103728 0.195122
0.717827 0.104140 0.194984
0.781627 0.104556 0.194846
0.845766 0.104973 0.194707
0.910222 0.105393 0.194567
0.974973 0.105814 0.194427
1.000000 0.106237 0.194285
0.060000 0.158981 0.195989
0.111315 0.159315 0.195878
0.167273 0.159679 0.195757
0.225129 0.160056 0.195631
0.284252 0.160441 0.195503
0.344336 0.160832 0.195372
0.405198 0.161228 0.195240
0.466713 0.161628 0.195107
0.528793 0.162032 0.194972
0.591372 0.162440 0.194837
0.654398 0.162850 0.194700
0.717827 0.163263 0.194562
0.781627 0.163678 0.194424
0.845766 0.164095 0.194285
0.910222 0.164515 0.194145
0.974973 0.164936 0.194004
1.000000 0.165359 0.193863
0.060000 0.219399 0.195558
0.111315 0.219733 0.195446
0.167273 0.220097 0.195325
0.225129 0.220474 0.195200
0.284252 0.220859 0.195071
0.344336 0.221250 0.194941
0.405198 0.221646 0.194809
0.466713 0.222046 0.194675
0.528793 0.222450 0.194541
0.591372 0.222857 0.194405
0.654398 0.223267 0.194268
0.717827 0.223680 0.194131
0.781627 0.224096 0.193992
0.845766 0.224513 0.193853
0.910222 0.224932 0.193713
0.974973 0.225354 0.193573
1.000000 0.225777 0.193432
0.060000 0.280799 0.195119
0.111315 0.281133 0.195008
0.167273 0.281497 0.194887
0.225129 0.281873 0.194761
0.284252 0.282258 0.194633
0.344336 0.282649 0.194502
0.405198 0.283045 0.194370
0.466713 0.283446 0.194237
0.528793 0.283850 0.194102
0.591372 0.284257 0.193967
0.654398 0.284667 0.193830
0.717827 0.285080 0.193692
0.781627 0.285495 0.193554
0.845766 0.285913 0.193415
0.910222 0.286332 0.193275
0.974973 0.286754 0.193134
1.000000 0.287177 0.192993
0.060000 0.342992 0.194675
0.111315 0.343326 0.194564
0.167273 0.343691 0.194442
0.225129 0.344067 0.194317
0.284252 0.344452 0.194189
0.344336 0.344843 0.194058
0.405198 0.345239 0.193926
0.466713 0.345639 0.193793
0.528793 0.346043 0.193658
0.591372 0.346451 0.193522
0.654398 0.346861 0.193386
0.717827 0.347274 0.193248
0.781627 0.347689 0.193110
0.845766 0.348106 0.192970
0.910222 0.348526 0.192831
0.974973 0.348947 0.192690
1.000000 0.349370 0.192549
0.060000 0.405854 0.194226
0.111315 0.406188 0.194115
0.167273 0.406553 0.193993
0.225129 0.406929 0.193868
0.284252 0.407314 0.193740
0.344336 0.407705 0.193609
0.405198 0.408101 0.193477
0.466713 0.408501 0.193344
0.528793 0.408905 0.193209
0.591372 0.409313 0.193073
0.654398 0.409723 0.192937
0.717827 0.410136 0.192799
0.781627 0.410551 0.192661
0.845766 0.410968 0.192522
0.910222 0.411388 0.192382
0.974973 0.411809 0.192241
1.000000 0.412232 0.192100
0.060000 0.469294 0.193773
0.111315 0.469628 0.193662
0.167273 0.469992 0.193540
0.225129 0.470369 0.193415
0.284252 0.470754 0.193287
0.344336 0.471145 0.193156
0.405198 0.471541 0.193024
0.466713 0.471941 0.192891
0.528793 0.472345 0.192756
0.591372 0.472752 0.192620
0.654398 0.473163 0.192484
0.717827 0.473575 0.192346
0.781627 0.473991 0.192208
0.845766 0.474408 0.192069
0.910222 0.474827 0.191929
0.974973 0.475249 0.191788
1.000000 0.475672 0.191647
0.060000 0.533243 0.193316
0.111315 0.533577 0.193205
0.167273 0.533941 0.193084
0.225129 0.534318 0.192958
0.284252 0.534703 0.192830
0.344336 0.535094 0.192700
0.405198 0.535490 0.192568
0.466713 0.535890 0.192434
0.528793 0.536294 0.192299
0.591372 0.536702 0.192164
0.654398 0.537112 0.192027
0.717827 0.537525 0.191889
0.781627 0.537940 0.191751
0.845766 0.538357 0.191612
0.910222 0.538777 0.191472
0.974973 0.539198 0.191332
1.000000 0.539621 0.191190
0.060000 0.597649 0.192856
0.111315 0.597982 0.192745
0.167273 0.598347 0.192624
0.225129 0.598723 0.192498
0.284252 0.599108 0.192370
0.344336 0.599499 0.192240
0.405198 0.599895 0.192108
0.466713 0.600295 0.191974
0.528793 0.600700 0.191839
0.591372 0.601107 0.191704
0.654398 0.601517 0.191567
0.717827 0.601930 0.191429
0.781627 0.602345 0.191291
0.845766 0.602762 0.191152
0.910222 0.603182 0.191012
0.974973 0.603603 0.190872
1.000000 0.604027 0.190730
0.060000 0.662467 0.192394
0.111315 0.662801 0.192282
0.167273 0.663165 0.192161
0.225129 0.663542 0.192035
0.284252 0.663926 0.191907
0.344336 0.664317 0.191777
0.405198 0.664713 0.191645
0.466713 0.665114 0.191511
0.528793 0.665518 0.191377
0.591372 0.665925 0.191241
0.654398 0.666335 0.191104
0.717827 0.666748 0.190966
0.781627 0.667163 0.190828
0.845766 0.667581 0.190689
0.910222 0.668000 0.190549
0.974973 0.668422 0.190409
1.000000 0.668845 0.190268
0.060000 0.727663 0.191928
0.111315 0.727997 0.191817
0.167273 0.728361 0.191695
0.225129 0.728738 0.191570
0.284252 0.729122 0.191441
0.344336 0.729513 0.191311
0.405198 0.729909 0.191179
0.466713 0.730310 0.191046
0.528793 0.730714 0.190911
0.591372 0.731121 0.190775
0.654398 0.731531 0.190638
0.717827 0.731944 0.190501
0.781627 0.732359 0.190362
0.845766 0.732777 0.190223
0.910222 0.733196 0.190084
0.974973 0.733618 0.189943
1.000000 0.734041 0.189802
0.060000 0.793207 0.191460
0.111315 0.793541 0.191349
0.167273 0.793905 0.191227
0.225129 0.794282 0.191102
0.284252 0.794667 0.190973
0.344336 0.795058 0.190843
0.405198 0.795454 0.190711
0.466713 0.795854 0.190578
0.528793 0.796258 0.190443
0.591372 0.796665 0.190307
0.654398 0.797075 0.190170
0.717827 0.797488 0.190033
0.781627 0.797903 0.189894
0.845766 0.798321 0.189755
0.910222 0.798740 0.189615
0.974973 0.799162 0.189475
1.000000 0.799585 0.189334
0.060000 0.859074 0.190989
0.111315 0.859408 0.190878
0.167273 0.859772 0.190757
0.225129 0.860149 0.190631
0.284252 0.860534 0.190503
0.344336 0.860925 0.190373
0.405198 0.861321 0.190241
0.466713 0.861721 0.190107
0.528793 0.862125 0.189972
0.591372 0.862532 0.189837
0.654398 0.862943 0.189700
0.717827 0.863355 0.189562
0.781627 0.863771 0.189424
0.845766 0.864188 0.189285
0.910222 0.864607 0.189145
0.974973 0.865029 0.189005
1.000000 0.865452 0.188863
0.060000 0.925242 0.190517
0.111315 0.925576 0.190406
0.167273 0.925941 0.190284
0.225129 0.926317 0.190159
0.284252 0.926702 0.190030
0.344336 0.927093 0.189900
0.405198 0.927489 0.189768
0.466713 0.927889 0.189635
0.528793 0.928293 0.189500
0.591372 0.928701 0.189364
0.654398 0.929111 0.189227
0.717827 0.929524 0.189090
0.781627 0.929939 0.188951
0.845766 0.930356 0.188812
0.910222 0.930776 0.188672
0.974973 0.931197 0.188532
1.000000 0.931620 0.188391
0.060000 0.991693 0.190042
0.111315 0.992027 0.189931
0.167273 0.992391 0.189810
0.225129 0.992768 0.189684
0.284252 0.993153 0.189556
0.344336 0.993544 0.189426
0.405198 0.993940 0.189294
0.466713 0.994340 0.189160
0.528793 0.994744 0.189025
0.591372 0.995151 0.188890
0.654398 0.995562 0.188753
0.717827 0.995974 0.188615
0.781627 0.996390 0.188477
0.845766 0.996807 0.188338
0.910222 0.997226 0.188198
0.974973 0.997648 0.188057
1.000000 0.998071 0.187916
0.060000 0.000000 0.255007
0.111315 0.000000 0.254896
0.167273 0.000000 0.254775
0.225129 0.000000 0.254649
0.284252 0.000000 0.254521
0.344336 0.000000 0.254390
0.405198 0.000000 0.254258
0.466713 0.000000 0.254125
0.528793 0.000000 0.253990
0.591372 0.000000 0.253855
0.654398 0.000000 0.253718
0.717827 0.000000 0.253580
0.781627 0.000000 0.253442
0.845766 0.000000 0.253303
0.910222 0.000000 0.253163
