assets/luts/dusk.cube
# Dusk — Studio filter "dusk"
# Generated by scripts/generate-filter-luts.mjs — do not edit by hand.
LUT_3D_SIZE 5
DOMAIN_MIN 0.0 0.0 0.0
DOMAIN_MAX 1.0 1.0 1.0
0.060000 0.000000 0.090000
0.284252 0.000000 0.089514
0.528793 0.000000 0.088983
0.781627 0.000000 0.088435
1.000000 0.000000 0.087874
0.060000 0.219162 0.088363
0.284252 0.220621 0.087877
0.528793 0.222213 0.087346
0.781627 0.223858 0.086798
1.000000 0.225540 0.086237
0.060000 0.469057 0.086579
0.284252 0.470516 0.086092
0.528793 0.472108 0.085562
0.781627 0.473753 0.085013
1.000000 0.475435 0.084453
0.060000 0.727426 0.084734
0.284252 0.728885 0.084247
0.528793 0.730477 0.083717
0.781627 0.732122 0.083168
1.000000 0.733804 0.082608
0.060000 0.991456 0.082848
0.284252 0.992915 0.082362
0.528793 0.994507 0.081831
0.781627 0.996152 0.081283
1.000000 0.997834 0.080722
0.060000 0.000000 0.314087
0.284252 0.000000 0.313601
0.528793 0.000000 0.313070
0.781627 0.000000 0.312522
1.000000 0.000000 0.311961
0.060000 0.219658 0.312450
0.284252 0.221117 0.311964
0.528793 0.222709 0.311433
0.781627 0.224354 0.310885
1.000000 0.226036 0.310324
0.060000 0.469553 0.310666
0.284252 0.471012 0.310179
0.528793 0.472604 0.309649
0.781627 0.474249 0.309100
1.000000 0.475931 0.308540
0.060000 0.727921 0.308821
0.284252 0.729381 0.308334
0.528793 0.730972 0.307804
0.781627 0.732618 0.307255
1.000000 0.734299 0.306695
0.060000 0.991952 0.306935
0.284252 0.993411 0.306449
0.528793 0.995003 0.305918
0.781627 0.996648 0.305370
1.000000 0.998330 0.304809
0.060000 0.000000 0.558448
0.284252 0.000000 0.557961
0.528793 0.000000 0.557431
0.781627 0.000000 0.556882
1.000000 0.000000 0.556322
0.060000 0.220198 0.556811
0.284252 0.221658 0.556325
0.528793 0.223249 0.555794
0.781627 0.224895 0.555246
1.000000 0.226576 0.554685
0.060000 0.470093 0.555027
0.284252 0.471553 0.554540
0.528793 0.473144 0.554010
0.781627 0.474790 0.553461
1.000000 0.476471 0.552901
0.060000 0.728462 0.553182
0.284252 0.729921 0.552695
0.528793 0.731513 0.552165
0.781627 0.733158 0.551616
1.000000 0.734840 0.551056
0.060000 0.992492 0.551296
0.284252 0.993952 0.550809
0.528793 0.995543 0.550279
0.781627 0.997189 0.549730
1.000000 0.998870 0.549170
0.060000 0.000000 0.811095
0.284252 0.000000 0.810608
0.528793 0.000000 0.810078
0.781627 0.000000 0.809529
1.000000 0.000000 0.808969
0.060000 0.220757 0.809458
0.284252 0.222216 0.808972
0.528793 0.223808 0.808441
0.781627 0.225453 0.807893
1.000000 0.227135 0.807332
0.060000 0.470652 0.807674
0.284252 0.472111 0.807187
0.528793 0.473703 0.806657
0.781627 0.475348 0.806108
1.000000 0.477030 0.805548
0.060000 0.729021 0.805829
0.284252 0.730480 0.805342
0.528793 0.732072 0.804812
0.781627 0.733717 0.804263
1.000000 0.735399 0.803703
0.060000 0.993051 0.803943
0.284252 0.994510 0.803456
0.528793 0.996102 0.802926
0.781627 0.997747 0.802377
1.000000 0.999429 0.801817
0.060000 0.000000 1.000000
0.284252 0.000000 1.000000
0.528793 0.000000 1.000000
0.781627 0.000000 1.000000
1.000000 0.000000 1.000000
0.060000 0.221328 1.000000
0.284252 0.222787 1.000000
0.528793 0.224379 1.000000
0.781627 0.226024 1.000000
1.000000 0.227706 1.000000
0.060000 0.471223 1.000000
0.284252 0.472682 1.000000
0.528793 0.474274 1.000000
0.781627 0.475919 1.000000
1.000000 0.477601 1.000000
0.060000 0.729592 1.000000
0.284252 0.731051 1.000000
0.528793 0.732643 1.000000
0.781627 0.734288 1.000000
1.000000 0.735970 1.000000
0.060000 0.993622 1.000000
0.284252 0.995081 1.000000
0.528793 0.996673 1.000000
0.781627 0.998318 1.000000
1.000000 1.000000 1.000000
