assets/luts/dusk.cube
# Dusk — Studio filter "dusk"
# Generated by scripts/generate-filter-luts.mjs — do not edit by hand.
LUT_3D_SIZE 9
DOMAIN_MIN 0.0 0.0 0.0
DOMAIN_MAX 1.0 1.0 1.0
0.060000 0.000000 0.090000
0.167273 0.000000 0.089767
0.284252 0.000000 0.089514
0.405198 0.000000 0.089251
0.528793 0.000000 0.088983
0.654398 0.000000 0.088711
0.781627 0.000000 0.088435
0.910222 0.000000 0.088156
1.000000 0.000000 0.087874
0.060000 0.099622 0.089217
0.167273 0.100320 0.088984
0.284252 0.101082 0.088731
0.405198 0.101869 0.088468
0.528793 0.102673 0.088200
0.654398 0.103490 0.087928
0.781627 0.104318 0.087652
0.910222 0.105155 0.087373
1.000000 0.106000 0.087091
0.060000 0.219162 0.088363
0.167273 0.219860 0.088131
0.284252 0.220621 0.087877
0.405198 0.221409 0.087615
0.528793 0.222213 0.087346
0.654398 0.223030 0.087074
0.781627 0.223858 0.086798
0.910222 0.224695 0.086519
1.000000 0.225540 0.086237
0.060000 0.342755 0.087481
0.167273 0.343454 0.087248
0.284252 0.344215 0.086994
0.405198 0.345002 0.086732
0.528793 0.345806 0.086464
0.654398 0.346624 0.086191
0.781627 0.347452 0.085915
0.910222 0.348289 0.085636
1.000000 0.349133 0.085355
0.060000 0.469057 0.086579
0.167273 0.469755 0.086346
0.284252 0.470516 0.086092
0.405198 0.471304 0.085830
0.528793 0.472108 0.085562
0.654398 0.472925 0.085289
0.781627 0.473753 0.085013
0.910222 0.474590 0.084734
1.000000 0.475435 0.084453
0.060000 0.597411 0.085662
0.167273 0.598110 0.085429
0.284252 0.598871 0.085176
0.405198 0.599658 0.084913
0.528793 0.600462 0.084645
0.654398 0.601280 0.084373
0.781627 0.602108 0.084097
0.910222 0.602945 0.083818
1.000000 0.603789 0.083536
0.060000 0.727426 0.084734
0.167273 0.728124 0.084501
0.284252 0.728885 0.084247
0.405198 0.729672 0.083985
0.528793 0.730477 0.083717
0.654398 0.731294 0.083444
0.781627 0.732122 0.083168
0.910222 0.732959 0.082889
1.000000 0.733804 0.082608
0.060000 0.858837 0.083795
0.167273 0.859535 0.083562
0.284252 0.860296 0.083309
0.405198 0.861084 0.083046
0.528793 0.861888 0.082778
0.654398 0.862705 0.082506
0.781627 0.863533 0.082230
0.910222 0.864370 0.081951
1.000000 0.865215 0.081669
0.060000 0.991456 0.082848
0.167273 0.992154 0.082615
0.284252 0.992915 0.082362
0.405198 0.993703 0.082099
0.528793 0.994507 0.081831
0.654398 0.995324 0.081559
0.781627 0.996152 0.081283
0.910222 0.996989 0.081004
1.000000 0.997834 0.080722
0.060000 0.000000 0.197194
0.167273 0.000000 0.196962
0.284252 0.000000 0.196708
0.405198 0.000000 0.196446
0.528793 0.000000 0.196177
0.654398 0.000000 0.195905
0.781627 0.000000 0.195629
0.910222 0.000000 0.195350
1.000000 0.000000 0.195068
0.060000 0.099859 0.196411
0.167273 0.100557 0.196179
0.284252 0.101319 0.195925
0.405198 0.102106 0.195663
0.528793 0.102910 0.195394
0.654398 0.103728 0.195122
0.781627 0.104556 0.194846
0.910222 0.105393 0.194567
1.000000 0.106237 0.194285
0.060000 0.219399 0.195558
0.167273 0.220097 0.195325
0.284252 0.220859 0.195071
0.405198 0.221646 0.194809
0.528793 0.222450 0.194541
0.654398 0.223267 0.194268
0.781627 0.224096 0.193992
0.910222 0.224932 0.193713
1.000000 0.225777 0.193432
0.060000 0.342992 0.194675
0.167273 0.343691 0.194442
0.284252 0.344452 0.194189
0.405198 0.345239 0.193926
0.528793 0.346043 0.193658
0.654398 0.346861 0.193386
0.781627 0.347689 0.193110
0.910222 0.348526 0.192831
1.000000 0.349370 0.192549
0.060000 0.469294 0.193773
0.167273 0.469992 0.193540
0.284252 0.470754 0.193287
0.405198 0.471541 0.193024
0.528793 0.472345 0.192756
0.654398 0.473163 0.192484
0.781627 0.473991 0.192208
0.910222 0.474827 0.191929
1.000000 0.475672 0.191647
0.060000 0.597649 0.192856
0.167273 0.598347 0.192624
0.284252 0.599108 0.192370
0.405198 0.599895 0.192108
0.528793 0.600700 0.191839
0.654398 0.601517 0.191567
0.781627 0.602345 0.191291
0.910222 0.603182 0.191012
1.000000 0.604027 0.190730
0.060000 0.727663 0.191928
0.167273 0.728361 0.191695
0.284252 0.729122 0.191441
0.405198 0.729909 0.191179
0.528793 0.730714 0.190911
0.654398 0.731531 0.190638
0.781627 0.732359 0.190362
0.910222 0.733196 0.190084
1.000000 0.734041 0.189802
0.060000 0.859074 0.190989
0.167273 0.859772 0.190757
0.284252 0.860534 0.190503
0.405198 0.861321 0.190241
0.528793 0.862125 0.189972
0.654398 0.862943 0.189700
0.781627 0.863771 0.189424
0.910222 0.864607 0.189145
1.000000 0.865452 0.188863
0.060000 0.991693 0.190042
0.167273 0.992391 0.189810
0.284252 0.993153 0.189556
0.405198 0.993940 0.189294
0.528793 0.994744 0.189025
0.654398 0.995562 0.188753
0.781627 0.996390 0.188477
0.910222 0.997226 0.188198
1.000000 0.998071 0.187916
0.060000 0.000000 0.314087
0.167273 0.000000 0.313854
0.284252 0.000000 0.313601
0.405198 0.000000 0.313338
0.528793 0.000000 0.313070
0.654398 0.000000 0.312798
0.781627 0.000000 0.312522
0.910222 0.000000 0.312243
1.000000 0.000000 0.311961
0.060000 0.100118 0.313304
0.167273 0.100816 0.313071
0.284252 0.101577 0.312818
0.405198 0.102364 0.312555
0.528793 0.103169 0.312287
0.654398 0.103986 0.312015
0.781627 0.104814 0.311739
0.910222 0.105651 0.311460
1.000000 0.106496 0.311178
0.060000 0.219658 0.312450
0.167273 0.220356 0.312218
0.284252 0.221117 0.311964
0.405198 0.221904 0.311702
0.528793 0.222709 0.311433
0.654398 0.223526 0.311161
0.781627 0.224354 0.310885
0.910222 0.225191 0.310606
1.000000 0.226036 0.310324
0.060000 0.343251 0.311568
0.167273 0.343949 0.311335
0.284252 0.344710 0.311081
0.405198 0.345498 0.310819
0.528793 0.346302 0.310551
0.654398 0.347119 0.310278
0.781627 0.347947 0.310002
0.910222 0.348784 0.309723
1.000000 0.349629 0.309442
0.060000 0.469553 0.310666
0.167273 0.470251 0.310433
0.284252 0.471012 0.310179
0.405198 0.471799 0.309917
0.528793 0.472604 0.309649
0.654398 0.473421 0.309376
0.781627 0.474249 0.309100
0.910222 0.475086 0.308821
1.000000 0.475931 0.308540
0.060000 0.597907 0.309749
0.167273 0.598605 0.309516
0.284252 0.599367 0.309263
0.405198 0.600154 0.309000
0.528793 0.600958 0.308732
0.654398 0.601776 0.308460
0.781627 0.602604 0.308184
0.910222 0.603440 0.307905
1.000000 0.604285 0.307623
0.060000 0.727921 0.308821
0.167273 0.728620 0.308588
0.284252 0.729381 0.308334
0.405198 0.730168 0.308072
0.528793 0.730972 0.307804
0.654398 0.731790 0.307531
0.781627 0.732618 0.307255
0.910222 0.733455 0.306976
1.000000 0.734299 0.306695
0.060000 0.859333 0.307882
0.167273 0.860031 0.307649
0.284252 0.860792 0.307396
0.405198 0.861579 0.307133
0.528793 0.862384 0.306865
0.654398 0.863201 0.306593
0.781627 0.864029 0.306317
0.910222 0.864866 0.306038
1.000000 0.865711 0.305756
0.060000 0.991952 0.306935
0.167273 0.992650 0.306702
0.284252 0.993411 0.306449
0.405198 0.994198 0.306186
0.528793 0.995003 0.305918
0.654398 0.995820 0.305646
0.781627 0.996648 0.305370
0.910222 0.997485 0.305091
1.000000 0.998330 0.304809
0.060000 0.000000 0.434943
0.167273 0.000000 0.434711
0.284252 0.000000 0.434457
0.405198 0.000000 0.434194
0.528793 0.000000 0.433926
0.654398 0.000000 0.433654
0.781627 0.000000 0.433378
0.910222 0.000000 0.433099
1.000000 0.000000 0.432817
0.060000 0.100385 0.434160
0.167273 0.101083 0.433928
0.284252 0.101844 0.433674
0.405198 0.102632 0.433412
0.528793 0.103436 0.433143
0.654398 0.104253 0.432871
0.781627 0.105081 0.432595
0.910222 0.105918 0.432316
1.000000 0.106763 0.432034
0.060000 0.219925 0.433307
0.167273 0.220623 0.433074
0.284252 0.221384 0.432820
0.405198 0.222172 0.432558
0.528793 0.222976 0.432290
0.654398 0.223793 0.432017
0.781627 0.224621 0.431741
0.910222 0.225458 0.431462
1.000000 0.226303 0.431181
0.060000 0.343518 0.432424
0.167273 0.344216 0.432191
0.284252 0.344978 0.431938
0.405198 0.345765 0.431675
0.528793 0.346569 0.431407
0.654398 0.347387 0.431135
0.781627 0.348215 0.430859
0.910222 0.349052 0.430580
1.000000 0.349896 0.430298
0.060000 0.469820 0.431522
0.167273 0.470518 0.431289
0.284252 0.471279 0.431036
0.405198 0.472067 0.430773
0.528793 0.472871 0.430505
0.654398 0.473688 0.430233
0.781627 0.474516 0.429957
0.910222 0.475353 0.429678
1.000000 0.476198 0.429396
0.060000 0.598174 0.430605
0.167273 0.598873 0.430373
0.284252 0.599634 0.430119
0.405198 0.600421 0.429857
0.528793 0.601225 0.429588
0.654398 0.602043 0.429316
0.781627 0.602871 0.429040
0.910222 0.603708 0.428761
1.000000 0.604552 0.428479
0.060000 0.728189 0.429677
0.167273 0.728887 0.429444
0.284252 0.729648 0.429190
0.405198 0.730435 0.428928
0.528793 0.731240 0.428660
0.654398 0.732057 0.428387
0.781627 0.732885 0.428111
0.910222 0.733722 0.427832
1.000000 0.734567 0.427551
0.060000 0.859600 0.428738
0.167273 0.860298 0.428506
0.284252 0.861059 0.428252
0.405198 0.861847 0.427990
0.528793 0.862651 0.427721
0.654398 0.863468 0.427449
0.781627 0.864296 0.427173
0.910222 0.865133 0.426894
1.000000 0.865978 0.426612
0.060000 0.992219 0.427791
0.167273 0.992917 0.427559
0.284252 0.993678 0.427305
0.405198 0.994466 0.427042
0.528793 0.995270 0.426774
0.654398 0.996087 0.426502
0.781627 0.996915 0.426226
0.910222 0.997752 0.425947
1.000000 0.998597 0.425665
0.060000 0.000000 0.558448
0.167273 0.000000 0.558215
0.284252 0.000000 0.557961
0.405198 0.000000 0.557699
0.528793 0.000000 0.557431
0.654398 0.000000 0.557158
0.781627 0.000000 0.556882
0.910222 0.000000 0.556603
1.000000 0.000000 0.556322
0.060000 0.100658 0.557665
0.167273 0.101356 0.557432
0.284252 0.102118 0.557179
0.405198 0.102905 0.556916
0.528793 0.103709 0.556648
0.654398 0.104527 0.556376
0.781627 0.105355 0.556100
0.910222 0.106192 0.555821
1.000000 0.107036 0.555539
0.060000 0.220198 0.556811
0.167273 0.220896 0.556579
0.284252 0.221658 0.556325
0.405198 0.222445 0.556062
0.528793 0.223249 0.555794
0.654398 0.224067 0.555522
0.781627 0.224895 0.555246
0.910222 0.225731 0.554967
1.000000 0.226576 0.554685
0.060000 0.343792 0.555929
0.167273 0.344490 0.555696
0.284252 0.345251 0.555442
0.405198 0.346038 0.555180
0.528793 0.346842 0.554912
0.654398 0.347660 0.554639
0.781627 0.348488 0.554363
0.910222 0.349325 0.554084
1.000000 0.350170 0.553803
0.060000 0.470093 0.555027
0.167273 0.470791 0.554794
0.284252 0.471553 0.554540
0.405198 0.472340 0.554278
0.528793 0.473144 0.554010
0.654398 0.473962 0.553737
0.781627 0.474790 0.553461
0.910222 0.475627 0.553182
1.000000 0.476471 0.552901
0.060000 0.598448 0.554110
0.167273 0.599146 0.553877
0.284252 0.599907 0.553624
0.405198 0.600694 0.553361
0.528793 0.601499 0.553093
0.654398 0.602316 0.552821
0.781627 0.603144 0.552545
0.910222 0.603981 0.552266
1.000000 0.604826 0.551984
0.060000 0.728462 0.553182
0.167273 0.729160 0.552949
0.284252 0.729921 0.552695
0.405198 0.730709 0.552433
0.528793 0.731513 0.552165
0.654398 0.732330 0.551892
0.781627 0.733158 0.551616
0.910222 0.733995 0.551337
1.000000 0.734840 0.551056
0.060000 0.859873 0.552243
0.167273 0.860571 0.552010
0.284252 0.861333 0.551757
0.405198 0.862120 0.551494
0.528793 0.862924 0.551226
0.654398 0.863742 0.550954
0.781627 0.864570 0.550678
0.910222 0.865407 0.550399
1.000000 0.866251 0.550117
0.060000 0.992492 0.551296
0.167273 0.993190 0.551063
0.284252 0.993952 0.550809
0.405198 0.994739 0.550547
0.528793 0.995543 0.550279
0.654398 0.996361 0.550006
0.781627 0.997189 0.549730
0.910222 0.998026 0.549451
1.000000 0.998870 0.549170
0.060000 0.000000 0.683960
0.167273 0.000000 0.683727
0.284252 0.000000 0.683473
0.405198 0.000000 0.683211
0.528793 0.000000 0.682943
0.654398 0.000000 0.682670
0.781627 0.000000 0.682394
0.910222 0.000000 0.682115
1.000000 0.000000 0.681834
0.060000 0.100936 0.683177
0.167273 0.101634 0.682944
0.284252 0.102395 0.682690
0.405198 0.103182 0.682428
0.528793 0.103987 0.682160
0.654398 0.104804 0.681887
0.781627 0.105632 0.681611
0.910222 0.106469 0.681332
1.000000 0.107314 0.681051
0.060000 0.220476 0.682323
0.167273 0.221174 0.682091
0.284252 0.221935 0.681837
0.405198 0.222722 0.681574
0.528793 0.223527 0.681306
0.654398 0.224344 0.681034
0.781627 0.225172 0.680758
0.910222 0.226009 0.680479
1.000000 0.226854 0.680197
0.060000 0.344069 0.681441
0.167273 0.344767 0.681208
0.284252 0.345529 0.680954
0.405198 0.346316 0.680692
0.528793 0.347120 0.680424
0.654398 0.347938 0.680151
0.781627 0.348766 0.679875
0.910222 0.349603 0.679596
1.000000 0.350447 0.679315
0.060000 0.470371 0.680539
0.167273 0.471069 0.680306
0.284252 0.471830 0.680052
0.405198 0.472617 0.679790
0.528793 0.473422 0.679522
0.654398 0.474239 0.679249
0.781627 0.475067 0.678973
0.910222 0.475904 0.678694
1.000000 0.476749 0.678413
0.060000 0.598725 0.679622
0.167273 0.599423 0.679389
0.284252 0.600185 0.679135
0.405198 0.600972 0.678873
0.528793 0.601776 0.678605
0.654398 0.602594 0.678332
0.781627 0.603422 0.678056
0.910222 0.604259 0.677777
1.000000 0.605103 0.677496
0.060000 0.728740 0.678693
0.167273 0.729438 0.678461
0.284252 0.730199 0.678207
0.405198 0.730986 0.677945
0.528793 0.731791 0.677676
0.654398 0.732608 0.677404
0.781627 0.733436 0.677128
0.910222 0.734273 0.676849
1.000000 0.735118 0.676567
0.060000 0.860151 0.677755
0.167273 0.860849 0.677522
0.284252 0.861610 0.677268
0.405198 0.862397 0.677006
0.528793 0.863202 0.676738
0.654398 0.864019 0.676465
0.781627 0.864847 0.676189
0.910222 0.865684 0.675910
1.000000 0.866529 0.675629
0.060000 0.992770 0.676808
0.167273 0.993468 0.676575
0.284252 0.994229 0.676321
0.405198 0.995016 0.676059
0.528793 0.995821 0.675791
0.654398 0.996638 0.675518
0.781627 0.997466 0.675242
0.910222 0.998303 0.674963
1.000000 0.999148 0.674682
0.060000 0.000000 0.811095
0.167273 0.000000 0.810862
0.284252 0.000000 0.810608
0.405198 0.000000 0.810346
0.528793 0.000000 0.810078
0.654398 0.000000 0.809805
0.781627 0.000000 0.809529
0.910222 0.000000 0.809250
1.000000 0.000000 0.808969
0.060000 0.101217 0.810312
0.167273 0.101915 0.810079
0.284252 0.102676 0.809826
0.405198 0.103464 0.809563
0.528793 0.104268 0.809295
0.654398 0.105085 0.809023
0.781627 0.105913 0.808747
0.910222 0.106750 0.808468
1.000000 0.107595 0.808186
0.060000 0.220757 0.809458
0.167273 0.221455 0.809226
0.284252 0.222216 0.808972
0.405198 0.223004 0.808709
0.528793 0.223808 0.808441
0.654398 0.224625 0.808169
0.781627 0.225453 0.807893
0.910222 0.226290 0.807614
1.000000 0.227135 0.807332
0.060000 0.344350 0.808576
0.167273 0.345048 0.808343
0.284252 0.345810 0.808089
0.405198 0.346597 0.807827
0.528793 0.347401 0.807559
0.654398 0.348219 0.807286
0.781627 0.349047 0.807010
0.910222 0.349884 0.806731
1.000000 0.350728 0.806450
0.060000 0.470652 0.807674
0.167273 0.471350 0.807441
0.284252 0.472111 0.807187
0.405198 0.472899 0.806925
0.528793 0.473703 0.806657
0.654398 0.474520 0.806384
0.781627 0.475348 0.806108
0.910222 0.476185 0.805829
1.000000 0.477030 0.805548
0.060000 0.599006 0.806757
0.167273 0.599705 0.806524
0.284252 0.600466 0.806271
0.405198 0.601253 0.806008
0.528793 0.602057 0.805740
0.654398 0.602875 0.805468
0.781627 0.603703 0.805192
0.910222 0.604540 0.804913
1.000000 0.605384 0.804631
0.060000 0.729021 0.805829
0.167273 0.729719 0.805596
0.284252 0.730480 0.805342
0.405198 0.731267 0.805080
0.528793 0.732072 0.804812
0.654398 0.732889 0.804539
0.781627 0.733717 0.804263
0.910222 0.734554 0.803984
1.000000 0.735399 0.803703
0.060000 0.860432 0.804890
0.167273 0.861130 0.804657
0.284252 0.861891 0.804404
0.405198 0.862679 0.804141
0.528793 0.863483 0.803873
0.654398 0.864300 0.803601
0.781627 0.865128 0.803325
0.910222 0.865965 0.803046
1.000000 0.866810 0.802764
0.060000 0.993051 0.803943
0.167273 0.993749 0.803710
0.284252 0.994510 0.803456
0.405198 0.995298 0.803194
0.528793 0.996102 0.802926
0.654398 0.996919 0.802653
0.781627 0.997747 0.802377
0.910222 0.998584 0.802098
1.000000 0.999429 0.801817
0.060000 0.000000 0.939596
0.167273 0.000000 0.939363
0.284252 0.000000 0.939109
0.405198 0.000000 0.938847
0.528793 0.000000 0.938579
0.654398 0.000000 0.938306
0.781627 0.000000 0.938030
0.910222 0.000000 0.937751
1.000000 0.000000 0.937470
0.060000 0.101501 0.938813
0.167273 0.102199 0.938580
0.284252 0.102961 0.938327
0.405198 0.103748 0.938064
0.528793 0.104552 0.937796
0.654398 0.105370 0.937524
0.781627 0.106198 0.937248
0.910222 0.107035 0.936969
1.000000 0.107879 0.936687
0.060000 0.221041 0.937959
0.167273 0.221739 0.937727
0.284252 0.222501 0.937473
0.405198 0.223288 0.937211
0.528793 0.224092 0.936942
0.654398 0.224910 0.936670
0.781627 0.225738 0.936394
0.910222 0.226575 0.936115
1.000000 0.227419 0.935833
0.060000 0.344635 0.937077
0.167273 0.345333 0.936844
0.284252 0.346094 0.936590
0.405198 0.346881 0.936328
0.528793 0.347686 0.936060
0.654398 0.348503 0.935787
0.781627 0.349331 0.935511
0.910222 0.350168 0.935232
1.000000 0.351013 0.934951
0.060000 0.470936 0.936175
0.167273 0.471634 0.935942
0.284252 0.472396 0.935688
0.405198 0.473183 0.935426
0.528793 0.473987 0.935158
0.654398 0.474805 0.934885
0.781627 0.475633 0.934609
0.910222 0.476470 0.934330
1.000000 0.477314 0.934049
0.060000 0.599291 0.935258
0.167273 0.599989 0.935025
0.284252 0.600750 0.934772
0.405198 0.601537 0.934509
0.528793 0.602342 0.934241
0.654398 0.603159 0.933969
0.781627 0.603987 0.933693
0.910222 0.604824 0.933414
1.000000 0.605669 0.933132
0.060000 0.729305 0.934330
0.167273 0.730003 0.934097
0.284252 0.730764 0.933843
0.405198 0.731552 0.933581
0.528793 0.732356 0.933313
0.654398 0.733173 0.933040
0.781627 0.734001 0.932764
0.910222 0.734838 0.932485
1.000000 0.735683 0.932204
0.060000 0.860716 0.933391
0.167273 0.861414 0.933158
0.284252 0.862176 0.932905
0.405198 0.862963 0.932642
0.528793 0.863767 0.932374
0.654398 0.864585 0.932102
0.781627 0.865413 0.931826
0.910222 0.866250 0.931547
1.000000 0.867094 0.931265
0.060000 0.993335 0.932444
0.167273 0.994033 0.932211
0.284252 0.994795 0.931957
0.405198 0.995582 0.931695
0.528793 0.996386 0.931427
0.654398 0.997204 0.931154
0.781627 0.998032 0.930878
0.910222 0.998869 0.930599
1.000000 0.999713 0.930318
0.060000 0.000000 1.000000
0.167273 0.000000 1.000000
0.284252 0.000000 1.000000
0.405198 0.000000 1.000000
0.528793 0.000000 1.000000
0.654398 0.000000 1.000000
0.781627 0.000000 1.000000
0.910222 0.000000 1.000000
1.000000 0.000000 1.000000
0.060000 0.101788 1.000000
0.167273 0.102486 1.000000
0.284252 0.103248 1.000000
0.405198 0.104035 1.000000
0.528793 0.104839 1.000000
0.654398 0.105656 1.000000
0.781627 0.106484 1.000000
0.910222 0.107321 1.000000
1.000000 0.108166 1.000000
0.060000 0.221328 1.000000
0.167273 0.222026 1.000000
0.284252 0.222787 1.000000
0.405198 0.223575 1.000000
0.528793 0.224379 1.000000
0.654398 0.225196 1.000000
0.781627 0.226024 1.000000
0.910222 0.226861 1.000000
1.000000 0.227706 1.000000
0.060000 0.344921 1.000000
0.167273 0.345620 1.000000
0.284252 0.346381 1.000000
0.405198 0.347168 1.000000
0.528793 0.347972 1.000000
0.654398 0.348790 1.000000
0.781627 0.349618 1.000000
0.910222 0.350455 1.000000
1.000000 0.351299 1.000000
0.060000 0.471223 1.000000
0.167273 0.471921 1.000000
0.284252 0.472682 1.000000
0.405198 0.473470 1.000000
0.528793 0.474274 1.000000
0.654398 0.475091 1.000000
0.781627 0.475919 1.000000
0.910222 0.476756 1.000000
1.000000 0.477601 1.000000
0.060000 0.599577 1.000000
0.167273 0.600276 1.000000
0.284252 0.601037 1.000000
0.405198 0.601824 1.000000
0.528793 0.602628 1.000000
0.654398 0.603446 1.000000
0.781627 0.604274 1.000000
0.910222 0.605111 1.000000
1.000000 0.605955 1.000000
0.060000 0.729592 1.000000
0.167273 0.730290 1.000000
0.284252 0.731051 1.000000
0.405198 0.731838 1.000000
0.528793 0.732643 1.000000
0.654398 0.733460 1.000000
0.781627 0.734288 1.000000
0.910222 0.735125 1.000000
1.000000 0.735970 1.000000
0.060000 0.861003 1.000000
0.167273 0.861701 1.000000
0.284252 0.862462 1.000000
0.405198 0.863250 1.000000
0.528793 0.864054 1.000000
0.654398 0.864871 1.000000
0.781627 0.865699 1.000000
0.910222 0.866536 1.000000
1.000000 0.867381 1.000000
0.060000 0.993622 1.000000
0.167273 0.994320 1.000000
0.284252 0.995081 1.000000
0.405198 0.995869 1.000000
0.528793 0.996673 1.000000
0.654398 0.997490 1.000000
0.781627 0.998318 1.000000
0.910222 0.999155 1.000000
1.000000 1.000000 1.000000
