assets/luts/faded.cube
# Faded — Studio filter "faded"
# Generated by scripts/generate-filter-luts.mjs — do not edit by hand.
LUT_3D_SIZE 17
DOMAIN_MIN 0.0 0.0 0.0
DOMAIN_MAX 1.0 1.0 1.0
0.190400 0.190400 0.190400
0.230073 0.192169 0.192169
0.269747 0.193938 0.193938
0.309420 0.195707 0.195707
0.349094 0.197476 0.197476
0.388767 0.199245 0.199245
0.428441 0.201014 0.201014
0.468114 0.202783 0.202783
0.507788 0.204552 0.204552
0.547461 0.206320 0.206320
0.587134 0.208089 0.208089
0.626808 0.209858 0.209858
0.666481 0.211627 0.211627
0.706155 0.213396 0.213396
0.745828 0.215165 0.215165
0.785502 0.216934 0.216934
0.825175 0.218703 0.218703
0.196351 0.234255 0.196351
0.236024 0.236024 0.198120
0.275698 0.237793 0.199889
0.315371 0.239562 0.201658
0.355045 0.241331 0.203427
0.394718 0.243100 0.205196
0.434391 0.244869 0.206964
0.474065 0.246638 0.208733
0.513738 0.248407 0.210502
0.553412 0.250176 0.212271
0.593085 0.251945 0.214040
0.632759 0.253714 0.215809
0.672432 0.255483 0.217578
0.712106 0.257252 0.219347
0.751779 0.259020 0.221116
0.791452 0.260789 0.222885
0.831126 0.262558 0.224654
0.202302 0.278111 0.202302
0.241975 0.279880 0.204071
0.281649 0.281649 0.205840
0.321322 0.283417 0.207608
0.360995 0.285186 0.209377
0.400669 0.286955 0.211146
0.440342 0.288724 0.212915
0.480016 0.290493 0.214684
0.519689 0.292262 0.216453
0.559363 0.294031 0.218222
0.599036 0.295800 0.219991
0.638709 0.297569 0.221760
0.678383 0.299338 0.223529
0.718056 0.301107 0.225298
0.757730 0.302876 0.227067
0.797403 0.304645 0.228836
0.837077 0.306414 0.230605
0.208252 0.321966 0.208252
0.247926 0.323735 0.210021
0.287599 0.325504 0.211790
0.327273 0.327273 0.213559
0.366946 0.329042 0.215328
0.406620 0.330811 0.217097
0.446293 0.332580 0.218866
0.485967 0.334349 0.220635
0.525640 0.336117 0.222404
0.565313 0.337886 0.224173
0.604987 0.339655 0.225942
0.644660 0.341424 0.227711
0.684334 0.343193 0.229480
0.724007 0.344962 0.231249
0.763681 0.346731 0.233018
0.803354 0.348500 0.234787
0.843027 0.350269 0.236555
0.214203 0.365821 0.214203
0.253877 0.367590 0.215972
0.293550 0.369359 0.217741
0.333224 0.371128 0.219510
0.372897 0.372897 0.221279
0.412570 0.374666 0.223048
0.452244 0.376435 0.224817
0.491917 0.378204 0.226586
0.531591 0.379973 0.228355
0.571264 0.381742 0.230124
0.610938 0.383511 0.231893
0.650611 0.385280 0.233662
0.690285 0.387049 0.235431
0.729958 0.388817 0.237199
0.769631 0.390586 0.238968
0.809305 0.392355 0.240737
0.848978 0.394124 0.242506
0.220154 0.409677 0.220154
0.259828 0.411446 0.221923
0.299501 0.413214 0.223692
0.339174 0.414983 0.225461
0.378848 0.416752 0.227230
0.418521 0.418521 0.228999
0.458195 0.420290 0.230768
0.497868 0.422059 0.232537
0.537542 0.423828 0.234306
0.577215 0.425597 0.236075
0.616888 0.427366 0.237843
0.656562 0.429135 0.239612
0.696235 0.430904 0.241381
0.735909 0.432673 0.243150
0.775582 0.434442 0.244919
0.815256 0.436211 0.246688
0.854929 0.437980 0.248457
0.226105 0.453532 0.226105
0.265778 0.455301 0.227874
0.305452 0.457070 0.229643
0.345125 0.458839 0.231412
0.384799 0.460608 0.233181
0.424472 0.462377 0.234950
0.464146 0.464146 0.236719
0.503819 0.465914 0.238487
0.543492 0.467683 0.240256
0.583166 0.469452 0.242025
0.622839 0.471221 0.243794
0.662513 0.472990 0.245563
0.702186 0.474759 0.247332
0.741860 0.476528 0.249101
0.781533 0.478297 0.250870
0.821207 0.480066 0.252639
0.860880 0.481835 0.254408
0.232056 0.497387 0.232056
0.271729 0.499156 0.233825
0.311403 0.500925 0.235594
0.351076 0.502694 0.237363
0.390750 0.504463 0.239132
0.430423 0.506232 0.240900
0.470096 0.508001 0.242669
0.509770 0.509770 0.244438
0.549443 0.511539 0.246207
0.589117 0.513308 0.247976
0.628790 0.515077 0.249745
0.668464 0.516846 0.251514
0.708137 0.518615 0.253283
0.747810 0.520383 0.255052
0.787484 0.522152 0.256821
0.827157 0.523921 0.258590
0.866831 0.525690 0.260359
0.238007 0.541243 0.238007
0.277680 0.543012 0.239776
0.317353 0.544780 0.241544
0.357027 0.546549 0.243313
0.396700 0.548318 0.245082
0.436374 0.550087 0.246851
0.476047 0.551856 0.248620
0.515721 0.553625 0.250389
0.555394 0.555394 0.252158
0.595068 0.557163 0.253927
0.634741 0.558932 0.255696
0.674414 0.560701 0.257465
0.714088 0.562470 0.259234
0.753761 0.564239 0.261003
0.793435 0.566008 0.262772
0.833108 0.567777 0.264541
0.872782 0.569546 0.266310
0.243957 0.585098 0.243957
0.283631 0.586867 0.245726
0.323304 0.588636 0.247495
0.362978 0.590405 0.249264
0.402651 0.592174 0.251033
0.442325 0.593943 0.252802
0.481998 0.595712 0.254571
0.521671 0.597480 0.256340
0.561345 0.599249 0.258109
0.601018 0.601018 0.259878
0.640692 0.602787 0.261647
0.680365 0.604556 0.263416
0.720039 0.606325 0.265185
0.759712 0.608094 0.266954
0.799386 0.609863 0.268723
0.839059 0.611632 0.270491
0.878732 0.613401 0.272260
0.249908 0.628953 0.249908
0.289582 0.630722 0.251677
0.329255 0.632491 0.253446
0.368929 0.634260 0.255215
0.408602 0.636029 0.256984
0.448275 0.637798 0.258753
0.487949 0.639567 0.260522
0.527622 0.641336 0.262291
0.567296 0.643105 0.264060
0.606969 0.644874 0.265829
0.646643 0.646643 0.267598
0.686316 0.648412 0.269367
0.725989 0.650180 0.271135
0.765663 0.651949 0.272904
0.805336 0.653718 0.274673
0.845010 0.655487 0.276442
0.884683 0.657256 0.278211
0.255859 0.672809 0.255859
0.295532 0.674577 0.257628
0.335206 0.676346 0.259397
0.374879 0.678115 0.261166
0.414553 0.679884 0.262935
0.454226 0.681653 0.264704
0.493900 0.683422 0.266473
0.533573 0.685191 0.268242
0.573247 0.686960 0.270011
0.612920 0.688729 0.271779
0.652593 0.690498 0.273548
0.692267 0.692267 0.275317
0.731940 0.694036 0.277086
0.771614 0.695805 0.278855
0.811287 0.697574 0.280624
0.850961 0.699343 0.282393
0.890634 0.701112 0.284162
0.261810 0.716664 0.261810
0.301483 0.718433 0.263579
0.341157 0.720202 0.265348
0.380830 0.721971 0.267117
0.420504 0.723740 0.268886
0.460177 0.725509 0.270655
0.499850 0.727277 0.272423
0.539524 0.729046 0.274192
0.579197 0.730815 0.275961
0.618871 0.732584 0.277730
0.658544 0.734353 0.279499
0.698218 0.736122 0.281268
0.737891 0.737891 0.283037
0.777565 0.739660 0.284806
0.817238 0.741429 0.286575
0.856911 0.743198 0.288344
0.896585 0.744967 0.290113
0.267761 0.760519 0.267761
0.307434 0.762288 0.269530
0.347108 0.764057 0.271299
0.386781 0.765826 0.273067
0.426454 0.767595 0.274836
0.466128 0.769364 0.276605
0.505801 0.771133 0.278374
0.545475 0.772902 0.280143
0.585148 0.774671 0.281912
0.624822 0.776440 0.283681
0.664495 0.778209 0.285450
0.704169 0.779978 0.287219
0.743842 0.781746 0.288988
0.783515 0.783515 0.290757
0.823189 0.785284 0.292526
0.862862 0.787053 0.294295
0.902536 0.788822 0.296064
0.273712 0.804375 0.273712
0.313385 0.806143 0.275480
0.353058 0.807912 0.277249
0.392732 0.809681 0.279018
0.432405 0.811450 0.280787
0.472079 0.813219 0.282556
0.511752 0.814988 0.284325
0.551426 0.816757 0.286094
0.591099 0.818526 0.287863
0.630772 0.820295 0.289632
0.670446 0.822064 0.291401
0.710119 0.823833 0.293170
0.749793 0.825602 0.294939
0.789466 0.827371 0.296708
0.829140 0.829140 0.298477
0.868813 0.830909 0.300246
0.908487 0.832678 0.302015
0.279662 0.848230 0.279662
0.319336 0.849999 0.281431
0.359009 0.851768 0.283200
0.398683 0.853537 0.284969
0.438356 0.855306 0.286738
0.478030 0.857075 0.288507
0.517703 0.858843 0.290276
0.557376 0.860612 0.292045
0.597050 0.862381 0.293814
0.636723 0.864150 0.295583
0.676397 0.865919 0.297352
0.716070 0.867688 0.299121
0.755744 0.869457 0.300890
0.795417 0.871226 0.302659
0.835090 0.872995 0.304427
0.874764 0.874764 0.306196
0.914437 0.876533 0.307965
0.285613 0.892085 0.285613
0.325287 0.893854 0.287382
0.364960 0.895623 0.289151
0.404633 0.897392 0.290920
0.444307 0.899161 0.292689
0.483980 0.900930 0.294458
0.523654 0.902699 0.296227
0.563327 0.904468 0.297996
0.603001 0.906237 0.299765
0.642674 0.908006 0.301534
0.682348 0.909775 0.303303
0.722021 0.911543 0.305071
0.761694 0.913312 0.306840
0.801368 0.915081 0.308609
0.841041 0.916850 0.310378
0.880715 0.918619 0.312147
0.920388 0.920388 0.313916
0.191001 0.191001 0.228905
0.230674 0.192770 0.230674
0.270348 0.194539 0.232443
0.310021 0.196308 0.234212
0.349694 0.198076 0.235981
0.389368 0.199845 0.237750
0.429041 0.201614 0.239519
0.468715 0.203383 0.241288
0.508388 0.205152 0.243057
0.548062 0.206921 0.244826
0.587735 0.208690 0.246595
0.627409 0.210459 0.248364
0.667082 0.212228 0.250132
0.706755 0.213997 0.251901
0.746429 0.215766 0.253670
0.786102 0.217535 0.255439
0.825776 0.219304 0.257208
0.196952 0.234856 0.234856
0.236625 0.236625 0.236625
0.276298 0.238394 0.238394
0.315972 0.240163 0.240163
0.355645 0.241932 0.241932
0.395319 0.243701 0.243701
0.434992 0.245470 0.245470
0.474666 0.247239 0.247239
0.514339 0.249008 0.249008
0.554013 0.250777 0.250777
0.593686 0.252545 0.252545
0.633359 0.254314 0.254314
0.673033 0.256083 0.256083
0.712706 0.257852 0.257852
0.752380 0.259621 0.259621
0.792053 0.261390 0.261390
0.831727 0.263159 0.263159
0.202902 0.278711 0.240807
0.242576 0.280480 0.242576
0.282249 0.282249 0.244345
0.321923 0.284018 0.246114
0.361596 0.285787 0.247883
0.401270 0.287556 0.249652
0.440943 0.289325 0.251421
0.480616 0.291094 0.253189
0.520290 0.292863 0.254958
0.559963 0.294632 0.256727
0.599637 0.296401 0.258496
0.639310 0.298170 0.260265
0.678984 0.299939 0.262034
0.718657 0.301708 0.263803
0.758331 0.303477 0.265572
0.798004 0.305245 0.267341
0.837677 0.307014 0.269110
0.208853 0.322567 0.246758
0.248527 0.324336 0.248527
0.288200 0.326105 0.250296
0.327874 0.327874 0.252065
0.367547 0.329642 0.253833
0.407220 0.331411 0.255602
0.446894 0.333180 0.257371
0.486567 0.334949 0.259140
0.526241 0.336718 0.260909
0.565914 0.338487 0.262678
0.605588 0.340256 0.264447
0.645261 0.342025 0.266216
0.684934 0.343794 0.267985
0.724608 0.345563 0.269754
0.764281 0.347332 0.271523
0.803955 0.349101 0.273292
0.843628 0.350870 0.275061
0.214804 0.366422 0.252709
0.254477 0.368191 0.254477
0.294151 0.369960 0.256246
0.333824 0.371729 0.258015
0.373498 0.373498 0.259784
0.413171 0.375267 0.261553
0.452845 0.377036 0.263322
0.492518 0.378805 0.265091
0.532192 0.380574 0.266860
0.571865 0.382342 0.268629
0.611538 0.384111 0.270398
0.651212 0.385880 0.272167
0.690885 0.387649 0.273936
0.730559 0.389418 0.275705
0.770232 0.391187 0.277474
0.809906 0.392956 0.279243
0.849579 0.394725 0.281012
0.220755 0.410277 0.258659
0.260428 0.412046 0.260428
0.300102 0.413815 0.262197
0.339775 0.415584 0.263966
0.379449 0.417353 0.265735
0.419122 0.419122 0.267504
0.458795 0.420891 0.269273
0.498469 0.422660 0.271042
0.538142 0.424429 0.272811
0.577816 0.426198 0.274580
0.617489 0.427967 0.276349
0.657163 0.429736 0.278118
0.696836 0.431505 0.279887
0.736510 0.433274 0.281656
0.776183 0.435042 0.283424
0.815856 0.436811 0.285193
0.855530 0.438580 0.286962
0.226706 0.454133 0.264610
0.266379 0.455902 0.266379
0.306053 0.457671 0.268148
0.345726 0.459439 0.269917
0.385399 0.461208 0.271686
0.425073 0.462977 0.273455
0.464746 0.464746 0.275224
0.504420 0.466515 0.276993
0.544093 0.468284 0.278762
0.583767 0.470053 0.280531
0.623440 0.471822 0.282300
0.663113 0.473591 0.284068
0.702787 0.475360 0.285837
0.742460 0.477129 0.287606
0.782134 0.478898 0.289375
0.821807 0.480667 0.291144
0.861481 0.482436 0.292913
0.232656 0.497988 0.270561
0.272330 0.499757 0.272330
0.312003 0.501526 0.274099
0.351677 0.503295 0.275868
0.391350 0.505064 0.277637
0.431024 0.506833 0.279406
0.470697 0.508602 0.281175
0.510371 0.510371 0.282944
0.550044 0.512139 0.284712
0.589717 0.513908 0.286481
0.629391 0.515677 0.288250
0.669064 0.517446 0.290019
0.708738 0.519215 0.291788
0.748411 0.520984 0.293557
0.788085 0.522753 0.295326
0.827758 0.524522 0.297095
0.867432 0.526291 0.298864
0.238607 0.541843 0.276512
0.278281 0.543612 0.278281
0.317954 0.545381 0.280050
0.357628 0.547150 0.281819
0.397301 0.548919 0.283588
0.436975 0.550688 0.285357
0.476648 0.552457 0.287125
0.516321 0.554226 0.288894
0.555995 0.555995 0.290663
0.595668 0.557764 0.292432
0.635342 0.559533 0.294201
0.675015 0.561302 0.295970
0.714689 0.563071 0.297739
0.754362 0.564840 0.299508
0.794035 0.566608 0.301277
0.833709 0.568377 0.303046
0.873382 0.570146 0.304815
0.244558 0.585699 0.282463
0.284232 0.587468 0.284232
0.323905 0.589237 0.286001
0.363578 0.591005 0.287769
0.403252 0.592774 0.289538
0.442925 0.594543 0.291307
0.482599 0.596312 0.293076
0.522272 0.598081 0.294845
0.561946 0.599850 0.296614
0.601619 0.601619 0.298383
0.641293 0.603388 0.300152
0.680966 0.605157 0.301921
0.720639 0.606926 0.303690
0.760313 0.608695 0.305459
0.799986 0.610464 0.307228
0.839660 0.612233 0.308997
0.879333 0.614002 0.310766
0.250509 0.629554 0.288413
0.290182 0.631323 0.290182
0.329856 0.633092 0.291951
0.369529 0.634861 0.293720
0.409203 0.636630 0.295489
0.448876 0.638399 0.297258
0.488550 0.640168 0.299027
0.528223 0.641937 0.300796
0.567896 0.643705 0.302565
0.607570 0.645474 0.304334
0.647243 0.647243 0.306103
0.686917 0.649012 0.307872
0.726590 0.650781 0.309641
0.766264 0.652550 0.311410
0.805937 0.654319 0.313179
0.845611 0.656088 0.314948
0.885284 0.657857 0.316716
0.256460 0.673409 0.294364
0.296133 0.675178 0.296133
0.335807 0.676947 0.297902
0.375480 0.678716 0.299671
0.415154 0.680485 0.301440
0.454827 0.682254 0.303209
0.494500 0.684023 0.304978
0.534174 0.685792 0.306747
0.573847 0.687561 0.308516
0.613521 0.689330 0.310285
0.653194 0.691099 0.312054
0.692868 0.692868 0.313823
0.732541 0.694637 0.315592
0.772214 0.696405 0.317360
0.811888 0.698174 0.319129
0.851561 0.699943 0.320898
0.891235 0.701712 0.322667
0.262411 0.717265 0.300315
0.302084 0.719034 0.302084
0.341757 0.720802 0.303853
0.381431 0.722571 0.305622
0.421104 0.724340 0.307391
0.460778 0.726109 0.309160
0.500451 0.727878 0.310929
0.540125 0.729647 0.312698
0.579798 0.731416 0.314467
0.619472 0.733185 0.316236
0.659145 0.734954 0.318004
0.698818 0.736723 0.319773
0.738492 0.738492 0.321542
0.778165 0.740261 0.323311
0.817839 0.742030 0.325080
0.857512 0.743799 0.326849
0.897186 0.745568 0.328618
0.268361 0.761120 0.306266
0.308035 0.762889 0.308035
0.347708 0.764658 0.309804
0.387382 0.766427 0.311573
0.427055 0.768196 0.313342
0.466729 0.769965 0.315111
0.506402 0.771734 0.316880
0.546075 0.773502 0.318648
0.585749 0.775271 0.320417
0.625422 0.777040 0.322186
0.665096 0.778809 0.323955
0.704769 0.780578 0.325724
0.744443 0.782347 0.327493
0.784116 0.784116 0.329262
0.823790 0.785885 0.331031
0.863463 0.787654 0.332800
0.903136 0.789423 0.334569
0.274312 0.804975 0.312217
0.313986 0.806744 0.313986
0.353659 0.808513 0.315755
0.393333 0.810282 0.317524
0.433006 0.812051 0.319292
0.472679 0.813820 0.321061
0.512353 0.815589 0.322830
0.552026 0.817358 0.324599
0.591700 0.819127 0.326368
0.631373 0.820896 0.328137
0.671047 0.822665 0.329906
0.710720 0.824434 0.331675
0.750394 0.826203 0.333444
0.790067 0.827971 0.335213
0.829740 0.829740 0.336982
0.869414 0.831509 0.338751
0.909087 0.833278 0.340520
0.280263 0.848831 0.318168
0.319937 0.850600 0.319937
0.359610 0.852368 0.321705
0.399283 0.854137 0.323474
0.438957 0.855906 0.325243
0.478630 0.857675 0.327012
0.518304 0.859444 0.328781
0.557977 0.861213 0.330550
0.597651 0.862982 0.332319
0.637324 0.864751 0.334088
0.676997 0.866520 0.335857
0.716671 0.868289 0.337626
0.756344 0.870058 0.339395
0.796018 0.871827 0.341164
0.835691 0.873596 0.342933
0.875365 0.875365 0.344702
0.915038 0.877134 0.346471
0.286214 0.892686 0.324118
0.325887 0.894455 0.325887
0.365561 0.896224 0.327656
0.405234 0.897993 0.329425
0.444908 0.899762 0.331194
0.484581 0.901531 0.332963
0.524255 0.903300 0.334732
0.563928 0.905068 0.336501
0.603601 0.906837 0.338270
0.643275 0.908606 0.340039
0.682948 0.910375 0.341808
0.722622 0.912144 0.343577
0.762295 0.913913 0.345346
0.801969 0.915682 0.347115
0.841642 0.917451 0.348884
0.881315 0.919220 0.350652
0.920989 0.920989 0.352421
0.191601 0.191601 0.267410
0.231275 0.193370 0.269179
0.270948 0.195139 0.270948
0.310622 0.196908 0.272717
0.350295 0.198677 0.274486
0.389969 0.200446 0.276255
0.429642 0.202215 0.278024
0.469316 0.203984 0.279793
0.508989 0.205753 0.281562
0.548662 0.207522 0.283331
0.588336 0.209291 0.285100
0.628009 0.211060 0.286869
0.667683 0.212829 0.288638
0.707356 0.214598 0.290407
0.747030 0.216367 0.292176
0.786703 0.218136 0.293945
0.826376 0.219904 0.295713
0.197552 0.235457 0.273361
0.237226 0.237226 0.275130
0.276899 0.238995 0.276899
0.316573 0.240764 0.278668
0.356246 0.242533 0.280437
0.395919 0.244301 0.282206
0.435593 0.246070 0.283975
0.475266 0.247839 0.285744
0.514940 0.249608 0.287513
0.554613 0.251377 0.289282
0.594287 0.253146 0.291051
0.633960 0.254915 0.292820
0.673634 0.256684 0.294589
0.713307 0.258453 0.296357
0.752980 0.260222 0.298126
0.792654 0.261991 0.299895
0.832327 0.263760 0.301664
0.203503 0.279312 0.279312
0.243177 0.281081 0.281081
0.282850 0.282850 0.282850
0.322523 0.284619 0.284619
0.362197 0.286388 0.286388
0.401870 0.288157 0.288157
0.441544 0.289926 0.289926
0.481217 0.291695 0.291695
0.520891 0.293464 0.293464
0.560564 0.295233 0.295233
0.600238 0.297002 0.297002
0.639911 0.298770 0.298770
0.679584 0.300539 0.300539
0.719258 0.302308 0.302308
0.758931 0.304077 0.304077
0.798605 0.305846 0.305846
0.838278 0.307615 0.307615
0.209454 0.323167 0.285263
0.249127 0.324936 0.287032
0.288801 0.326705 0.288801
0.328474 0.328474 0.290570
0.368148 0.330243 0.292339
0.407821 0.332012 0.294108
0.447495 0.333781 0.295877
0.487168 0.335550 0.297646
0.526841 0.337319 0.299414
0.566515 0.339088 0.301183
0.606188 0.340857 0.302952
0.645862 0.342626 0.304721
0.685535 0.344395 0.306490
0.725209 0.346164 0.308259
0.764882 0.347933 0.310028
0.804556 0.349702 0.311797
0.844229 0.351470 0.313566
0.215405 0.367023 0.291214
0.255078 0.368792 0.292983
0.294752 0.370561 0.294752
0.334425 0.372330 0.296521
0.374099 0.374099 0.298290
0.413772 0.375867 0.300058
0.453445 0.377636 0.301827
0.493119 0.379405 0.303596
0.532792 0.381174 0.305365
0.572466 0.382943 0.307134
0.612139 0.384712 0.308903
0.651813 0.386481 0.310672
0.691486 0.388250 0.312441
0.731159 0.390019 0.314210
0.770833 0.391788 0.315979
0.810506 0.393557 0.317748
0.850180 0.395326 0.319517
0.221356 0.410878 0.297165
0.261029 0.412647 0.298934
0.300702 0.414416 0.300702
0.340376 0.416185 0.302471
0.380049 0.417954 0.304240
0.419723 0.419723 0.306009
0.459396 0.421492 0.307778
0.499070 0.423261 0.309547
0.538743 0.425030 0.311316
0.578417 0.426799 0.313085
0.618090 0.428567 0.314854
0.657763 0.430336 0.316623
0.697437 0.432105 0.318392
0.737110 0.433874 0.320161
0.776784 0.435643 0.321930
0.816457 0.437412 0.323699
0.856131 0.439181 0.325468
0.227306 0.454733 0.303115
0.266980 0.456502 0.304884
0.306653 0.458271 0.306653
0.346327 0.460040 0.308422
0.386000 0.461809 0.310191
0.425674 0.463578 0.311960
0.465347 0.465347 0.313729
0.505020 0.467116 0.315498
0.544694 0.468885 0.317267
0.584367 0.470654 0.319036
0.624041 0.472423 0.320805
0.663714 0.474192 0.322574
0.703388 0.475961 0.324343
0.743061 0.477730 0.326112
0.782735 0.479499 0.327881
0.822408 0.481267 0.329649
0.862081 0.483036 0.331418
0.233257 0.498589 0.309066
0.272931 0.500358 0.310835
0.312604 0.502127 0.312604
0.352278 0.503896 0.314373
0.391951 0.505664 0.316142
0.431624 0.507433 0.317911
0.471298 0.509202 0.319680
0.510971 0.510971 0.321449
0.550645 0.512740 0.323218
0.590318 0.514509 0.324987
0.629992 0.516278 0.326756
0.669665 0.518047 0.328525
0.709338 0.519816 0.330293
0.749012 0.521585 0.332062
0.788685 0.523354 0.333831
0.828359 0.525123 0.335600
0.868032 0.526892 0.337369
0.239208 0.542444 0.315017
0.278881 0.544213 0.316786
0.318555 0.545982 0.318555
0.358228 0.547751 0.320324
0.397902 0.549520 0.322093
0.437575 0.551289 0.323862
0.477249 0.553058 0.325631
0.516922 0.554827 0.327400
0.556596 0.556596 0.329169
0.596269 0.558364 0.330937
0.635942 0.560133 0.332706
0.675616 0.561902 0.334475
0.715289 0.563671 0.336244
0.754963 0.565440 0.338013
0.794636 0.567209 0.339782
0.834310 0.568978 0.341551
0.873983 0.570747 0.343320
0.245159 0.586299 0.320968
0.284832 0.588068 0.322737
0.324506 0.589837 0.324506
0.364179 0.591606 0.326275
0.403853 0.593375 0.328044
0.443526 0.595144 0.329813
0.483200 0.596913 0.331582
0.522873 0.598682 0.333350
0.562546 0.600451 0.335119
0.602220 0.602220 0.336888
0.641893 0.603989 0.338657
0.681567 0.605758 0.340426
0.721240 0.607527 0.342195
0.760914 0.609296 0.343964
0.800587 0.611065 0.345733
0.840260 0.612833 0.347502
0.879934 0.614602 0.349271
0.251110 0.630155 0.326919
0.290783 0.631924 0.328688
0.330457 0.633693 0.330457
0.370130 0.635462 0.332226
0.409803 0.637230 0.333994
0.449477 0.638999 0.335763
0.489150 0.640768 0.337532
0.528824 0.642537 0.339301
0.568497 0.644306 0.341070
0.608171 0.646075 0.342839
0.647844 0.647844 0.344608
0.687518 0.649613 0.346377
0.727191 0.651382 0.348146
0.766864 0.653151 0.349915
0.806538 0.654920 0.351684
0.846211 0.656689 0.353453
0.885885 0.658458 0.355222
0.257061 0.674010 0.332870
0.296734 0.675779 0.334638
0.336407 0.677548 0.336407
0.376081 0.679317 0.338176
0.415754 0.681086 0.339945
0.455428 0.682855 0.341714
0.495101 0.684624 0.343483
0.534775 0.686393 0.345252
0.574448 0.688162 0.347021
0.614121 0.689930 0.348790
0.653795 0.691699 0.350559
0.693468 0.693468 0.352328
0.733142 0.695237 0.354097
0.772815 0.697006 0.355866
0.812489 0.698775 0.357635
0.852162 0.700544 0.359404
0.891836 0.702313 0.361173
0.263011 0.717865 0.338820
0.302685 0.719634 0.340589
0.342358 0.721403 0.342358
0.382032 0.723172 0.344127
0.421705 0.724941 0.345896
0.461379 0.726710 0.347665
0.501052 0.728479 0.349434
0.540725 0.730248 0.351203
0.580399 0.732017 0.352972
0.620072 0.733786 0.354741
0.659746 0.735555 0.356510
0.699419 0.737324 0.358279
0.739093 0.739093 0.360048
0.778766 0.740862 0.361817
0.818439 0.742630 0.363585
0.858113 0.744399 0.365354
0.897786 0.746168 0.367123
0.268962 0.761721 0.344771
0.308636 0.763490 0.346540
0.348309 0.765259 0.348309
0.387982 0.767027 0.350078
0.427656 0.768796 0.351847
0.467329 0.770565 0.353616
0.507003 0.772334 0.355385
0.546676 0.774103 0.357154
0.586350 0.775872 0.358923
0.626023 0.777641 0.360692
0.665697 0.779410 0.362461
0.705370 0.781179 0.364229
0.745043 0.782948 0.365998
0.784717 0.784717 0.367767
0.824390 0.786486 0.369536
0.864064 0.788255 0.371305
0.903737 0.790024 0.373074
0.274913 0.805576 0.350722
0.314586 0.807345 0.352491
0.354260 0.809114 0.354260
0.393933 0.810883 0.356029
0.433607 0.812652 0.357798
0.473280 0.814421 0.359567
0.512954 0.816190 0.361336
0.552627 0.817959 0.363105
0.592300 0.819727 0.364873
0.631974 0.821496 0.366642
0.671647 0.823265 0.368411
0.711321 0.825034 0.370180
0.750994 0.826803 0.371949
0.790668 0.828572 0.373718
0.830341 0.830341 0.375487
0.870015 0.832110 0.377256
0.909688 0.833879 0.379025
0.280864 0.849431 0.356673
0.320537 0.851200 0.358442
0.360211 0.852969 0.360211
0.399884 0.854738 0.361980
0.439558 0.856507 0.363749
0.479231 0.858276 0.365517
0.518904 0.860045 0.367286
0.558578 0.861814 0.369055
0.598251 0.863583 0.370824
0.637925 0.865352 0.372593
0.677598 0.867121 0.374362
0.717272 0.868890 0.376131
0.756945 0.870659 0.377900
0.796619 0.872428 0.379669
0.836292 0.874196 0.381438
0.875965 0.875965 0.383207
0.915639 0.877734 0.384976
0.286815 0.893287 0.362624
0.326488 0.895056 0.364393
0.366162 0.896825 0.366162
0.405835 0.898593 0.367930
0.445508 0.900362 0.369699
0.485182 0.902131 0.371468
0.524855 0.903900 0.373237
0.564529 0.905669 0.375006
0.604202 0.907438 0.376775
0.643876 0.909207 0.378544
0.683549 0.910976 0.380313
0.723222 0.912745 0.382082
0.762896 0.914514 0.383851
0.802569 0.916283 0.385620
0.842243 0.918052 0.387389
0.881916 0.919821 0.389158
0.921590 0.921590 0.390927
0.192202 0.192202 0.305916
0.231876 0.193971 0.307685
0.271549 0.195740 0.309454
0.311223 0.197509 0.311223
0.350896 0.199278 0.312991
0.390569 0.201047 0.314760
0.430243 0.202816 0.316529
0.469916 0.204585 0.318298
0.509590 0.206354 0.320067
0.549263 0.208123 0.321836
0.588937 0.209892 0.323605
0.628610 0.211661 0.325374
0.668283 0.213429 0.327143
0.707957 0.215198 0.328912
0.747630 0.216967 0.330681
