assets/luts/faded.cube
# Faded — Studio filter "faded"
# Generated by scripts/generate-filter-luts.mjs — do not edit by hand.
LUT_3D_SIZE 9
DOMAIN_MIN 0.0 0.0 0.0
DOMAIN_MAX 1.0 1.0 1.0
0.190400 0.190400 0.190400
0.269747 0.193938 0.193938
0.349094 0.197476 0.197476
0.428441 0.201014 0.201014
0.507788 0.204552 0.204552
0.587134 0.208089 0.208089
0.666481 0.211627 0.211627
0.745828 0.215165 0.215165
0.825175 0.218703 0.218703
0.202302 0.278111 0.202302
0.281649 0.281649 0.205840
0.360995 0.285186 0.209377
0.440342 0.288724 0.212915
0.519689 0.292262 0.216453
0.599036 0.295800 0.219991
0.678383 0.299338 0.223529
0.757730 0.302876 0.227067
0.837077 0.306414 0.230605
0.214203 0.365821 0.214203
0.293550 0.369359 0.217741
0.372897 0.372897 0.221279
0.452244 0.376435 0.224817
0.531591 0.379973 0.228355
0.610938 0.383511 0.231893
0.690285 0.387049 0.235431
0.769631 0.390586 0.238968
0.848978 0.394124 0.242506
0.226105 0.453532 0.226105
0.305452 0.457070 0.229643
0.384799 0.460608 0.233181
0.464146 0.464146 0.236719
0.543492 0.467683 0.240256
0.622839 0.471221 0.243794
0.702186 0.474759 0.247332
0.781533 0.478297 0.250870
0.860880 0.481835 0.254408
0.238007 0.541243 0.238007
0.317353 0.544780 0.241544
0.396700 0.548318 0.245082
0.476047 0.551856 0.248620
0.555394 0.555394 0.252158
0.634741 0.558932 0.255696
0.714088 0.562470 0.259234
0.793435 0.566008 0.262772
0.872782 0.569546 0.266310
0.249908 0.628953 0.249908
0.329255 0.632491 0.253446
0.408602 0.636029 0.256984
0.487949 0.639567 0.260522
0.567296 0.643105 0.264060
0.646643 0.646643 0.267598
0.725989 0.650180 0.271135
0.805336 0.653718 0.274673
0.884683 0.657256 0.278211
0.261810 0.716664 0.261810
0.341157 0.720202 0.265348
0.420504 0.723740 0.268886
0.499850 0.727277 0.272423
0.579197 0.730815 0.275961
0.658544 0.734353 0.279499
0.737891 0.737891 0.283037
0.817238 0.741429 0.286575
0.896585 0.744967 0.290113
0.273712 0.804375 0.273712
0.353058 0.807912 0.277249
0.432405 0.811450 0.280787
0.511752 0.814988 0.284325
0.591099 0.818526 0.287863
0.670446 0.822064 0.291401
0.749793 0.825602 0.294939
0.829140 0.829140 0.298477
0.908487 0.832678 0.302015
0.285613 0.892085 0.285613
0.364960 0.895623 0.289151
0.444307 0.899161 0.292689
0.523654 0.902699 0.296227
0.603001 0.906237 0.299765
0.682348 0.909775 0.303303
0.761694 0.913312 0.306840
0.841041 0.916850 0.310378
0.920388 0.920388 0.313916
0.191601 0.191601 0.267410
0.270948 0.195139 0.270948
0.350295 0.198677 0.274486
0.429642 0.202215 0.278024
0.508989 0.205753 0.281562
0.588336 0.209291 0.285100
0.667683 0.212829 0.288638
0.747030 0.216367 0.292176
0.826376 0.219904 0.295713
0.203503 0.279312 0.279312
0.282850 0.282850 0.282850
0.362197 0.286388 0.286388
0.441544 0.289926 0.289926
0.520891 0.293464 0.293464
0.600238 0.297002 0.297002
0.679584 0.300539 0.300539
0.758931 0.304077 0.304077
0.838278 0.307615 0.307615
0.215405 0.367023 0.291214
0.294752 0.370561 0.294752
0.374099 0.374099 0.298290
0.453445 0.377636 0.301827
0.532792 0.381174 0.305365
0.612139 0.384712 0.308903
0.691486 0.388250 0.312441
0.770833 0.391788 0.315979
0.850180 0.395326 0.319517
0.227306 0.454733 0.303115
0.306653 0.458271 0.306653
0.386000 0.461809 0.310191
0.465347 0.465347 0.313729
0.544694 0.468885 0.317267
0.624041 0.472423 0.320805
0.703388 0.475961 0.324343
0.782735 0.479499 0.327881
0.862081 0.483036 0.331418
0.239208 0.542444 0.315017
0.318555 0.545982 0.318555
0.397902 0.549520 0.322093
0.477249 0.553058 0.325631
0.556596 0.556596 0.329169
0.635942 0.560133 0.332706
0.715289 0.563671 0.336244
0.794636 0.567209 0.339782
0.873983 0.570747 0.343320
0.251110 0.630155 0.326919
0.330457 0.633693 0.330457
0.409803 0.637230 0.333994
0.489150 0.640768 0.337532
0.568497 0.644306 0.341070
0.647844 0.647844 0.344608
0.727191 0.651382 0.348146
0.806538 0.654920 0.351684
0.885885 0.658458 0.355222
0.263011 0.717865 0.338820
0.342358 0.721403 0.342358
0.421705 0.724941 0.345896
0.501052 0.728479 0.349434
0.580399 0.732017 0.352972
0.659746 0.735555 0.356510
0.739093 0.739093 0.360048
0.818439 0.742630 0.363585
0.897786 0.746168 0.367123
0.274913 0.805576 0.350722
0.354260 0.809114 0.354260
0.433607 0.812652 0.357798
0.512954 0.816190 0.361336
0.592300 0.819727 0.364873
0.671647 0.823265 0.368411
0.750994 0.826803 0.371949
0.830341 0.830341 0.375487
0.909688 0.833879 0.379025
0.286815 0.893287 0.362624
0.366162 0.896825 0.366162
0.445508 0.900362 0.369699
0.524855 0.903900 0.373237
0.604202 0.907438 0.376775
0.683549 0.910976 0.380313
0.762896 0.914514 0.383851
0.842243 0.918052 0.387389
0.921590 0.921590 0.390927
0.192803 0.192803 0.344421
0.272150 0.196341 0.347959
0.351497 0.199879 0.351497
0.430844 0.203417 0.355035
0.510190 0.206954 0.358572
0.589537 0.210492 0.362110
0.668884 0.214030 0.365648
0.748231 0.217568 0.369186
0.827578 0.221106 0.372724
0.204705 0.280514 0.356323
0.284051 0.284051 0.359860
0.363398 0.287589 0.363398
0.442745 0.291127 0.366936
0.522092 0.294665 0.370474
0.601439 0.298203 0.374012
0.680786 0.301741 0.377550
0.760133 0.305279 0.381088
0.839480 0.308817 0.384626
0.216606 0.368224 0.368224
0.295953 0.371762 0.371762
0.375300 0.375300 0.375300
0.454647 0.378838 0.378838
0.533994 0.382376 0.382376
0.613341 0.385914 0.385914
0.692688 0.389452 0.389452
0.772034 0.392989 0.392989
0.851381 0.396527 0.396527
0.228508 0.455935 0.380126
0.307855 0.459473 0.383664
0.387202 0.463011 0.387202
0.466549 0.466549 0.390740
0.545895 0.470086 0.394277
0.625242 0.473624 0.397815
0.704589 0.477162 0.401353
0.783936 0.480700 0.404891
0.863283 0.484238 0.408429
0.240410 0.543646 0.392028
0.319756 0.547183 0.395565
0.399103 0.550721 0.399103
0.478450 0.554259 0.402641
0.557797 0.557797 0.406179
0.637144 0.561335 0.409717
0.716491 0.564873 0.413255
0.795838 0.568411 0.416793
0.875185 0.571949 0.420331
0.252311 0.631356 0.403929
0.331658 0.634894 0.407467
0.411005 0.638432 0.411005
0.490352 0.641970 0.414543
0.569699 0.645508 0.418081
0.649046 0.649046 0.421619
0.728392 0.652583 0.425156
0.807739 0.656121 0.428694
0.887086 0.659659 0.432232
0.264213 0.719067 0.415831
0.343560 0.722605 0.419369
0.422907 0.726143 0.422907
0.502253 0.729680 0.426444
0.581600 0.733218 0.429982
0.660947 0.736756 0.433520
0.740294 0.740294 0.437058
0.819641 0.743832 0.440596
0.898988 0.747370 0.444134
0.276114 0.806777 0.427732
0.355461 0.810315 0.431270
0.434808 0.813853 0.434808
0.514155 0.817391 0.438346
0.593502 0.820929 0.441884
0.672849 0.824467 0.445422
0.752196 0.828005 0.448960
0.831543 0.831543 0.452498
0.910889 0.835080 0.456035
0.288016 0.894488 0.439634
0.367363 0.898026 0.443172
0.446710 0.901564 0.446710
0.526057 0.905102 0.450248
0.605404 0.908640 0.453786
0.684750 0.912177 0.457323
0.764097 0.915715 0.460861
0.843444 0.919253 0.464399
0.922791 0.922791 0.467937
0.194004 0.194004 0.421431
0.273351 0.197542 0.424969
0.352698 0.201080 0.428507
0.432045 0.204618 0.432045
0.511392 0.208156 0.435583
0.590739 0.211694 0.439121
0.670086 0.215232 0.442659
0.749433 0.218770 0.446197
0.828779 0.222307 0.449734
0.205906 0.281715 0.433333
0.285253 0.285253 0.436871
0.364600 0.288791 0.440409
0.443947 0.292329 0.443947
0.523294 0.295867 0.447485
0.602640 0.299404 0.451022
0.681987 0.302942 0.454560
0.761334 0.306480 0.458098
0.840681 0.310018 0.461636
0.217808 0.369426 0.445235
0.297155 0.372964 0.448773
0.376501 0.376501 0.452310
0.455848 0.380039 0.455848
0.535195 0.383577 0.459386
0.614542 0.387115 0.462924
0.693889 0.390653 0.466462
0.773236 0.394191 0.470000
0.852583 0.397729 0.473538
0.229709 0.457136 0.457136
0.309056 0.460674 0.460674
0.388403 0.464212 0.464212
0.467750 0.467750 0.467750
0.547097 0.471288 0.471288
0.626444 0.474826 0.474826
0.705791 0.478364 0.478364
0.785138 0.481902 0.481902
0.864484 0.485439 0.485439
0.241611 0.544847 0.469038
0.320958 0.548385 0.472576
0.400305 0.551923 0.476114
0.479652 0.555461 0.479652
0.558999 0.558999 0.483190
0.638345 0.562536 0.486727
0.717692 0.566074 0.490265
0.797039 0.569612 0.493803
0.876386 0.573150 0.497341
0.253513 0.632558 0.480940
0.332860 0.636096 0.484478
0.412206 0.639633 0.488015
0.491553 0.643171 0.491553
0.570900 0.646709 0.495091
0.650247 0.650247 0.498629
0.729594 0.653785 0.502167
0.808941 0.657323 0.505705
0.888288 0.660861 0.509243
0.265414 0.720268 0.492841
0.344761 0.723806 0.496379
0.424108 0.727344 0.499917
0.503455 0.730882 0.503455
0.582802 0.734420 0.506993
0.662149 0.737958 0.510531
0.741496 0.741496 0.514069
0.820842 0.745033 0.517606
0.900189 0.748571 0.521144
0.277316 0.807979 0.504743
0.356663 0.811517 0.508281
0.436010 0.815055 0.511819
0.515357 0.818593 0.515357
0.594703 0.822130 0.518894
0.674050 0.825668 0.522432
0.753397 0.829206 0.525970
0.832744 0.832744 0.529508
0.912091 0.836282 0.533046
0.289218 0.895690 0.516645
0.368564 0.899227 0.520182
0.447911 0.902765 0.523720
0.527258 0.906303 0.527258
0.606605 0.909841 0.530796
0.685952 0.913379 0.534334
0.765299 0.916917 0.537872
0.844646 0.920455 0.541410
0.923993 0.923993 0.544948
0.195206 0.195206 0.498442
0.274553 0.198744 0.501980
0.353900 0.202282 0.505518
0.433247 0.205820 0.509056
0.512593 0.209357 0.512593
0.591940 0.212895 0.516131
0.671287 0.216433 0.519669
0.750634 0.219971 0.523207
0.829981 0.223509 0.526745
0.207108 0.282917 0.510344
0.286454 0.286454 0.513881
0.365801 0.289992 0.517419
0.445148 0.293530 0.520957
0.524495 0.297068 0.524495
0.603842 0.300606 0.528033
0.683189 0.304144 0.531571
0.762536 0.307682 0.535109
0.841883 0.311220 0.538647
0.219009 0.370627 0.522245
0.298356 0.374165 0.525783
0.377703 0.377703 0.529321
0.457050 0.381241 0.532859
0.536397 0.384779 0.536397
0.615744 0.388317 0.539935
0.695090 0.391854 0.543472
0.774437 0.395392 0.547010
0.853784 0.398930 0.550548
0.230911 0.458338 0.534147
0.310258 0.461876 0.537685
0.389605 0.465414 0.541223
0.468951 0.468951 0.544760
0.548298 0.472489 0.548298
0.627645 0.476027 0.551836
0.706992 0.479565 0.555374
0.786339 0.483103 0.558912
0.865686 0.486641 0.562450
0.242812 0.546048 0.546048
0.322159 0.549586 0.549586
0.401506 0.553124 0.553124
0.480853 0.556662 0.556662
0.560200 0.560200 0.560200
0.639547 0.563738 0.563738
0.718894 0.567276 0.567276
0.798241 0.570814 0.570814
0.877588 0.574352 0.574352
0.254714 0.633759 0.557950
0.334061 0.637297 0.561488
0.413408 0.640835 0.565026
0.492755 0.644373 0.568564
0.572102 0.647911 0.572102
0.651449 0.651449 0.575640
0.730795 0.654986 0.579177
0.810142 0.658524 0.582715
0.889489 0.662062 0.586253
0.266616 0.721470 0.569852
0.345963 0.725008 0.573390
0.425310 0.728546 0.576928
0.504656 0.732083 0.580465
0.584003 0.735621 0.584003
0.663350 0.739159 0.587541
0.742697 0.742697 0.591079
0.822044 0.746235 0.594617
0.901391 0.749773 0.598155
0.278517 0.809180 0.581753
0.357864 0.812718 0.585291
0.437211 0.816256 0.588829
0.516558 0.819794 0.592367
0.595905 0.823332 0.595905
0.675252 0.826870 0.599443
0.754599 0.830408 0.602981
0.833946 0.833946 0.606519
0.913292 0.837483 0.610056
0.290419 0.896891 0.593655
0.369766 0.900429 0.597193
0.449113 0.903967 0.600731
0.528460 0.907505 0.604269
0.607807 0.911043 0.607807
0.687153 0.914580 0.611344
0.766500 0.918118 0.614882
0.845847 0.921656 0.618420
0.925194 0.925194 0.621958
0.196407 0.196407 0.575452
0.275754 0.199945 0.578990
0.355101 0.203483 0.582528
0.434448 0.207021 0.586066
0.513795 0.210559 0.589604
0.593142 0.214097 0.593142
0.672489 0.217635 0.596680
0.751836 0.221173 0.600218
0.831182 0.224710 0.603755
0.208309 0.284118 0.587354
0.287656 0.287656 0.590892
0.367003 0.291194 0.594430
0.446350 0.294732 0.597968
0.525697 0.298270 0.601506
0.605043 0.301807 0.605043
0.684390 0.305345 0.608581
0.763737 0.308883 0.612119
0.843084 0.312421 0.615657
0.220211 0.371829 0.599256
0.299558 0.375367 0.602794
0.378904 0.378904 0.606331
0.458251 0.382442 0.609869
0.537598 0.385980 0.613407
0.616945 0.389518 0.616945
0.696292 0.393056 0.620483
0.775639 0.396594 0.624021
0.854986 0.400132 0.627559
0.232112 0.459539 0.611157
0.311459 0.463077 0.614695
0.390806 0.466615 0.618233
0.470153 0.470153 0.621771
0.549500 0.473691 0.625309
0.628847 0.477229 0.628847
0.708194 0.480767 0.632385
0.787540 0.484304 0.635922
0.866887 0.487842 0.639460
0.244014 0.547250 0.623059
0.323361 0.550788 0.626597
0.402708 0.554326 0.630135
0.482055 0.557864 0.633673
0.561401 0.561401 0.637210
0.640748 0.564939 0.640748
0.720095 0.568477 0.644286
0.799442 0.572015 0.647824
0.878789 0.575553 0.651362
0.255916 0.634961 0.634961
0.335262 0.638498 0.638498
0.414609 0.642036 0.642036
0.493956 0.645574 0.645574
0.573303 0.649112 0.649112
0.652650 0.652650 0.652650
0.731997 0.656188 0.656188
0.811344 0.659726 0.659726
0.890691 0.663264 0.663264
0.267817 0.722671 0.646862
0.347164 0.726209 0.650400
0.426511 0.729747 0.653938
0.505858 0.733285 0.657476
0.585205 0.736823 0.661014
0.664552 0.740361 0.664552
0.743899 0.743899 0.668090
0.823245 0.747436 0.671627
0.902592 0.750974 0.675165
0.279719 0.810382 0.658764
0.359066 0.813920 0.662302
0.438413 0.817458 0.665840
0.517760 0.820996 0.669378
0.597106 0.824533 0.672915
0.676453 0.828071 0.676453
0.755800 0.831609 0.679991
0.835147 0.835147 0.683529
0.914494 0.838685 0.687067
0.291621 0.898093 0.670666
0.370967 0.901630 0.674203
0.450314 0.905168 0.677741
0.529661 0.908706 0.681279
0.609008 0.912244 0.684817
0.688355 0.915782 0.688355
0.767702 0.919320 0.691893
0.847049 0.922858 0.695431
0.926396 0.926396 0.698969
0.197609 0.197609 0.652463
0.276956 0.201147 0.656001
0.356303 0.204685 0.659539
0.435650 0.208223 0.663077
0.514996 0.211760 0.666614
0.594343 0.215298 0.670152
0.673690 0.218836 0.673690
0.753037 0.222374 0.677228
0.832384 0.225912 0.680766
0.209511 0.285320 0.664365
0.288857 0.288857 0.667902
0.368204 0.292395 0.671440
0.447551 0.295933 0.674978
0.526898 0.299471 0.678516
0.606245 0.303009 0.682054
0.685592 0.306547 0.685592
0.764939 0.310085 0.689130
0.844286 0.313623 0.692668
0.221412 0.373030 0.676266
0.300759 0.376568 0.679804
0.380106 0.380106 0.683342
0.459453 0.383644 0.686880
0.538800 0.387182 0.690418
0.618147 0.390720 0.693956
0.697493 0.394257 0.697493
0.776840 0.397795 0.701031
0.856187 0.401333 0.704569
0.233314 0.460741 0.688168
0.312661 0.464279 0.691706
0.392008 0.467817 0.695244
0.471354 0.471354 0.698781
0.550701 0.474892 0.702319
0.630048 0.478430 0.705857
0.709395 0.481968 0.709395
0.788742 0.485506 0.712933
0.868089 0.489044 0.716471
0.245215 0.548451 0.700069
0.324562 0.551989 0.703607
0.403909 0.555527 0.707145
0.483256 0.559065 0.710683
0.562603 0.562603 0.714221
0.641950 0.566141 0.717759
0.721297 0.569679 0.721297
0.800644 0.573217 0.724835
0.879990 0.576754 0.728372
0.257117 0.636162 0.711971
0.336464 0.639700 0.715509
0.415811 0.643238 0.719047
0.495158 0.646776 0.722585
0.574505 0.650314 0.726123
0.653851 0.653851 0.729660
0.733198 0.657389 0.733198
0.812545 0.660927 0.736736
0.891892 0.664465 0.740274
0.269019 0.723873 0.723873
0.348366 0.727411 0.727411
0.427712 0.730948 0.730948
0.507059 0.734486 0.734486
0.586406 0.738024 0.738024
0.665753 0.741562 0.741562
0.745100 0.745100 0.745100
0.824447 0.748638 0.748638
0.903794 0.752176 0.752176
0.280920 0.811583 0.735774
0.360267 0.815121 0.739312
0.439614 0.818659 0.742850
0.518961 0.822197 0.746388
0.598308 0.825735 0.749926
0.677655 0.829273 0.753464
0.757002 0.832811 0.757002
0.836349 0.836349 0.760540
0.915695 0.839886 0.764077
0.292822 0.899294 0.747676
0.372169 0.902832 0.751214
0.451516 0.906370 0.754752
0.530863 0.909908 0.758290
0.610210 0.913446 0.761828
0.689556 0.916983 0.765365
0.768903 0.920521 0.768903
0.848250 0.924059 0.772441
0.927597 0.927597 0.775979
0.198810 0.198810 0.729473
0.278157 0.202348 0.733011
0.357504 0.205886 0.736549
0.436851 0.209424 0.740087
0.516198 0.212962 0.743625
0.595545 0.216500 0.747163
0.674892 0.220038 0.750701
0.754238 0.223575 0.754238
0.833585 0.227113 0.757776
0.210712 0.286521 0.741375
0.290059 0.290059 0.744913
0.369406 0.293597 0.748451
0.448753 0.297135 0.751989
0.528100 0.300673 0.755527
0.607446 0.304210 0.759064
0.686793 0.307748 0.762602
0.766140 0.311286 0.766140
0.845487 0.314824 0.769678
0.222614 0.374232 0.753277
0.301961 0.377770 0.756815
0.381307 0.381307 0.760352
0.460654 0.384845 0.763890
0.540001 0.388383 0.767428
0.619348 0.391921 0.770966
0.698695 0.395459 0.774504
0.778042 0.398997 0.778042
0.857389 0.402535 0.781580
0.234515 0.461942 0.765178
0.313862 0.465480 0.768716
0.393209 0.469018 0.772254
0.472556 0.472556 0.775792
0.551903 0.476094 0.779330
0.631250 0.479632 0.782868
0.710597 0.483170 0.786406
0.789943 0.486707 0.789943
0.869290 0.490245 0.793481
0.246417 0.549653 0.777080
0.325764 0.553191 0.780618
0.405111 0.556729 0.784156
0.484458 0.560267 0.787694
0.563804 0.563804 0.791231
0.643151 0.567342 0.794769
0.722498 0.570880 0.798307
0.801845 0.574418 0.801845
0.881192 0.577956 0.805383
0.258319 0.637364 0.788982
0.337665 0.640901 0.792519
0.417012 0.644439 0.796057
0.496359 0.647977 0.799595
0.575706 0.651515 0.803133
0.655053 0.655053 0.806671
0.734400 0.658591 0.810209
0.813747 0.662129 0.813747
0.893094 0.665667 0.817285
0.270220 0.725074 0.800883
0.349567 0.728612 0.804421
0.428914 0.732150 0.807959
0.508261 0.735688 0.811497
0.587608 0.739226 0.815035
0.666955 0.742764 0.818573
0.746301 0.746301 0.822110
0.825648 0.749839 0.825648
0.904995 0.753377 0.829186
0.282122 0.812785 0.812785
0.361469 0.816323 0.816323
0.440816 0.819861 0.819861
0.520162 0.823398 0.823398
0.599509 0.826936 0.826936
0.678856 0.830474 0.830474
0.758203 0.834012 0.834012
0.837550 0.837550 0.837550
0.916897 0.841088 0.841088
0.294024 0.900496 0.824687
0.373370 0.904033 0.828224
0.452717 0.907571 0.831762
0.532064 0.911109 0.835300
0.611411 0.914647 0.838838
0.690758 0.918185 0.842376
0.770105 0.921723 0.845914
0.849452 0.925261 0.849452
0.928799 0.928799 0.852990
0.200012 0.200012 0.806484
0.279359 0.203550 0.810022
0.358706 0.207088 0.813560
0.438052 0.210625 0.817097
0.517399 0.214163 0.820635
0.596746 0.217701 0.824173
0.676093 0.221239 0.827711
0.755440 0.224777 0.831249
0.834787 0.228315 0.834787
0.211913 0.287722 0.818385
0.291260 0.291260 0.821923
0.370607 0.294798 0.825461
0.449954 0.298336 0.828999
0.529301 0.301874 0.832537
0.608648 0.305412 0.836075
0.687995 0.308950 0.839613
0.767342 0.312488 0.843151
0.846688 0.316025 0.846688
0.223815 0.375433 0.830287
0.303162 0.378971 0.833825
0.382509 0.382509 0.837363
0.461856 0.386047 0.840901
0.541203 0.389585 0.844439
0.620550 0.393123 0.847977
0.699896 0.396660 0.851514
0.779243 0.400198 0.855052
0.858590 0.403736 0.858590
0.235717 0.463144 0.842189
0.315064 0.466682 0.845727
0.394411 0.470220 0.849265
0.473757 0.473757 0.852802
0.553104 0.477295 0.856340
0.632451 0.480833 0.859878
0.711798 0.484371 0.863416
0.791145 0.487909 0.866954
0.870492 0.491447 0.870492
0.247618 0.550854 0.854090
0.326965 0.554392 0.857628
0.406312 0.557930 0.861166
0.485659 0.561468 0.864704
0.565006 0.565006 0.868242
0.644353 0.568544 0.871780
0.723700 0.572082 0.875318
0.803047 0.575620 0.878856
0.882393 0.579157 0.882393
0.259520 0.638565 0.865992
0.338867 0.642103 0.869530
0.418214 0.645641 0.873068
0.497561 0.649179 0.876606
0.576908 0.652717 0.880144
0.656254 0.656254 0.883681
0.735601 0.659792 0.887219
0.814948 0.663330 0.890757
0.894295 0.666868 0.894295
0.271422 0.726276 0.877894
0.350769 0.729814 0.881432
0.430115 0.733351 0.884969
0.509462 0.736889 0.888507
0.588809 0.740427 0.892045
0.668156 0.743965 0.895583
0.747503 0.747503 0.899121
0.826850 0.751041 0.902659
0.906197 0.754579 0.906197
0.283323 0.813986 0.889795
0.362670 0.817524 0.893333
0.442017 0.821062 0.896871
0.521364 0.824600 0.900409
0.600711 0.828138 0.903947
0.680058 0.831676 0.907485
0.759405 0.835214 0.911023
0.838751 0.838751 0.914560
0.918098 0.842289 0.918098
0.295225 0.901697 0.901697
0.374572 0.905235 0.905235
0.453919 0.908773 0.908773
0.533266 0.912311 0.912311
0.612612 0.915848 0.915848
0.691959 0.919386 0.919386
0.771306 0.922924 0.922924
0.850653 0.926462 0.926462
0.930000 0.930000 0.930000
