assets/luts/faded.cube
# Faded — Studio filter "faded"
# Generated by scripts/generate-filter-luts.mjs — do not edit by hand.
LUT_3D_SIZE 5
DOMAIN_MIN 0.0 0.0 0.0
DOMAIN_MAX 1.0 1.0 1.0
0.190400 0.190400 0.190400
0.349094 0.197476 0.197476
0.507788 0.204552 0.204552
0.666481 0.211627 0.211627
0.825175 0.218703 0.218703
0.214203 0.365821 0.214203
0.372897 0.372897 0.221279
0.531591 0.379973 0.228355
0.690285 0.387049 0.235431
0.848978 0.394124 0.242506
0.238007 0.541243 0.238007
0.396700 0.548318 0.245082
0.555394 0.555394 0.252158
0.714088 0.562470 0.259234
0.872782 0.569546 0.266310
0.261810 0.716664 0.261810
0.420504 0.723740 0.268886
0.579197 0.730815 0.275961
0.737891 0.737891 0.283037
0.896585 0.744967 0.290113
0.285613 0.892085 0.285613
0.444307 0.899161 0.292689
0.603001 0.906237 0.299765
0.761694 0.913312 0.306840
0.920388 0.920388 0.313916
0.192803 0.192803 0.344421
0.351497 0.199879 0.351497
0.510190 0.206954 0.358572
0.668884 0.214030 0.365648
0.827578 0.221106 0.372724
0.216606 0.368224 0.368224
0.375300 0.375300 0.375300
0.533994 0.382376 0.382376
0.692688 0.389452 0.389452
0.851381 0.396527 0.396527
0.240410 0.543646 0.392028
0.399103 0.550721 0.399103
0.557797 0.557797 0.406179
0.716491 0.564873 0.413255
0.875185 0.571949 0.420331
0.264213 0.719067 0.415831
0.422907 0.726143 0.422907
0.581600 0.733218 0.429982
0.740294 0.740294 0.437058
0.898988 0.747370 0.444134
0.288016 0.894488 0.439634
0.446710 0.901564 0.446710
0.605404 0.908640 0.453786
0.764097 0.915715 0.460861
0.922791 0.922791 0.467937
0.195206 0.195206 0.498442
0.353900 0.202282 0.505518
0.512593 0.209357 0.512593
0.671287 0.216433 0.519669
0.829981 0.223509 0.526745
0.219009 0.370627 0.522245
0.377703 0.377703 0.529321
0.536397 0.384779 0.536397
0.695090 0.391854 0.543472
0.853784 0.398930 0.550548
0.242812 0.546048 0.546048
0.401506 0.553124 0.553124
0.560200 0.560200 0.560200
0.718894 0.567276 0.567276
0.877588 0.574352 0.574352
0.266616 0.721470 0.569852
0.425310 0.728546 0.576928
0.584003 0.735621 0.584003
0.742697 0.742697 0.591079
0.901391 0.749773 0.598155
0.290419 0.896891 0.593655
0.449113 0.903967 0.600731
0.607807 0.911043 0.607807
0.766500 0.918118 0.614882
0.925194 0.925194 0.621958
0.197609 0.197609 0.652463
0.356303 0.204685 0.659539
0.514996 0.211760 0.666614
0.673690 0.218836 0.673690
0.832384 0.225912 0.680766
0.221412 0.373030 0.676266
0.380106 0.380106 0.683342
0.538800 0.387182 0.690418
0.697493 0.394257 0.697493
0.856187 0.401333 0.704569
0.245215 0.548451 0.700069
0.403909 0.555527 0.707145
0.562603 0.562603 0.714221
0.721297 0.569679 0.721297
0.879990 0.576754 0.728372
0.269019 0.723873 0.723873
0.427712 0.730948 0.730948
0.586406 0.738024 0.738024
0.745100 0.745100 0.745100
0.903794 0.752176 0.752176
0.292822 0.899294 0.747676
0.451516 0.906370 0.754752
0.610210 0.913446 0.761828
0.768903 0.920521 0.768903
0.927597 0.927597 0.775979
0.200012 0.200012 0.806484
0.358706 0.207088 0.813560
0.517399 0.214163 0.820635
0.676093 0.221239 0.827711
0.834787 0.228315 0.834787
0.223815 0.375433 0.830287
0.382509 0.382509 0.837363
0.541203 0.389585 0.844439
0.699896 0.396660 0.851514
0.858590 0.403736 0.858590
0.247618 0.550854 0.854090
0.406312 0.557930 0.861166
0.565006 0.565006 0.868242
0.723700 0.572082 0.875318
0.882393 0.579157 0.882393
0.271422 0.726276 0.877894
0.430115 0.733351 0.884969
0.588809 0.740427 0.892045
0.747503 0.747503 0.899121
0.906197 0.754579 0.906197
0.295225 0.901697 0.901697
0.453919 0.908773 0.908773
0.612612 0.915848 0.915848
0.771306 0.922924 0.922924
0.930000 0.930000 0.930000
