assets/luts/film35.cube
# Film 35 — Studio filter "film35"
# Generated by scripts/generate-filter-luts.mjs — do not edit by hand.
LUT_3D_SIZE 17
DOMAIN_MIN 0.0 0.0 0.0
DOMAIN_MAX 1.0 1.0 1.0
0.051500 0.056300 0.077900
0.097405 0.057190 0.078293
0.147353 0.058158 0.078721
0.200767 0.059193 0.079178
0.257070 0.060284 0.079660
0.315683 0.061420 0.080162
0.376028 0.062590 0.080679
0.437530 0.063782 0.081206
0.499608 0.064985 0.081737
0.561687 0.066188 0.082269
0.623188 0.067380 0.082796
0.683534 0.068549 0.083313
0.742147 0.069685 0.083814
0.798449 0.070776 0.084297
0.851864 0.071812 0.084754
0.901812 0.072780 0.085182
0.947717 0.073669 0.085575
0.055328 0.104060 0.079222
0.101233 0.104949 0.079616
0.151181 0.105918 0.080043
0.204595 0.106953 0.080501
0.260898 0.108044 0.080983
0.319511 0.109180 0.081485
0.379857 0.110349 0.082002
0.441358 0.111541 0.082528
0.503437 0.112745 0.083060
0.565515 0.113948 0.083592
0.627016 0.115140 0.084118
0.687362 0.116309 0.084635
0.745975 0.117445 0.085137
0.802278 0.118536 0.085619
0.855692 0.119572 0.086076
0.905640 0.120540 0.086504
0.951545 0.121429 0.086897
0.059494 0.156026 0.080661
0.105398 0.156916 0.081055
0.155347 0.157884 0.081482
0.208761 0.158919 0.081940
0.265063 0.160011 0.082422
0.323676 0.161147 0.082924
0.384022 0.162316 0.083441
0.445523 0.163508 0.083967
0.507602 0.164711 0.084499
0.569681 0.165914 0.085030
0.631182 0.167106 0.085557
0.691528 0.168276 0.086074
0.750140 0.169412 0.086576
0.806443 0.170503 0.087058
0.859857 0.171538 0.087515
0.909805 0.172506 0.087943
0.955710 0.173396 0.088336
0.063948 0.211599 0.082200
0.109853 0.212489 0.082593
0.159801 0.213457 0.083021
0.213215 0.214492 0.083478
0.269518 0.215583 0.083961
0.328131 0.216719 0.084463
0.388476 0.217889 0.084979
0.449977 0.219081 0.085506
0.512056 0.220284 0.086038
0.574135 0.221487 0.086569
0.635636 0.222679 0.087096
0.695982 0.223848 0.087613
0.754595 0.224984 0.088115
0.810897 0.226076 0.088597
0.864311 0.227111 0.089054
0.914260 0.228079 0.089482
0.960165 0.228968 0.089875
0.068643 0.270177 0.083822
0.114548 0.271066 0.084215
0.164496 0.272034 0.084643
0.217910 0.273069 0.085100
0.274213 0.274161 0.085583
0.332826 0.275297 0.086085
0.393172 0.276466 0.086601
0.454673 0.277658 0.087128
0.516751 0.278861 0.087660
0.578830 0.280064 0.088191
0.640331 0.281256 0.088718
0.700677 0.282426 0.089235
0.759290 0.283562 0.089737
0.815592 0.284653 0.090219
0.869007 0.285688 0.090676
0.918955 0.286656 0.091104
0.964860 0.287546 0.091497
0.073531 0.331158 0.085511
0.119436 0.332048 0.085904
0.169384 0.333016 0.086332
0.222798 0.334051 0.086789
0.279101 0.335142 0.087271
0.337714 0.336278 0.087773
0.398060 0.337448 0.088290
0.459561 0.338640 0.088817
0.521639 0.339843 0.089348
0.583718 0.341046 0.089880
0.645219 0.342238 0.090406
0.705565 0.343407 0.090923
0.764178 0.344543 0.091425
0.820480 0.345634 0.091907
0.873895 0.346670 0.092365
0.923843 0.347638 0.092792
0.969748 0.348527 0.093186
0.078563 0.393942 0.087249
0.124468 0.394832 0.087642
0.174417 0.395800 0.088070
0.227831 0.396835 0.088527
0.284133 0.397926 0.089010
0.342746 0.399062 0.089512
0.403092 0.400232 0.090028
0.464593 0.401424 0.090555
0.526672 0.402627 0.091087
0.588751 0.403830 0.091618
0.650252 0.405022 0.092145
0.710598 0.406192 0.092662
0.769210 0.407328 0.093164
0.825513 0.408419 0.093646
0.878927 0.409454 0.094103
0.928875 0.410422 0.094531
0.974780 0.411312 0.094924
0.083692 0.457929 0.089021
0.129597 0.458818 0.089414
0.179545 0.459786 0.089842
0.232960 0.460822 0.090299
0.289262 0.461913 0.090781
0.347875 0.463049 0.091283
0.408221 0.464218 0.091800
0.469722 0.465410 0.092327
0.531801 0.466613 0.092858
0.593879 0.467816 0.093390
0.655380 0.469008 0.093917
0.715726 0.470178 0.094433
0.774339 0.471314 0.094935
0.830642 0.472405 0.095418
0.884056 0.473440 0.095875
0.934004 0.474408 0.096303
0.979909 0.475298 0.096696
0.088869 0.522516 0.090809
0.134774 0.523406 0.091202
0.184722 0.524374 0.091630
0.238137 0.525409 0.092088
0.294439 0.526500 0.092570
0.353052 0.527636 0.093072
0.413398 0.528806 0.093588
0.474899 0.529997 0.094115
0.536978 0.531201 0.094647
0.599056 0.532404 0.095178
0.660557 0.533596 0.095705
0.720903 0.534765 0.096222
0.779516 0.535901 0.096724
0.835819 0.536992 0.097206
0.889233 0.538028 0.097663
0.939181 0.538996 0.098091
0.985086 0.539885 0.098484
0.094046 0.587103 0.092598
0.139951 0.587993 0.092991
0.189899 0.588961 0.093419
0.243313 0.589996 0.093876
0.299616 0.591087 0.094358
0.358229 0.592223 0.094860
0.418575 0.593393 0.095377
0.480076 0.594585 0.095904
0.542154 0.595788 0.096435
0.604233 0.596991 0.096967
0.665734 0.598183 0.097493
0.726080 0.599353 0.098010
0.784693 0.600489 0.098512
0.840996 0.601580 0.098994
0.894410 0.602615 0.099452
0.944358 0.603583 0.099880
0.990263 0.604473 0.100273
0.099175 0.651090 0.094370
0.145080 0.651979 0.094763
0.195028 0.652947 0.095190
0.248442 0.653982 0.095648
0.304745 0.655074 0.096130
0.363358 0.656210 0.096632
0.423703 0.657379 0.097149
0.485205 0.658571 0.097675
0.547283 0.659774 0.098207
0.609362 0.660977 0.098739
0.670863 0.662169 0.099265
0.731209 0.663339 0.099782
0.789822 0.664475 0.100284
0.846124 0.665566 0.100766
0.899538 0.666601 0.101224
0.949487 0.667569 0.101651
0.995392 0.668459 0.102044
0.104207 0.713874 0.096108
0.150112 0.714764 0.096501
0.200061 0.715732 0.096929
0.253475 0.716767 0.097386
0.309777 0.717858 0.097868
0.368390 0.718994 0.098370
0.428736 0.720164 0.098887
0.490237 0.721355 0.099414
0.552316 0.722559 0.099945
0.614394 0.723762 0.100477
0.675896 0.724954 0.101004
0.736241 0.726123 0.101520
0.794854 0.727259 0.102022
0.851157 0.728350 0.102505
0.904571 0.729386 0.102962
0.954519 0.730354 0.103390
1.000000 0.731243 0.103783
0.109095 0.774855 0.097797
0.155000 0.775745 0.098190
0.204948 0.776713 0.098617
0.258363 0.777748 0.099075
0.314665 0.778839 0.099557
0.373278 0.779975 0.100059
0.433624 0.781145 0.100576
0.495125 0.782337 0.101102
0.557204 0.783540 0.101634
0.619282 0.784743 0.102166
0.680784 0.785935 0.102692
0.741129 0.787105 0.103209
0.799742 0.788241 0.103711
0.856045 0.789332 0.104193
0.909459 0.790367 0.104651
0.959407 0.791335 0.105078
1.000000 0.792225 0.105471
0.113791 0.833433 0.099419
0.159695 0.834322 0.099812
0.209644 0.835290 0.100239
0.263058 0.836326 0.100697
0.319360 0.837417 0.101179
0.377973 0.838553 0.101681
0.438319 0.839722 0.102198
0.499820 0.840914 0.102724
0.561899 0.842117 0.103256
0.623978 0.843321 0.103788
0.685479 0.844513 0.104314
0.745825 0.845682 0.104831
0.804438 0.846818 0.105333
0.860740 0.847909 0.105815
0.914154 0.848944 0.106273
0.964102 0.849913 0.106700
1.000000 0.850802 0.107093
0.118245 0.889005 0.100957
0.164150 0.889895 0.101350
0.214098 0.890863 0.101778
0.267512 0.891898 0.102236
0.323815 0.892989 0.102718
0.382428 0.894125 0.103220
0.442773 0.895295 0.103736
0.504274 0.896487 0.104263
0.566353 0.897690 0.104795
0.628432 0.898893 0.105326
0.689933 0.900085 0.105853
0.750279 0.901255 0.106370
0.808892 0.902391 0.106872
0.865194 0.903482 0.107354
0.918608 0.904517 0.107811
0.968557 0.905485 0.108239
1.000000 0.906375 0.108632
0.122410 0.940972 0.102396
0.168315 0.941862 0.102789
0.218263 0.942830 0.103217
0.271678 0.943865 0.103675
0.327980 0.944956 0.104157
0.386593 0.946092 0.104659
0.446939 0.947262 0.105175
0.508440 0.948454 0.105702
0.570519 0.949657 0.106234
0.632597 0.950860 0.106765
0.694098 0.952052 0.107292
0.754444 0.953221 0.107809
0.813057 0.954357 0.108311
0.869360 0.955449 0.108793
0.922774 0.956484 0.109250
0.972722 0.957452 0.109678
1.000000 0.958341 0.110071
0.126238 0.988732 0.103719
0.172143 0.989622 0.104112
0.222092 0.990590 0.104540
0.275506 0.991625 0.104997
0.331808 0.992716 0.105479
0.390421 0.993852 0.105981
0.450767 0.995021 0.106498
0.512268 0.996213 0.107025
0.574347 0.997417 0.107556
0.636426 0.998620 0.108088
0.697927 0.999812 0.108614
0.758272 1.000000 0.109131
0.816885 1.000000 0.109633
0.873188 1.000000 0.110115
0.926602 1.000000 0.110573
0.976550 1.000000 0.111000
1.000000 1.000000 0.111394
0.051886 0.056602 0.122800
0.097791 0.057492 0.123194
0.147740 0.058460 0.123621
0.201154 0.059495 0.124079
0.257456 0.060586 0.124561
0.316069 0.061722 0.125063
0.376415 0.062892 0.125580
0.437916 0.064084 0.126106
0.499995 0.065287 0.126638
0.562074 0.066490 0.127169
0.623575 0.067682 0.127696
0.683921 0.068851 0.128213
0.742533 0.069987 0.128715
0.798836 0.071079 0.129197
0.852250 0.072114 0.129654
0.902198 0.073082 0.130082
0.948103 0.073972 0.130475
0.055715 0.104362 0.124123
0.101619 0.105252 0.124516
0.151568 0.106220 0.124944
0.204982 0.107255 0.125401
0.261284 0.108346 0.125883
0.319897 0.109482 0.126385
0.380243 0.110652 0.126902
0.441744 0.111844 0.127429
0.503823 0.113047 0.127960
0.565902 0.114250 0.128492
0.627403 0.115442 0.129019
0.687749 0.116611 0.129535
0.746362 0.117747 0.130037
0.802664 0.118838 0.130519
0.856078 0.119874 0.130977
0.906026 0.120842 0.131405
0.951931 0.121731 0.131798
0.059880 0.156329 0.125562
0.105785 0.157218 0.125955
0.155733 0.158186 0.126383
0.209147 0.159222 0.126840
0.265450 0.160313 0.127322
0.324063 0.161449 0.127824
0.384408 0.162618 0.128341
0.445910 0.163810 0.128868
0.507988 0.165013 0.129399
0.570067 0.166216 0.129931
0.631568 0.167408 0.130458
0.691914 0.168578 0.130974
0.750527 0.169714 0.131476
0.806829 0.170805 0.131958
0.860243 0.171840 0.132416
0.910192 0.172808 0.132844
0.956097 0.173698 0.133237
0.064334 0.211901 0.127101
0.110239 0.212791 0.127494
0.160188 0.213759 0.127921
0.213602 0.214794 0.128379
0.269904 0.215885 0.128861
0.328517 0.217021 0.129363
0.388863 0.218191 0.129880
0.450364 0.219383 0.130406
0.512443 0.220586 0.130938
0.574521 0.221789 0.131470
0.636023 0.222981 0.131996
0.696368 0.224151 0.132513
0.754981 0.225287 0.133015
0.811284 0.226378 0.133497
0.864698 0.227413 0.133955
0.914646 0.228381 0.134382
0.960551 0.229271 0.134775
0.069030 0.270479 0.128723
0.114934 0.271368 0.129116
0.164883 0.272336 0.129543
0.218297 0.273372 0.130001
0.274599 0.274463 0.130483
0.333212 0.275599 0.130985
0.393558 0.276768 0.131502
0.455059 0.277960 0.132028
0.517138 0.279163 0.132560
0.579217 0.280367 0.133092
0.640718 0.281558 0.133618
0.701064 0.282728 0.134135
0.759677 0.283864 0.134637
0.815979 0.284955 0.135119
0.869393 0.285990 0.135577
0.919341 0.286958 0.136004
0.965246 0.287848 0.136397
0.073917 0.331460 0.130411
0.119822 0.332350 0.130804
0.169771 0.333318 0.131232
0.223185 0.334353 0.131689
0.279487 0.335444 0.132172
0.338100 0.336580 0.132673
0.398446 0.337750 0.133190
0.459947 0.338942 0.133717
0.522026 0.340145 0.134249
0.584105 0.341348 0.134780
0.645606 0.342540 0.135307
0.705952 0.343709 0.135824
0.764564 0.344845 0.136326
0.820867 0.345937 0.136808
0.874281 0.346972 0.137265
0.924229 0.347940 0.137693
0.970134 0.348830 0.138086
0.078950 0.394244 0.132150
0.124855 0.395134 0.132543
0.174803 0.396102 0.132970
0.228217 0.397137 0.133428
0.284520 0.398229 0.133910
0.343133 0.399365 0.134412
0.403478 0.400534 0.134929
0.464980 0.401726 0.135455
0.527058 0.402929 0.135987
0.589137 0.404132 0.136519
0.650638 0.405324 0.137045
0.710984 0.406494 0.137562
0.769597 0.407630 0.138064
0.825899 0.408721 0.138546
0.879313 0.409756 0.139004
0.929262 0.410724 0.139431
0.975167 0.411614 0.139824
0.084079 0.458231 0.133921
0.129984 0.459120 0.134314
0.179932 0.460088 0.134742
0.233346 0.461124 0.135200
0.289648 0.462215 0.135682
0.348261 0.463351 0.136184
0.408607 0.464520 0.136700
0.470108 0.465712 0.137227
0.532187 0.466915 0.137759
0.594266 0.468119 0.138290
0.655767 0.469311 0.138817
0.716113 0.470480 0.139334
0.774726 0.471616 0.139836
0.831028 0.472707 0.140318
0.884442 0.473742 0.140775
0.934391 0.474711 0.141203
0.980295 0.475600 0.141596
0.089256 0.522818 0.135710
0.135161 0.523708 0.136103
0.185109 0.524676 0.136531
0.238523 0.525711 0.136988
0.294825 0.526802 0.137470
0.353438 0.527938 0.137972
0.413784 0.529108 0.138489
0.475285 0.530300 0.139016
0.537364 0.531503 0.139547
0.599443 0.532706 0.140079
0.660944 0.533898 0.140605
0.721290 0.535067 0.141122
0.779903 0.536203 0.141624
0.836205 0.537295 0.142106
0.889619 0.538330 0.142564
0.939568 0.539298 0.142992
0.985472 0.540187 0.143385
0.094433 0.587405 0.137498
0.140337 0.588295 0.137891
0.190286 0.589263 0.138319
0.243700 0.590298 0.138776
0.300002 0.591389 0.139259
0.358615 0.592525 0.139761
0.418961 0.593695 0.140277
0.480462 0.594887 0.140804
0.542541 0.596090 0.141336
0.604620 0.597293 0.141867
0.666121 0.598485 0.142394
0.726467 0.599655 0.142911
0.785080 0.600791 0.143413
0.841382 0.601882 0.143895
0.894796 0.602917 0.144352
0.944744 0.603885 0.144780
0.990649 0.604775 0.145173
0.099561 0.651392 0.139270
0.145466 0.652281 0.139663
0.195415 0.653249 0.140091
0.248829 0.654285 0.140548
0.305131 0.655376 0.141030
0.363744 0.656512 0.141532
0.424090 0.657681 0.142049
0.485591 0.658873 0.142576
0.547670 0.660076 0.143107
0.609748 0.661280 0.143639
0.671250 0.662471 0.144166
0.731595 0.663641 0.144682
0.790208 0.664777 0.145184
0.846511 0.665868 0.145667
0.899925 0.666903 0.146124
0.949873 0.667871 0.146552
0.995778 0.668761 0.146945
0.104594 0.714176 0.141008
0.150499 0.715066 0.141402
0.200447 0.716034 0.141829
0.253861 0.717069 0.142287
0.310164 0.718160 0.142769
0.368776 0.719296 0.143271
0.429122 0.720466 0.143788
0.490623 0.721658 0.144314
0.552702 0.722861 0.144846
0.614781 0.724064 0.145377
0.676282 0.725256 0.145904
0.736628 0.726425 0.146421
0.795241 0.727561 0.146923
0.851543 0.728653 0.147405
0.904957 0.729688 0.147862
0.954906 0.730656 0.148290
1.000000 0.731545 0.148683
0.109482 0.775157 0.142697
0.155387 0.776047 0.143090
0.205335 0.777015 0.143518
0.258749 0.778050 0.143975
0.315051 0.779142 0.144457
0.373664 0.780278 0.144959
0.434010 0.781447 0.145476
0.495511 0.782639 0.146003
0.557590 0.783842 0.146534
0.619669 0.785045 0.147066
0.681170 0.786237 0.147593
0.741516 0.787407 0.148109
0.800129 0.788543 0.148611
0.856431 0.789634 0.149094
0.909845 0.790669 0.149551
0.959794 0.791637 0.149979
1.000000 0.792527 0.150372
0.114177 0.833735 0.144319
0.160082 0.834625 0.144712
0.210030 0.835593 0.145140
0.263444 0.836628 0.145597
0.319747 0.837719 0.146079
0.378360 0.838855 0.146581
0.438705 0.840025 0.147098
0.500207 0.841216 0.147625
0.562285 0.842420 0.148156
0.624364 0.843623 0.148688
0.685865 0.844815 0.149215
0.746211 0.845984 0.149731
0.804824 0.847120 0.150233
0.861126 0.848211 0.150716
0.914540 0.849247 0.151173
0.964489 0.850215 0.151601
1.000000 0.851104 0.151994
0.118631 0.889307 0.145858
0.164536 0.890197 0.146251
0.214485 0.891165 0.146679
0.267899 0.892200 0.147136
0.324201 0.893292 0.147618
0.382814 0.894428 0.148120
0.443160 0.895597 0.148637
0.504661 0.896789 0.149164
0.566740 0.897992 0.149695
0.628818 0.899195 0.150227
0.690320 0.900387 0.150753
0.750665 0.901557 0.151270
0.809278 0.902693 0.151772
0.865581 0.903784 0.152254
0.918995 0.904819 0.152712
0.968943 0.905787 0.153139
1.000000 0.906677 0.153533
0.122797 0.941274 0.147297
0.168702 0.942164 0.147690
0.218650 0.943132 0.148118
0.272064 0.944167 0.148575
0.328366 0.945258 0.149057
0.386979 0.946394 0.149559
0.447325 0.947564 0.150076
0.508826 0.948756 0.150602
0.570905 0.949959 0.151134
0.632984 0.951162 0.151666
0.694485 0.952354 0.152192
0.754831 0.953524 0.152709
0.813444 0.954659 0.153211
0.869746 0.955751 0.153693
0.923160 0.956786 0.154151
0.973109 0.957754 0.154578
1.000000 0.958644 0.154972
0.126625 0.989034 0.148619
0.172530 0.989924 0.149012
0.222478 0.990892 0.149440
0.275892 0.991927 0.149897
0.332195 0.993018 0.150380
0.390807 0.994154 0.150881
0.451153 0.995324 0.151398
0.512654 0.996516 0.151925
0.574733 0.997719 0.152457
0.636812 0.998922 0.152988
0.698313 1.000000 0.153515
0.758659 1.000000 0.154032
0.817272 1.000000 0.154534
0.873574 1.000000 0.155016
0.926988 1.000000 0.155473
0.976937 1.000000 0.155901
1.000000 1.000000 0.156294
0.052307 0.056931 0.171656
0.098212 0.057821 0.172049
0.148160 0.058789 0.172477
0.201574 0.059824 0.172934
0.257877 0.060915 0.173416
0.316490 0.062051 0.173918
0.376835 0.063221 0.174435
0.438337 0.064412 0.174962
0.500415 0.065616 0.175493
0.562494 0.066819 0.176025
0.623995 0.068011 0.176552
0.684341 0.069180 0.177068
0.742954 0.070316 0.177570
0.799256 0.071407 0.178052
0.852670 0.072443 0.178510
0.902619 0.073411 0.178938
0.948524 0.074300 0.179331
0.056135 0.104691 0.172978
0.102040 0.105580 0.173371
0.151988 0.106548 0.173799
0.205402 0.107584 0.174257
0.261705 0.108675 0.174739
0.320318 0.109811 0.175241
0.380664 0.110980 0.175757
0.442165 0.112172 0.176284
0.504243 0.113375 0.176816
0.566322 0.114579 0.177347
0.627823 0.115770 0.177874
0.688169 0.116940 0.178391
0.746782 0.118076 0.178893
0.803084 0.119167 0.179375
0.856499 0.120202 0.179832
0.906447 0.121170 0.180260
0.952352 0.122060 0.180653
0.060300 0.156657 0.174417
0.106205 0.157547 0.174810
0.156154 0.158515 0.175238
0.209568 0.159550 0.175695
0.265870 0.160641 0.176178
0.324483 0.161777 0.176680
0.384829 0.162947 0.177196
0.446330 0.164139 0.177723
0.508409 0.165342 0.178255
0.570488 0.166545 0.178786
0.631989 0.167737 0.179313
0.692335 0.168907 0.179830
0.750947 0.170043 0.180332
0.807250 0.171134 0.180814
0.860664 0.172169 0.181271
0.910612 0.173137 0.181699
0.956517 0.174027 0.182092
0.064755 0.212230 0.175956
0.110660 0.213120 0.176349
0.160608 0.214088 0.176777
0.214022 0.215123 0.177234
0.270325 0.216214 0.177716
0.328937 0.217350 0.178218
0.389283 0.218520 0.178735
0.450784 0.219712 0.179262
0.512863 0.220915 0.179793
0.574942 0.222118 0.180325
0.636443 0.223310 0.180852
0.696789 0.224479 0.181368
0.755402 0.225615 0.181870
0.811704 0.226706 0.182353
0.865118 0.227742 0.182810
0.915067 0.228710 0.183238
0.960972 0.229599 0.183631
0.069450 0.270807 0.177578
0.115355 0.271697 0.177971
0.165303 0.272665 0.178399
0.218717 0.273700 0.178856
0.275020 0.274792 0.179338
0.333633 0.275928 0.179840
0.393979 0.277097 0.180357
0.455480 0.278289 0.180884
0.517558 0.279492 0.181415
0.579637 0.280695 0.181947
0.641138 0.281887 0.182474
0.701484 0.283057 0.182990
0.760097 0.284193 0.183492
0.816399 0.285284 0.183975
0.869814 0.286319 0.184432
0.919762 0.287287 0.184860
0.965667 0.288177 0.185253
0.074338 0.331789 0.179267
0.120243 0.332679 0.179660
0.170191 0.333647 0.180087
0.223605 0.334682 0.180545
0.279908 0.335773 0.181027
0.338521 0.336909 0.181529
0.398866 0.338078 0.182046
0.460368 0.339270 0.182572
0.522446 0.340474 0.183104
0.584525 0.341677 0.183636
0.646026 0.342869 0.184162
0.706372 0.344038 0.184679
0.764985 0.345174 0.185181
0.821287 0.346265 0.185663
0.874702 0.347301 0.186121
0.924650 0.348269 0.186548
0.970555 0.349158 0.186941
0.079370 0.394573 0.181005
0.125275 0.395463 0.181398
0.175224 0.396431 0.181826
0.228638 0.397466 0.182283
0.284940 0.398557 0.182765
0.343553 0.399693 0.183267
0.403899 0.400863 0.183784
0.465400 0.402055 0.184311
0.527479 0.403258 0.184842
0.589558 0.404461 0.185374
0.651059 0.405653 0.185901
0.711404 0.406823 0.186417
0.770017 0.407959 0.186919
0.826320 0.409050 0.187402
0.879734 0.410085 0.187859
0.929682 0.411053 0.188287
0.975587 0.411943 0.188680
0.084499 0.458560 0.182777
0.130404 0.459449 0.183170
0.180352 0.460417 0.183598
0.233767 0.461452 0.184055
0.290069 0.462544 0.184537
0.348682 0.463680 0.185039
0.409028 0.464849 0.185556
0.470529 0.466041 0.186083
0.532608 0.467244 0.186614
0.594686 0.468447 0.187146
0.656187 0.469639 0.187672
0.716533 0.470809 0.188189
0.775146 0.471945 0.188691
0.831449 0.473036 0.189173
0.884863 0.474071 0.189631
0.934811 0.475039 0.190059
0.980716 0.475929 0.190452
0.089676 0.523147 0.184565
0.135581 0.524036 0.184958
0.185529 0.525005 0.185386
0.238943 0.526040 0.185843
0.295246 0.527131 0.186326
0.353859 0.528267 0.186828
0.414205 0.529436 0.187344
0.475706 0.530628 0.187871
0.537785 0.531832 0.188403
0.599863 0.533035 0.188934
0.661364 0.534227 0.189461
0.721710 0.535396 0.189978
0.780323 0.536532 0.190480
0.836626 0.537623 0.190962
0.890040 0.538659 0.191419
0.939988 0.539627 0.191847
0.985893 0.540516 0.192240
0.094853 0.587734 0.186354
0.140758 0.588624 0.186747
0.190706 0.589592 0.187174
0.244120 0.590627 0.187632
0.300423 0.591718 0.188114
0.359036 0.592854 0.188616
0.419382 0.594024 0.189133
0.480883 0.595216 0.189659
0.542961 0.596419 0.190191
0.605040 0.597622 0.190723
0.666541 0.598814 0.191249
0.726887 0.599983 0.191766
0.785500 0.601119 0.192268
0.841802 0.602211 0.192750
0.895217 0.603246 0.193208
0.945165 0.604214 0.193635
0.991070 0.605104 0.194028
0.099982 0.651720 0.188125
0.145887 0.652610 0.188518
0.195835 0.653578 0.188946
0.249249 0.654613 0.189404
0.305552 0.655705 0.189886
0.364165 0.656840 0.190388
0.424510 0.658010 0.190904
0.486011 0.659202 0.191431
0.548090 0.660405 0.191963
0.610169 0.661608 0.192494
0.671670 0.662800 0.193021
0.732016 0.663970 0.193538
0.790629 0.665106 0.194040
0.846931 0.666197 0.194522
0.900345 0.667232 0.194979
0.950294 0.668200 0.195407
0.996199 0.669090 0.195800
0.105014 0.714505 0.189864
0.150919 0.715394 0.190257
0.200867 0.716362 0.190685
0.254282 0.717398 0.191142
0.310584 0.718489 0.191624
0.369197 0.719625 0.192126
0.429543 0.720794 0.192643
0.491044 0.721986 0.193170
0.553123 0.723189 0.193701
0.615201 0.724393 0.194233
0.676703 0.725585 0.194760
0.737048 0.726754 0.195276
0.795661 0.727890 0.195778
0.851964 0.728981 0.196260
0.905378 0.730016 0.196718
0.955326 0.730985 0.197146
1.000000 0.731874 0.197539
0.109902 0.775486 0.191552
0.155807 0.776376 0.191945
0.205755 0.777344 0.192373
0.259170 0.778379 0.192831
0.315472 0.779470 0.193313
0.374085 0.780606 0.193815
0.434431 0.781776 0.194331
0.495932 0.782968 0.194858
0.558011 0.784171 0.195390
0.620089 0.785374 0.195921
0.681590 0.786566 0.196448
0.741936 0.787736 0.196965
0.800549 0.788871 0.197467
0.856852 0.789963 0.197949
0.910266 0.790998 0.198406
0.960214 0.791966 0.198834
1.000000 0.792856 0.199227
0.114597 0.834064 0.193174
0.160502 0.834953 0.193567
0.210451 0.835921 0.193995
0.263865 0.836957 0.194453
0.320167 0.838048 0.194935
0.378780 0.839184 0.195437
0.439126 0.840353 0.195953
0.500627 0.841545 0.196480
0.562706 0.842748 0.197012
0.624785 0.843952 0.197543
0.686286 0.845143 0.198070
0.746632 0.846313 0.198587
0.805244 0.847449 0.199089
0.861547 0.848540 0.199571
0.914961 0.849575 0.200028
0.964909 0.850543 0.200456
1.000000 0.851433 0.200849
0.119052 0.889636 0.194713
0.164957 0.890526 0.195106
0.214905 0.891494 0.195534
0.268319 0.892529 0.195991
0.324622 0.893620 0.196474
0.383234 0.894756 0.196975
0.443580 0.895926 0.197492
0.505081 0.897118 0.198019
0.567160 0.898321 0.198551
0.629239 0.899524 0.199082
0.690740 0.900716 0.199609
0.751086 0.901886 0.200126
0.809699 0.903022 0.200628
0.866001 0.904113 0.201110
0.919415 0.905148 0.201567
0.969364 0.906116 0.201995
1.000000 0.907006 0.202388
0.123217 0.941603 0.196152
0.169122 0.942493 0.196545
0.219070 0.943461 0.196973
0.272485 0.944496 0.197430
0.328787 0.945587 0.197912
0.387400 0.946723 0.198414
0.447746 0.947893 0.198931
0.509247 0.949084 0.199458
0.571326 0.950288 0.199989
0.633404 0.951491 0.200521
0.694905 0.952683 0.201048
0.755251 0.953852 0.201565
0.813864 0.954988 0.202067
0.870167 0.956079 0.202549
0.923581 0.957115 0.203006
0.973529 0.958083 0.203434
1.000000 0.958972 0.203827
0.127045 0.989363 0.197475
0.172950 0.990252 0.197868
0.222899 0.991220 0.198295
0.276313 0.992256 0.198753
0.332615 0.993347 0.199235
0.391228 0.994483 0.199737
0.451574 0.995652 0.200254
0.513075 0.996844 0.200780
0.575154 0.998047 0.201312
0.637232 0.999251 0.201844
0.698734 1.000000 0.202370
0.759079 1.000000 0.202887
0.817692 1.000000 0.203389
0.873995 1.000000 0.203871
0.927409 1.000000 0.204329
0.977357 1.000000 0.204756
1.000000 1.000000 0.205149
0.052757 0.057282 0.223901
0.098661 0.058172 0.224294
0.148610 0.059140 0.224722
0.202024 0.060175 0.225179
0.258326 0.061267 0.225662
0.316939 0.062403 0.226164
0.377285 0.063572 0.226680
0.438786 0.064764 0.227207
0.500865 0.065967 0.227739
0.562944 0.067170 0.228270
0.624445 0.068362 0.228797
0.684791 0.069532 0.229314
0.743404 0.070668 0.229816
0.799706 0.071759 0.230298
0.853120 0.072794 0.230755
