assets/luts/film35.cube
# Film 35 — Studio filter "film35"
# Generated by scripts/generate-filter-luts.mjs — do not edit by hand.
LUT_3D_SIZE 5
DOMAIN_MIN 0.0 0.0 0.0
DOMAIN_MAX 1.0 1.0 1.0
0.051500 0.056300 0.077900
0.257070 0.060284 0.079660
0.499608 0.064985 0.081737
0.742147 0.069685 0.083814
0.947717 0.073669 0.085575
0.068643 0.270177 0.083822
0.274213 0.274161 0.085583
0.516751 0.278861 0.087660
0.759290 0.283562 0.089737
0.964860 0.287546 0.091497
0.088869 0.522516 0.090809
0.294439 0.526500 0.092570
0.536978 0.531201 0.094647
0.779516 0.535901 0.096724
0.985086 0.539885 0.098484
0.109095 0.774855 0.097797
0.314665 0.778839 0.099557
0.557204 0.783540 0.101634
0.799742 0.788241 0.103711
1.000000 0.792225 0.105471
0.126238 0.988732 0.103719
0.331808 0.992716 0.105479
0.574347 0.997417 0.107556
0.816885 1.000000 0.109633
1.000000 1.000000 0.111394
0.053231 0.057653 0.278972
0.258800 0.061637 0.280732
0.501339 0.066338 0.282809
0.743878 0.071038 0.284886
0.949447 0.075022 0.286646
0.070374 0.271530 0.284894
0.275943 0.275514 0.286654
0.518482 0.280214 0.288731
0.761021 0.284915 0.290808
0.966590 0.288899 0.292569
0.090600 0.523869 0.291881
0.296170 0.527853 0.293641
0.538708 0.532554 0.295718
0.781247 0.537254 0.297795
0.986817 0.541238 0.299556
0.110826 0.776208 0.298868
0.316396 0.780192 0.300629
0.558934 0.784893 0.302706
0.801473 0.789594 0.304783
1.000000 0.793578 0.306543
0.127969 0.990085 0.304790
0.333539 0.994069 0.306551
0.576077 0.998770 0.308628
0.818616 1.000000 0.310705
1.000000 1.000000 0.312465
0.055272 0.059249 0.516203
0.260842 0.063233 0.517964
0.503381 0.067934 0.520041
0.745919 0.072635 0.522118
0.951489 0.076619 0.523878
0.072416 0.273126 0.522125
0.277985 0.277110 0.523886
0.520524 0.281811 0.525963
0.763063 0.286511 0.528040
0.968632 0.290495 0.529800
0.092642 0.525465 0.529113
0.298211 0.529449 0.530873
0.540750 0.534150 0.532950
0.783289 0.538851 0.535027
0.988858 0.542835 0.536787
0.112868 0.777805 0.536100
0.318437 0.781789 0.537860
0.560976 0.786489 0.539937
0.803515 0.791190 0.542014
1.000000 0.795174 0.543775
0.130011 0.991681 0.542022
0.335581 0.995665 0.543782
0.578119 1.000000 0.545859
0.820658 1.000000 0.547936
1.000000 1.000000 0.549697
0.057314 0.060846 0.753435
0.262884 0.064830 0.755195
0.505423 0.069530 0.757272
0.747961 0.074231 0.759349
0.953531 0.078215 0.761110
0.074457 0.274722 0.759357
0.280027 0.278706 0.761117
0.522566 0.283407 0.763194
0.765104 0.288108 0.765271
0.970674 0.292092 0.767032
0.094683 0.527062 0.766344
0.300253 0.531046 0.768105
0.542792 0.535746 0.770182
0.785330 0.540447 0.772259
0.990900 0.544431 0.774019
0.114910 0.779401 0.773331
0.320479 0.783385 0.775092
0.563018 0.788086 0.777169
0.805557 0.792786 0.779246
1.000000 0.796770 0.781006
0.132053 0.993278 0.779254
0.337622 0.997262 0.781014
0.580161 1.000000 0.783091
0.822700 1.000000 0.785168
1.000000 1.000000 0.786928
0.059045 0.062199 0.954506
0.264615 0.066183 0.956267
0.507153 0.070883 0.958344
0.749692 0.075584 0.960421
0.955262 0.079568 0.962181
0.076188 0.276075 0.960429
0.281758 0.280059 0.962189
0.524296 0.284760 0.964266
0.766835 0.289461 0.966343
0.972405 0.293445 0.968103
0.096414 0.528415 0.967416
0.301984 0.532399 0.969176
0.544522 0.537099 0.971253
0.787061 0.541800 0.973330
0.992631 0.545784 0.975091
0.116640 0.780754 0.974403
0.322210 0.784738 0.976163
0.564749 0.789439 0.978240
0.807287 0.794139 0.980317
1.000000 0.798123 0.982078
0.133783 0.994631 0.980325
0.339353 0.998615 0.982086
0.581892 1.000000 0.984163
0.824430 1.000000 0.986240
1.000000 1.000000 0.988000
