assets/luts/film35.cube
# Film 35 — Studio filter "film35"
# Generated by scripts/generate-filter-luts.mjs — do not edit by hand.
LUT_3D_SIZE 9
DOMAIN_MIN 0.0 0.0 0.0
DOMAIN_MAX 1.0 1.0 1.0
0.051500 0.056300 0.077900
0.147353 0.058158 0.078721
0.257070 0.060284 0.079660
0.376028 0.062590 0.080679
0.499608 0.064985 0.081737
0.623188 0.067380 0.082796
0.742147 0.069685 0.083814
0.851864 0.071812 0.084754
0.947717 0.073669 0.085575
0.059494 0.156026 0.080661
0.155347 0.157884 0.081482
0.265063 0.160011 0.082422
0.384022 0.162316 0.083441
0.507602 0.164711 0.084499
0.631182 0.167106 0.085557
0.750140 0.169412 0.086576
0.859857 0.171538 0.087515
0.955710 0.173396 0.088336
0.068643 0.270177 0.083822
0.164496 0.272034 0.084643
0.274213 0.274161 0.085583
0.393172 0.276466 0.086601
0.516751 0.278861 0.087660
0.640331 0.281256 0.088718
0.759290 0.283562 0.089737
0.869007 0.285688 0.090676
0.964860 0.287546 0.091497
0.078563 0.393942 0.087249
0.174417 0.395800 0.088070
0.284133 0.397926 0.089010
0.403092 0.400232 0.090028
0.526672 0.402627 0.091087
0.650252 0.405022 0.092145
0.769210 0.407328 0.093164
0.878927 0.409454 0.094103
0.974780 0.411312 0.094924
0.088869 0.522516 0.090809
0.184722 0.524374 0.091630
0.294439 0.526500 0.092570
0.413398 0.528806 0.093588
0.536978 0.531201 0.094647
0.660557 0.533596 0.095705
0.779516 0.535901 0.096724
0.889233 0.538028 0.097663
0.985086 0.539885 0.098484
0.099175 0.651090 0.094370
0.195028 0.652947 0.095190
0.304745 0.655074 0.096130
0.423703 0.657379 0.097149
0.547283 0.659774 0.098207
0.670863 0.662169 0.099265
0.789822 0.664475 0.100284
0.899538 0.666601 0.101224
0.995392 0.668459 0.102044
0.109095 0.774855 0.097797
0.204948 0.776713 0.098617
0.314665 0.778839 0.099557
0.433624 0.781145 0.100576
0.557204 0.783540 0.101634
0.680784 0.785935 0.102692
0.799742 0.788241 0.103711
0.909459 0.790367 0.104651
1.000000 0.792225 0.105471
0.118245 0.889005 0.100957
0.214098 0.890863 0.101778
0.323815 0.892989 0.102718
0.442773 0.895295 0.103736
0.566353 0.897690 0.104795
0.689933 0.900085 0.105853
0.808892 0.902391 0.106872
0.918608 0.904517 0.107811
1.000000 0.906375 0.108632
0.126238 0.988732 0.103719
0.222092 0.990590 0.104540
0.331808 0.992716 0.105479
0.450767 0.995021 0.106498
0.574347 0.997417 0.107556
0.697927 0.999812 0.108614
0.816885 1.000000 0.109633
0.926602 1.000000 0.110573
1.000000 1.000000 0.111394
0.052307 0.056931 0.171656
0.148160 0.058789 0.172477
0.257877 0.060915 0.173416
0.376835 0.063221 0.174435
0.500415 0.065616 0.175493
0.623995 0.068011 0.176552
0.742954 0.070316 0.177570
0.852670 0.072443 0.178510
0.948524 0.074300 0.179331
0.060300 0.156657 0.174417
0.156154 0.158515 0.175238
0.265870 0.160641 0.176178
0.384829 0.162947 0.177196
0.508409 0.165342 0.178255
0.631989 0.167737 0.179313
0.750947 0.170043 0.180332
0.860664 0.172169 0.181271
0.956517 0.174027 0.182092
0.069450 0.270807 0.177578
0.165303 0.272665 0.178399
0.275020 0.274792 0.179338
0.393979 0.277097 0.180357
0.517558 0.279492 0.181415
0.641138 0.281887 0.182474
0.760097 0.284193 0.183492
0.869814 0.286319 0.184432
0.965667 0.288177 0.185253
0.079370 0.394573 0.181005
0.175224 0.396431 0.181826
0.284940 0.398557 0.182765
0.403899 0.400863 0.183784
0.527479 0.403258 0.184842
0.651059 0.405653 0.185901
0.770017 0.407959 0.186919
0.879734 0.410085 0.187859
0.975587 0.411943 0.188680
0.089676 0.523147 0.184565
0.185529 0.525005 0.185386
0.295246 0.527131 0.186326
0.414205 0.529436 0.187344
0.537785 0.531832 0.188403
0.661364 0.534227 0.189461
0.780323 0.536532 0.190480
0.890040 0.538659 0.191419
0.985893 0.540516 0.192240
0.099982 0.651720 0.188125
0.195835 0.653578 0.188946
0.305552 0.655705 0.189886
0.424510 0.658010 0.190904
0.548090 0.660405 0.191963
0.671670 0.662800 0.193021
0.790629 0.665106 0.194040
0.900345 0.667232 0.194979
0.996199 0.669090 0.195800
0.109902 0.775486 0.191552
0.205755 0.777344 0.192373
0.315472 0.779470 0.193313
0.434431 0.781776 0.194331
0.558011 0.784171 0.195390
0.681590 0.786566 0.196448
0.800549 0.788871 0.197467
0.910266 0.790998 0.198406
1.000000 0.792856 0.199227
0.119052 0.889636 0.194713
0.214905 0.891494 0.195534
0.324622 0.893620 0.196474
0.443580 0.895926 0.197492
0.567160 0.898321 0.198551
0.690740 0.900716 0.199609
0.809699 0.903022 0.200628
0.919415 0.905148 0.201567
1.000000 0.907006 0.202388
0.127045 0.989363 0.197475
0.222899 0.991220 0.198295
0.332615 0.993347 0.199235
0.451574 0.995652 0.200254
0.575154 0.998047 0.201312
0.698734 1.000000 0.202370
0.817692 1.000000 0.203389
0.927409 1.000000 0.204329
1.000000 1.000000 0.205149
0.053231 0.057653 0.278972
0.149084 0.059511 0.279792
0.258800 0.061637 0.280732
0.377759 0.063943 0.281751
0.501339 0.066338 0.282809
0.624919 0.068733 0.283867
0.743878 0.071038 0.284886
0.853594 0.073165 0.285826
0.949447 0.075022 0.286646
0.061224 0.157380 0.281733
0.157077 0.159237 0.282554
0.266794 0.161364 0.283493
0.385753 0.163669 0.284512
0.509332 0.166064 0.285570
0.632912 0.168459 0.286629
0.751871 0.170765 0.287647
0.861588 0.172891 0.288587
0.957441 0.174749 0.289408
0.070374 0.271530 0.284894
0.166227 0.273387 0.285715
0.275943 0.275514 0.286654
0.394902 0.277819 0.287673
0.518482 0.280214 0.288731
0.642062 0.282609 0.289789
0.761021 0.284915 0.290808
0.870737 0.287041 0.291748
0.966590 0.288899 0.292569
0.080294 0.395295 0.288321
0.176147 0.397153 0.289142
0.285864 0.399279 0.290081
0.404823 0.401585 0.291100
0.528402 0.403980 0.292158
0.651982 0.406375 0.293217
0.770941 0.408681 0.294235
0.880658 0.410807 0.295175
0.976511 0.412665 0.295996
0.090600 0.523869 0.291881
0.186453 0.525727 0.292702
0.296170 0.527853 0.293641
0.415128 0.530159 0.294660
0.538708 0.532554 0.295718
0.662288 0.534949 0.296777
0.781247 0.537254 0.297795
0.890963 0.539381 0.298735
0.986817 0.541238 0.299556
0.100906 0.652443 0.295441
0.196759 0.654300 0.296262
0.306475 0.656427 0.297202
0.425434 0.658732 0.298220
0.549014 0.661127 0.299279
0.672594 0.663522 0.300337
0.791553 0.665828 0.301356
0.901269 0.667954 0.302295
0.997122 0.669812 0.303116
0.110826 0.776208 0.298868
0.206679 0.778066 0.299689
0.316396 0.780192 0.300629
0.435354 0.782498 0.301647
0.558934 0.784893 0.302706
0.682514 0.787288 0.303764
0.801473 0.789594 0.304783
0.911189 0.791720 0.305722
1.000000 0.793578 0.306543
0.119976 0.890358 0.302029
0.215829 0.892216 0.302850
0.325545 0.894342 0.303789
0.444504 0.896648 0.304808
0.568084 0.899043 0.305866
0.691664 0.901438 0.306925
0.810623 0.903744 0.307943
0.920339 0.905870 0.308883
1.000000 0.907728 0.309704
0.127969 0.990085 0.304790
0.223822 0.991943 0.305611
0.333539 0.994069 0.306551
0.452497 0.996374 0.307569
0.576077 0.998770 0.308628
0.699657 1.000000 0.309686
0.818616 1.000000 0.310705
0.928333 1.000000 0.311644
1.000000 1.000000 0.312465
0.054232 0.058436 0.395327
0.150085 0.060294 0.396148
0.259802 0.062420 0.397088
0.378761 0.064726 0.398107
0.502340 0.067121 0.399165
0.625920 0.069516 0.400223
0.744879 0.071821 0.401242
0.854596 0.073948 0.402181
0.950449 0.075805 0.403002
0.062226 0.158162 0.398089
0.158079 0.160020 0.398910
0.267795 0.162147 0.399849
0.386754 0.164452 0.400868
0.510334 0.166847 0.401926
0.633914 0.169242 0.402985
0.752873 0.171548 0.404003
0.862589 0.173674 0.404943
0.958442 0.175532 0.405764
0.071375 0.272313 0.401250
0.167228 0.274170 0.402070
0.276945 0.276297 0.403010
0.395904 0.278602 0.404029
0.519484 0.280997 0.405087
0.643063 0.283392 0.406145
0.762022 0.285698 0.407164
0.871739 0.287824 0.408104
0.967592 0.289682 0.408924
0.081296 0.396078 0.404677
0.177149 0.397936 0.405497
0.286865 0.400062 0.406437
0.405824 0.402368 0.407456
0.529404 0.404763 0.408514
0.652984 0.407158 0.409572
0.771943 0.409464 0.410591
0.881659 0.411590 0.411531
0.977512 0.413448 0.412351
0.091601 0.524652 0.408237
0.187454 0.526510 0.409058
0.297171 0.528636 0.409997
0.416130 0.530942 0.411016
0.539710 0.533337 0.412074
0.663290 0.535732 0.413132
0.782248 0.538037 0.414151
0.891965 0.540164 0.415091
0.987818 0.542021 0.415912
0.101907 0.653226 0.411797
0.197760 0.655083 0.412618
0.307477 0.657210 0.413557
0.426435 0.659515 0.414576
0.550015 0.661910 0.415634
0.673595 0.664305 0.416693
0.792554 0.666611 0.417711
0.902271 0.668737 0.418651
0.998124 0.670595 0.419472
0.111827 0.776991 0.415224
0.207681 0.778849 0.416045
0.317397 0.780975 0.416984
0.436356 0.783281 0.418003
0.559936 0.785676 0.419061
0.683516 0.788071 0.420120
0.802474 0.790377 0.421138
0.912191 0.792503 0.422078
1.000000 0.794361 0.422899
0.120977 0.891141 0.418385
0.216830 0.892999 0.419206
0.326547 0.895125 0.420145
0.445505 0.897431 0.421164
0.569085 0.899826 0.422222
0.692665 0.902221 0.423280
0.811624 0.904527 0.424299
0.921340 0.906653 0.425239
1.000000 0.908511 0.426060
0.128970 0.990868 0.421146
0.224824 0.992726 0.421967
0.334540 0.994852 0.422907
0.453499 0.997157 0.423925
0.577079 0.999553 0.424984
0.700659 1.000000 0.426042
0.819617 1.000000 0.427061
0.929334 1.000000 0.428000
1.000000 1.000000 0.428821
0.055272 0.059249 0.516203
0.151126 0.061107 0.517024
0.260842 0.063233 0.517964
0.379801 0.065539 0.518982
0.503381 0.067934 0.520041
0.626961 0.070329 0.521099
0.745919 0.072635 0.522118
0.855636 0.074761 0.523057
0.951489 0.076619 0.523878
0.063266 0.158976 0.518965
0.159119 0.160834 0.519785
0.268836 0.162960 0.520725
0.387794 0.165265 0.521744
0.511374 0.167661 0.522802
0.634954 0.170056 0.523860
0.753913 0.172361 0.524879
0.863629 0.174488 0.525819
0.959483 0.176345 0.526639
0.072416 0.273126 0.522125
0.168269 0.274984 0.522946
0.277985 0.277110 0.523886
0.396944 0.279416 0.524905
0.520524 0.281811 0.525963
0.644104 0.284206 0.527021
0.763063 0.286511 0.528040
0.872779 0.288638 0.528979
0.968632 0.290495 0.529800
0.082336 0.396892 0.525552
0.178189 0.398749 0.526373
0.287906 0.400876 0.527313
0.406864 0.403181 0.528332
0.530444 0.405576 0.529390
0.654024 0.407971 0.530448
0.772983 0.410277 0.531467
0.882699 0.412403 0.532406
0.978553 0.414261 0.533227
0.092642 0.525465 0.529113
0.188495 0.527323 0.529933
0.298211 0.529449 0.530873
0.417170 0.531755 0.531892
0.540750 0.534150 0.532950
0.664330 0.536545 0.534008
0.783289 0.538851 0.535027
0.893005 0.540977 0.535967
0.988858 0.542835 0.536787
0.102947 0.654039 0.532673
0.198801 0.655897 0.533494
0.308517 0.658023 0.534433
0.427476 0.660329 0.535452
0.551056 0.662724 0.536510
0.674636 0.665119 0.537568
0.793594 0.667424 0.538587
0.903311 0.669551 0.539527
0.999164 0.671408 0.540348
0.112868 0.777805 0.536100
0.208721 0.779662 0.536921
0.318437 0.781789 0.537860
0.437396 0.784094 0.538879
0.560976 0.786489 0.539937
0.684556 0.788884 0.540995
0.803515 0.791190 0.542014
0.913231 0.793316 0.542954
1.000000 0.795174 0.543775
0.122017 0.891955 0.539261
0.217871 0.893812 0.540081
0.327587 0.895939 0.541021
0.446546 0.898244 0.542040
0.570126 0.900639 0.543098
0.693706 0.903035 0.544156
0.812664 0.905340 0.545175
0.922381 0.907466 0.546115
1.000000 0.909324 0.546935
0.130011 0.991681 0.542022
0.225864 0.993539 0.542843
0.335581 0.995665 0.543782
0.454539 0.997971 0.544801
0.578119 1.000000 0.545859
0.701699 1.000000 0.546918
0.820658 1.000000 0.547936
0.930374 1.000000 0.548876
1.000000 1.000000 0.549697
0.056313 0.060063 0.637079
0.152166 0.061920 0.637900
0.261883 0.064047 0.638839
0.380841 0.066352 0.639858
0.504421 0.068747 0.640916
0.628001 0.071143 0.641975
0.746960 0.073448 0.642993
0.856676 0.075574 0.643933
0.952530 0.077432 0.644754
0.064306 0.159789 0.639840
0.160160 0.161647 0.640661
0.269876 0.163773 0.641601
0.388835 0.166079 0.642620
0.512415 0.168474 0.643678
0.635995 0.170869 0.644736
0.754953 0.173175 0.645755
0.864670 0.175301 0.646694
0.960523 0.177159 0.647515
0.073456 0.273939 0.643001
0.169309 0.275797 0.643822
0.279026 0.277923 0.644762
0.397984 0.280229 0.645780
0.521564 0.282624 0.646839
0.645144 0.285019 0.647897
0.764103 0.287325 0.648916
0.873819 0.289451 0.649855
0.969673 0.291309 0.650676
0.083376 0.397705 0.646428
0.179229 0.399563 0.647249
0.288946 0.401689 0.648189
0.407905 0.403995 0.649207
0.531485 0.406390 0.650266
0.655065 0.408785 0.651324
0.774023 0.411090 0.652343
0.883740 0.413217 0.653282
0.979593 0.415074 0.654103
0.093682 0.526279 0.649988
0.189535 0.528136 0.650809
0.299252 0.530263 0.651749
0.418210 0.532568 0.652768
0.541790 0.534963 0.653826
0.665370 0.537358 0.654884
0.784329 0.539664 0.655903
0.894046 0.541790 0.656842
0.989899 0.543648 0.657663
0.103988 0.654852 0.653549
0.199841 0.656710 0.654369
0.309557 0.658836 0.655309
0.428516 0.661142 0.656328
0.552096 0.663537 0.657386
0.675676 0.665932 0.658444
0.794635 0.668238 0.659463
0.904351 0.670364 0.660403
1.000000 0.672222 0.661223
0.113908 0.778618 0.656976
0.209761 0.780476 0.657796
0.319478 0.782602 0.658736
0.438437 0.784908 0.659755
0.562016 0.787303 0.660813
0.685596 0.789698 0.661871
0.804555 0.792003 0.662890
0.914272 0.794130 0.663830
1.000000 0.795987 0.664650
0.123058 0.892768 0.660136
0.218911 0.894626 0.660957
0.328627 0.896752 0.661897
0.447586 0.899058 0.662915
0.571166 0.901453 0.663974
0.694746 0.903848 0.665032
0.813705 0.906153 0.666051
0.923421 0.908280 0.666990
1.000000 0.910138 0.667811
0.131051 0.992495 0.662898
0.226904 0.994352 0.663719
0.336621 0.996479 0.664658
0.455580 0.998784 0.665677
0.579160 1.000000 0.666735
0.702739 1.000000 0.667793
0.821698 1.000000 0.668812
0.931415 1.000000 0.669752
1.000000 1.000000 0.670573
0.057314 0.060846 0.753435
0.153167 0.062703 0.754256
0.262884 0.064830 0.755195
0.381843 0.067135 0.756214
0.505423 0.069530 0.757272
0.629003 0.071926 0.758331
0.747961 0.074231 0.759349
0.857678 0.076357 0.760289
0.953531 0.078215 0.761110
0.065308 0.160572 0.756196
0.161161 0.162430 0.757017
0.270877 0.164556 0.757957
0.389836 0.166862 0.758975
0.513416 0.169257 0.760034
0.636996 0.171652 0.761092
0.755955 0.173958 0.762111
0.865671 0.176084 0.763050
0.961524 0.177942 0.763871
0.074457 0.274722 0.759357
0.170311 0.276580 0.760178
0.280027 0.278706 0.761117
0.398986 0.281012 0.762136
0.522566 0.283407 0.763194
0.646146 0.285802 0.764253
0.765104 0.288108 0.765271
0.874821 0.290234 0.766211
0.970674 0.292092 0.767032
0.084378 0.398488 0.762784
0.180231 0.400346 0.763605
0.289947 0.402472 0.764544
0.408906 0.404778 0.765563
0.532486 0.407173 0.766621
0.656066 0.409568 0.767680
0.775025 0.411873 0.768698
0.884741 0.414000 0.769638
0.980594 0.415857 0.770459
0.094683 0.527062 0.766344
0.190537 0.528919 0.767165
0.300253 0.531046 0.768105
0.419212 0.533351 0.769123
0.542792 0.535746 0.770182
0.666372 0.538141 0.771240
0.785330 0.540447 0.772259
0.895047 0.542573 0.773198
0.990900 0.544431 0.774019
0.104989 0.655635 0.769904
0.200842 0.657493 0.770725
0.310559 0.659619 0.771665
0.429518 0.661925 0.772683
0.553098 0.664320 0.773742
0.676677 0.666715 0.774800
0.795636 0.669021 0.775819
0.905353 0.671147 0.776758
1.000000 0.673005 0.777579
0.114910 0.779401 0.773331
0.210763 0.781259 0.774152
0.320479 0.783385 0.775092
0.439438 0.785691 0.776111
0.563018 0.788086 0.777169
0.686598 0.790481 0.778227
0.805557 0.792786 0.779246
0.915273 0.794913 0.780185
1.000000 0.796770 0.781006
0.124059 0.893551 0.776492
0.219912 0.895409 0.777313
0.329629 0.897535 0.778253
0.448588 0.899841 0.779271
0.572168 0.902236 0.780330
0.695747 0.904631 0.781388
0.814706 0.906936 0.782407
0.924423 0.909063 0.783346
1.000000 0.910920 0.784167
0.132053 0.993278 0.779254
0.227906 0.995135 0.780074
0.337622 0.997262 0.781014
0.456581 0.999567 0.782033
0.580161 1.000000 0.783091
0.703741 1.000000 0.784149
0.822700 1.000000 0.785168
0.932416 1.000000 0.786108
1.000000 1.000000 0.786928
0.058238 0.061568 0.860751
0.154091 0.063426 0.861571
0.263808 0.065552 0.862511
0.382766 0.067857 0.863530
0.506346 0.070253 0.864588
0.629926 0.072648 0.865646
0.748885 0.074953 0.866665
0.858601 0.077080 0.867605
0.954455 0.078937 0.868425
0.066231 0.161294 0.863512
0.162085 0.163152 0.864333
0.271801 0.165278 0.865272
0.390760 0.167584 0.866291
0.514340 0.169979 0.867349
0.637920 0.172374 0.868408
0.756878 0.174680 0.869426
0.866595 0.176806 0.870366
0.962448 0.178664 0.871187
0.075381 0.275444 0.866673
0.171234 0.277302 0.867494
0.280951 0.279429 0.868433
0.399910 0.281734 0.869452
0.523489 0.284129 0.870510
0.647069 0.286524 0.871569
0.766028 0.288830 0.872587
0.875745 0.290956 0.873527
0.971598 0.292814 0.874348
0.085301 0.399210 0.870100
0.181155 0.401068 0.870921
0.290871 0.403194 0.871860
0.409830 0.405500 0.872879
0.533410 0.407895 0.873937
0.656990 0.410290 0.874996
0.775948 0.412595 0.876014
0.885665 0.414722 0.876954
0.981518 0.416580 0.877775
0.095607 0.527784 0.873660
0.191460 0.529641 0.874481
0.301177 0.531768 0.875420
0.420136 0.534073 0.876439
0.543715 0.536468 0.877497
0.667295 0.538864 0.878556
0.786254 0.541169 0.879574
0.895971 0.543295 0.880514
0.991824 0.545153 0.881335
0.105913 0.656357 0.877220
0.201766 0.658215 0.878041
0.311483 0.660341 0.878981
0.430441 0.662647 0.879999
0.554021 0.665042 0.881058
0.677601 0.667437 0.882116
0.796560 0.669743 0.883135
0.906276 0.671869 0.884074
1.000000 0.673727 0.884895
0.115833 0.780123 0.880647
0.211686 0.781981 0.881468
0.321403 0.784107 0.882408
0.440362 0.786413 0.883426
0.563942 0.788808 0.884485
0.687521 0.791203 0.885543
0.806480 0.793508 0.886562
0.916197 0.795635 0.887501
1.000000 0.797493 0.888322
0.124983 0.894273 0.883808
0.220836 0.896131 0.884629
0.330553 0.898257 0.885568
0.449511 0.900563 0.886587
0.573091 0.902958 0.887645
0.696671 0.905353 0.888704
0.815630 0.907659 0.889722
0.925346 0.909785 0.890662
1.000000 0.911643 0.891483
0.132976 0.994000 0.886569
0.228830 0.995857 0.887390
0.338546 0.997984 0.888330
0.457505 1.000000 0.889348
0.581085 1.000000 0.890407
0.704665 1.000000 0.891465
0.823623 1.000000 0.892484
0.933340 1.000000 0.893423
1.000000 1.000000 0.894244
0.059045 0.062199 0.954506
0.154898 0.064056 0.955327
0.264615 0.066183 0.956267
0.383573 0.068488 0.957286
0.507153 0.070883 0.958344
0.630733 0.073279 0.959402
0.749692 0.075584 0.960421
0.859408 0.077710 0.961360
0.955262 0.079568 0.962181
0.067038 0.161925 0.957268
0.162892 0.163783 0.958089
0.272608 0.165909 0.959028
0.391567 0.168215 0.960047
0.515147 0.170610 0.961105
0.638727 0.173005 0.962164
0.757685 0.175311 0.963182
0.867402 0.177437 0.964122
0.963255 0.179295 0.964943
0.076188 0.276075 0.960429
0.172041 0.277933 0.961249
0.281758 0.280059 0.962189
0.400716 0.282365 0.963208
0.524296 0.284760 0.964266
0.647876 0.287155 0.965324
0.766835 0.289461 0.966343
0.876552 0.291587 0.967283
0.972405 0.293445 0.968103
0.086108 0.399841 0.963856
0.181962 0.401699 0.964676
0.291678 0.403825 0.965616
0.410637 0.406131 0.966635
0.534217 0.408526 0.967693
0.657797 0.410921 0.968751
0.776755 0.413226 0.969770
0.886472 0.415353 0.970710
0.982325 0.417210 0.971530
0.096414 0.528415 0.967416
0.192267 0.530272 0.968237
0.301984 0.532399 0.969176
0.420943 0.534704 0.970195
0.544522 0.537099 0.971253
0.668102 0.539494 0.972312
0.787061 0.541800 0.973330
0.896778 0.543926 0.974270
0.992631 0.545784 0.975091
0.106720 0.656988 0.970976
0.202573 0.658846 0.971797
0.312290 0.660972 0.972736
0.431248 0.663278 0.973755
0.554828 0.665673 0.974813
0.678408 0.668068 0.975872
0.797367 0.670374 0.976890
0.907083 0.672500 0.977830
1.000000 0.674358 0.978651
0.116640 0.780754 0.974403
0.212493 0.782612 0.975224
0.322210 0.784738 0.976163
0.441169 0.787044 0.977182
0.564749 0.789439 0.978240
0.688328 0.791834 0.979299
0.807287 0.794139 0.980317
0.917004 0.796266 0.981257
1.000000 0.798123 0.982078
0.125790 0.894904 0.977564
0.221643 0.896762 0.978385
0.331360 0.898888 0.979324
0.450318 0.901194 0.980343
0.573898 0.903589 0.981401
0.697478 0.905984 0.982459
0.816437 0.908289 0.983478
0.926153 0.910416 0.984418
1.000000 0.912274 0.985239
0.133783 0.994631 0.980325
0.229636 0.996488 0.981146
0.339353 0.998615 0.982086
0.458312 1.000000 0.983104
0.581892 1.000000 0.984163
0.705472 1.000000 0.985221
0.824430 1.000000 0.986240
0.934147 1.000000 0.987179
1.000000 1.000000 0.988000
