assets/luts/forest.cube
# Forest — Studio filter "forest"
# Generated by scripts/generate-filter-luts.mjs — do not edit by hand.
LUT_3D_SIZE 9
DOMAIN_MIN 0.0 0.0 0.0
DOMAIN_MAX 1.0 1.0 1.0
0.000000 0.000000 0.000000
0.110148 0.000000 0.000000
0.232941 0.000000 0.000000
0.364166 0.000000 0.000000
0.499606 0.000000 0.000000
0.635046 0.000000 0.000000
0.766271 0.000000 0.000000
0.889065 0.000000 0.000000
0.999212 0.000000 0.000000
0.000000 0.119511 0.000000
0.103462 0.117748 0.000000
0.226256 0.115784 0.000000
0.357481 0.113684 0.000000
0.492921 0.111517 0.000000
0.628361 0.109350 0.000000
0.759585 0.107250 0.000000
0.882379 0.105286 0.000000
0.992527 0.103523 0.000000
0.000000 0.252743 0.000000
0.096009 0.250980 0.000000
0.218803 0.249016 0.000000
0.350027 0.246916 0.000000
0.485467 0.244749 0.000000
0.620908 0.242582 0.000000
0.752132 0.240482 0.000000
0.874926 0.238518 0.000000
0.985074 0.236755 0.000000
0.000000 0.395122 0.000000
0.088044 0.393360 0.000000
0.210838 0.391395 0.000000
0.342062 0.389296 0.000000
0.477503 0.387128 0.000000
0.612943 0.384961 0.000000
0.744167 0.382862 0.000000
0.866961 0.380897 0.000000
0.977109 0.379135 0.000000
0.000000 0.542076 0.000000
0.079823 0.540313 0.000000
0.202617 0.538348 0.000000
0.333842 0.536249 0.000000
0.469282 0.534082 0.000000
0.604722 0.531915 0.000000
0.735947 0.529815 0.000000
0.858740 0.527850 0.000000
0.968888 0.526088 0.000000
0.000000 0.689029 0.000000
0.071602 0.687266 0.000000
0.194396 0.685302 0.000000
0.325621 0.683202 0.000000
0.461061 0.681035 0.000000
0.596501 0.678868 0.000000
0.727726 0.676768 0.000000
0.850520 0.674804 0.000000
0.960667 0.673041 0.000000
0.000000 0.831408 0.000000
0.063637 0.829646 0.000000
0.186431 0.827681 0.000000
0.317656 0.825582 0.000000
0.453096 0.823415 0.000000
0.588536 0.821248 0.000000
0.719761 0.819148 0.000000
0.842555 0.817183 0.000000
0.952702 0.815421 0.000000
0.000000 0.964640 0.000000
0.056184 0.962878 0.000000
0.178978 0.960913 0.000000
0.310203 0.958814 0.000000
0.445643 0.956647 0.000000
0.581083 0.954480 0.000000
0.712308 0.952380 0.000000
0.835102 0.950415 0.000000
0.945249 0.948653 0.000000
0.000000 1.000000 0.000000
0.049499 1.000000 0.000000
0.172292 1.000000 0.000000
0.303517 1.000000 0.000000
0.438957 1.000000 0.000000
0.574397 1.000000 0.000000
0.705622 1.000000 0.000000
0.828416 1.000000 0.000000
0.938564 1.000000 0.000000
0.000000 0.000000 0.113680
0.109536 0.000000 0.111917
0.232330 0.000000 0.109953
0.363555 0.000000 0.107853
0.498995 0.000000 0.105686
0.634435 0.000000 0.103519
0.765660 0.000000 0.101419
0.888454 0.000000 0.099455
0.998601 0.000000 0.097692
0.000000 0.118899 0.106994
0.102851 0.117137 0.105232
0.225645 0.115172 0.103267
0.356869 0.113073 0.101167
0.492309 0.110906 0.099000
0.627750 0.108739 0.096833
0.758974 0.106639 0.094734
0.881768 0.104674 0.092769
0.991916 0.102912 0.091007
0.000000 0.252131 0.099541
0.095398 0.250369 0.097779
0.218191 0.248404 0.095814
0.349416 0.246305 0.093714
0.484856 0.244138 0.091547
0.620296 0.241971 0.089380
0.751521 0.239871 0.087281
0.874315 0.237906 0.085316
0.984462 0.236144 0.083553
0.000000 0.394511 0.091576
0.087433 0.392749 0.089814
0.210226 0.390784 0.087849
0.341451 0.388684 0.085749
0.476891 0.386517 0.083582
0.612331 0.384350 0.081415
0.743556 0.382251 0.079316
0.866350 0.380286 0.077351
0.976498 0.378523 0.075589
0.000000 0.541464 0.083355
0.079212 0.539702 0.081593
0.202006 0.537737 0.079628
0.333230 0.535638 0.077529
0.468671 0.533471 0.075362
0.604111 0.531303 0.073194
0.735335 0.529204 0.071095
0.858129 0.527239 0.069130
0.968277 0.525477 0.067368
0.000000 0.688418 0.075134
0.070991 0.686655 0.073372
0.193785 0.684690 0.071407
0.325010 0.682591 0.069308
0.460450 0.680424 0.067141
0.595890 0.678257 0.064974
0.727115 0.676157 0.062874
0.849908 0.674192 0.060909
0.960056 0.672430 0.059147
0.000000 0.830797 0.067170
0.063026 0.829035 0.065407
0.185820 0.827070 0.063442
0.317045 0.824970 0.061343
0.452485 0.822803 0.059176
0.587925 0.820636 0.057009
0.719150 0.818537 0.054909
0.841944 0.816572 0.052944
0.952091 0.814810 0.051182
0.000000 0.964029 0.059716
0.055573 0.962267 0.057954
0.178367 0.960302 0.055989
0.309592 0.958202 0.053890
0.445032 0.956035 0.051723
0.580472 0.953868 0.049556
0.711696 0.951769 0.047456
0.834490 0.949804 0.045491
0.944638 0.948042 0.043729
0.000000 1.000000 0.053031
0.048887 1.000000 0.051268
0.171681 1.000000 0.049304
0.302906 1.000000 0.047204
0.438346 1.000000 0.045037
0.573786 1.000000 0.042870
0.705011 1.000000 0.040770
0.827805 1.000000 0.038806
0.937952 1.000000 0.037043
0.000000 0.000000 0.240411
0.108855 0.000000 0.238649
0.231649 0.000000 0.236684
0.362873 0.000000 0.234585
0.498314 0.000000 0.232418
0.633754 0.000000 0.230251
0.764978 0.000000 0.228151
0.887772 0.000000 0.226186
0.997920 0.000000 0.224424
0.000000 0.118218 0.233726
0.102169 0.116456 0.231963
0.224963 0.114491 0.229999
0.356188 0.112391 0.227899
0.491628 0.110224 0.225732
0.627068 0.108057 0.223565
0.758293 0.105958 0.221465
0.881087 0.103993 0.219501
0.991234 0.102231 0.217738
0.000000 0.251450 0.226273
0.094716 0.249688 0.224510
0.217510 0.247723 0.222545
0.348735 0.245623 0.220446
0.484175 0.243456 0.218279
0.619615 0.241289 0.216112
0.750840 0.239190 0.214012
0.873633 0.237225 0.212047
0.983781 0.235463 0.210285
0.000000 0.393830 0.218308
0.086751 0.392067 0.216545
0.209545 0.390102 0.214581
0.340770 0.388003 0.212481
0.476210 0.385836 0.210314
0.611650 0.383669 0.208147
0.742875 0.381569 0.206047
0.865669 0.379604 0.204082
0.975816 0.377842 0.202320
0.000000 0.540783 0.210087
0.078530 0.539020 0.208324
0.201324 0.537056 0.206360
0.332549 0.534956 0.204260
0.467989 0.532789 0.202093
0.603429 0.530622 0.199926
0.734654 0.528522 0.197826
0.857448 0.526558 0.195862
0.967595 0.524795 0.194099
0.000000 0.687736 0.201866
0.070310 0.685974 0.200104
0.193103 0.684009 0.198139
0.324328 0.681909 0.196039
0.459768 0.679742 0.193872
0.595208 0.677575 0.191705
0.726433 0.675476 0.189606
0.849227 0.673511 0.187641
0.959375 0.671749 0.185879
0.000000 0.830116 0.193901
0.062345 0.828353 0.192139
0.185139 0.826389 0.190174
0.316363 0.824289 0.188074
0.451803 0.822122 0.185907
0.587244 0.819955 0.183740
0.718468 0.817855 0.181641
0.841262 0.815891 0.179676
0.951410 0.814128 0.177914
0.000000 0.963348 0.186448
0.054892 0.961585 0.184686
0.177685 0.959621 0.182721
0.308910 0.957521 0.180621
0.444350 0.955354 0.178454
0.579790 0.953187 0.176287
0.711015 0.951087 0.174188
0.833809 0.949123 0.172223
0.943956 0.947360 0.170460
0.000000 1.000000 0.179762
0.048206 1.000000 0.178000
0.171000 1.000000 0.176035
0.302224 1.000000 0.173936
0.437665 1.000000 0.171769
0.573105 1.000000 0.169602
0.704329 1.000000 0.167502
0.827123 1.000000 0.165537
0.937271 1.000000 0.163775
0.000000 0.000000 0.375844
0.108127 0.000000 0.374082
0.230921 0.000000 0.372117
0.362145 0.000000 0.370017
0.497585 0.000000 0.367850
0.633025 0.000000 0.365683
0.764250 0.000000 0.363584
0.887044 0.000000 0.361619
0.997192 0.000000 0.359857
0.000000 0.117490 0.369159
0.101441 0.115727 0.367396
0.224235 0.113763 0.365431
0.355460 0.111663 0.363332
0.490900 0.109496 0.361165
0.626340 0.107329 0.358998
0.757565 0.105229 0.356898
0.880358 0.103265 0.354933
0.990506 0.101502 0.353171
0.000000 0.250722 0.361705
0.093988 0.248959 0.359943
0.216782 0.246995 0.357978
0.348006 0.244895 0.355879
0.483447 0.242728 0.353712
0.618887 0.240561 0.351545
0.750111 0.238461 0.349445
0.872905 0.236497 0.347480
0.983053 0.234734 0.345718
0.000000 0.393101 0.353740
0.086023 0.391339 0.351978
0.208817 0.389374 0.350013
0.340042 0.387275 0.347914
0.475482 0.385108 0.345747
0.610922 0.382941 0.343580
0.742146 0.380841 0.341480
0.864940 0.378876 0.339515
0.975088 0.377114 0.337753
0.000000 0.540055 0.345520
0.077802 0.538292 0.343757
0.200596 0.536328 0.341793
0.331821 0.534228 0.339693
0.467261 0.532061 0.337526
0.602701 0.529894 0.335359
0.733926 0.527794 0.333259
0.856720 0.525829 0.331294
0.966867 0.524067 0.329532
0.000000 0.687008 0.337299
0.069581 0.685246 0.335536
0.192375 0.683281 0.333572
0.323600 0.681181 0.331472
0.459040 0.679014 0.329305
0.594480 0.676847 0.327138
0.725705 0.674747 0.325038
0.848499 0.672783 0.323074
0.958646 0.671020 0.321311
0.000000 0.829387 0.329334
0.061617 0.827625 0.327572
0.184410 0.825660 0.325607
0.315635 0.823561 0.323507
0.451075 0.821394 0.321340
0.586515 0.819227 0.319173
0.717740 0.817127 0.317074
0.840534 0.815162 0.315109
0.950681 0.813400 0.313346
0.000000 0.962619 0.321881
0.054163 0.960857 0.320118
0.176957 0.958892 0.318154
0.308182 0.956793 0.316054
0.443622 0.954626 0.313887
0.579062 0.952459 0.311720
0.710287 0.950359 0.309620
0.833081 0.948394 0.307656
0.943228 0.946632 0.305893
0.000000 1.000000 0.315195
0.047478 1.000000 0.313433
0.170272 1.000000 0.311468
0.301496 1.000000 0.309368
0.436936 1.000000 0.307201
0.572377 1.000000 0.305034
0.703601 1.000000 0.302935
0.826395 1.000000 0.300970
0.936543 1.000000 0.299208
0.000000 0.000000 0.515628
0.107375 0.000000 0.513865
0.230169 0.000000 0.511900
0.361394 0.000000 0.509801
0.496834 0.000000 0.507634
0.632274 0.000000 0.505467
0.763499 0.000000 0.503367
0.886292 0.000000 0.501402
0.996440 0.000000 0.499640
0.000000 0.116738 0.508942
0.100689 0.114976 0.507180
0.223483 0.113011 0.505215
0.354708 0.110912 0.503115
0.490148 0.108744 0.500948
0.625588 0.106577 0.498781
0.756813 0.104478 0.496681
0.879607 0.102513 0.494717
0.989754 0.100751 0.492954
0.000000 0.249970 0.501489
0.093236 0.248208 0.499726
0.216030 0.246243 0.497762
0.347255 0.244144 0.495662
0.482695 0.241976 0.493495
0.618135 0.239809 0.491328
0.749360 0.237710 0.489228
0.872154 0.235745 0.487264
0.982301 0.233983 0.485501
0.000000 0.392350 0.493524
0.085271 0.390587 0.491761
0.208065 0.388623 0.489797
0.339290 0.386523 0.487697
0.474730 0.384356 0.485530
0.610170 0.382189 0.483363
0.741395 0.380089 0.481263
0.864189 0.378125 0.479299
0.974336 0.376362 0.477536
0.000000 0.539303 0.485303
0.077051 0.537541 0.483541
0.199844 0.535576 0.481576
0.331069 0.533476 0.479476
0.466509 0.531309 0.477309
0.601949 0.529142 0.475142
0.733174 0.527043 0.473043
0.855968 0.525078 0.471078
0.966116 0.523316 0.469316
0.000000 0.686256 0.477082
0.068830 0.684494 0.475320
0.191624 0.682529 0.473355
0.322848 0.680430 0.471256
0.458289 0.678263 0.469089
0.593729 0.676096 0.466921
0.724953 0.673996 0.464822
0.847747 0.672031 0.462857
0.957895 0.670269 0.461095
0.000000 0.828636 0.469117
0.060865 0.826873 0.467355
0.183659 0.824909 0.465390
0.314883 0.822809 0.463291
0.450324 0.820642 0.461124
0.585764 0.818475 0.458957
0.716988 0.816375 0.456857
0.839782 0.814411 0.454892
0.949930 0.812648 0.453130
0.000000 0.961868 0.461664
0.053412 0.960105 0.459902
0.176206 0.958141 0.457937
0.307430 0.956041 0.455837
0.442870 0.953874 0.453670
0.578311 0.951707 0.451503
0.709535 0.949607 0.449404
0.832329 0.947643 0.447439
0.942477 0.945880 0.445677
0.000000 1.000000 0.454979
0.046726 1.000000 0.453216
0.169520 1.000000 0.451251
0.300745 1.000000 0.449152
0.436185 1.000000 0.446985
0.571625 1.000000 0.444818
0.702850 1.000000 0.442718
0.825643 1.000000 0.440753
0.935791 1.000000 0.438991
0.000000 0.000000 0.655411
0.106623 0.000000 0.653649
0.229417 0.000000 0.651684
0.360642 0.000000 0.649584
0.496082 0.000000 0.647417
0.631522 0.000000 0.645250
0.762747 0.000000 0.643150
0.885541 0.000000 0.641186
0.995688 0.000000 0.639423
0.000000 0.115987 0.648725
0.099938 0.114224 0.646963
0.222732 0.112260 0.644998
0.353956 0.110160 0.642899
0.489397 0.107993 0.640732
0.624837 0.105826 0.638564
0.756061 0.103726 0.636465
0.878855 0.101761 0.634500
0.989003 0.099999 0.632738
0.000000 0.249219 0.641272
0.092485 0.247456 0.639510
0.215279 0.245492 0.637545
0.346503 0.243392 0.635445
0.481943 0.241225 0.633278
0.617383 0.239058 0.631111
0.748608 0.236958 0.629012
0.871402 0.234993 0.627047
0.981550 0.233231 0.625285
0.000000 0.391598 0.633307
0.084520 0.389836 0.631545
0.207314 0.387871 0.629580
0.338538 0.385771 0.627481
0.473978 0.383604 0.625313
0.609419 0.381437 0.623146
0.740643 0.379338 0.621047
0.863437 0.377373 0.619082
0.973585 0.375611 0.617320
0.000000 0.538551 0.625086
0.076299 0.536789 0.623324
0.199093 0.534824 0.621359
0.330318 0.532725 0.619260
0.465758 0.530558 0.617093
0.601198 0.528391 0.614926
0.732423 0.526291 0.612826
0.855216 0.524326 0.610861
0.965364 0.522564 0.609099
0.000000 0.685505 0.616866
0.068078 0.683742 0.615103
0.190872 0.681778 0.613139
0.322097 0.679678 0.611039
0.457537 0.677511 0.608872
0.592977 0.675344 0.606705
0.724202 0.673244 0.604605
0.846996 0.671280 0.602641
0.957143 0.669517 0.600878
0.000000 0.827884 0.608901
0.060113 0.826122 0.607138
0.182907 0.824157 0.605174
0.314132 0.822058 0.603074
0.449572 0.819890 0.600907
0.585012 0.817723 0.598740
0.716237 0.815624 0.596640
0.839031 0.813659 0.594676
0.949178 0.811897 0.592913
0.000000 0.961116 0.601448
0.052660 0.959354 0.599685
0.175454 0.957389 0.597720
0.306679 0.955290 0.595621
0.442119 0.953122 0.593454
0.577559 0.950955 0.591287
0.708784 0.948856 0.589187
0.831577 0.946891 0.587222
0.941725 0.945129 0.585460
0.000000 1.000000 0.594762
0.045975 1.000000 0.593000
0.168768 1.000000 0.591035
0.299993 1.000000 0.588935
0.435433 1.000000 0.586768
0.570873 1.000000 0.584601
0.702098 1.000000 0.582502
0.824892 1.000000 0.580537
0.935039 1.000000 0.578774
0.000000 0.000000 0.790844
0.105895 0.000000 0.789081
0.228689 0.000000 0.787117
0.359914 0.000000 0.785017
0.495354 0.000000 0.782850
0.630794 0.000000 0.780683
0.762019 0.000000 0.778583
0.884813 0.000000 0.776619
0.994960 0.000000 0.774856
0.000000 0.115258 0.784158
0.099210 0.113496 0.782396
0.222004 0.111531 0.780431
0.353228 0.109432 0.778331
0.488668 0.107265 0.776164
0.624108 0.105098 0.773997
0.755333 0.102998 0.771898
0.878127 0.101033 0.769933
0.988275 0.099271 0.768171
0.000000 0.248490 0.776705
0.091756 0.246728 0.774943
0.214550 0.244763 0.772978
0.345775 0.242664 0.770878
0.481215 0.240497 0.768711
0.616655 0.238330 0.766544
0.747880 0.236230 0.764444
0.870674 0.234265 0.762480
0.980821 0.232503 0.760717
0.000000 0.390870 0.768740
0.083792 0.389108 0.766978
0.206585 0.387143 0.765013
0.337810 0.385043 0.762913
0.473250 0.382876 0.760746
0.608690 0.380709 0.758579
0.739915 0.378610 0.756480
0.862709 0.376645 0.754515
0.972856 0.374882 0.752752
0.000000 0.537823 0.760519
0.075571 0.536061 0.758757
0.198365 0.534096 0.756792
0.329589 0.531997 0.754693
0.465029 0.529829 0.752525
0.600470 0.527662 0.750358
0.731694 0.525563 0.748259
0.854488 0.523598 0.746294
0.964636 0.521836 0.744532
0.000000 0.684777 0.752298
0.067350 0.683014 0.750536
0.190144 0.681049 0.748571
0.321369 0.678950 0.746472
0.456809 0.676783 0.744305
0.592249 0.674616 0.742138
0.723474 0.672516 0.740038
0.846267 0.670551 0.738073
0.956415 0.668789 0.736311
0.000000 0.827156 0.744334
0.059385 0.825394 0.742571
0.182179 0.823429 0.740606
0.313404 0.821329 0.738507
0.448844 0.819162 0.736340
0.584284 0.816995 0.734173
0.715509 0.814896 0.732073
0.838302 0.812931 0.730108
0.948450 0.811169 0.728346
0.000000 0.960388 0.736880
0.051932 0.958626 0.735118
0.174726 0.956661 0.733153
0.305950 0.954561 0.731054
0.441391 0.952394 0.728887
0.576831 0.950227 0.726720
0.708055 0.948128 0.724620
0.830849 0.946163 0.722655
0.940997 0.944401 0.720893
0.000000 1.000000 0.730195
0.045246 1.000000 0.728432
0.168040 1.000000 0.726468
0.299265 1.000000 0.724368
0.434705 1.000000 0.722201
0.570145 1.000000 0.720034
0.701370 1.000000 0.717934
0.824164 1.000000 0.715970
0.934311 1.000000 0.714207
0.000000 0.000000 0.917575
0.105214 0.000000 0.915813
0.228008 0.000000 0.913848
0.359232 0.000000 0.911749
0.494673 0.000000 0.909582
0.630113 0.000000 0.907414
0.761337 0.000000 0.905315
0.884131 0.000000 0.903350
0.994279 0.000000 0.901588
0.000000 0.114577 0.910890
0.098528 0.112815 0.909127
0.221322 0.110850 0.907163
0.352547 0.108750 0.905063
0.487987 0.106583 0.902896
0.623427 0.104416 0.900729
0.754652 0.102317 0.898629
0.877446 0.100352 0.896665
0.987593 0.098589 0.894902
0.000000 0.247809 0.903436
0.091075 0.246047 0.901674
0.213869 0.244082 0.899709
0.345094 0.241982 0.897610
0.480534 0.239815 0.895443
0.615974 0.237648 0.893276
0.747199 0.235549 0.891176
0.869992 0.233584 0.889211
0.980140 0.231821 0.887449
0.000000 0.390189 0.895472
0.083110 0.388426 0.893709
0.205904 0.386461 0.891744
0.337129 0.384362 0.889645
0.472569 0.382195 0.887478
0.608009 0.380028 0.885311
0.739234 0.377928 0.883211
0.862027 0.375963 0.881246
0.972175 0.374201 0.879484
0.000000 0.537142 0.887251
0.074889 0.535379 0.885488
0.197683 0.533415 0.883524
0.328908 0.531315 0.881424
0.464348 0.529148 0.879257
0.599788 0.526981 0.877090
0.731013 0.524881 0.874990
0.853807 0.522917 0.873026
0.963954 0.521154 0.871263
0.000000 0.684095 0.879030
0.066669 0.682333 0.877268
0.189462 0.680368 0.875303
0.320687 0.678268 0.873203
0.456127 0.676101 0.871036
0.591567 0.673934 0.868869
0.722792 0.671835 0.866770
0.845586 0.669870 0.864805
0.955734 0.668108 0.863043
0.000000 0.826475 0.871065
0.058704 0.824712 0.869303
0.181498 0.822748 0.867338
0.312722 0.820648 0.865238
0.448162 0.818481 0.863071
0.583602 0.816314 0.860904
0.714827 0.814214 0.858805
0.837621 0.812249 0.856840
0.947769 0.810487 0.855078
0.000000 0.959707 0.863612
0.051250 0.957944 0.861850
0.174044 0.955980 0.859885
0.305269 0.953880 0.857785
0.440709 0.951713 0.855618
0.576149 0.949546 0.853451
0.707374 0.947446 0.851351
0.830168 0.945481 0.849387
0.940315 0.943719 0.847624
0.000000 1.000000 0.856926
0.044565 1.000000 0.855164
0.167359 1.000000 0.853199
0.298583 1.000000 0.851100
0.434024 1.000000 0.848933
0.569464 1.000000 0.846766
0.700688 1.000000 0.844666
0.823482 1.000000 0.842701
0.933630 1.000000 0.840939
0.000000 0.000000 1.000000
0.104603 0.000000 1.000000
0.227396 0.000000 1.000000
0.358621 0.000000 1.000000
0.494061 0.000000 1.000000
0.629501 0.000000 1.000000
0.760726 0.000000 1.000000
0.883520 0.000000 1.000000
0.993668 0.000000 1.000000
0.000000 0.113966 1.000000
0.097917 0.112203 1.000000
0.220711 0.110239 1.000000
0.351936 0.108139 1.000000
0.487376 0.105972 1.000000
0.622816 0.103805 1.000000
0.754041 0.101705 1.000000
0.876834 0.099741 1.000000
0.986982 0.097978 1.000000
0.000000 0.247198 1.000000
0.090464 0.245435 1.000000
0.213258 0.243471 1.000000
0.344482 0.241371 1.000000
0.479922 0.239204 1.000000
0.615363 0.237037 1.000000
0.746587 0.234937 1.000000
0.869381 0.232973 1.000000
0.979529 0.231210 1.000000
0.000000 0.389577 1.000000
0.082499 0.387815 1.000000
0.205293 0.385850 1.000000
0.336517 0.383751 1.000000
0.471958 0.381584 1.000000
0.607398 0.379416 0.998991
0.738622 0.377317 0.996891
0.861416 0.375352 0.994926
0.971564 0.373590 0.993164
0.000000 0.536531 1.000000
0.074278 0.534768 0.999168
0.197072 0.532803 0.997203
0.328297 0.530704 0.995104
0.463737 0.528537 0.992937
0.599177 0.526370 0.990770
0.730402 0.524270 0.988670
0.853195 0.522305 0.986705
0.963343 0.520543 0.984943
0.000000 0.683484 0.992710
0.066057 0.681721 0.990947
0.188851 0.679757 0.988983
0.320076 0.677657 0.986883
0.455516 0.675490 0.984716
0.590956 0.673323 0.982549
0.722181 0.671223 0.980449
0.844975 0.669259 0.978485
0.955122 0.667496 0.976722
0.000000 0.825863 0.984745
0.058092 0.824101 0.982982
0.180886 0.822136 0.981018
0.312111 0.820037 0.978918
0.447551 0.817870 0.976751
0.582991 0.815703 0.974584
0.714216 0.813603 0.972484
0.837010 0.811638 0.970520
0.947157 0.809876 0.968757
0.000000 0.959095 0.977292
0.050639 0.957333 0.975529
0.173433 0.955368 0.973565
0.304658 0.953269 0.971465
0.440098 0.951102 0.969298
0.575538 0.948935 0.967131
0.706763 0.946835 0.965031
0.829557 0.944870 0.963067
0.939704 0.943108 0.961304
0.000000 1.000000 0.970606
0.043954 1.000000 0.968844
0.166747 1.000000 0.966879
0.297972 1.000000 0.964779
0.433412 1.000000 0.962612
0.568852 1.000000 0.960445
0.700077 1.000000 0.958346
0.822871 1.000000 0.956381
0.933019 1.000000 0.954619
