assets/luts/forest.cube
# Forest — Studio filter "forest"
# Generated by scripts/generate-filter-luts.mjs — do not edit by hand.
LUT_3D_SIZE 5
DOMAIN_MIN 0.0 0.0 0.0
DOMAIN_MAX 1.0 1.0 1.0
0.000000 0.000000 0.000000
0.232941 0.000000 0.000000
0.499606 0.000000 0.000000
0.766271 0.000000 0.000000
0.999212 0.000000 0.000000
0.000000 0.252743 0.000000
0.218803 0.249016 0.000000
0.485467 0.244749 0.000000
0.752132 0.240482 0.000000
0.985074 0.236755 0.000000
0.000000 0.542076 0.000000
0.202617 0.538348 0.000000
0.469282 0.534082 0.000000
0.735947 0.529815 0.000000
0.968888 0.526088 0.000000
0.000000 0.831408 0.000000
0.186431 0.827681 0.000000
0.453096 0.823415 0.000000
0.719761 0.819148 0.000000
0.952702 0.815421 0.000000
0.000000 1.000000 0.000000
0.172292 1.000000 0.000000
0.438957 1.000000 0.000000
0.705622 1.000000 0.000000
0.938564 1.000000 0.000000
0.000000 0.000000 0.240411
0.231649 0.000000 0.236684
0.498314 0.000000 0.232418
0.764978 0.000000 0.228151
0.997920 0.000000 0.224424
0.000000 0.251450 0.226273
0.217510 0.247723 0.222545
0.484175 0.243456 0.218279
0.750840 0.239190 0.214012
0.983781 0.235463 0.210285
0.000000 0.540783 0.210087
0.201324 0.537056 0.206360
0.467989 0.532789 0.202093
0.734654 0.528522 0.197826
0.967595 0.524795 0.194099
0.000000 0.830116 0.193901
0.185139 0.826389 0.190174
0.451803 0.822122 0.185907
0.718468 0.817855 0.181641
0.951410 0.814128 0.177914
0.000000 1.000000 0.179762
0.171000 1.000000 0.176035
0.437665 1.000000 0.171769
0.704329 1.000000 0.167502
0.937271 1.000000 0.163775
0.000000 0.000000 0.515628
0.230169 0.000000 0.511900
0.496834 0.000000 0.507634
0.763499 0.000000 0.503367
0.996440 0.000000 0.499640
0.000000 0.249970 0.501489
0.216030 0.246243 0.497762
0.482695 0.241976 0.493495
0.749360 0.237710 0.489228
0.982301 0.233983 0.485501
0.000000 0.539303 0.485303
0.199844 0.535576 0.481576
0.466509 0.531309 0.477309
0.733174 0.527043 0.473043
0.966116 0.523316 0.469316
0.000000 0.828636 0.469117
0.183659 0.824909 0.465390
0.450324 0.820642 0.461124
0.716988 0.816375 0.456857
0.949930 0.812648 0.453130
0.000000 1.000000 0.454979
0.169520 1.000000 0.451251
0.436185 1.000000 0.446985
0.702850 1.000000 0.442718
0.935791 1.000000 0.438991
0.000000 0.000000 0.790844
0.228689 0.000000 0.787117
0.495354 0.000000 0.782850
0.762019 0.000000 0.778583
0.994960 0.000000 0.774856
0.000000 0.248490 0.776705
0.214550 0.244763 0.772978
0.481215 0.240497 0.768711
0.747880 0.236230 0.764444
0.980821 0.232503 0.760717
0.000000 0.537823 0.760519
0.198365 0.534096 0.756792
0.465029 0.529829 0.752525
0.731694 0.525563 0.748259
0.964636 0.521836 0.744532
0.000000 0.827156 0.744334
0.182179 0.823429 0.740606
0.448844 0.819162 0.736340
0.715509 0.814896 0.732073
0.948450 0.811169 0.728346
0.000000 1.000000 0.730195
0.168040 1.000000 0.726468
0.434705 1.000000 0.722201
0.701370 1.000000 0.717934
0.934311 1.000000 0.714207
0.000000 0.000000 1.000000
0.227396 0.000000 1.000000
0.494061 0.000000 1.000000
0.760726 0.000000 1.000000
0.993668 0.000000 1.000000
0.000000 0.247198 1.000000
0.213258 0.243471 1.000000
0.479922 0.239204 1.000000
0.746587 0.234937 1.000000
0.979529 0.231210 1.000000
0.000000 0.536531 1.000000
0.197072 0.532803 0.997203
0.463737 0.528537 0.992937
0.730402 0.524270 0.988670
0.963343 0.520543 0.984943
0.000000 0.825863 0.984745
0.180886 0.822136 0.981018
0.447551 0.817870 0.976751
0.714216 0.813603 0.972484
0.947157 0.809876 0.968757
0.000000 1.000000 0.970606
0.166747 1.000000 0.966879
0.433412 1.000000 0.962612
0.700077 1.000000 0.958346
0.933019 1.000000 0.954619
