assets/luts/forest.cube
# Forest — Studio filter "forest"
# Generated by scripts/generate-filter-luts.mjs — do not edit by hand.
LUT_3D_SIZE 17
DOMAIN_MIN 0.0 0.0 0.0
DOMAIN_MAX 1.0 1.0 1.0
0.000000 0.000000 0.000000
0.053230 0.000000 0.000000
0.110148 0.000000 0.000000
0.170227 0.000000 0.000000
0.232941 0.000000 0.000000
0.297763 0.000000 0.000000
0.364166 0.000000 0.000000
0.431623 0.000000 0.000000
0.499606 0.000000 0.000000
0.567590 0.000000 0.000000
0.635046 0.000000 0.000000
0.701449 0.000000 0.000000
0.766271 0.000000 0.000000
0.828985 0.000000 0.000000
0.889065 0.000000 0.000000
0.945983 0.000000 0.000000
0.999212 0.000000 0.000000
0.000000 0.057754 0.000000
0.049999 0.056903 0.000000
0.106917 0.055992 0.000000
0.166996 0.055031 0.000000
0.229711 0.054027 0.000000
0.294533 0.052990 0.000000
0.360935 0.051928 0.000000
0.428392 0.050848 0.000000
0.496375 0.049761 0.000000
0.564359 0.048673 0.000000
0.631816 0.047594 0.000000
0.698218 0.046531 0.000000
0.763040 0.045494 0.000000
0.825754 0.044490 0.000000
0.885834 0.043529 0.000000
0.942752 0.042618 0.000000
0.995982 0.041767 0.000000
0.000000 0.119511 0.000000
0.046544 0.118659 0.000000
0.103462 0.117748 0.000000
0.163542 0.116787 0.000000
0.226256 0.115784 0.000000
0.291078 0.114746 0.000000
0.357481 0.113684 0.000000
0.424937 0.112605 0.000000
0.492921 0.111517 0.000000
0.560904 0.110429 0.000000
0.628361 0.109350 0.000000
0.694764 0.108287 0.000000
0.759585 0.107250 0.000000
0.822300 0.106247 0.000000
0.882379 0.105286 0.000000
0.939297 0.104375 0.000000
0.992527 0.103523 0.000000
0.000000 0.184697 0.000000
0.042897 0.183846 0.000000
0.099815 0.182935 0.000000
0.159895 0.181974 0.000000
0.222609 0.180970 0.000000
0.287431 0.179933 0.000000
0.353834 0.178871 0.000000
0.421290 0.177791 0.000000
0.489274 0.176704 0.000000
0.557258 0.175616 0.000000
0.624714 0.174537 0.000000
0.691117 0.173474 0.000000
0.755939 0.172437 0.000000
0.818653 0.171434 0.000000
0.878733 0.170472 0.000000
0.935651 0.169562 0.000000
0.988880 0.168710 0.000000
0.000000 0.252743 0.000000
0.039091 0.251891 0.000000
0.096009 0.250980 0.000000
0.156088 0.250019 0.000000
0.218803 0.249016 0.000000
0.283625 0.247978 0.000000
0.350027 0.246916 0.000000
0.417484 0.245837 0.000000
0.485467 0.244749 0.000000
0.553451 0.243661 0.000000
0.620908 0.242582 0.000000
0.687310 0.241519 0.000000
0.752132 0.240482 0.000000
0.814847 0.239479 0.000000
0.874926 0.238518 0.000000
0.931844 0.237607 0.000000
0.985074 0.236755 0.000000
0.000000 0.323075 0.000000
0.035156 0.322223 0.000000
0.092074 0.321313 0.000000
0.152154 0.320351 0.000000
0.214868 0.319348 0.000000
0.279690 0.318311 0.000000
0.346093 0.317248 0.000000
0.413549 0.316169 0.000000
0.481533 0.315081 0.000000
0.549516 0.313993 0.000000
0.616973 0.312914 0.000000
0.683376 0.311852 0.000000
0.748198 0.310814 0.000000
0.810912 0.309811 0.000000
0.870992 0.308850 0.000000
0.927910 0.307939 0.000000
0.981139 0.307087 0.000000
0.000000 0.395122 0.000000
0.031126 0.394271 0.000000
0.088044 0.393360 0.000000
0.148123 0.392399 0.000000
0.210838 0.391395 0.000000
0.275660 0.390358 0.000000
0.342062 0.389296 0.000000
0.409519 0.388216 0.000000
0.477503 0.387128 0.000000
0.545486 0.386041 0.000000
0.612943 0.384961 0.000000
0.679345 0.383899 0.000000
0.744167 0.382862 0.000000
0.806882 0.381858 0.000000
0.866961 0.380897 0.000000
0.923879 0.379986 0.000000
0.977109 0.379135 0.000000
0.000000 0.468313 0.000000
0.027031 0.467461 0.000000
0.083949 0.466551 0.000000
0.144029 0.465589 0.000000
0.206743 0.464586 0.000000
0.271565 0.463549 0.000000
0.337968 0.462486 0.000000
0.405425 0.461407 0.000000
0.473408 0.460319 0.000000
0.541392 0.459232 0.000000
0.608848 0.458152 0.000000
0.675251 0.457090 0.000000
0.740073 0.456053 0.000000
0.802787 0.455049 0.000000
0.862867 0.454088 0.000000
0.919785 0.453177 0.000000
0.973014 0.452325 0.000000
0.000000 0.542076 0.000000
0.022905 0.541224 0.000000
0.079823 0.540313 0.000000
0.139903 0.539352 0.000000
0.202617 0.538348 0.000000
0.267439 0.537311 0.000000
0.333842 0.536249 0.000000
0.401298 0.535170 0.000000
0.469282 0.534082 0.000000
0.537265 0.532994 0.000000
0.604722 0.531915 0.000000
0.671125 0.530852 0.000000
0.735947 0.529815 0.000000
0.798661 0.528812 0.000000
0.858740 0.527850 0.000000
0.915658 0.526940 0.000000
0.968888 0.526088 0.000000
0.000000 0.615838 0.000000
0.018779 0.614986 0.000000
0.075697 0.614076 0.000000
0.135776 0.613114 0.000000
0.198491 0.612111 0.000000
0.263313 0.611074 0.000000
0.329715 0.610011 0.000000
0.397172 0.608932 0.000000
0.465155 0.607844 0.000000
0.533139 0.606757 0.000000
0.600596 0.605677 0.000000
0.666998 0.604615 0.000000
0.731820 0.603578 0.000000
0.794534 0.602574 0.000000
0.854614 0.601613 0.000000
0.911532 0.600702 0.000000
0.964762 0.599851 0.000000
0.000000 0.689029 0.000000
0.014684 0.688177 0.000000
0.071602 0.687266 0.000000
0.131682 0.686305 0.000000
0.194396 0.685302 0.000000
0.259218 0.684265 0.000000
0.325621 0.683202 0.000000
0.393077 0.682123 0.000000
0.461061 0.681035 0.000000
0.529045 0.679947 0.000000
0.596501 0.678868 0.000000
0.662904 0.677806 0.000000
0.727726 0.676768 0.000000
0.790440 0.675765 0.000000
0.850520 0.674804 0.000000
0.907438 0.673893 0.000000
0.960667 0.673041 0.000000
0.000000 0.761076 0.000000
0.010654 0.760224 0.000000
0.067572 0.759314 0.000000
0.127651 0.758352 0.000000
0.190366 0.757349 0.000000
0.255188 0.756312 0.000000
0.321590 0.755249 0.000000
0.389047 0.754170 0.000000
0.457031 0.753082 0.000000
0.525014 0.751995 0.000000
0.592471 0.750915 0.000000
0.658873 0.749853 0.000000
0.723695 0.748816 0.000000
0.786410 0.747812 0.000000
0.846489 0.746851 0.000000
0.903407 0.745940 0.000000
0.956637 0.745089 0.000000
0.000000 0.831408 0.000000
0.006719 0.830557 0.000000
0.063637 0.829646 0.000000
0.123717 0.828685 0.000000
0.186431 0.827681 0.000000
0.251253 0.826644 0.000000
0.317656 0.825582 0.000000
0.385113 0.824502 0.000000
0.453096 0.823415 0.000000
0.521080 0.822327 0.000000
0.588536 0.821248 0.000000
0.654939 0.820185 0.000000
0.719761 0.819148 0.000000
0.782475 0.818144 0.000000
0.842555 0.817183 0.000000
0.899473 0.816272 0.000000
0.952702 0.815421 0.000000
0.000000 0.899454 0.000000
0.002913 0.898602 0.000000
0.059831 0.897691 0.000000
0.119910 0.896730 0.000000
0.182625 0.895727 0.000000
0.247447 0.894689 0.000000
0.313849 0.893627 0.000000
0.381306 0.892548 0.000000
0.449290 0.891460 0.000000
0.517273 0.890372 0.000000
0.584730 0.889293 0.000000
0.651132 0.888230 0.000000
0.715954 0.887193 0.000000
0.778669 0.886190 0.000000
0.838748 0.885228 0.000000
0.895666 0.884318 0.000000
0.948896 0.883466 0.000000
0.000000 0.964640 0.000000
0.000000 0.963789 0.000000
0.056184 0.962878 0.000000
0.116264 0.961917 0.000000
0.178978 0.960913 0.000000
0.243800 0.959876 0.000000
0.310203 0.958814 0.000000
0.377659 0.957734 0.000000
0.445643 0.956647 0.000000
0.513626 0.955559 0.000000
0.581083 0.954480 0.000000
0.647486 0.953417 0.000000
0.712308 0.952380 0.000000
0.775022 0.951376 0.000000
0.835102 0.950415 0.000000
0.892020 0.949504 0.000000
0.945249 0.948653 0.000000
0.000000 1.000000 0.000000
0.000000 1.000000 0.000000
0.052729 1.000000 0.000000
0.112809 1.000000 0.000000
0.175523 1.000000 0.000000
0.240345 1.000000 0.000000
0.306748 1.000000 0.000000
0.374205 1.000000 0.000000
0.442188 1.000000 0.000000
0.510172 1.000000 0.000000
0.577628 1.000000 0.000000
0.644031 1.000000 0.000000
0.708853 1.000000 0.000000
0.771567 1.000000 0.000000
0.831647 1.000000 0.000000
0.888565 1.000000 0.000000
0.941794 1.000000 0.000000
0.000000 1.000000 0.000000
0.000000 1.000000 0.000000
0.049499 1.000000 0.000000
0.109578 1.000000 0.000000
0.172292 1.000000 0.000000
0.237114 1.000000 0.000000
0.303517 1.000000 0.000000
0.370974 1.000000 0.000000
0.438957 1.000000 0.000000
0.506941 1.000000 0.000000
0.574397 1.000000 0.000000
0.640800 1.000000 0.000000
0.705622 1.000000 0.000000
0.768336 1.000000 0.000000
0.828416 1.000000 0.000000
0.885334 1.000000 0.000000
0.938564 1.000000 0.000000
0.000000 0.000000 0.054936
0.052934 0.000000 0.054085
0.109852 0.000000 0.053174
0.169932 0.000000 0.052213
0.232646 0.000000 0.051209
0.297468 0.000000 0.050172
0.363871 0.000000 0.049110
0.431327 0.000000 0.048030
0.499311 0.000000 0.046943
0.567294 0.000000 0.045855
0.634751 0.000000 0.044776
0.701154 0.000000 0.043713
0.765976 0.000000 0.042676
0.828690 0.000000 0.041673
0.888770 0.000000 0.040711
0.945688 0.000000 0.039801
0.998917 0.000000 0.038949
0.000000 0.057459 0.051706
0.049703 0.056607 0.050854
0.106621 0.055697 0.049943
0.166701 0.054735 0.048982
0.229415 0.053732 0.047979
0.294237 0.052695 0.046941
0.360640 0.051632 0.045879
0.428096 0.050553 0.044800
0.496080 0.049465 0.043712
0.564064 0.048377 0.042624
0.631520 0.047298 0.041545
0.697923 0.046236 0.040482
0.762745 0.045199 0.039445
0.825459 0.044195 0.038442
0.885539 0.043234 0.037480
0.942457 0.042323 0.036570
0.995686 0.041471 0.035718
0.000000 0.119215 0.048251
0.046249 0.118364 0.047399
0.103167 0.117453 0.046489
0.163246 0.116492 0.045527
0.225960 0.115488 0.044524
0.290782 0.114451 0.043487
0.357185 0.113389 0.042424
0.424642 0.112309 0.041345
0.492625 0.111222 0.040257
0.560609 0.110134 0.039169
0.628065 0.109055 0.038090
0.694468 0.107992 0.037028
0.759290 0.106955 0.035990
0.822004 0.105951 0.034987
0.882084 0.104990 0.034026
0.939002 0.104079 0.033115
0.992231 0.103228 0.032263
0.000000 0.184402 0.044604
0.042602 0.183550 0.043753
0.099520 0.182640 0.042842
0.159600 0.181678 0.041881
0.222314 0.180675 0.040877
0.287136 0.179638 0.039840
0.353538 0.178575 0.038778
0.420995 0.177496 0.037698
0.488979 0.176408 0.036610
0.556962 0.175321 0.035523
0.624419 0.174241 0.034443
0.690821 0.173179 0.033381
0.755643 0.172142 0.032344
0.818358 0.171138 0.031340
0.878437 0.170177 0.030379
0.935355 0.169266 0.029468
0.988585 0.168415 0.028617
0.000000 0.252447 0.040798
0.038795 0.251596 0.039946
0.095713 0.250685 0.039035
0.155793 0.249724 0.038074
0.218507 0.248720 0.037071
0.283329 0.247683 0.036033
0.349732 0.246621 0.034971
0.417189 0.245541 0.033892
0.485172 0.244454 0.032804
0.553156 0.243366 0.031716
0.620612 0.242287 0.030637
0.687015 0.241224 0.029574
0.751837 0.240187 0.028537
0.814551 0.239183 0.027534
0.874631 0.238222 0.026573
0.931549 0.237311 0.025662
0.984778 0.236460 0.024810
0.000000 0.322780 0.036863
0.034861 0.321928 0.036012
0.091779 0.321017 0.035101
0.151859 0.320056 0.034140
0.214573 0.319052 0.033136
0.279395 0.318015 0.032099
0.345797 0.316953 0.031037
0.413254 0.315873 0.029957
0.481238 0.314786 0.028869
0.549221 0.313698 0.027782
0.616678 0.312619 0.026702
0.683080 0.311556 0.025640
0.747902 0.310519 0.024603
0.810617 0.309516 0.023599
0.870696 0.308554 0.022638
0.927614 0.307644 0.021727
0.980844 0.306792 0.020876
0.000000 0.394827 0.032833
0.030830 0.393975 0.031981
0.087748 0.393064 0.031070
0.147828 0.392103 0.030109
0.210542 0.391100 0.029106
0.275364 0.390063 0.028069
0.341767 0.389000 0.027006
0.409224 0.387921 0.025927
0.477207 0.386833 0.024839
0.545191 0.385745 0.023751
0.612647 0.384666 0.022672
0.679050 0.383604 0.021610
0.743872 0.382566 0.020572
0.806586 0.381563 0.019569
0.866666 0.380602 0.018608
0.923584 0.379691 0.017697
0.976813 0.378839 0.016845
0.000000 0.468018 0.028738
0.026736 0.467166 0.027887
0.083654 0.466255 0.026976
0.143734 0.465294 0.026015
0.206448 0.464291 0.025011
0.271270 0.463253 0.023974
0.337673 0.462191 0.022912
0.405129 0.461112 0.021832
0.473113 0.460024 0.020745
0.541096 0.458936 0.019657
0.608553 0.457857 0.018578
0.674956 0.456794 0.017515
0.739778 0.455757 0.016478
0.802492 0.454754 0.015475
0.862571 0.453792 0.014513
0.919489 0.452882 0.013603
0.972719 0.452030 0.012751
0.000000 0.541780 0.024612
0.022610 0.540928 0.023760
0.079528 0.540018 0.022850
0.139607 0.539056 0.021888
0.202322 0.538053 0.020885
0.267143 0.537016 0.019848
0.333546 0.535953 0.018785
0.401003 0.534874 0.017706
0.468986 0.533786 0.016618
0.536970 0.532699 0.015531
0.604427 0.531619 0.014451
0.670829 0.530557 0.013389
0.735651 0.529520 0.012352
0.798365 0.528516 0.011348
0.858445 0.527555 0.010387
0.915363 0.526644 0.009476
0.968593 0.525793 0.008624
0.000000 0.615543 0.020486
0.018483 0.614691 0.019634
0.075401 0.613780 0.018723
0.135481 0.612819 0.017762
0.198195 0.611816 0.016759
0.263017 0.610778 0.015721
0.329420 0.609716 0.014659
0.396876 0.608637 0.013580
0.464860 0.607549 0.012492
0.532844 0.606461 0.011404
0.600300 0.605382 0.010325
0.666703 0.604319 0.009262
0.731525 0.603282 0.008225
0.794239 0.602279 0.007222
0.854319 0.601317 0.006260
0.911237 0.600407 0.005350
0.964466 0.599555 0.004498
0.000000 0.688733 0.016391
0.014389 0.687882 0.015540
0.071307 0.686971 0.014629
0.131387 0.686010 0.013668
0.194101 0.685006 0.012664
0.258923 0.683969 0.011627
0.325325 0.682907 0.010565
0.392782 0.681827 0.009485
0.460766 0.680740 0.008397
0.528749 0.679652 0.007310
0.596206 0.678573 0.006230
0.662608 0.677510 0.005168
0.727430 0.676473 0.004131
0.790145 0.675470 0.003127
0.850224 0.674508 0.002166
0.907142 0.673598 0.001255
0.960372 0.672746 0.000404
0.000000 0.760781 0.012361
0.010358 0.759929 0.011509
0.067276 0.759018 0.010598
0.127356 0.758057 0.009637
0.190070 0.757054 0.008634
0.254892 0.756017 0.007597
0.321295 0.754954 0.006534
0.388752 0.753875 0.005455
0.456735 0.752787 0.004367
0.524719 0.751699 0.003279
0.592175 0.750620 0.002200
0.658578 0.749557 0.001138
0.723400 0.748520 0.000100
0.786114 0.747517 0.000000
0.846194 0.746556 0.000000
0.903112 0.745645 0.000000
0.956341 0.744793 0.000000
0.000000 0.831113 0.008426
0.006424 0.830261 0.007575
0.063342 0.829351 0.006664
0.123422 0.828389 0.005703
0.186136 0.827386 0.004699
0.250958 0.826349 0.003662
0.317361 0.825286 0.002600
0.384817 0.824207 0.001520
0.452801 0.823119 0.000433
0.520784 0.822031 0.000000
0.588241 0.820952 0.000000
0.654644 0.819890 0.000000
0.719466 0.818853 0.000000
0.782180 0.817849 0.000000
0.842259 0.816888 0.000000
0.899177 0.815977 0.000000
0.952407 0.815125 0.000000
0.000000 0.899158 0.004620
0.002617 0.898307 0.003768
0.059535 0.897396 0.002857
0.119615 0.896435 0.001896
0.182329 0.895431 0.000893
0.247151 0.894394 0.000000
0.313554 0.893332 0.000000
0.381011 0.892252 0.000000
0.448994 0.891164 0.000000
0.516978 0.890077 0.000000
0.584434 0.888997 0.000000
0.650837 0.887935 0.000000
0.715659 0.886898 0.000000
0.778373 0.885894 0.000000
0.838453 0.884933 0.000000
0.895371 0.884022 0.000000
0.948600 0.883171 0.000000
0.000000 0.964345 0.000973
0.000000 0.963493 0.000121
0.055889 0.962583 0.000000
0.115968 0.961621 0.000000
0.178683 0.960618 0.000000
0.243505 0.959581 0.000000
0.309907 0.958518 0.000000
0.377364 0.957439 0.000000
0.445347 0.956351 0.000000
0.513331 0.955263 0.000000
0.580788 0.954184 0.000000
0.647190 0.953122 0.000000
0.712012 0.952085 0.000000
0.774727 0.951081 0.000000
0.834806 0.950120 0.000000
0.891724 0.949209 0.000000
0.944954 0.948357 0.000000
0.000000 1.000000 0.000000
0.000000 1.000000 0.000000
0.052434 1.000000 0.000000
0.112514 1.000000 0.000000
0.175228 1.000000 0.000000
0.240050 1.000000 0.000000
0.306453 1.000000 0.000000
0.373909 1.000000 0.000000
0.441893 1.000000 0.000000
0.509876 1.000000 0.000000
0.577333 1.000000 0.000000
0.643736 1.000000 0.000000
0.708558 1.000000 0.000000
0.771272 1.000000 0.000000
0.831351 1.000000 0.000000
0.888269 1.000000 0.000000
0.941499 1.000000 0.000000
0.000000 1.000000 0.000000
0.000000 1.000000 0.000000
0.049203 1.000000 0.000000
0.109283 1.000000 0.000000
0.171997 1.000000 0.000000
0.236819 1.000000 0.000000
0.303222 1.000000 0.000000
0.370678 1.000000 0.000000
0.438662 1.000000 0.000000
0.506645 1.000000 0.000000
0.574102 1.000000 0.000000
0.640505 1.000000 0.000000
0.705327 1.000000 0.000000
0.768041 1.000000 0.000000
0.828121 1.000000 0.000000
0.885039 1.000000 0.000000
0.938268 1.000000 0.000000
0.000000 0.000000 0.113680
0.052618 0.000000 0.112828
0.109536 0.000000 0.111917
0.169616 0.000000 0.110956
0.232330 0.000000 0.109953
0.297152 0.000000 0.108916
0.363555 0.000000 0.107853
0.431011 0.000000 0.106774
0.498995 0.000000 0.105686
0.566979 0.000000 0.104598
0.634435 0.000000 0.103519
0.700838 0.000000 0.102456
0.765660 0.000000 0.101419
0.828374 0.000000 0.100416
0.888454 0.000000 0.099455
0.945372 0.000000 0.098544
0.998601 0.000000 0.097692
0.000000 0.057143 0.110449
0.049387 0.056291 0.109597
0.106305 0.055381 0.108687
0.166385 0.054419 0.107725
0.229099 0.053416 0.106722
0.293921 0.052379 0.105685
0.360324 0.051316 0.104622
0.427781 0.050237 0.103543
0.495764 0.049149 0.102455
0.563748 0.048062 0.101367
0.631204 0.046982 0.100288
0.697607 0.045920 0.099226
0.762429 0.044883 0.098188
0.825143 0.043879 0.097185
0.885223 0.042918 0.096224
0.942141 0.042007 0.095313
0.995370 0.041156 0.094461
0.000000 0.118899 0.106994
0.045933 0.118048 0.106142
0.102851 0.117137 0.105232
0.162930 0.116176 0.104270
0.225645 0.115172 0.103267
0.290467 0.114135 0.102230
0.356869 0.113073 0.101167
0.424326 0.111993 0.100088
0.492309 0.110906 0.099000
0.560293 0.109818 0.097913
0.627750 0.108739 0.096833
0.694152 0.107676 0.095771
0.758974 0.106639 0.094734
0.821688 0.105636 0.093730
0.881768 0.104674 0.092769
0.938686 0.103764 0.091858
0.991916 0.102912 0.091007
0.000000 0.184086 0.103348
0.042286 0.183234 0.102496
0.099204 0.182324 0.101585
0.159284 0.181363 0.100624
0.221998 0.180359 0.099620
0.286820 0.179322 0.098583
0.353223 0.178259 0.097521
0.420679 0.177180 0.096442
0.488663 0.176092 0.095354
0.556646 0.175005 0.094266
0.624103 0.173925 0.093187
0.690506 0.172863 0.092124
0.755328 0.171826 0.091087
0.818042 0.170822 0.090084
0.878121 0.169861 0.089122
0.935039 0.168950 0.088212
0.988269 0.168099 0.087360
0.000000 0.252131 0.099541
0.038479 0.251280 0.098689
0.095398 0.250369 0.097779
0.155477 0.249408 0.096817
0.218191 0.248404 0.095814
0.283013 0.247367 0.094777
0.349416 0.246305 0.093714
0.416873 0.245225 0.092635
0.484856 0.244138 0.091547
0.552840 0.243050 0.090459
0.620296 0.241971 0.089380
0.686699 0.240908 0.088318
0.751521 0.239871 0.087281
0.814235 0.238868 0.086277
0.874315 0.237906 0.085316
0.931233 0.236996 0.084405
0.984462 0.236144 0.083553
0.000000 0.322464 0.095606
0.034545 0.321612 0.094755
0.091463 0.320701 0.093844
0.151543 0.319740 0.092883
0.214257 0.318737 0.091879
0.279079 0.317699 0.090842
0.345482 0.316637 0.089780
0.412938 0.315558 0.088700
0.480922 0.314470 0.087613
0.548905 0.313382 0.086525
0.616362 0.312303 0.085446
0.682765 0.311240 0.084383
0.747587 0.310203 0.083346
0.810301 0.309200 0.082343
0.870380 0.308239 0.081381
0.927298 0.307328 0.080471
0.980528 0.306476 0.079619
0.000000 0.394511 0.091576
0.030515 0.393659 0.090724
0.087433 0.392749 0.089814
0.147512 0.391787 0.088852
0.210226 0.390784 0.087849
0.275048 0.389747 0.086812
0.341451 0.388684 0.085749
0.408908 0.387605 0.084670
0.476891 0.386517 0.083582
0.544875 0.385429 0.082495
0.612331 0.384350 0.081415
0.678734 0.383288 0.080353
0.743556 0.382251 0.079316
0.806270 0.381247 0.078312
0.866350 0.380286 0.077351
0.923268 0.379375 0.076440
0.976498 0.378523 0.075589
0.000000 0.467702 0.087482
0.026420 0.466850 0.086630
0.083338 0.465939 0.085719
0.143418 0.464978 0.084758
0.206132 0.463975 0.083755
0.270954 0.462938 0.082717
0.337357 0.461875 0.081655
0.404813 0.460796 0.080576
0.472797 0.459708 0.079488
0.540780 0.458620 0.078400
0.608237 0.457541 0.077321
0.674640 0.456479 0.076258
0.739462 0.455441 0.075221
0.802176 0.454438 0.074218
0.862256 0.453477 0.073257
0.919174 0.452566 0.072346
0.972403 0.451714 0.071494
0.000000 0.541464 0.083355
0.022294 0.540613 0.082504
0.079212 0.539702 0.081593
0.139291 0.538741 0.080632
0.202006 0.537737 0.079628
0.266828 0.536700 0.078591
0.333230 0.535638 0.077529
0.400687 0.534558 0.076449
0.468671 0.533471 0.075362
0.536654 0.532383 0.074274
0.604111 0.531303 0.073194
0.670513 0.530241 0.072132
0.735335 0.529204 0.071095
0.798050 0.528200 0.070091
0.858129 0.527239 0.069130
0.915047 0.526328 0.068219
0.968277 0.525477 0.067368
0.000000 0.615227 0.079229
0.018167 0.614375 0.078377
0.075085 0.613464 0.077467
0.135165 0.612503 0.076505
0.197879 0.611500 0.075502
0.262701 0.610463 0.074465
0.329104 0.609400 0.073402
0.396561 0.608321 0.072323
0.464544 0.607233 0.071235
0.532528 0.606145 0.070147
0.599984 0.605066 0.069068
0.666387 0.604004 0.068006
0.731209 0.602966 0.066968
0.793923 0.601963 0.065965
0.854003 0.601002 0.065004
0.910921 0.600091 0.064093
0.964150 0.599239 0.063241
0.000000 0.688418 0.075134
0.014073 0.687566 0.074283
0.070991 0.686655 0.073372
0.131071 0.685694 0.072411
0.193785 0.684690 0.071407
0.258607 0.683653 0.070370
0.325010 0.682591 0.069308
0.392466 0.681512 0.068228
0.460450 0.680424 0.067141
0.528433 0.679336 0.066053
0.595890 0.678257 0.064974
0.662293 0.677194 0.063911
0.727115 0.676157 0.062874
0.789829 0.675154 0.061871
0.849908 0.674192 0.060909
0.906826 0.673282 0.059999
0.960056 0.672430 0.059147
0.000000 0.760465 0.071104
0.010043 0.759613 0.070252
0.066961 0.758703 0.069342
0.127040 0.757741 0.068380
0.189754 0.756738 0.067377
0.254576 0.755701 0.066340
0.320979 0.754638 0.065277
0.388436 0.753559 0.064198
0.456419 0.752471 0.063110
0.524403 0.751383 0.062023
0.591859 0.750304 0.060943
0.658262 0.749242 0.059881
0.723084 0.748204 0.058844
0.785798 0.747201 0.057840
0.845878 0.746240 0.056879
0.902796 0.745329 0.055968
0.956026 0.744477 0.055117
0.000000 0.830797 0.067170
0.006108 0.829945 0.066318
0.063026 0.829035 0.065407
0.123106 0.828073 0.064446
0.185820 0.827070 0.063442
0.250642 0.826033 0.062405
0.317045 0.824970 0.061343
0.384501 0.823891 0.060264
0.452485 0.822803 0.059176
0.520468 0.821716 0.058088
0.587925 0.820636 0.057009
0.654328 0.819574 0.055946
0.719150 0.818537 0.054909
0.781864 0.817533 0.053906
0.841944 0.816572 0.052944
0.898862 0.815661 0.052034
0.952091 0.814810 0.051182
0.000000 0.898842 0.063363
0.002302 0.897991 0.062511
0.059220 0.897080 0.061601
0.119299 0.896119 0.060639
0.182013 0.895115 0.059636
0.246835 0.894078 0.058599
0.313238 0.893016 0.057536
0.380695 0.891936 0.056457
0.448678 0.890849 0.055369
0.516662 0.889761 0.054282
0.584118 0.888682 0.053202
0.650521 0.887619 0.052140
0.715343 0.886582 0.051103
0.778057 0.885579 0.050099
0.838137 0.884617 0.049138
0.895055 0.883707 0.048227
0.948285 0.882855 0.047376
0.000000 0.964029 0.059716
0.000000 0.963177 0.058865
0.055573 0.962267 0.057954
0.115653 0.961305 0.056993
0.178367 0.960302 0.055989
0.243189 0.959265 0.054952
0.309592 0.958202 0.053890
0.377048 0.957123 0.052810
0.445032 0.956035 0.051723
0.513015 0.954948 0.050635
0.580472 0.953868 0.049556
0.646875 0.952806 0.048493
0.711696 0.951769 0.047456
0.774411 0.950765 0.046453
0.834490 0.949804 0.045491
0.891408 0.948893 0.044581
0.944638 0.948042 0.043729
0.000000 1.000000 0.056262
0.000000 1.000000 0.055410
0.052118 1.000000 0.054499
0.112198 1.000000 0.053538
0.174912 1.000000 0.052535
0.239734 1.000000 0.051497
0.306137 1.000000 0.050435
0.373593 1.000000 0.049356
0.441577 1.000000 0.048268
0.509560 1.000000 0.047180
0.577017 1.000000 0.046101
0.643420 1.000000 0.045038
0.708242 1.000000 0.044001
0.770956 1.000000 0.042998
0.831036 1.000000 0.042037
0.887954 1.000000 0.041126
0.941183 1.000000 0.040274
0.000000 1.000000 0.053031
0.000000 1.000000 0.052179
0.048887 1.000000 0.051268
0.108967 1.000000 0.050307
0.171681 1.000000 0.049304
0.236503 1.000000 0.048267
0.302906 1.000000 0.047204
0.370363 1.000000 0.046125
0.438346 1.000000 0.045037
0.506330 1.000000 0.043949
0.573786 1.000000 0.042870
0.640189 1.000000 0.041808
0.705011 1.000000 0.040770
0.767725 1.000000 0.039767
0.827805 1.000000 0.038806
0.884723 1.000000 0.037895
0.937952 1.000000 0.037043
0.000000 0.000000 0.175686
0.052285 0.000000 0.174834
0.109203 0.000000 0.173924
0.169283 0.000000 0.172962
0.231997 0.000000 0.171959
0.296819 0.000000 0.170922
0.363221 0.000000 0.169859
0.430678 0.000000 0.168780
0.498662 0.000000 0.167692
0.566645 0.000000 0.166604
0.634102 0.000000 0.165525
0.700504 0.000000 0.164463
0.765326 0.000000 0.163426
0.828041 0.000000 0.162422
0.888120 0.000000 0.161461
