assets/luts/inkwell.cube
# Inkwell — Studio filter "inkwell"
# Generated by scripts/generate-filter-luts.mjs — do not edit by hand.
LUT_3D_SIZE 17
DOMAIN_MIN 0.0 0.0 0.0
DOMAIN_MAX 1.0 1.0 1.0
0.000000 0.000000 0.000000
0.000000 0.000000 0.000000
0.000000 0.000000 0.000000
0.000000 0.000000 0.000000
0.000000 0.000000 0.000000
0.000000 0.000000 0.000000
0.000000 0.000000 0.000000
0.000000 0.000000 0.000000
0.000000 0.000000 0.000000
0.008014 0.008014 0.008014
0.027596 0.027596 0.027596
0.046691 0.046691 0.046691
0.065058 0.065058 0.065058
0.082453 0.082453 0.082453
0.098634 0.098634 0.098634
0.113357 0.113357 0.113357
0.126380 0.126380 0.126380
0.000000 0.000000 0.000000
0.000000 0.000000 0.000000
0.000000 0.000000 0.000000
0.000000 0.000000 0.000000
0.000000 0.000000 0.000000
0.000000 0.000000 0.000000
0.000000 0.000000 0.000000
0.012175 0.012175 0.012175
0.031999 0.031999 0.031999
0.051824 0.051824 0.051824
0.071405 0.071405 0.071405
0.090501 0.090501 0.090501
0.108868 0.108868 0.108868
0.126263 0.126263 0.126263
0.142444 0.142444 0.142444
0.157167 0.157167 0.157167
0.170189 0.170189 0.170189
0.000000 0.000000 0.000000
0.000000 0.000000 0.000000
0.000000 0.000000 0.000000
0.000000 0.000000 0.000000
0.004661 0.004661 0.004661
0.023028 0.023028 0.023028
0.042123 0.042123 0.042123
0.061705 0.061705 0.061705
0.081529 0.081529 0.081529
0.101354 0.101354 0.101354
0.120935 0.120935 0.120935
0.140031 0.140031 0.140031
0.158397 0.158397 0.158397
0.175793 0.175793 0.175793
0.191973 0.191973 0.191973
0.206696 0.206696 0.206696
0.219719 0.219719 0.219719
0.000000 0.000000 0.000000
0.010795 0.010795 0.010795
0.025518 0.025518 0.025518
0.041699 0.041699 0.041699
0.059094 0.059094 0.059094
0.077461 0.077461 0.077461
0.096556 0.096556 0.096556
0.116138 0.116138 0.116138
0.135962 0.135962 0.135962
0.155786 0.155786 0.155786
0.175368 0.175368 0.175368
0.194463 0.194463 0.194463
0.212830 0.212830 0.212830
0.230225 0.230225 0.230225
0.246406 0.246406 0.246406
0.261129 0.261129 0.261129
0.274152 0.274152 0.274152
0.056290 0.056290 0.056290
0.069313 0.069313 0.069313
0.084036 0.084036 0.084036
0.100217 0.100217 0.100217
0.117612 0.117612 0.117612
0.135979 0.135979 0.135979
0.155075 0.155075 0.155075
0.174656 0.174656 0.174656
0.194481 0.194481 0.194481
0.214305 0.214305 0.214305
0.233886 0.233886 0.233886
0.252982 0.252982 0.252982
0.271349 0.271349 0.271349
0.288744 0.288744 0.288744
0.304925 0.304925 0.304925
0.319648 0.319648 0.319648
0.332670 0.332670 0.332670
0.118078 0.118078 0.118078
0.131101 0.131101 0.131101
0.145824 0.145824 0.145824
0.162004 0.162004 0.162004
0.179400 0.179400 0.179400
0.197766 0.197766 0.197766
0.216862 0.216862 0.216862
0.236443 0.236443 0.236443
0.256268 0.256268 0.256268
0.276092 0.276092 0.276092
0.295674 0.295674 0.295674
0.314769 0.314769 0.314769
0.333136 0.333136 0.333136
0.350531 0.350531 0.350531
0.366712 0.366712 0.366712
0.381435 0.381435 0.381435
0.394458 0.394458 0.394458
0.182317 0.182317 0.182317
0.195339 0.195339 0.195339
0.210063 0.210063 0.210063
0.226243 0.226243 0.226243
0.243638 0.243638 0.243638
0.262005 0.262005 0.262005
0.281101 0.281101 0.281101
0.300682 0.300682 0.300682
0.320507 0.320507 0.320507
0.340331 0.340331 0.340331
0.359912 0.359912 0.359912
0.379008 0.379008 0.379008
0.397375 0.397375 0.397375
0.414770 0.414770 0.414770
0.430951 0.430951 0.430951
0.445674 0.445674 0.445674
0.458697 0.458697 0.458697
0.248190 0.248190 0.248190
0.261212 0.261212 0.261212
0.275936 0.275936 0.275936
0.292116 0.292116 0.292116
0.309512 0.309512 0.309512
0.327878 0.327878 0.327878
0.346974 0.346974 0.346974
0.366555 0.366555 0.366555
0.386380 0.386380 0.386380
0.406204 0.406204 0.406204
0.425785 0.425785 0.425785
0.444881 0.444881 0.444881
0.463248 0.463248 0.463248
0.480643 0.480643 0.480643
0.496824 0.496824 0.496824
0.511547 0.511547 0.511547
0.524570 0.524570 0.524570
0.314880 0.314880 0.314880
0.327903 0.327903 0.327903
0.342626 0.342626 0.342626
0.358807 0.358807 0.358807
0.376202 0.376202 0.376202
0.394569 0.394569 0.394569
0.413664 0.413664 0.413664
0.433246 0.433246 0.433246
0.453070 0.453070 0.453070
0.472894 0.472894 0.472894
0.492476 0.492476 0.492476
0.511571 0.511571 0.511571
0.529938 0.529938 0.529938
0.547333 0.547333 0.547333
0.563514 0.563514 0.563514
0.578237 0.578237 0.578237
0.591260 0.591260 0.591260
0.381570 0.381570 0.381570
0.394593 0.394593 0.394593
0.409316 0.409316 0.409316
0.425497 0.425497 0.425497
0.442892 0.442892 0.442892
0.461259 0.461259 0.461259
0.480355 0.480355 0.480355
0.499936 0.499936 0.499936
0.519760 0.519760 0.519760
0.539585 0.539585 0.539585
0.559166 0.559166 0.559166
0.578262 0.578262 0.578262
0.596628 0.596628 0.596628
0.614024 0.614024 0.614024
0.630204 0.630204 0.630204
0.644928 0.644928 0.644928
0.657950 0.657950 0.657950
0.447443 0.447443 0.447443
0.460466 0.460466 0.460466
0.475189 0.475189 0.475189
0.491370 0.491370 0.491370
0.508765 0.508765 0.508765
0.527132 0.527132 0.527132
0.546228 0.546228 0.546228
0.565809 0.565809 0.565809
0.585633 0.585633 0.585633
0.605458 0.605458 0.605458
0.625039 0.625039 0.625039
0.644135 0.644135 0.644135
0.662502 0.662502 0.662502
0.679897 0.679897 0.679897
0.696077 0.696077 0.696077
0.710801 0.710801 0.710801
0.723823 0.723823 0.723823
0.511682 0.511682 0.511682
0.524705 0.524705 0.524705
0.539428 0.539428 0.539428
0.555609 0.555609 0.555609
0.573004 0.573004 0.573004
0.591371 0.591371 0.591371
0.610466 0.610466 0.610466
0.630048 0.630048 0.630048
0.649872 0.649872 0.649872
0.669697 0.669697 0.669697
0.689278 0.689278 0.689278
0.708374 0.708374 0.708374
0.726740 0.726740 0.726740
0.744136 0.744136 0.744136
0.760316 0.760316 0.760316
0.775039 0.775039 0.775039
0.788062 0.788062 0.788062
0.573469 0.573469 0.573469
0.586492 0.586492 0.586492
0.601215 0.601215 0.601215
0.617396 0.617396 0.617396
0.634791 0.634791 0.634791
0.653158 0.653158 0.653158
0.672254 0.672254 0.672254
0.691835 0.691835 0.691835
0.711659 0.711659 0.711659
0.731484 0.731484 0.731484
0.751065 0.751065 0.751065
0.770161 0.770161 0.770161
0.788528 0.788528 0.788528
0.805923 0.805923 0.805923
0.822104 0.822104 0.822104
0.836827 0.836827 0.836827
0.849849 0.849849 0.849849
0.631988 0.631988 0.631988
0.645011 0.645011 0.645011
0.659734 0.659734 0.659734
0.675915 0.675915 0.675915
0.693310 0.693310 0.693310
0.711677 0.711677 0.711677
0.730772 0.730772 0.730772
0.750354 0.750354 0.750354
0.770178 0.770178 0.770178
0.790002 0.790002 0.790002
0.809584 0.809584 0.809584
0.828679 0.828679 0.828679
0.847046 0.847046 0.847046
0.864441 0.864441 0.864441
0.880622 0.880622 0.880622
0.895345 0.895345 0.895345
0.908368 0.908368 0.908368
0.686421 0.686421 0.686421
0.699444 0.699444 0.699444
0.714167 0.714167 0.714167
0.730347 0.730347 0.730347
0.747743 0.747743 0.747743
0.766109 0.766109 0.766109
0.785205 0.785205 0.785205
0.804786 0.804786 0.804786
0.824611 0.824611 0.824611
0.844435 0.844435 0.844435
0.864017 0.864017 0.864017
0.883112 0.883112 0.883112
0.901479 0.901479 0.901479
0.918874 0.918874 0.918874
0.935055 0.935055 0.935055
0.949778 0.949778 0.949778
0.962801 0.962801 0.962801
0.735951 0.735951 0.735951
0.748973 0.748973 0.748973
0.763696 0.763696 0.763696
0.779877 0.779877 0.779877
0.797272 0.797272 0.797272
0.815639 0.815639 0.815639
0.834735 0.834735 0.834735
0.854316 0.854316 0.854316
0.874141 0.874141 0.874141
0.893965 0.893965 0.893965
0.913546 0.913546 0.913546
0.932642 0.932642 0.932642
0.951009 0.951009 0.951009
0.968404 0.968404 0.968404
0.984585 0.984585 0.984585
0.999308 0.999308 0.999308
1.000000 1.000000 1.000000
0.779760 0.779760 0.779760
0.792783 0.792783 0.792783
0.807506 0.807506 0.807506
0.823687 0.823687 0.823687
0.841082 0.841082 0.841082
0.859449 0.859449 0.859449
0.878544 0.878544 0.878544
0.898126 0.898126 0.898126
0.917950 0.917950 0.917950
0.937774 0.937774 0.937774
0.957356 0.957356 0.957356
0.976451 0.976451 0.976451
0.994818 0.994818 0.994818
1.000000 1.000000 1.000000
1.000000 1.000000 1.000000
1.000000 1.000000 1.000000
1.000000 1.000000 1.000000
0.000000 0.000000 0.000000
0.000000 0.000000 0.000000
0.000000 0.000000 0.000000
0.000000 0.000000 0.000000
0.000000 0.000000 0.000000
0.000000 0.000000 0.000000
0.000000 0.000000 0.000000
0.000000 0.000000 0.000000
0.000000 0.000000 0.000000
0.012437 0.012437 0.012437
0.032018 0.032018 0.032018
0.051114 0.051114 0.051114
0.069481 0.069481 0.069481
0.086876 0.086876 0.086876
0.103057 0.103057 0.103057
0.117780 0.117780 0.117780
0.130803 0.130803 0.130803
0.000000 0.000000 0.000000
0.000000 0.000000 0.000000
0.000000 0.000000 0.000000
0.000000 0.000000 0.000000
0.000000 0.000000 0.000000
0.000000 0.000000 0.000000
0.000000 0.000000 0.000000
0.016598 0.016598 0.016598
0.036422 0.036422 0.036422
0.056246 0.056246 0.056246
0.075828 0.075828 0.075828
0.094923 0.094923 0.094923
0.113290 0.113290 0.113290
0.130685 0.130685 0.130685
0.146866 0.146866 0.146866
0.161589 0.161589 0.161589
0.174612 0.174612 0.174612
0.000000 0.000000 0.000000
0.000000 0.000000 0.000000
0.000000 0.000000 0.000000
0.000000 0.000000 0.000000
0.009084 0.009084 0.009084
0.027450 0.027450 0.027450
0.046546 0.046546 0.046546
0.066127 0.066127 0.066127
0.085952 0.085952 0.085952
0.105776 0.105776 0.105776
0.125358 0.125358 0.125358
0.144453 0.144453 0.144453
0.162820 0.162820 0.162820
0.180215 0.180215 0.180215
0.196396 0.196396 0.196396
0.211119 0.211119 0.211119
0.224142 0.224142 0.224142
0.002195 0.002195 0.002195
0.015217 0.015217 0.015217
0.029940 0.029940 0.029940
0.046121 0.046121 0.046121
0.063516 0.063516 0.063516
0.081883 0.081883 0.081883
0.100979 0.100979 0.100979
0.120560 0.120560 0.120560
0.140385 0.140385 0.140385
0.160209 0.160209 0.160209
0.179790 0.179790 0.179790
0.198886 0.198886 0.198886
0.217253 0.217253 0.217253
0.234648 0.234648 0.234648
0.250829 0.250829 0.250829
0.265552 0.265552 0.265552
0.278575 0.278575 0.278575
0.060713 0.060713 0.060713
0.073736 0.073736 0.073736
0.088459 0.088459 0.088459
0.104640 0.104640 0.104640
0.122035 0.122035 0.122035
0.140402 0.140402 0.140402
0.159497 0.159497 0.159497
0.179079 0.179079 0.179079
0.198903 0.198903 0.198903
0.218727 0.218727 0.218727
0.238309 0.238309 0.238309
0.257404 0.257404 0.257404
0.275771 0.275771 0.275771
0.293166 0.293166 0.293166
0.309347 0.309347 0.309347
0.324070 0.324070 0.324070
0.337093 0.337093 0.337093
0.122500 0.122500 0.122500
0.135523 0.135523 0.135523
0.150246 0.150246 0.150246
0.166427 0.166427 0.166427
0.183822 0.183822 0.183822
0.202189 0.202189 0.202189
0.221285 0.221285 0.221285
0.240866 0.240866 0.240866
0.260690 0.260690 0.260690
0.280515 0.280515 0.280515
0.300096 0.300096 0.300096
0.319192 0.319192 0.319192
0.337559 0.337559 0.337559
0.354954 0.354954 0.354954
0.371134 0.371134 0.371134
0.385858 0.385858 0.385858
0.398880 0.398880 0.398880
0.186739 0.186739 0.186739
0.199762 0.199762 0.199762
0.214485 0.214485 0.214485
0.230666 0.230666 0.230666
0.248061 0.248061 0.248061
0.266428 0.266428 0.266428
0.285523 0.285523 0.285523
0.305105 0.305105 0.305105
0.324929 0.324929 0.324929
0.344753 0.344753 0.344753
0.364335 0.364335 0.364335
0.383430 0.383430 0.383430
0.401797 0.401797 0.401797
0.419193 0.419193 0.419193
0.435373 0.435373 0.435373
0.450096 0.450096 0.450096
0.463119 0.463119 0.463119
0.252612 0.252612 0.252612
0.265635 0.265635 0.265635
0.280358 0.280358 0.280358
0.296539 0.296539 0.296539
0.313934 0.313934 0.313934
0.332301 0.332301 0.332301
0.351397 0.351397 0.351397
0.370978 0.370978 0.370978
0.390802 0.390802 0.390802
0.410627 0.410627 0.410627
0.430208 0.430208 0.430208
0.449304 0.449304 0.449304
0.467670 0.467670 0.467670
0.485066 0.485066 0.485066
0.501246 0.501246 0.501246
0.515970 0.515970 0.515970
0.528992 0.528992 0.528992
0.319303 0.319303 0.319303
0.332325 0.332325 0.332325
0.347049 0.347049 0.347049
0.363229 0.363229 0.363229
0.380624 0.380624 0.380624
0.398991 0.398991 0.398991
0.418087 0.418087 0.418087
0.437668 0.437668 0.437668
0.457493 0.457493 0.457493
0.477317 0.477317 0.477317
0.496898 0.496898 0.496898
0.515994 0.515994 0.515994
0.534361 0.534361 0.534361
0.551756 0.551756 0.551756
0.567937 0.567937 0.567937
0.582660 0.582660 0.582660
0.595683 0.595683 0.595683
0.385993 0.385993 0.385993
0.399016 0.399016 0.399016
0.413739 0.413739 0.413739
0.429920 0.429920 0.429920
0.447315 0.447315 0.447315
0.465682 0.465682 0.465682
0.484777 0.484777 0.484777
0.504359 0.504359 0.504359
0.524183 0.524183 0.524183
0.544007 0.544007 0.544007
0.563589 0.563589 0.563589
0.582684 0.582684 0.582684
0.601051 0.601051 0.601051
0.618446 0.618446 0.618446
0.634627 0.634627 0.634627
0.649350 0.649350 0.649350
0.662373 0.662373 0.662373
0.451866 0.451866 0.451866
0.464889 0.464889 0.464889
0.479612 0.479612 0.479612
0.495793 0.495793 0.495793
0.513188 0.513188 0.513188
0.531555 0.531555 0.531555
0.550650 0.550650 0.550650
0.570232 0.570232 0.570232
0.590056 0.590056 0.590056
0.609880 0.609880 0.609880
0.629462 0.629462 0.629462
0.648557 0.648557 0.648557
0.666924 0.666924 0.666924
0.684319 0.684319 0.684319
0.700500 0.700500 0.700500
0.715223 0.715223 0.715223
0.728246 0.728246 0.728246
0.516105 0.516105 0.516105
0.529128 0.529128 0.529128
0.543851 0.543851 0.543851
0.560031 0.560031 0.560031
0.577427 0.577427 0.577427
0.595793 0.595793 0.595793
0.614889 0.614889 0.614889
0.634471 0.634471 0.634471
0.654295 0.654295 0.654295
0.674119 0.674119 0.674119
0.693701 0.693701 0.693701
0.712796 0.712796 0.712796
0.731163 0.731163 0.731163
0.748558 0.748558 0.748558
0.764739 0.764739 0.764739
0.779462 0.779462 0.779462
0.792485 0.792485 0.792485
0.577892 0.577892 0.577892
0.590915 0.590915 0.590915
0.605638 0.605638 0.605638
0.621819 0.621819 0.621819
0.639214 0.639214 0.639214
0.657581 0.657581 0.657581
0.676676 0.676676 0.676676
0.696258 0.696258 0.696258
0.716082 0.716082 0.716082
0.735906 0.735906 0.735906
0.755488 0.755488 0.755488
0.774583 0.774583 0.774583
0.792950 0.792950 0.792950
0.810345 0.810345 0.810345
0.826526 0.826526 0.826526
0.841249 0.841249 0.841249
0.854272 0.854272 0.854272
0.636411 0.636411 0.636411
0.649433 0.649433 0.649433
0.664157 0.664157 0.664157
0.680337 0.680337 0.680337
0.697733 0.697733 0.697733
0.716099 0.716099 0.716099
0.735195 0.735195 0.735195
0.754776 0.754776 0.754776
0.774601 0.774601 0.774601
0.794425 0.794425 0.794425
0.814006 0.814006 0.814006
0.833102 0.833102 0.833102
0.851469 0.851469 0.851469
0.868864 0.868864 0.868864
0.885045 0.885045 0.885045
0.899768 0.899768 0.899768
0.912791 0.912791 0.912791
0.690843 0.690843 0.690843
0.703866 0.703866 0.703866
0.718589 0.718589 0.718589
0.734770 0.734770 0.734770
0.752165 0.752165 0.752165
0.770532 0.770532 0.770532
0.789628 0.789628 0.789628
0.809209 0.809209 0.809209
0.829033 0.829033 0.829033
0.848858 0.848858 0.848858
0.868439 0.868439 0.868439
0.887535 0.887535 0.887535
0.905902 0.905902 0.905902
0.923297 0.923297 0.923297
0.939477 0.939477 0.939477
0.954201 0.954201 0.954201
0.967223 0.967223 0.967223
0.740373 0.740373 0.740373
0.753396 0.753396 0.753396
0.768119 0.768119 0.768119
0.784300 0.784300 0.784300
0.801695 0.801695 0.801695
0.820062 0.820062 0.820062
0.839157 0.839157 0.839157
0.858739 0.858739 0.858739
0.878563 0.878563 0.878563
0.898387 0.898387 0.898387
0.917969 0.917969 0.917969
0.937064 0.937064 0.937064
0.955431 0.955431 0.955431
0.972827 0.972827 0.972827
0.989007 0.989007 0.989007
1.000000 1.000000 1.000000
1.000000 1.000000 1.000000
0.784183 0.784183 0.784183
0.797205 0.797205 0.797205
0.811929 0.811929 0.811929
0.828109 0.828109 0.828109
0.845504 0.845504 0.845504
0.863871 0.863871 0.863871
0.882967 0.882967 0.882967
0.902548 0.902548 0.902548
0.922373 0.922373 0.922373
0.942197 0.942197 0.942197
0.961778 0.961778 0.961778
0.980874 0.980874 0.980874
0.999241 0.999241 0.999241
1.000000 1.000000 1.000000
1.000000 1.000000 1.000000
1.000000 1.000000 1.000000
1.000000 1.000000 1.000000
0.000000 0.000000 0.000000
0.000000 0.000000 0.000000
0.000000 0.000000 0.000000
0.000000 0.000000 0.000000
0.000000 0.000000 0.000000
0.000000 0.000000 0.000000
0.000000 0.000000 0.000000
0.000000 0.000000 0.000000
0.000000 0.000000 0.000000
0.017437 0.017437 0.017437
0.037018 0.037018 0.037018
0.056114 0.056114 0.056114
0.074481 0.074481 0.074481
0.091876 0.091876 0.091876
0.108057 0.108057 0.108057
0.122780 0.122780 0.122780
0.135803 0.135803 0.135803
0.000000 0.000000 0.000000
0.000000 0.000000 0.000000
0.000000 0.000000 0.000000
0.000000 0.000000 0.000000
0.000000 0.000000 0.000000
0.000000 0.000000 0.000000
0.002016 0.002016 0.002016
0.021598 0.021598 0.021598
0.041422 0.041422 0.041422
0.061246 0.061246 0.061246
0.080828 0.080828 0.080828
0.099923 0.099923 0.099923
0.118290 0.118290 0.118290
0.135686 0.135686 0.135686
0.151866 0.151866 0.151866
0.166589 0.166589 0.166589
0.179612 0.179612 0.179612
0.000000 0.000000 0.000000
0.000000 0.000000 0.000000
0.000000 0.000000 0.000000
0.000000 0.000000 0.000000
0.014084 0.014084 0.014084
0.032451 0.032451 0.032451
0.051546 0.051546 0.051546
0.071128 0.071128 0.071128
0.090952 0.090952 0.090952
0.110776 0.110776 0.110776
0.130358 0.130358 0.130358
0.149453 0.149453 0.149453
0.167820 0.167820 0.167820
0.185215 0.185215 0.185215
0.201396 0.201396 0.201396
0.216119 0.216119 0.216119
0.229142 0.229142 0.229142
0.007195 0.007195 0.007195
0.020217 0.020217 0.020217
0.034941 0.034941 0.034941
0.051121 0.051121 0.051121
0.068516 0.068516 0.068516
0.086883 0.086883 0.086883
0.105979 0.105979 0.105979
0.125560 0.125560 0.125560
0.145385 0.145385 0.145385
0.165209 0.165209 0.165209
0.184790 0.184790 0.184790
0.203886 0.203886 0.203886
0.222253 0.222253 0.222253
0.239648 0.239648 0.239648
0.255829 0.255829 0.255829
0.270552 0.270552 0.270552
0.283575 0.283575 0.283575
0.065713 0.065713 0.065713
0.078736 0.078736 0.078736
0.093459 0.093459 0.093459
0.109640 0.109640 0.109640
0.127035 0.127035 0.127035
0.145402 0.145402 0.145402
0.164497 0.164497 0.164497
0.184079 0.184079 0.184079
0.203903 0.203903 0.203903
0.223727 0.223727 0.223727
0.243309 0.243309 0.243309
0.262404 0.262404 0.262404
0.280771 0.280771 0.280771
0.298167 0.298167 0.298167
0.314347 0.314347 0.314347
0.329070 0.329070 0.329070
0.342093 0.342093 0.342093
0.127500 0.127500 0.127500
0.140523 0.140523 0.140523
0.155246 0.155246 0.155246
0.171427 0.171427 0.171427
0.188822 0.188822 0.188822
0.207189 0.207189 0.207189
0.226285 0.226285 0.226285
0.245866 0.245866 0.245866
0.265690 0.265690 0.265690
0.285515 0.285515 0.285515
0.305096 0.305096 0.305096
0.324192 0.324192 0.324192
0.342559 0.342559 0.342559
0.359954 0.359954 0.359954
0.376134 0.376134 0.376134
0.390858 0.390858 0.390858
0.403880 0.403880 0.403880
0.191739 0.191739 0.191739
0.204762 0.204762 0.204762
0.219485 0.219485 0.219485
0.235666 0.235666 0.235666
0.253061 0.253061 0.253061
0.271428 0.271428 0.271428
0.290523 0.290523 0.290523
0.310105 0.310105 0.310105
0.329929 0.329929 0.329929
0.349754 0.349754 0.349754
0.369335 0.369335 0.369335
0.388431 0.388431 0.388431
0.406797 0.406797 0.406797
0.424193 0.424193 0.424193
0.440373 0.440373 0.440373
0.455096 0.455096 0.455096
0.468119 0.468119 0.468119
0.257612 0.257612 0.257612
0.270635 0.270635 0.270635
0.285358 0.285358 0.285358
0.301539 0.301539 0.301539
0.318934 0.318934 0.318934
0.337301 0.337301 0.337301
0.356397 0.356397 0.356397
0.375978 0.375978 0.375978
0.395802 0.395802 0.395802
0.415627 0.415627 0.415627
0.435208 0.435208 0.435208
0.454304 0.454304 0.454304
0.472671 0.472671 0.472671
0.490066 0.490066 0.490066
0.506246 0.506246 0.506246
0.520970 0.520970 0.520970
0.533992 0.533992 0.533992
0.324303 0.324303 0.324303
0.337325 0.337325 0.337325
0.352049 0.352049 0.352049
0.368229 0.368229 0.368229
0.385624 0.385624 0.385624
0.403991 0.403991 0.403991
0.423087 0.423087 0.423087
0.442668 0.442668 0.442668
0.462493 0.462493 0.462493
0.482317 0.482317 0.482317
0.501898 0.501898 0.501898
0.520994 0.520994 0.520994
0.539361 0.539361 0.539361
0.556756 0.556756 0.556756
0.572937 0.572937 0.572937
0.587660 0.587660 0.587660
0.600683 0.600683 0.600683
0.390993 0.390993 0.390993
0.404016 0.404016 0.404016
0.418739 0.418739 0.418739
0.434920 0.434920 0.434920
0.452315 0.452315 0.452315
0.470682 0.470682 0.470682
0.489777 0.489777 0.489777
0.509359 0.509359 0.509359
0.529183 0.529183 0.529183
0.549007 0.549007 0.549007
0.568589 0.568589 0.568589
0.587684 0.587684 0.587684
0.606051 0.606051 0.606051
0.623446 0.623446 0.623446
0.639627 0.639627 0.639627
0.654350 0.654350 0.654350
0.667373 0.667373 0.667373
0.456866 0.456866 0.456866
0.469889 0.469889 0.469889
0.484612 0.484612 0.484612
0.500793 0.500793 0.500793
0.518188 0.518188 0.518188
0.536555 0.536555 0.536555
0.555650 0.555650 0.555650
0.575232 0.575232 0.575232
0.595056 0.595056 0.595056
0.614880 0.614880 0.614880
0.634462 0.634462 0.634462
0.653557 0.653557 0.653557
0.671924 0.671924 0.671924
0.689319 0.689319 0.689319
0.705500 0.705500 0.705500
0.720223 0.720223 0.720223
0.733246 0.733246 0.733246
0.521105 0.521105 0.521105
0.534128 0.534128 0.534128
0.548851 0.548851 0.548851
0.565031 0.565031 0.565031
0.582427 0.582427 0.582427
0.600794 0.600794 0.600794
0.619889 0.619889 0.619889
0.639471 0.639471 0.639471
0.659295 0.659295 0.659295
0.679119 0.679119 0.679119
0.698701 0.698701 0.698701
0.717796 0.717796 0.717796
0.736163 0.736163 0.736163
0.753558 0.753558 0.753558
0.769739 0.769739 0.769739
0.784462 0.784462 0.784462
0.797485 0.797485 0.797485
0.582892 0.582892 0.582892
0.595915 0.595915 0.595915
0.610638 0.610638 0.610638
0.626819 0.626819 0.626819
0.644214 0.644214 0.644214
0.662581 0.662581 0.662581
0.681676 0.681676 0.681676
0.701258 0.701258 0.701258
0.721082 0.721082 0.721082
0.740906 0.740906 0.740906
0.760488 0.760488 0.760488
0.779583 0.779583 0.779583
0.797950 0.797950 0.797950
0.815346 0.815346 0.815346
0.831526 0.831526 0.831526
0.846249 0.846249 0.846249
0.859272 0.859272 0.859272
0.641411 0.641411 0.641411
0.654434 0.654434 0.654434
0.669157 0.669157 0.669157
0.685337 0.685337 0.685337
0.702733 0.702733 0.702733
0.721099 0.721099 0.721099
0.740195 0.740195 0.740195
0.759776 0.759776 0.759776
0.779601 0.779601 0.779601
0.799425 0.799425 0.799425
0.819006 0.819006 0.819006
0.838102 0.838102 0.838102
0.856469 0.856469 0.856469
0.873864 0.873864 0.873864
0.890045 0.890045 0.890045
0.904768 0.904768 0.904768
0.917791 0.917791 0.917791
0.695843 0.695843 0.695843
0.708866 0.708866 0.708866
0.723589 0.723589 0.723589
0.739770 0.739770 0.739770
0.757165 0.757165 0.757165
0.775532 0.775532 0.775532
0.794628 0.794628 0.794628
0.814209 0.814209 0.814209
0.834033 0.834033 0.834033
0.853858 0.853858 0.853858
0.873439 0.873439 0.873439
0.892535 0.892535 0.892535
0.910902 0.910902 0.910902
0.928297 0.928297 0.928297
0.944478 0.944478 0.944478
0.959201 0.959201 0.959201
0.972223 0.972223 0.972223
0.745373 0.745373 0.745373
0.758396 0.758396 0.758396
0.773119 0.773119 0.773119
0.789300 0.789300 0.789300
0.806695 0.806695 0.806695
0.825062 0.825062 0.825062
0.844157 0.844157 0.844157
0.863739 0.863739 0.863739
0.883563 0.883563 0.883563
0.903387 0.903387 0.903387
0.922969 0.922969 0.922969
0.942065 0.942065 0.942065
0.960431 0.960431 0.960431
0.977827 0.977827 0.977827
0.994007 0.994007 0.994007
1.000000 1.000000 1.000000
1.000000 1.000000 1.000000
0.789183 0.789183 0.789183
0.802205 0.802205 0.802205
0.816929 0.816929 0.816929
0.833109 0.833109 0.833109
0.850504 0.850504 0.850504
0.868871 0.868871 0.868871
0.887967 0.887967 0.887967
0.907548 0.907548 0.907548
0.927373 0.927373 0.927373
0.947197 0.947197 0.947197
0.966778 0.966778 0.966778
0.985874 0.985874 0.985874
1.000000 1.000000 1.000000
1.000000 1.000000 1.000000
1.000000 1.000000 1.000000
1.000000 1.000000 1.000000
1.000000 1.000000 1.000000
0.000000 0.000000 0.000000
0.000000 0.000000 0.000000
0.000000 0.000000 0.000000
0.000000 0.000000 0.000000
0.000000 0.000000 0.000000
0.000000 0.000000 0.000000
0.000000 0.000000 0.000000
0.000000 0.000000 0.000000
0.003108 0.003108 0.003108
0.022932 0.022932 0.022932
0.042513 0.042513 0.042513
0.061609 0.061609 0.061609
0.079976 0.079976 0.079976
0.097371 0.097371 0.097371
0.113552 0.113552 0.113552
