assets/luts/inkwell.cube
# Inkwell — Studio filter "inkwell"
# Generated by scripts/generate-filter-luts.mjs — do not edit by hand.
LUT_3D_SIZE 9
DOMAIN_MIN 0.0 0.0 0.0
DOMAIN_MAX 1.0 1.0 1.0
0.000000 0.000000 0.000000
0.000000 0.000000 0.000000
0.000000 0.000000 0.000000
0.000000 0.000000 0.000000
0.000000 0.000000 0.000000
0.027596 0.027596 0.027596
0.065058 0.065058 0.065058
0.098634 0.098634 0.098634
0.126380 0.126380 0.126380
0.000000 0.000000 0.000000
0.000000 0.000000 0.000000
0.004661 0.004661 0.004661
0.042123 0.042123 0.042123
0.081529 0.081529 0.081529
0.120935 0.120935 0.120935
0.158397 0.158397 0.158397
0.191973 0.191973 0.191973
0.219719 0.219719 0.219719
0.056290 0.056290 0.056290
0.084036 0.084036 0.084036
0.117612 0.117612 0.117612
0.155075 0.155075 0.155075
0.194481 0.194481 0.194481
0.233886 0.233886 0.233886
0.271349 0.271349 0.271349
0.304925 0.304925 0.304925
0.332670 0.332670 0.332670
0.182317 0.182317 0.182317
0.210063 0.210063 0.210063
0.243638 0.243638 0.243638
0.281101 0.281101 0.281101
0.320507 0.320507 0.320507
0.359912 0.359912 0.359912
0.397375 0.397375 0.397375
0.430951 0.430951 0.430951
0.458697 0.458697 0.458697
0.314880 0.314880 0.314880
0.342626 0.342626 0.342626
0.376202 0.376202 0.376202
0.413664 0.413664 0.413664
0.453070 0.453070 0.453070
0.492476 0.492476 0.492476
0.529938 0.529938 0.529938
0.563514 0.563514 0.563514
0.591260 0.591260 0.591260
0.447443 0.447443 0.447443
0.475189 0.475189 0.475189
0.508765 0.508765 0.508765
0.546228 0.546228 0.546228
0.585633 0.585633 0.585633
0.625039 0.625039 0.625039
0.662502 0.662502 0.662502
0.696077 0.696077 0.696077
0.723823 0.723823 0.723823
0.573469 0.573469 0.573469
0.601215 0.601215 0.601215
0.634791 0.634791 0.634791
0.672254 0.672254 0.672254
0.711659 0.711659 0.711659
0.751065 0.751065 0.751065
0.788528 0.788528 0.788528
0.822104 0.822104 0.822104
0.849849 0.849849 0.849849
0.686421 0.686421 0.686421
0.714167 0.714167 0.714167
0.747743 0.747743 0.747743
0.785205 0.785205 0.785205
0.824611 0.824611 0.824611
0.864017 0.864017 0.864017
0.901479 0.901479 0.901479
0.935055 0.935055 0.935055
0.962801 0.962801 0.962801
0.779760 0.779760 0.779760
0.807506 0.807506 0.807506
0.841082 0.841082 0.841082
0.878544 0.878544 0.878544
0.917950 0.917950 0.917950
0.957356 0.957356 0.957356
0.994818 0.994818 0.994818
1.000000 1.000000 1.000000
1.000000 1.000000 1.000000
0.000000 0.000000 0.000000
0.000000 0.000000 0.000000
0.000000 0.000000 0.000000
0.000000 0.000000 0.000000
0.000000 0.000000 0.000000
0.037018 0.037018 0.037018
0.074481 0.074481 0.074481
0.108057 0.108057 0.108057
0.135803 0.135803 0.135803
0.000000 0.000000 0.000000
0.000000 0.000000 0.000000
0.014084 0.014084 0.014084
0.051546 0.051546 0.051546
0.090952 0.090952 0.090952
0.130358 0.130358 0.130358
0.167820 0.167820 0.167820
0.201396 0.201396 0.201396
0.229142 0.229142 0.229142
0.065713 0.065713 0.065713
0.093459 0.093459 0.093459
0.127035 0.127035 0.127035
0.164497 0.164497 0.164497
0.203903 0.203903 0.203903
0.243309 0.243309 0.243309
0.280771 0.280771 0.280771
0.314347 0.314347 0.314347
0.342093 0.342093 0.342093
0.191739 0.191739 0.191739
0.219485 0.219485 0.219485
0.253061 0.253061 0.253061
0.290523 0.290523 0.290523
0.329929 0.329929 0.329929
0.369335 0.369335 0.369335
0.406797 0.406797 0.406797
0.440373 0.440373 0.440373
0.468119 0.468119 0.468119
0.324303 0.324303 0.324303
0.352049 0.352049 0.352049
0.385624 0.385624 0.385624
0.423087 0.423087 0.423087
0.462493 0.462493 0.462493
0.501898 0.501898 0.501898
0.539361 0.539361 0.539361
0.572937 0.572937 0.572937
0.600683 0.600683 0.600683
0.456866 0.456866 0.456866
0.484612 0.484612 0.484612
0.518188 0.518188 0.518188
0.555650 0.555650 0.555650
0.595056 0.595056 0.595056
0.634462 0.634462 0.634462
0.671924 0.671924 0.671924
0.705500 0.705500 0.705500
0.733246 0.733246 0.733246
0.582892 0.582892 0.582892
0.610638 0.610638 0.610638
0.644214 0.644214 0.644214
0.681676 0.681676 0.681676
0.721082 0.721082 0.721082
0.760488 0.760488 0.760488
0.797950 0.797950 0.797950
0.831526 0.831526 0.831526
0.859272 0.859272 0.859272
0.695843 0.695843 0.695843
0.723589 0.723589 0.723589
0.757165 0.757165 0.757165
0.794628 0.794628 0.794628
0.834033 0.834033 0.834033
0.873439 0.873439 0.873439
0.910902 0.910902 0.910902
0.944478 0.944478 0.944478
0.972223 0.972223 0.972223
0.789183 0.789183 0.789183
0.816929 0.816929 0.816929
0.850504 0.850504 0.850504
0.887967 0.887967 0.887967
0.927373 0.927373 0.927373
0.966778 0.966778 0.966778
1.000000 1.000000 1.000000
1.000000 1.000000 1.000000
1.000000 1.000000 1.000000
0.000000 0.000000 0.000000
0.000000 0.000000 0.000000
0.000000 0.000000 0.000000
0.000000 0.000000 0.000000
0.009015 0.009015 0.009015
0.048421 0.048421 0.048421
0.085883 0.085883 0.085883
0.119459 0.119459 0.119459
0.147205 0.147205 0.147205
0.000000 0.000000 0.000000
0.000000 0.000000 0.000000
0.025486 0.025486 0.025486
0.062949 0.062949 0.062949
0.102354 0.102354 0.102354
0.141760 0.141760 0.141760
0.179223 0.179223 0.179223
0.212798 0.212798 0.212798
0.240544 0.240544 0.240544
0.077116 0.077116 0.077116
0.104862 0.104862 0.104862
0.138437 0.138437 0.138437
0.175900 0.175900 0.175900
0.215306 0.215306 0.215306
0.254711 0.254711 0.254711
0.292174 0.292174 0.292174
0.325750 0.325750 0.325750
0.353496 0.353496 0.353496
0.203142 0.203142 0.203142
0.230888 0.230888 0.230888
0.264464 0.264464 0.264464
0.301926 0.301926 0.301926
0.341332 0.341332 0.341332
0.380737 0.380737 0.380737
0.418200 0.418200 0.418200
0.451776 0.451776 0.451776
0.479522 0.479522 0.479522
0.335705 0.335705 0.335705
0.363451 0.363451 0.363451
0.397027 0.397027 0.397027
0.434489 0.434489 0.434489
0.473895 0.473895 0.473895
0.513301 0.513301 0.513301
0.550763 0.550763 0.550763
0.584339 0.584339 0.584339
0.612085 0.612085 0.612085
0.468269 0.468269 0.468269
0.496015 0.496015 0.496015
0.529590 0.529590 0.529590
0.567053 0.567053 0.567053
0.606459 0.606459 0.606459
0.645864 0.645864 0.645864
0.683327 0.683327 0.683327
0.716903 0.716903 0.716903
0.744649 0.744649 0.744649
0.594295 0.594295 0.594295
0.622041 0.622041 0.622041
0.655616 0.655616 0.655616
0.693079 0.693079 0.693079
0.732485 0.732485 0.732485
0.771890 0.771890 0.771890
0.809353 0.809353 0.809353
0.842929 0.842929 0.842929
0.870675 0.870675 0.870675
0.707246 0.707246 0.707246
0.734992 0.734992 0.734992
0.768568 0.768568 0.768568
0.806030 0.806030 0.806030
0.845436 0.845436 0.845436
0.884842 0.884842 0.884842
0.922304 0.922304 0.922304
0.955880 0.955880 0.955880
0.983626 0.983626 0.983626
0.800585 0.800585 0.800585
0.828331 0.828331 0.828331
0.861907 0.861907 0.861907
0.899369 0.899369 0.899369
0.938775 0.938775 0.938775
0.978181 0.978181 0.978181
1.000000 1.000000 1.000000
1.000000 1.000000 1.000000
1.000000 1.000000 1.000000
0.000000 0.000000 0.000000
0.000000 0.000000 0.000000
0.000000 0.000000 0.000000
0.000000 0.000000 0.000000
0.021738 0.021738 0.021738
0.061143 0.061143 0.061143
0.098606 0.098606 0.098606
0.132182 0.132182 0.132182
0.159928 0.159928 0.159928
0.000000 0.000000 0.000000
0.004633 0.004633 0.004633
0.038209 0.038209 0.038209
0.075671 0.075671 0.075671
0.115077 0.115077 0.115077
0.154483 0.154483 0.154483
0.191945 0.191945 0.191945
0.225521 0.225521 0.225521
0.253267 0.253267 0.253267
0.089838 0.089838 0.089838
0.117584 0.117584 0.117584
0.151160 0.151160 0.151160
0.188622 0.188622 0.188622
0.228028 0.228028 0.228028
0.267434 0.267434 0.267434
0.304896 0.304896 0.304896
0.338472 0.338472 0.338472
0.366218 0.366218 0.366218
0.215864 0.215864 0.215864
0.243610 0.243610 0.243610
0.277186 0.277186 0.277186
0.314648 0.314648 0.314648
0.354054 0.354054 0.354054
0.393460 0.393460 0.393460
0.430922 0.430922 0.430922
0.464498 0.464498 0.464498
0.492244 0.492244 0.492244
0.348428 0.348428 0.348428
0.376174 0.376174 0.376174
0.409749 0.409749 0.409749
0.447212 0.447212 0.447212
0.486618 0.486618 0.486618
0.526023 0.526023 0.526023
0.563486 0.563486 0.563486
0.597062 0.597062 0.597062
0.624808 0.624808 0.624808
0.480991 0.480991 0.480991
0.508737 0.508737 0.508737
0.542313 0.542313 0.542313
0.579775 0.579775 0.579775
0.619181 0.619181 0.619181
0.658587 0.658587 0.658587
0.696049 0.696049 0.696049
0.729625 0.729625 0.729625
0.757371 0.757371 0.757371
0.607017 0.607017 0.607017
0.634763 0.634763 0.634763
0.668339 0.668339 0.668339
0.705801 0.705801 0.705801
0.745207 0.745207 0.745207
0.784613 0.784613 0.784613
0.822075 0.822075 0.822075
0.855651 0.855651 0.855651
0.883397 0.883397 0.883397
0.719968 0.719968 0.719968
0.747714 0.747714 0.747714
0.781290 0.781290 0.781290
0.818753 0.818753 0.818753
0.858158 0.858158 0.858158
0.897564 0.897564 0.897564
0.935027 0.935027 0.935027
0.968602 0.968602 0.968602
0.996348 0.996348 0.996348
0.813308 0.813308 0.813308
0.841054 0.841054 0.841054
0.874629 0.874629 0.874629
0.912092 0.912092 0.912092
0.951498 0.951498 0.951498
0.990903 0.990903 0.990903
1.000000 1.000000 1.000000
1.000000 1.000000 1.000000
1.000000 1.000000 1.000000
0.000000 0.000000 0.000000
0.000000 0.000000 0.000000
0.000000 0.000000 0.000000
0.000000 0.000000 0.000000
0.035120 0.035120 0.035120
0.074526 0.074526 0.074526
0.111988 0.111988 0.111988
0.145564 0.145564 0.145564
0.173310 0.173310 0.173310
0.000000 0.000000 0.000000
0.018015 0.018015 0.018015
0.051591 0.051591 0.051591
0.089053 0.089053 0.089053
0.128459 0.128459 0.128459
0.167865 0.167865 0.167865
0.205327 0.205327 0.205327
0.238903 0.238903 0.238903
0.266649 0.266649 0.266649
0.103220 0.103220 0.103220
0.130966 0.130966 0.130966
0.164542 0.164542 0.164542
0.202005 0.202005 0.202005
0.241411 0.241411 0.241411
0.280816 0.280816 0.280816
0.318279 0.318279 0.318279
0.351855 0.351855 0.351855
0.379601 0.379601 0.379601
0.229247 0.229247 0.229247
0.256993 0.256993 0.256993
0.290568 0.290568 0.290568
0.328031 0.328031 0.328031
0.367437 0.367437 0.367437
0.406842 0.406842 0.406842
0.444305 0.444305 0.444305
0.477881 0.477881 0.477881
0.505627 0.505627 0.505627
0.361810 0.361810 0.361810
0.389556 0.389556 0.389556
0.423132 0.423132 0.423132
0.460594 0.460594 0.460594
0.500000 0.500000 0.500000
0.539406 0.539406 0.539406
0.576868 0.576868 0.576868
0.610444 0.610444 0.610444
0.638190 0.638190 0.638190
0.494373 0.494373 0.494373
0.522119 0.522119 0.522119
0.555695 0.555695 0.555695
0.593158 0.593158 0.593158
0.632563 0.632563 0.632563
0.671969 0.671969 0.671969
0.709432 0.709432 0.709432
0.743007 0.743007 0.743007
0.770753 0.770753 0.770753
0.620399 0.620399 0.620399
0.648145 0.648145 0.648145
0.681721 0.681721 0.681721
0.719184 0.719184 0.719184
0.758590 0.758590 0.758590
0.797995 0.797995 0.797995
0.835458 0.835458 0.835458
0.869034 0.869034 0.869034
0.896780 0.896780 0.896780
0.733351 0.733351 0.733351
0.761097 0.761097 0.761097
0.794673 0.794673 0.794673
0.832135 0.832135 0.832135
0.871541 0.871541 0.871541
0.910947 0.910947 0.910947
0.948409 0.948409 0.948409
0.981985 0.981985 0.981985
1.000000 1.000000 1.000000
0.826690 0.826690 0.826690
0.854436 0.854436 0.854436
0.888012 0.888012 0.888012
0.925474 0.925474 0.925474
0.964880 0.964880 0.964880
1.000000 1.000000 1.000000
1.000000 1.000000 1.000000
1.000000 1.000000 1.000000
1.000000 1.000000 1.000000
0.000000 0.000000 0.000000
0.000000 0.000000 0.000000
0.000000 0.000000 0.000000
0.009097 0.009097 0.009097
0.048502 0.048502 0.048502
0.087908 0.087908 0.087908
0.125371 0.125371 0.125371
0.158946 0.158946 0.158946
0.186692 0.186692 0.186692
0.003652 0.003652 0.003652
0.031398 0.031398 0.031398
0.064973 0.064973 0.064973
0.102436 0.102436 0.102436
0.141842 0.141842 0.141842
0.181247 0.181247 0.181247
0.218710 0.218710 0.218710
0.252286 0.252286 0.252286
0.280032 0.280032 0.280032
0.116603 0.116603 0.116603
0.144349 0.144349 0.144349
0.177925 0.177925 0.177925
0.215387 0.215387 0.215387
0.254793 0.254793 0.254793
0.294199 0.294199 0.294199
0.331661 0.331661 0.331661
0.365237 0.365237 0.365237
0.392983 0.392983 0.392983
0.242629 0.242629 0.242629
0.270375 0.270375 0.270375
0.303951 0.303951 0.303951
0.341413 0.341413 0.341413
0.380819 0.380819 0.380819
0.420225 0.420225 0.420225
0.457687 0.457687 0.457687
0.491263 0.491263 0.491263
0.519009 0.519009 0.519009
0.375192 0.375192 0.375192
0.402938 0.402938 0.402938
0.436514 0.436514 0.436514
0.473977 0.473977 0.473977
0.513382 0.513382 0.513382
0.552788 0.552788 0.552788
0.590251 0.590251 0.590251
0.623826 0.623826 0.623826
0.651572 0.651572 0.651572
0.507756 0.507756 0.507756
0.535502 0.535502 0.535502
0.569078 0.569078 0.569078
0.606540 0.606540 0.606540
0.645946 0.645946 0.645946
0.685352 0.685352 0.685352
0.722814 0.722814 0.722814
0.756390 0.756390 0.756390
0.784136 0.784136 0.784136
0.633782 0.633782 0.633782
0.661528 0.661528 0.661528
0.695104 0.695104 0.695104
0.732566 0.732566 0.732566
0.771972 0.771972 0.771972
0.811378 0.811378 0.811378
0.848840 0.848840 0.848840
0.882416 0.882416 0.882416
0.910162 0.910162 0.910162
0.746733 0.746733 0.746733
0.774479 0.774479 0.774479
0.808055 0.808055 0.808055
0.845517 0.845517 0.845517
0.884923 0.884923 0.884923
0.924329 0.924329 0.924329
0.961791 0.961791 0.961791
0.995367 0.995367 0.995367
1.000000 1.000000 1.000000
0.840072 0.840072 0.840072
0.867818 0.867818 0.867818
0.901394 0.901394 0.901394
0.938857 0.938857 0.938857
0.978262 0.978262 0.978262
1.000000 1.000000 1.000000
1.000000 1.000000 1.000000
1.000000 1.000000 1.000000
1.000000 1.000000 1.000000
0.000000 0.000000 0.000000
0.000000 0.000000 0.000000
0.000000 0.000000 0.000000
0.021819 0.021819 0.021819
0.061225 0.061225 0.061225
0.100631 0.100631 0.100631
0.138093 0.138093 0.138093
0.171669 0.171669 0.171669
0.199415 0.199415 0.199415
0.016374 0.016374 0.016374
0.044120 0.044120 0.044120
0.077696 0.077696 0.077696
0.115158 0.115158 0.115158
0.154564 0.154564 0.154564
0.193970 0.193970 0.193970
0.231432 0.231432 0.231432
0.265008 0.265008 0.265008
0.292754 0.292754 0.292754
0.129325 0.129325 0.129325
0.157071 0.157071 0.157071
0.190647 0.190647 0.190647
0.228110 0.228110 0.228110
0.267515 0.267515 0.267515
0.306921 0.306921 0.306921
0.344383 0.344383 0.344383
0.377959 0.377959 0.377959
0.405705 0.405705 0.405705
0.255351 0.255351 0.255351
0.283097 0.283097 0.283097
0.316673 0.316673 0.316673
0.354136 0.354136 0.354136
0.393541 0.393541 0.393541
0.432947 0.432947 0.432947
0.470410 0.470410 0.470410
0.503985 0.503985 0.503985
0.531731 0.531731 0.531731
0.387915 0.387915 0.387915
0.415661 0.415661 0.415661
0.449237 0.449237 0.449237
0.486699 0.486699 0.486699
0.526105 0.526105 0.526105
0.565511 0.565511 0.565511
0.602973 0.602973 0.602973
0.636549 0.636549 0.636549
0.664295 0.664295 0.664295
0.520478 0.520478 0.520478
0.548224 0.548224 0.548224
0.581800 0.581800 0.581800
0.619263 0.619263 0.619263
0.658668 0.658668 0.658668
0.698074 0.698074 0.698074
0.735536 0.735536 0.735536
0.769112 0.769112 0.769112
0.796858 0.796858 0.796858
0.646504 0.646504 0.646504
0.674250 0.674250 0.674250
0.707826 0.707826 0.707826
0.745289 0.745289 0.745289
0.784694 0.784694 0.784694
0.824100 0.824100 0.824100
0.861563 0.861563 0.861563
0.895138 0.895138 0.895138
0.922884 0.922884 0.922884
0.759456 0.759456 0.759456
0.787202 0.787202 0.787202
0.820777 0.820777 0.820777
0.858240 0.858240 0.858240
0.897646 0.897646 0.897646
0.937051 0.937051 0.937051
0.974514 0.974514 0.974514
1.000000 1.000000 1.000000
1.000000 1.000000 1.000000
0.852795 0.852795 0.852795
0.880541 0.880541 0.880541
0.914117 0.914117 0.914117
0.951579 0.951579 0.951579
0.990985 0.990985 0.990985
1.000000 1.000000 1.000000
1.000000 1.000000 1.000000
1.000000 1.000000 1.000000
1.000000 1.000000 1.000000
0.000000 0.000000 0.000000
0.000000 0.000000 0.000000
0.000000 0.000000 0.000000
0.033222 0.033222 0.033222
0.072627 0.072627 0.072627
0.112033 0.112033 0.112033
0.149496 0.149496 0.149496
0.183071 0.183071 0.183071
0.210817 0.210817 0.210817
0.027777 0.027777 0.027777
0.055522 0.055522 0.055522
0.089098 0.089098 0.089098
0.126561 0.126561 0.126561
0.165967 0.165967 0.165967
0.205372 0.205372 0.205372
0.242835 0.242835 0.242835
0.276411 0.276411 0.276411
0.304157 0.304157 0.304157
0.140728 0.140728 0.140728
0.168474 0.168474 0.168474
0.202050 0.202050 0.202050
0.239512 0.239512 0.239512
0.278918 0.278918 0.278918
0.318324 0.318324 0.318324
0.355786 0.355786 0.355786
0.389362 0.389362 0.389362
0.417108 0.417108 0.417108
0.266754 0.266754 0.266754
0.294500 0.294500 0.294500
0.328076 0.328076 0.328076
0.365538 0.365538 0.365538
0.404944 0.404944 0.404944
0.444350 0.444350 0.444350
0.481812 0.481812 0.481812
0.515388 0.515388 0.515388
0.543134 0.543134 0.543134
0.399317 0.399317 0.399317
0.427063 0.427063 0.427063
0.460639 0.460639 0.460639
0.498102 0.498102 0.498102
0.537507 0.537507 0.537507
0.576913 0.576913 0.576913
0.614376 0.614376 0.614376
0.647951 0.647951 0.647951
0.675697 0.675697 0.675697
0.531881 0.531881 0.531881
0.559627 0.559627 0.559627
0.593203 0.593203 0.593203
0.630665 0.630665 0.630665
0.670071 0.670071 0.670071
0.709477 0.709477 0.709477
0.746939 0.746939 0.746939
0.780515 0.780515 0.780515
0.808261 0.808261 0.808261
0.657907 0.657907 0.657907
0.685653 0.685653 0.685653
0.719229 0.719229 0.719229
0.756691 0.756691 0.756691
0.796097 0.796097 0.796097
0.835503 0.835503 0.835503
0.872965 0.872965 0.872965
0.906541 0.906541 0.906541
0.934287 0.934287 0.934287
0.770858 0.770858 0.770858
0.798604 0.798604 0.798604
0.832180 0.832180 0.832180
0.869642 0.869642 0.869642
0.909048 0.909048 0.909048
0.948454 0.948454 0.948454
0.985916 0.985916 0.985916
1.000000 1.000000 1.000000
1.000000 1.000000 1.000000
0.864197 0.864197 0.864197
0.891943 0.891943 0.891943
0.925519 0.925519 0.925519
0.962982 0.962982 0.962982
1.000000 1.000000 1.000000
1.000000 1.000000 1.000000
1.000000 1.000000 1.000000
1.000000 1.000000 1.000000
1.000000 1.000000 1.000000
0.000000 0.000000 0.000000
0.000000 0.000000 0.000000
0.005182 0.005182 0.005182
0.042644 0.042644 0.042644
0.082050 0.082050 0.082050
0.121456 0.121456 0.121456
0.158918 0.158918 0.158918
0.192494 0.192494 0.192494
0.220240 0.220240 0.220240
0.037199 0.037199 0.037199
0.064945 0.064945 0.064945
0.098521 0.098521 0.098521
0.135983 0.135983 0.135983
0.175389 0.175389 0.175389
0.214795 0.214795 0.214795
0.252257 0.252257 0.252257
0.285833 0.285833 0.285833
0.313579 0.313579 0.313579
0.150151 0.150151 0.150151
0.177896 0.177896 0.177896
0.211472 0.211472 0.211472
0.248935 0.248935 0.248935
0.288340 0.288340 0.288340
0.327746 0.327746 0.327746
0.365209 0.365209 0.365209
0.398785 0.398785 0.398785
0.426530 0.426530 0.426530
0.276177 0.276177 0.276177
0.303923 0.303923 0.303923
0.337498 0.337498 0.337498
0.374961 0.374961 0.374961
0.414367 0.414367 0.414367
0.453772 0.453772 0.453772
0.491235 0.491235 0.491235
0.524811 0.524811 0.524811
0.552557 0.552557 0.552557
0.408740 0.408740 0.408740
0.436486 0.436486 0.436486
0.470062 0.470062 0.470062
0.507524 0.507524 0.507524
0.546930 0.546930 0.546930
0.586336 0.586336 0.586336
0.623798 0.623798 0.623798
0.657374 0.657374 0.657374
0.685120 0.685120 0.685120
0.541303 0.541303 0.541303
0.569049 0.569049 0.569049
0.602625 0.602625 0.602625
0.640088 0.640088 0.640088
0.679493 0.679493 0.679493
0.718899 0.718899 0.718899
0.756362 0.756362 0.756362
0.789937 0.789937 0.789937
0.817683 0.817683 0.817683
0.667330 0.667330 0.667330
0.695075 0.695075 0.695075
0.728651 0.728651 0.728651
0.766114 0.766114 0.766114
0.805519 0.805519 0.805519
0.844925 0.844925 0.844925
0.882388 0.882388 0.882388
0.915964 0.915964 0.915964
0.943709 0.943709 0.943709
0.780281 0.780281 0.780281
0.808027 0.808027 0.808027
0.841603 0.841603 0.841603
0.879065 0.879065 0.879065
0.918471 0.918471 0.918471
0.957877 0.957877 0.957877
0.995339 0.995339 0.995339
1.000000 1.000000 1.000000
1.000000 1.000000 1.000000
0.873620 0.873620 0.873620
0.901366 0.901366 0.901366
0.934942 0.934942 0.934942
0.972404 0.972404 0.972404
1.000000 1.000000 1.000000
1.000000 1.000000 1.000000
1.000000 1.000000 1.000000
1.000000 1.000000 1.000000
1.000000 1.000000 1.000000
