assets/luts/inkwell.cube
# Inkwell — Studio filter "inkwell"
# Generated by scripts/generate-filter-luts.mjs — do not edit by hand.
LUT_3D_SIZE 5
DOMAIN_MIN 0.0 0.0 0.0
DOMAIN_MAX 1.0 1.0 1.0
0.000000 0.000000 0.000000
0.000000 0.000000 0.000000
0.000000 0.000000 0.000000
0.065058 0.065058 0.065058
0.126380 0.126380 0.126380
0.056290 0.056290 0.056290
0.117612 0.117612 0.117612
0.194481 0.194481 0.194481
0.271349 0.271349 0.271349
0.332670 0.332670 0.332670
0.314880 0.314880 0.314880
0.376202 0.376202 0.376202
0.453070 0.453070 0.453070
0.529938 0.529938 0.529938
0.591260 0.591260 0.591260
0.573469 0.573469 0.573469
0.634791 0.634791 0.634791
0.711659 0.711659 0.711659
0.788528 0.788528 0.788528
0.849849 0.849849 0.849849
0.779760 0.779760 0.779760
0.841082 0.841082 0.841082
0.917950 0.917950 0.917950
0.994818 0.994818 0.994818
1.000000 1.000000 1.000000
0.000000 0.000000 0.000000
0.000000 0.000000 0.000000
0.009015 0.009015 0.009015
0.085883 0.085883 0.085883
0.147205 0.147205 0.147205
0.077116 0.077116 0.077116
0.138437 0.138437 0.138437
0.215306 0.215306 0.215306
0.292174 0.292174 0.292174
0.353496 0.353496 0.353496
0.335705 0.335705 0.335705
0.397027 0.397027 0.397027
0.473895 0.473895 0.473895
0.550763 0.550763 0.550763
0.612085 0.612085 0.612085
0.594295 0.594295 0.594295
0.655616 0.655616 0.655616
0.732485 0.732485 0.732485
0.809353 0.809353 0.809353
0.870675 0.870675 0.870675
0.800585 0.800585 0.800585
0.861907 0.861907 0.861907
0.938775 0.938775 0.938775
1.000000 1.000000 1.000000
1.000000 1.000000 1.000000
0.000000 0.000000 0.000000
0.000000 0.000000 0.000000
0.035120 0.035120 0.035120
0.111988 0.111988 0.111988
0.173310 0.173310 0.173310
0.103220 0.103220 0.103220
0.164542 0.164542 0.164542
0.241411 0.241411 0.241411
0.318279 0.318279 0.318279
0.379601 0.379601 0.379601
0.361810 0.361810 0.361810
0.423132 0.423132 0.423132
0.500000 0.500000 0.500000
0.576868 0.576868 0.576868
0.638190 0.638190 0.638190
0.620399 0.620399 0.620399
0.681721 0.681721 0.681721
0.758590 0.758590 0.758590
0.835458 0.835458 0.835458
0.896780 0.896780 0.896780
0.826690 0.826690 0.826690
0.888012 0.888012 0.888012
0.964880 0.964880 0.964880
1.000000 1.000000 1.000000
1.000000 1.000000 1.000000
0.000000 0.000000 0.000000
0.000000 0.000000 0.000000
0.061225 0.061225 0.061225
0.138093 0.138093 0.138093
0.199415 0.199415 0.199415
0.129325 0.129325 0.129325
0.190647 0.190647 0.190647
0.267515 0.267515 0.267515
0.344383 0.344383 0.344383
0.405705 0.405705 0.405705
0.387915 0.387915 0.387915
0.449237 0.449237 0.449237
0.526105 0.526105 0.526105
0.602973 0.602973 0.602973
0.664295 0.664295 0.664295
0.646504 0.646504 0.646504
0.707826 0.707826 0.707826
0.784694 0.784694 0.784694
0.861563 0.861563 0.861563
0.922884 0.922884 0.922884
0.852795 0.852795 0.852795
0.914117 0.914117 0.914117
0.990985 0.990985 0.990985
1.000000 1.000000 1.000000
1.000000 1.000000 1.000000
0.000000 0.000000 0.000000
0.005182 0.005182 0.005182
0.082050 0.082050 0.082050
0.158918 0.158918 0.158918
0.220240 0.220240 0.220240
0.150151 0.150151 0.150151
0.211472 0.211472 0.211472
0.288340 0.288340 0.288340
0.365209 0.365209 0.365209
0.426530 0.426530 0.426530
0.408740 0.408740 0.408740
0.470062 0.470062 0.470062
0.546930 0.546930 0.546930
0.623798 0.623798 0.623798
0.685120 0.685120 0.685120
0.667330 0.667330 0.667330
0.728651 0.728651 0.728651
0.805519 0.805519 0.805519
0.882388 0.882388 0.882388
0.943709 0.943709 0.943709
0.873620 0.873620 0.873620
0.934942 0.934942 0.934942
1.000000 1.000000 1.000000
1.000000 1.000000 1.000000
1.000000 1.000000 1.000000
