assets/luts/kodak.cube
# Kodak — Studio filter "kodak"
# Generated by scripts/generate-filter-luts.mjs — do not edit by hand.
LUT_3D_SIZE 5
DOMAIN_MIN 0.0 0.0 0.0
DOMAIN_MAX 1.0 1.0 1.0
0.000000 0.000000 0.042000
0.264480 0.001198 0.038407
0.579985 0.002590 0.034231
0.895489 0.003982 0.030054
1.000000 0.004465 0.028606
0.002578 0.242745 0.031224
0.253725 0.237507 0.028179
0.568939 0.231522 0.024330
0.884152 0.225537 0.020481
1.000000 0.219761 0.019049
0.013710 0.524854 0.018701
0.241517 0.519513 0.015964
0.556730 0.513528 0.012116
0.871944 0.507543 0.008267
1.000000 0.501870 0.006526
0.024842 0.806963 0.006178
0.229309 0.801519 0.003750
0.544522 0.795534 0.000000
0.859735 0.789549 0.000000
1.000000 0.783979 0.000000
0.033051 1.000000 0.000000
0.217686 1.000000 0.000000
0.533190 1.000000 0.000000
0.848695 1.000000 0.000000
1.000000 1.000000 0.000000
0.000000 0.000370 0.285036
0.263516 0.001550 0.275243
0.578991 0.002931 0.263832
0.894466 0.004312 0.252422
1.000000 0.004794 0.244723
0.003409 0.241153 0.254590
0.252605 0.235897 0.245344
0.567789 0.229901 0.234261
0.882972 0.223905 0.223178
1.000000 0.218128 0.215495
0.014447 0.523227 0.219106
0.240303 0.517868 0.210170
0.555487 0.511872 0.199086
0.870671 0.505876 0.188003
1.000000 0.500202 0.180011
0.025486 0.805302 0.183623
0.228002 0.799839 0.174995
0.543186 0.793843 0.163912
0.858370 0.787848 0.152829
1.000000 0.782276 0.144528
0.033691 1.000000 0.154545
0.216375 1.000000 0.145901
0.531850 1.000000 0.134491
0.847325 1.000000 0.123080
1.000000 1.000000 0.114231
0.000000 0.000800 0.567483
0.262425 0.001970 0.557720
0.577900 0.003351 0.546309
0.893375 0.004732 0.534899
1.000000 0.005224 0.527170
0.004468 0.239338 0.537137
0.251425 0.234072 0.527921
0.566609 0.228076 0.516838
0.881793 0.222080 0.505754
1.000000 0.216313 0.498042
0.015506 0.521412 0.501653
0.239123 0.516043 0.492746
0.554307 0.510047 0.481663
0.869491 0.504051 0.470580
1.000000 0.498387 0.462558
0.026544 0.803487 0.466170
0.226822 0.798014 0.457572
0.542006 0.792018 0.446489
0.857190 0.786023 0.435405
1.000000 0.780461 0.427075
0.034839 1.000000 0.436992
0.215284 1.000000 0.428378
0.530759 1.000000 0.416968
0.846233 1.000000 0.405557
1.000000 1.000000 0.396679
0.000000 0.001231 0.849931
0.261334 0.002391 0.840197
0.576809 0.003772 0.828786
0.892284 0.005153 0.817376
1.000000 0.005654 0.809617
0.005526 0.237523 0.819684
0.250245 0.232247 0.810498
0.565429 0.226251 0.799414
0.880613 0.220255 0.788331
1.000000 0.214498 0.780589
0.016565 0.519597 0.784200
0.237944 0.514218 0.775323
0.553128 0.508222 0.764240
0.868311 0.502226 0.753157
1.000000 0.496572 0.745105
0.027603 0.801671 0.748717
0.225642 0.796189 0.740149
0.540826 0.790194 0.729065
0.856010 0.784198 0.717982
1.000000 0.778646 0.709622
0.035986 1.000000 0.719440
0.214192 1.000000 0.710855
0.529667 1.000000 0.699445
0.845142 1.000000 0.688034
1.000000 1.000000 0.679126
0.000000 0.001516 1.000000
0.260195 0.002677 1.000000
0.575699 0.004069 1.000000
0.891204 0.005461 1.000000
1.000000 0.005981 1.000000
0.006292 0.235907 1.000000
0.249110 0.230632 1.000000
0.564323 0.224647 1.000000
0.879537 0.218662 1.000000
1.000000 0.212923 1.000000
0.017424 0.518016 1.000000
0.236902 0.512638 1.000000
0.552112 0.506652 1.000000
0.867296 0.500656 0.996304
1.000000 0.495010 0.988227
0.028514 0.800110 0.991839
0.224627 0.794619 0.983296
0.539811 0.788623 0.972213
0.854995 0.782627 0.961129
1.000000 0.777084 0.952744
0.036973 1.000000 0.962476
0.213254 1.000000 0.953917
0.528728 1.000000 0.942506
0.844203 1.000000 0.931095
1.000000 1.000000 0.922212
