assets/luts/kodak.cube
# Kodak — Studio filter "kodak"
# Generated by scripts/generate-filter-luts.mjs — do not edit by hand.
LUT_3D_SIZE 17
DOMAIN_MIN 0.0 0.0 0.0
DOMAIN_MAX 1.0 1.0 1.0
0.000000 0.000000 0.042000
0.054335 0.000271 0.041188
0.120486 0.000562 0.040313
0.190763 0.000873 0.039382
0.264480 0.001198 0.038407
0.340949 0.001535 0.037394
0.419481 0.001882 0.036355
0.499389 0.002234 0.035297
0.579985 0.002590 0.034231
0.660581 0.002945 0.033164
0.740488 0.003298 0.032106
0.819021 0.003644 0.031067
0.895489 0.003982 0.030054
0.969206 0.004307 0.029079
1.000000 0.004465 0.028606
1.000000 0.004465 0.028606
1.000000 0.004465 0.028606
0.000000 0.054843 0.039565
0.051905 0.053660 0.038877
0.117995 0.052405 0.038070
0.188208 0.051072 0.037213
0.261857 0.049673 0.036314
0.338255 0.048223 0.035381
0.416714 0.046733 0.034423
0.496549 0.045217 0.033448
0.577070 0.043689 0.032465
0.657591 0.042160 0.031482
0.737426 0.040644 0.030507
0.815885 0.039154 0.029549
0.892283 0.037704 0.028617
0.965932 0.036305 0.027717
1.000000 0.034840 0.027258
1.000000 0.033293 0.027326
1.000000 0.031859 0.027390
0.000000 0.113992 0.036940
0.049346 0.112787 0.036316
0.115435 0.111532 0.035510
0.185648 0.110199 0.034652
0.259297 0.108800 0.033753
0.335695 0.107350 0.032820
0.414155 0.105860 0.031862
0.493989 0.104344 0.030888
0.574510 0.102816 0.029904
0.655032 0.101287 0.028921
0.734866 0.099771 0.027947
0.813326 0.098281 0.026989
0.889724 0.096831 0.026056
0.963373 0.095432 0.025157
1.000000 0.093988 0.024632
1.000000 0.092442 0.024701
1.000000 0.091008 0.024764
0.000000 0.176831 0.034150
0.046626 0.175603 0.033596
0.112716 0.174348 0.032789
0.182929 0.173015 0.031932
0.256578 0.171616 0.031032
0.332976 0.170166 0.030100
0.411435 0.168676 0.029142
0.491270 0.167160 0.028167
0.571791 0.165632 0.027184
0.652312 0.164103 0.026201
0.732147 0.162587 0.025226
0.810606 0.161097 0.024268
0.887004 0.159647 0.023335
0.960653 0.158248 0.022436
1.000000 0.156827 0.021843
1.000000 0.155281 0.021911
1.000000 0.153846 0.021975
0.002578 0.242745 0.031224
0.043774 0.241493 0.030742
0.109863 0.240238 0.029935
0.180076 0.238905 0.029078
0.253725 0.237507 0.028179
0.330123 0.236056 0.027246
0.408583 0.234566 0.026288
0.488417 0.233051 0.025313
0.568939 0.231522 0.024330
0.649460 0.229993 0.023347
0.729294 0.228477 0.022372
0.807754 0.226988 0.021414
0.884152 0.225537 0.020481
0.957801 0.224139 0.019582
1.000000 0.222742 0.018917
1.000000 0.221195 0.018985
1.000000 0.219761 0.019049
0.005276 0.311120 0.028189
0.040815 0.309843 0.027782
0.106905 0.308588 0.026975
0.177117 0.307255 0.026117
0.250766 0.305856 0.025218
0.327164 0.304406 0.024285
0.405624 0.302916 0.023327
0.485458 0.301400 0.022353
0.565980 0.299871 0.021370
0.646501 0.298343 0.020386
0.726335 0.296827 0.019412
0.804795 0.295337 0.018454
0.881193 0.293887 0.017521
0.954842 0.292488 0.016622
1.000000 0.291116 0.015881
1.000000 0.289569 0.015950
1.000000 0.288135 0.016014
0.008047 0.381339 0.025072
0.037776 0.380037 0.024741
0.103866 0.378782 0.023934
0.174079 0.377449 0.023077
0.247728 0.376050 0.022178
0.324126 0.374600 0.021245
0.402585 0.373110 0.020287
0.482420 0.371594 0.019313
0.562941 0.370066 0.018329
0.643462 0.368537 0.017346
0.723297 0.367021 0.016372
0.801756 0.365531 0.015414
0.878154 0.364081 0.014481
0.951803 0.362682 0.013582
1.000000 0.361336 0.012764
1.000000 0.359789 0.012833
1.000000 0.358355 0.012897
0.010866 0.452789 0.021900
0.034684 0.451461 0.021648
0.100774 0.450206 0.020841
0.170987 0.448873 0.019984
0.244636 0.447474 0.019085
0.321034 0.446024 0.018152
0.399493 0.444534 0.017194
0.479328 0.443018 0.016219
0.559849 0.441489 0.015236
0.640370 0.439961 0.014253
0.720205 0.438445 0.013278
0.798664 0.436955 0.012320
0.875062 0.435505 0.011387
0.948711 0.434106 0.010488
1.000000 0.432773 0.009631
1.000000 0.431239 0.009661
1.000000 0.429805 0.009725
0.013710 0.524854 0.018701
0.031566 0.523499 0.018528
0.097655 0.522244 0.017721
0.167868 0.520911 0.016864
0.241517 0.519513 0.015964
0.317915 0.518062 0.015032
0.396375 0.516573 0.014074
0.476209 0.515057 0.013099
0.556730 0.513528 0.012116
0.637252 0.511999 0.011133
0.717086 0.510483 0.010158
0.795546 0.508994 0.009200
0.871944 0.507543 0.008267
0.945593 0.506145 0.007368
1.000000 0.504812 0.006511
1.000000 0.503304 0.006462
1.000000 0.501870 0.006526
0.016554 0.596919 0.015502
0.028447 0.595538 0.015408
0.094537 0.594283 0.014601
0.164750 0.592950 0.013744
0.238399 0.591552 0.012844
0.314797 0.590101 0.011912
0.393256 0.588611 0.010954
0.473090 0.587096 0.009979
0.553612 0.585567 0.008996
0.634133 0.584038 0.008013
0.713967 0.582522 0.007038
0.792427 0.581032 0.006080
0.868825 0.579582 0.005147
0.942474 0.578183 0.004248
1.000000 0.576850 0.003391
1.000000 0.575369 0.003263
1.000000 0.573935 0.003327
0.019373 0.668369 0.012331
0.025355 0.666962 0.012314
0.091445 0.665707 0.011507
0.161658 0.664374 0.010650
0.235307 0.662975 0.009751
0.311705 0.661525 0.008818
0.390164 0.660035 0.007860
0.469998 0.658519 0.006885
0.550520 0.656990 0.005902
0.631041 0.655462 0.004919
0.710875 0.653946 0.003944
0.789335 0.652456 0.002986
0.865733 0.651006 0.002054
0.939382 0.649607 0.001154
1.000000 0.648274 0.000297
1.000000 0.646819 0.000092
1.000000 0.645385 0.000155
0.022144 0.738589 0.009213
0.022317 0.737156 0.009274
0.088406 0.735901 0.008467
0.158619 0.734568 0.007610
0.232268 0.733169 0.006711
0.308666 0.731719 0.005778
0.387126 0.730229 0.004820
0.466960 0.728713 0.003845
0.547481 0.727185 0.002862
0.628002 0.725656 0.001879
0.707837 0.724140 0.000904
0.786296 0.722650 0.000000
0.862694 0.721200 0.000000
0.936343 0.719801 0.000000
1.000000 0.718468 0.000000
1.000000 0.717039 0.000000
1.000000 0.715605 0.000000
0.024842 0.806963 0.006178
0.024785 0.805529 0.006242
0.085447 0.804251 0.005507
0.155660 0.802917 0.004649
0.229309 0.801519 0.003750
0.305707 0.800069 0.002817
0.384167 0.798579 0.001860
0.464001 0.797063 0.000885
0.544522 0.795534 0.000000
0.625044 0.794005 0.000000
0.704878 0.792490 0.000000
0.783337 0.791000 0.000000
0.859735 0.789549 0.000000
0.933384 0.788151 0.000000
1.000000 0.786818 0.000000
1.000000 0.785413 0.000000
1.000000 0.783979 0.000000
0.027443 0.872878 0.003252
0.027386 0.871444 0.003316
0.082595 0.870141 0.002653
0.152807 0.868808 0.001796
0.226457 0.867409 0.000896
0.302854 0.865959 0.000000
0.381314 0.864469 0.000000
0.461148 0.862953 0.000000
0.541670 0.861424 0.000000
0.622191 0.859896 0.000000
0.702025 0.858380 0.000000
0.780485 0.856890 0.000000
0.856883 0.855440 0.000000
0.930532 0.854041 0.000000
1.000000 0.852708 0.000000
1.000000 0.851328 0.000000
1.000000 0.849893 0.000000
0.029922 0.935717 0.000463
0.029865 0.934283 0.000526
0.079875 0.932957 0.000000
0.150088 0.931624 0.000000
0.223737 0.930225 0.000000
0.300135 0.928775 0.000000
0.378595 0.927285 0.000000
0.458429 0.925769 0.000000
0.538950 0.924241 0.000000
0.619472 0.922712 0.000000
0.699306 0.921196 0.000000
0.777766 0.919706 0.000000
0.854164 0.918256 0.000000
0.927813 0.916857 0.000000
0.998026 0.915524 0.000000
1.000000 0.914167 0.000000
1.000000 0.912732 0.000000
0.032256 0.994865 0.000000
0.032199 0.993431 0.000000
0.077316 0.992084 0.000000
0.147529 0.990751 0.000000
0.221178 0.989352 0.000000
0.297576 0.987902 0.000000
0.376035 0.986412 0.000000
0.455869 0.984896 0.000000
0.536391 0.983368 0.000000
0.616912 0.981839 0.000000
0.696746 0.980323 0.000000
0.775206 0.978833 0.000000
0.851604 0.977383 0.000000
0.925253 0.975984 0.000000
0.995466 0.974651 0.000000
1.000000 0.973315 0.000000
1.000000 0.971881 0.000000
0.033051 1.000000 0.000000
0.033051 1.000000 0.000000
0.073691 1.000000 0.000000
0.143969 1.000000 0.000000
0.217686 1.000000 0.000000
0.294154 1.000000 0.000000
0.372687 1.000000 0.000000
0.452594 1.000000 0.000000
0.533190 1.000000 0.000000
0.613786 1.000000 0.000000
0.693694 1.000000 0.000000
0.772226 1.000000 0.000000
0.848695 1.000000 0.000000
0.922412 1.000000 0.000000
0.992689 1.000000 0.000000
1.000000 1.000000 0.000000
1.000000 1.000000 0.000000
0.000000 0.000084 0.096909
0.054117 0.000350 0.094696
0.120262 0.000640 0.092304
0.190533 0.000947 0.089762
0.264243 0.001270 0.087096
0.340704 0.001605 0.084331
0.419229 0.001948 0.081490
0.499130 0.002298 0.078600
0.579718 0.002651 0.075685
0.660306 0.003004 0.072770
0.740207 0.003354 0.069880
0.818732 0.003697 0.067040
0.895193 0.004032 0.064275
0.968903 0.004355 0.061609
1.000000 0.004512 0.059519
1.000000 0.004509 0.058002
1.000000 0.004507 0.056595
0.000000 0.054484 0.090030
0.051652 0.053296 0.087941
0.117735 0.052039 0.085618
0.187942 0.050703 0.083149
0.261584 0.049302 0.080559
0.337975 0.047849 0.077873
0.416427 0.046357 0.075114
0.496254 0.044838 0.072307
0.576768 0.043306 0.069476
0.657282 0.041775 0.066645
0.737108 0.040256 0.063838
0.815561 0.038764 0.061079
0.891952 0.037311 0.058393
0.965594 0.035910 0.055803
1.000000 0.034443 0.053726
1.000000 0.032894 0.052278
1.000000 0.031458 0.050935
0.000000 0.113625 0.082591
0.049073 0.112416 0.080566
0.115156 0.111159 0.078243
0.185363 0.109823 0.075774
0.259005 0.108422 0.073184
0.335396 0.106969 0.070498
0.413848 0.105476 0.067739
0.493675 0.103958 0.064932
0.574189 0.102426 0.062101
0.654703 0.100894 0.059270
0.734529 0.099376 0.056463
0.812982 0.097883 0.053704
0.889372 0.096430 0.051018
0.963015 0.095029 0.048428
1.000000 0.093585 0.046286
1.000000 0.092036 0.044838
1.000000 0.090600 0.043496
0.000125 0.176456 0.074687
0.046333 0.175224 0.072731
0.112416 0.173967 0.070408
0.182622 0.172631 0.067939
0.256265 0.171230 0.065349
0.332655 0.169777 0.062663
0.411108 0.168285 0.059904
0.490935 0.166766 0.057097
0.571449 0.165234 0.054266
0.651962 0.163703 0.051435
0.731789 0.162184 0.048628
0.810242 0.160692 0.045869
0.886632 0.159239 0.043183
0.960275 0.157838 0.040593
1.000000 0.156416 0.038383
1.000000 0.154867 0.036934
1.000000 0.153431 0.035592
0.002704 0.242362 0.066396
0.043459 0.241106 0.064513
0.109542 0.239849 0.062189
0.179748 0.238513 0.059720
0.253390 0.237112 0.057131
0.329781 0.235659 0.054445
0.408234 0.234167 0.051686
0.488060 0.232648 0.048879
0.568574 0.231116 0.046048
0.649088 0.229585 0.043216
0.728915 0.228066 0.040409
0.807367 0.226574 0.037651
0.883758 0.225121 0.034964
0.957400 0.223720 0.032375
1.000000 0.222322 0.030092
1.000000 0.220773 0.028644
1.000000 0.219337 0.027301
0.005379 0.310728 0.057796
0.040477 0.309447 0.055988
0.106560 0.308190 0.053664
0.176767 0.306854 0.051195
0.250409 0.305454 0.048606
0.326800 0.304000 0.045919
0.405252 0.302508 0.043161
0.485079 0.300989 0.040354
0.565593 0.299458 0.037522
0.646107 0.297926 0.034691
0.725933 0.296407 0.031884
0.804386 0.294915 0.029125
0.880777 0.293462 0.026439
0.954419 0.292061 0.023850
1.000000 0.290688 0.021492
1.000000 0.289139 0.020044
1.000000 0.287703 0.018701
0.008127 0.380939 0.048964
0.037415 0.379633 0.047233
0.103499 0.378375 0.044909
0.173705 0.377040 0.042440
0.247347 0.375639 0.039850
0.323738 0.374186 0.037164
0.402190 0.372693 0.034405
0.482017 0.371175 0.031598
0.562531 0.369643 0.028767
0.643045 0.368111 0.025936
0.722871 0.366593 0.023129
0.801324 0.365100 0.020370
0.877715 0.363647 0.017684
0.951357 0.362246 0.015094
1.000000 0.360899 0.012784
1.000000 0.359353 0.012852
1.000000 0.357919 0.012916
0.010923 0.452380 0.039977
0.034300 0.451047 0.038324
0.100383 0.449790 0.036000
0.170589 0.448455 0.033531
0.244231 0.447054 0.030942
0.320622 0.445601 0.028256
0.399075 0.444108 0.025497
0.478901 0.442590 0.022690
0.559415 0.441058 0.019859
0.639929 0.439526 0.017027
0.719756 0.438008 0.014220
0.798212 0.436517 0.012345
0.874610 0.435066 0.011412
0.948259 0.433668 0.010513
1.000000 0.432335 0.009656
1.000000 0.430803 0.009681
1.000000 0.429369 0.009744
0.013742 0.524436 0.030913
0.031157 0.523077 0.029339
0.097241 0.521820 0.027015
0.167447 0.520485 0.024546
0.241089 0.519084 0.021956
0.317480 0.517630 0.019270
0.395932 0.516138 0.016511
0.475759 0.514619 0.013704
0.556278 0.513090 0.012141
0.636799 0.511561 0.011158
0.716634 0.510045 0.010183
0.795093 0.508555 0.009225
0.871491 0.507105 0.008292
0.945140 0.505706 0.007393
1.000000 0.504373 0.006536
1.000000 0.502868 0.006482
1.000000 0.501433 0.006545
0.016562 0.596492 0.021848
0.028015 0.595107 0.020353
0.094098 0.593850 0.018030
0.164304 0.592514 0.015561
0.237947 0.591113 0.012971
0.314344 0.589663 0.011937
0.392804 0.588173 0.010979
0.472638 0.586657 0.010004
0.553159 0.585128 0.009021
0.633681 0.583599 0.008038
0.713515 0.582084 0.007063
0.791975 0.580594 0.006105
0.868373 0.579143 0.005172
0.942022 0.577745 0.004273
1.000000 0.576412 0.003416
1.000000 0.574933 0.003283
1.000000 0.573498 0.003346
0.019358 0.667933 0.012862
0.024903 0.666523 0.012339
0.090992 0.665268 0.011532
0.161205 0.663935 0.010675
0.234854 0.662537 0.009776
0.311252 0.661086 0.008843
0.389712 0.659597 0.007885
0.469546 0.658081 0.006910
0.550067 0.656552 0.005927
0.630589 0.655023 0.004944
0.710423 0.653507 0.003969
0.788883 0.652018 0.003012
0.865281 0.650567 0.002079
0.938930 0.649169 0.001179
1.000000 0.647836 0.000322
1.000000 0.646382 0.000111
1.000000 0.644948 0.000175
0.022126 0.738152 0.009233
0.022070 0.736718 0.009296
0.087954 0.735463 0.008492
0.158166 0.734129 0.007635
0.231815 0.732731 0.006736
0.308213 0.731281 0.005803
0.386673 0.729791 0.004845
0.466507 0.728275 0.003870
0.547029 0.726746 0.002887
0.627550 0.725217 0.001904
0.707384 0.723702 0.000929
0.785844 0.722212 0.000000
0.862242 0.720761 0.000000
0.935891 0.719363 0.000000
1.000000 0.718030 0.000000
1.000000 0.716602 0.000000
1.000000 0.715168 0.000000
0.024824 0.806527 0.006198
0.024768 0.805093 0.006261
0.084995 0.803812 0.005532
0.155208 0.802479 0.004675
0.228857 0.801081 0.003775
0.305255 0.799630 0.002843
0.383714 0.798140 0.001885
0.463548 0.796625 0.000910
0.544070 0.795096 0.000000
0.624591 0.793567 0.000000
0.704425 0.792051 0.000000
0.782885 0.790562 0.000000
0.859283 0.789111 0.000000
0.932932 0.787713 0.000000
1.000000 0.786379 0.000000
1.000000 0.784977 0.000000
1.000000 0.783543 0.000000
0.027425 0.872441 0.003272
0.027369 0.871007 0.003335
0.082142 0.869702 0.002678
0.152355 0.868369 0.001821
0.226004 0.866971 0.000922
0.302402 0.865520 0.000000
0.380862 0.864031 0.000000
0.460696 0.862515 0.000000
0.541217 0.860986 0.000000
0.621739 0.859457 0.000000
0.701573 0.857941 0.000000
0.780033 0.856452 0.000000
0.856431 0.855001 0.000000
0.930080 0.853603 0.000000
1.000000 0.852270 0.000000
1.000000 0.850891 0.000000
1.000000 0.849457 0.000000
0.029905 0.935280 0.000482
0.029848 0.933846 0.000546
0.079423 0.932518 0.000000
0.149636 0.931185 0.000000
0.223285 0.929787 0.000000
0.299683 0.928336 0.000000
0.378142 0.926847 0.000000
0.457977 0.925331 0.000000
0.538498 0.923802 0.000000
0.619019 0.922273 0.000000
0.698854 0.920758 0.000000
0.777313 0.919268 0.000000
0.853711 0.917817 0.000000
0.927360 0.916419 0.000000
0.997573 0.915086 0.000000
1.000000 0.913730 0.000000
1.000000 0.912296 0.000000
0.032239 0.994429 0.000000
0.032182 0.992995 0.000000
0.076863 0.991645 0.000000
0.147076 0.990312 0.000000
0.220725 0.988914 0.000000
0.297123 0.987463 0.000000
0.375583 0.985974 0.000000
0.455417 0.984458 0.000000
0.535938 0.982929 0.000000
0.616460 0.981400 0.000000
0.696294 0.979885 0.000000
0.774754 0.978395 0.000000
0.851152 0.976944 0.000000
0.924801 0.975546 0.000000
0.995014 0.974213 0.000000
1.000000 0.972879 0.000000
1.000000 0.971445 0.000000
0.033051 1.000000 0.000000
0.033051 1.000000 0.000000
0.073256 1.000000 0.000000
0.143534 1.000000 0.000000
0.217251 1.000000 0.000000
0.293719 1.000000 0.000000
0.372251 1.000000 0.000000
0.452159 1.000000 0.000000
0.532755 1.000000 0.000000
0.613351 1.000000 0.000000
0.693259 1.000000 0.000000
0.771791 1.000000 0.000000
0.848259 1.000000 0.000000
0.921976 1.000000 0.000000
0.992254 1.000000 0.000000
1.000000 1.000000 0.000000
1.000000 1.000000 0.000000
0.000000 0.000174 0.156128
0.053889 0.000438 0.153922
0.120033 0.000728 0.151530
0.190304 0.001035 0.148988
0.264014 0.001358 0.146322
0.340476 0.001693 0.143556
0.419001 0.002037 0.140716
0.498901 0.002386 0.137826
0.579489 0.002739 0.134911
0.660078 0.003092 0.131996
0.739978 0.003442 0.129106
0.818503 0.003785 0.126266
0.894964 0.004120 0.123500
0.968674 0.004443 0.120834
1.000000 0.004602 0.118738
1.000000 0.004600 0.117221
1.000000 0.004597 0.115815
0.000000 0.054103 0.149271
0.051405 0.052913 0.147188
0.117488 0.051656 0.144864
0.187694 0.050321 0.142395
0.261337 0.048920 0.139806
0.337727 0.047466 0.137120
0.416180 0.045974 0.134361
0.496007 0.044455 0.131554
0.576520 0.042924 0.128723
0.657034 0.041392 0.125891
0.736861 0.039874 0.123084
0.815313 0.038381 0.120326
0.891704 0.036928 0.117639
0.965346 0.035527 0.115050
1.000000 0.034063 0.112967
1.000000 0.032514 0.111518
1.000000 0.031078 0.110176
0.000000 0.113244 0.141831
0.048826 0.112033 0.139813
0.114909 0.110776 0.137489
0.185115 0.109440 0.135021
0.258757 0.108039 0.132431
0.335148 0.106586 0.129745
0.413601 0.105094 0.126986
0.493427 0.103575 0.124179
0.573941 0.102044 0.121348
0.654455 0.100512 0.118516
0.734282 0.098993 0.115709
0.812734 0.097501 0.112951
0.889125 0.096048 0.110264
0.962767 0.094647 0.107675
1.000000 0.093204 0.105527
1.000000 0.091655 0.104079
1.000000 0.090219 0.102736
0.000347 0.176075 0.133927
0.046086 0.174841 0.131978
0.112169 0.173584 0.129654
0.182375 0.172249 0.127186
0.256017 0.170848 0.124596
0.332408 0.169394 0.121910
0.410861 0.167902 0.119151
0.490687 0.166383 0.116344
0.571201 0.164852 0.113513
0.651715 0.163320 0.110681
0.731542 0.161802 0.107874
0.809994 0.160309 0.105116
0.886385 0.158856 0.102429
0.960027 0.157455 0.099840
1.000000 0.156035 0.097623
1.000000 0.154486 0.096175
1.000000 0.153050 0.094832
0.002926 0.241982 0.125637
0.043211 0.240723 0.123760
0.109295 0.239466 0.121436
0.179501 0.238131 0.118967
0.253143 0.236730 0.116378
0.329534 0.235277 0.113691
0.407986 0.233784 0.110933
0.487813 0.232266 0.108125
0.568327 0.230734 0.105294
0.648841 0.229202 0.102463
0.728668 0.227684 0.099656
0.807120 0.226191 0.096897
0.883511 0.224738 0.094211
0.957153 0.223337 0.091621
1.000000 0.221942 0.089332
1.000000 0.220393 0.087884
1.000000 0.218956 0.086541
0.005601 0.310348 0.117036
0.040230 0.309065 0.115234
0.106313 0.307807 0.112911
0.176519 0.306472 0.110442
0.250162 0.305071 0.107852
0.326552 0.303618 0.105166
0.405005 0.302125 0.102407
0.484832 0.300607 0.099600
0.565345 0.299075 0.096769
0.645859 0.297543 0.093938
0.725686 0.296025 0.091131
0.804138 0.294532 0.088372
0.880529 0.293079 0.085686
0.954171 0.291678 0.083096
1.000000 0.290308 0.080732
1.000000 0.288759 0.079284
1.000000 0.287322 0.077941
0.008349 0.380559 0.108204
0.037168 0.379250 0.106479
0.103251 0.377993 0.104155
0.173457 0.376657 0.101687
0.247100 0.375256 0.099097
0.323490 0.373803 0.096411
0.401943 0.372311 0.093652
0.481770 0.370792 0.090845
0.562284 0.369260 0.088014
0.642797 0.367729 0.085183
0.722624 0.366210 0.082375
0.801077 0.364718 0.079617
0.877467 0.363265 0.076930
0.951110 0.361864 0.074341
1.000000 0.360519 0.071900
1.000000 0.358970 0.070452
1.000000 0.357533 0.069109
0.011144 0.452000 0.099217
0.034052 0.450665 0.097571
0.100136 0.449408 0.095247
0.170342 0.448072 0.092778
0.243984 0.446671 0.090188
0.320375 0.445218 0.087502
0.398827 0.443726 0.084743
0.478654 0.442207 0.081936
0.559168 0.440675 0.079105
0.639682 0.439144 0.076274
0.719509 0.437625 0.073467
0.797961 0.436133 0.070708
0.874352 0.434679 0.068022
0.947994 0.433279 0.065432
1.000000 0.431943 0.062963
1.000000 0.430411 0.061465
1.000000 0.428974 0.060122
0.013964 0.524056 0.090153
0.030910 0.522695 0.088585
0.096993 0.521437 0.086261
0.167199 0.520102 0.083793
0.240842 0.518701 0.081203
0.317232 0.517248 0.078517
0.395685 0.515755 0.075758
0.475512 0.514237 0.072951
0.556026 0.512705 0.070120
0.636539 0.511173 0.067289
0.716366 0.509655 0.064482
0.794819 0.508162 0.061723
0.871209 0.506709 0.059037
0.944852 0.505308 0.056447
1.000000 0.503973 0.053978
1.000000 0.502467 0.052401
1.000000 0.501030 0.051058
0.016784 0.596112 0.081089
0.027768 0.594724 0.079600
0.093851 0.593467 0.077276
0.164057 0.592132 0.074807
0.237699 0.590731 0.072218
0.314090 0.589277 0.069532
0.392542 0.587785 0.066773
0.472369 0.586266 0.063966
0.552883 0.584735 0.061134
0.633397 0.583203 0.058303
0.713224 0.581685 0.055496
0.791676 0.580192 0.052737
0.868067 0.578739 0.050051
0.941709 0.577338 0.047462
1.000000 0.576002 0.044993
1.000000 0.574523 0.043337
1.000000 0.573087 0.041994
0.019580 0.667553 0.072102
0.024652 0.666139 0.070691
0.090735 0.664882 0.068367
0.160941 0.663547 0.065899
0.234584 0.662146 0.063309
0.310974 0.660692 0.060623
0.389427 0.659200 0.057864
0.469254 0.657681 0.055057
0.549768 0.656150 0.052226
0.630281 0.654618 0.049395
0.710108 0.653100 0.046588
0.788561 0.651607 0.043829
0.864951 0.650154 0.041143
0.938594 0.648753 0.038553
1.000000 0.647417 0.036084
1.000000 0.645964 0.034350
1.000000 0.644528 0.033007
0.022327 0.737764 0.063270
0.022265 0.736328 0.061927
0.087673 0.735068 0.059612
0.157880 0.733732 0.057143
0.231522 0.732331 0.054554
0.307913 0.730878 0.051868
0.386365 0.729385 0.049109
0.466192 0.727867 0.046302
0.546706 0.726335 0.043471
0.627219 0.724804 0.040639
0.707046 0.723285 0.037832
0.785499 0.721792 0.035074
0.861889 0.720339 0.032387
0.935532 0.718938 0.029798
1.000000 0.717603 0.027329
1.000000 0.716175 0.025518
1.000000 0.714739 0.024175
0.025003 0.806130 0.054670
0.024940 0.804694 0.053327
0.084692 0.803409 0.051087
0.154898 0.802073 0.048618
0.228540 0.800672 0.046029
0.304931 0.799219 0.043342
0.383383 0.797727 0.040584
0.463210 0.796208 0.037777
0.543724 0.794676 0.034945
0.624238 0.793145 0.032114
0.704065 0.791626 0.029307
0.782517 0.790134 0.026548
0.858908 0.788680 0.023862
0.932550 0.787279 0.021272
1.000000 0.785944 0.018804
1.000000 0.784541 0.016918
1.000000 0.783105 0.015575
0.027582 0.872036 0.046379
0.027519 0.870600 0.045036
0.081818 0.869291 0.042869
0.152024 0.867955 0.040400
0.225666 0.866554 0.037810
0.302057 0.865101 0.035124
0.380509 0.863609 0.032365
0.460336 0.862090 0.029558
0.540850 0.860558 0.026727
0.621364 0.859027 0.023896
0.701190 0.857508 0.021089
0.779643 0.856016 0.018330
0.856034 0.854562 0.015644
0.929676 0.853162 0.013054
0.999882 0.851826 0.010585
1.000000 0.850447 0.008627
1.000000 0.849011 0.007284
0.030040 0.934867 0.038475
0.029978 0.933431 0.037133
0.079077 0.932099 0.035034
0.149284 0.930763 0.032565
0.222926 0.929363 0.029975
0.299317 0.927909 0.027289
0.377769 0.926417 0.024530
0.457596 0.924898 0.021723
0.538110 0.923367 0.018892
0.618624 0.921835 0.016061
0.698450 0.920316 0.013254
0.776903 0.918824 0.010495
0.853294 0.917371 0.007809
0.926936 0.915970 0.005219
0.997142 0.914634 0.002750
1.000000 0.913278 0.000723
1.000000 0.911842 0.000000
0.032355 0.994009 0.031036
0.032293 0.992572 0.029693
0.076498 0.991219 0.027659
0.146705 0.989883 0.025190
0.220347 0.988482 0.022600
0.296738 0.987029 0.019914
0.375190 0.985537 0.017155
0.455017 0.984018 0.014348
0.535531 0.982486 0.011517
0.616044 0.980955 0.008686
0.695871 0.979436 0.005879
0.774324 0.977944 0.003120
0.850714 0.976490 0.000434
0.924357 0.975090 0.000000
0.994563 0.973754 0.000000
1.000000 0.972420 0.000000
1.000000 0.970983 0.000000
0.033168 1.000000 0.025637
0.033162 1.000000 0.024231
0.072891 1.000000 0.022188
0.143163 1.000000 0.019646
0.216873 1.000000 0.016980
0.293334 1.000000 0.014215
0.371859 1.000000 0.011374
0.451759 1.000000 0.008484
0.532348 1.000000 0.005569
0.612936 1.000000 0.002655
0.692836 1.000000 0.000000
0.771361 1.000000 0.000000
0.847823 1.000000 0.000000
0.921533 1.000000 0.000000
0.991804 1.000000 0.000000
1.000000 1.000000 0.000000
1.000000 1.000000 0.000000
0.000000 0.000270 0.219043
0.053646 0.000532 0.216843
0.119790 0.000821 0.214451
0.190061 0.001129 0.211909
0.263771 0.001452 0.209243
0.340233 0.001786 0.206477
0.418757 0.002130 0.203637
0.498658 0.002480 0.200747
0.579246 0.002833 0.197832
0.659834 0.003186 0.194917
0.739735 0.003535 0.192027
0.818260 0.003879 0.189187
0.894721 0.004214 0.186421
0.968431 0.004536 0.183755
1.000000 0.004698 0.181653
