assets/luts/kodak.cube
# Kodak — Studio filter "kodak"
# Generated by scripts/generate-filter-luts.mjs — do not edit by hand.
LUT_3D_SIZE 9
DOMAIN_MIN 0.0 0.0 0.0
DOMAIN_MAX 1.0 1.0 1.0
0.000000 0.000000 0.042000
0.120486 0.000562 0.040313
0.264480 0.001198 0.038407
0.419481 0.001882 0.036355
0.579985 0.002590 0.034231
0.740488 0.003298 0.032106
0.895489 0.003982 0.030054
1.000000 0.004465 0.028606
1.000000 0.004465 0.028606
0.000000 0.113992 0.036940
0.115435 0.111532 0.035510
0.259297 0.108800 0.033753
0.414155 0.105860 0.031862
0.574510 0.102816 0.029904
0.734866 0.099771 0.027947
0.889724 0.096831 0.026056
1.000000 0.093988 0.024632
1.000000 0.091008 0.024764
0.002578 0.242745 0.031224
0.109863 0.240238 0.029935
0.253725 0.237507 0.028179
0.408583 0.234566 0.026288
0.568939 0.231522 0.024330
0.729294 0.228477 0.022372
0.884152 0.225537 0.020481
1.000000 0.222742 0.018917
1.000000 0.219761 0.019049
0.008047 0.381339 0.025072
0.103866 0.378782 0.023934
0.247728 0.376050 0.022178
0.402585 0.373110 0.020287
0.562941 0.370066 0.018329
0.723297 0.367021 0.016372
0.878154 0.364081 0.014481
1.000000 0.361336 0.012764
1.000000 0.358355 0.012897
0.013710 0.524854 0.018701
0.097655 0.522244 0.017721
0.241517 0.519513 0.015964
0.396375 0.516573 0.014074
0.556730 0.513528 0.012116
0.717086 0.510483 0.010158
0.871944 0.507543 0.008267
1.000000 0.504812 0.006511
1.000000 0.501870 0.006526
0.019373 0.668369 0.012331
0.091445 0.665707 0.011507
0.235307 0.662975 0.009751
0.390164 0.660035 0.007860
0.550520 0.656990 0.005902
0.710875 0.653946 0.003944
0.865733 0.651006 0.002054
1.000000 0.648274 0.000297
1.000000 0.645385 0.000155
0.024842 0.806963 0.006178
0.085447 0.804251 0.005507
0.229309 0.801519 0.003750
0.384167 0.798579 0.001860
0.544522 0.795534 0.000000
0.704878 0.792490 0.000000
0.859735 0.789549 0.000000
1.000000 0.786818 0.000000
1.000000 0.783979 0.000000
0.029922 0.935717 0.000463
0.079875 0.932957 0.000000
0.223737 0.930225 0.000000
0.378595 0.927285 0.000000
0.538950 0.924241 0.000000
0.699306 0.921196 0.000000
0.854164 0.918256 0.000000
0.998026 0.915524 0.000000
1.000000 0.912732 0.000000
0.033051 1.000000 0.000000
0.073691 1.000000 0.000000
0.217686 1.000000 0.000000
0.372687 1.000000 0.000000
0.533190 1.000000 0.000000
0.693694 1.000000 0.000000
0.848695 1.000000 0.000000
0.992689 1.000000 0.000000
1.000000 1.000000 0.000000
0.000000 0.000174 0.156128
0.120033 0.000728 0.151530
0.264014 0.001358 0.146322
0.419001 0.002037 0.140716
0.579489 0.002739 0.134911
0.739978 0.003442 0.129106
0.894964 0.004120 0.123500
1.000000 0.004602 0.118738
1.000000 0.004597 0.115815
0.000000 0.113244 0.141831
0.114909 0.110776 0.137489
0.258757 0.108039 0.132431
0.413601 0.105094 0.126986
0.573941 0.102044 0.121348
0.734282 0.098993 0.115709
0.889125 0.096048 0.110264
1.000000 0.093204 0.105527
1.000000 0.090219 0.102736
0.002926 0.241982 0.125637
0.109295 0.239466 0.121436
0.253143 0.236730 0.116378
0.407986 0.233784 0.110933
0.568327 0.230734 0.105294
0.728668 0.227684 0.099656
0.883511 0.224738 0.094211
1.000000 0.221942 0.089332
1.000000 0.218956 0.086541
0.008349 0.380559 0.108204
0.103251 0.377993 0.104155
0.247100 0.375256 0.099097
0.401943 0.372311 0.093652
0.562284 0.369260 0.088014
0.722624 0.366210 0.082375
0.877467 0.363265 0.076930
1.000000 0.360519 0.071900
1.000000 0.357533 0.069109
0.013964 0.524056 0.090153
0.096993 0.521437 0.086261
0.240842 0.518701 0.081203
0.395685 0.515755 0.075758
0.556026 0.512705 0.070120
0.716366 0.509655 0.064482
0.871209 0.506709 0.059037
1.000000 0.503973 0.053978
1.000000 0.501030 0.051058
0.019580 0.667553 0.072102
0.090735 0.664882 0.068367
0.234584 0.662146 0.063309
0.389427 0.659200 0.057864
0.549768 0.656150 0.052226
0.710108 0.653100 0.046588
0.864951 0.650154 0.041143
1.000000 0.647417 0.036084
1.000000 0.644528 0.033007
0.025003 0.806130 0.054670
0.084692 0.803409 0.051087
0.228540 0.800672 0.046029
0.383383 0.797727 0.040584
0.543724 0.794676 0.034945
0.704065 0.791626 0.029307
0.858908 0.788680 0.023862
1.000000 0.785944 0.018804
1.000000 0.783105 0.015575
0.030040 0.934867 0.038475
0.079077 0.932099 0.035034
0.222926 0.929363 0.029975
0.377769 0.926417 0.024530
0.538110 0.923367 0.018892
0.698450 0.920316 0.013254
0.853294 0.917371 0.007809
0.997142 0.914634 0.002750
1.000000 0.911842 0.000000
0.033168 1.000000 0.025637
0.072891 1.000000 0.022188
0.216873 1.000000 0.016980
0.371859 1.000000 0.011374
0.532348 1.000000 0.005569
0.692836 1.000000 0.000000
0.847823 1.000000 0.000000
0.991804 1.000000 0.000000
1.000000 1.000000 0.000000
0.000000 0.000370 0.285036
0.119535 0.000920 0.280451
0.263516 0.001550 0.275243
0.418503 0.002228 0.269637
0.578991 0.002931 0.263832
0.739480 0.003634 0.258027
0.894466 0.004312 0.252422
1.000000 0.004798 0.247646
1.000000 0.004794 0.244723
0.000000 0.112416 0.270784
0.114371 0.109943 0.266456
0.258219 0.107207 0.261398
0.413062 0.104261 0.255953
0.573403 0.101211 0.250314
0.733743 0.098160 0.244676
0.888587 0.095215 0.239231
1.000000 0.092376 0.234480
1.000000 0.089391 0.231689
0.003409 0.241153 0.254590
0.108756 0.238633 0.250403
0.252605 0.235897 0.245344
0.407448 0.232951 0.239899
0.567789 0.229901 0.234261
0.728129 0.226851 0.228623
0.882972 0.223905 0.223178
1.000000 0.221113 0.218286
1.000000 0.218128 0.215495
0.008832 0.379730 0.237157
0.102713 0.377160 0.233122
0.246561 0.374423 0.228064
0.401404 0.371478 0.222619
0.561745 0.368428 0.216980
0.722086 0.365377 0.211342
0.876929 0.362432 0.205897
1.000000 0.359690 0.200853
1.000000 0.356705 0.198062
0.014447 0.523227 0.219106
0.096455 0.520605 0.215228
0.240303 0.517868 0.210170
0.395146 0.514922 0.204725
0.555487 0.511872 0.199086
0.715828 0.508822 0.193448
0.870671 0.505876 0.188003
1.000000 0.503140 0.182945
1.000000 0.500202 0.180011
0.020063 0.666724 0.201055
0.090197 0.664049 0.197334
0.234045 0.661313 0.192276
0.388888 0.658367 0.186831
0.549229 0.655317 0.181193
0.709570 0.652267 0.175554
0.864413 0.649321 0.170109
1.000000 0.646584 0.165051
1.000000 0.643699 0.161960
0.025486 0.805302 0.183623
0.084153 0.802576 0.180054
0.228002 0.799839 0.174995
0.382845 0.796894 0.169550
0.543186 0.793843 0.163912
0.703526 0.790793 0.158274
0.858370 0.787848 0.152829
1.000000 0.785111 0.147770
1.000000 0.782276 0.144528
0.030524 0.934039 0.167429
0.078539 0.931266 0.164000
0.222387 0.928530 0.158942
0.377231 0.925584 0.153497
0.537571 0.922534 0.147859
0.697912 0.919484 0.142220
0.852755 0.916538 0.136775
0.996604 0.913801 0.131717
1.000000 0.911014 0.128333
0.033691 1.000000 0.154545
0.072393 1.000000 0.151109
0.216375 1.000000 0.145901
0.371361 1.000000 0.140295
0.531850 1.000000 0.134491
0.692338 1.000000 0.128686
0.847325 1.000000 0.123080
0.991306 1.000000 0.117872
1.000000 1.000000 0.114231
0.000000 0.000582 0.423797
0.118999 0.001126 0.419226
0.262980 0.001756 0.414018
0.417966 0.002435 0.408412
0.578455 0.003137 0.402607
0.738944 0.003840 0.396802
0.893930 0.004519 0.391197
1.000000 0.005010 0.386406
1.000000 0.005005 0.383483
0.000000 0.111524 0.409594
0.113791 0.109046 0.405280
0.257639 0.106310 0.400222
0.412483 0.103364 0.394777
0.572823 0.100314 0.389138
0.733164 0.097264 0.383500
0.888007 0.094318 0.378055
1.000000 0.091484 0.373290
1.000000 0.088499 0.370499
0.003929 0.240262 0.393399
0.108177 0.237737 0.389227
0.252025 0.235000 0.384168
0.406868 0.232055 0.378723
0.567209 0.229004 0.373085
0.727550 0.225954 0.367447
0.882393 0.223009 0.362002
1.000000 0.220221 0.357095
1.000000 0.217236 0.354304
0.009352 0.378839 0.375967
0.102133 0.376263 0.371946
0.245982 0.373527 0.366888
0.400825 0.370581 0.361443
0.561165 0.367531 0.355804
0.721506 0.364481 0.350166
0.876349 0.361535 0.344721
1.000000 0.358799 0.339663
1.000000 0.355813 0.336872
0.014967 0.522336 0.357916
0.095875 0.519708 0.354052
0.239724 0.516972 0.348994
0.394567 0.514026 0.343549
0.554907 0.510976 0.337910
0.715248 0.507925 0.332272
0.870091 0.504980 0.326827
1.000000 0.502243 0.321769
1.000000 0.499310 0.318821
0.020583 0.665833 0.339865
0.089617 0.663153 0.336158
0.233466 0.660416 0.331100
0.388309 0.657471 0.325655
0.548649 0.654420 0.320017
0.708990 0.651370 0.314378
0.863833 0.648424 0.308933
1.000000 0.645688 0.303875
1.000000 0.642807 0.300770
0.026006 0.804410 0.322432
0.083574 0.801679 0.318878
0.227422 0.798943 0.313819
0.382265 0.795997 0.308374
0.542606 0.792947 0.302736
0.702947 0.789897 0.297098
0.857790 0.786951 0.291653
1.000000 0.784214 0.286594
1.000000 0.781385 0.283337
0.031044 0.933147 0.306238
0.077959 0.930370 0.302824
0.221808 0.927633 0.297766
0.376651 0.924687 0.292321
0.536992 0.921637 0.286683
0.697332 0.918587 0.281044
0.852176 0.915641 0.275599
0.996024 0.912905 0.270541
1.000000 0.910122 0.267143
0.034255 1.000000 0.293305
0.071857 1.000000 0.289884
0.215839 1.000000 0.284676
0.370825 1.000000 0.279070
0.531314 1.000000 0.273266
0.691802 1.000000 0.267461
0.846789 1.000000 0.261855
0.990770 1.000000 0.256647
1.000000 1.000000 0.252992
0.000000 0.000800 0.567483
0.118444 0.001340 0.562928
0.262425 0.001970 0.557720
0.417411 0.002649 0.552114
0.577900 0.003351 0.546309
0.738389 0.004054 0.540504
0.893375 0.004732 0.534899
1.000000 0.005228 0.530093
1.000000 0.005224 0.527170
0.000000 0.110601 0.553331
0.113191 0.108118 0.549033
0.257039 0.105382 0.543974
0.411882 0.102436 0.538529
0.572223 0.099386 0.532891
0.732564 0.096335 0.527253
0.887407 0.093390 0.521808
1.000000 0.090561 0.517027
1.000000 0.087576 0.514236
0.004468 0.239338 0.537137
0.107576 0.236808 0.532979
0.251425 0.234072 0.527921
0.406268 0.231126 0.522476
0.566609 0.228076 0.516838
0.726949 0.225026 0.511199
0.881793 0.222080 0.505754
1.000000 0.219298 0.500833
1.000000 0.216313 0.498042
0.009891 0.377915 0.519704
0.101533 0.375335 0.515699
0.245381 0.372598 0.510640
0.400225 0.369653 0.505195
0.560565 0.366603 0.499557
0.720906 0.363552 0.493919
0.875749 0.360607 0.488474
1.000000 0.357870 0.483415
1.000000 0.354890 0.480609
0.015506 0.521412 0.501653
0.095275 0.518780 0.497805
0.239123 0.516043 0.492746
0.393967 0.513098 0.487301
0.554307 0.510047 0.481663
0.714648 0.506997 0.476025
0.869491 0.504051 0.470580
1.000000 0.501315 0.465521
1.000000 0.498387 0.462558
0.021121 0.664909 0.483602
0.089017 0.662224 0.479911
0.232865 0.659488 0.474852
0.387709 0.656542 0.469407
0.548049 0.653492 0.463769
0.708390 0.650442 0.458131
0.863233 0.647496 0.452686
1.000000 0.644760 0.447628
1.000000 0.641884 0.444507
0.026544 0.803487 0.466170
0.082974 0.800751 0.462630
0.226822 0.798014 0.457572
0.381665 0.795069 0.452127
0.542006 0.792018 0.446489
0.702347 0.788968 0.440850
0.857190 0.786023 0.435405
1.000000 0.783286 0.430347
1.000000 0.780461 0.427075
0.031582 0.932224 0.449976
0.077359 0.929441 0.446577
0.221208 0.926705 0.441519
0.376051 0.923759 0.436074
0.536392 0.920709 0.430435
0.696732 0.917659 0.424797
0.851575 0.914713 0.419352
0.995424 0.911976 0.414294
1.000000 0.909199 0.410881
0.034839 1.000000 0.436992
0.071302 1.000000 0.433586
0.215284 1.000000 0.428378
0.370270 1.000000 0.422772
0.530759 1.000000 0.416968
0.691247 1.000000 0.411163
0.846233 1.000000 0.405557
0.990215 1.000000 0.400349
1.000000 1.000000 0.396679
0.000000 0.001019 0.711170
0.117889 0.001554 0.706630
0.261870 0.002184 0.701422
0.416856 0.002863 0.695816
0.577345 0.003565 0.690011
0.737834 0.004268 0.684206
0.892820 0.004946 0.678600
1.000000 0.005447 0.673780
1.000000 0.005443 0.670857
0.000000 0.109677 0.697069
0.112591 0.107190 0.692785
0.256439 0.104453 0.687727
0.411282 0.101508 0.682282
0.571623 0.098457 0.676644
0.731964 0.095407 0.671005
0.886807 0.092461 0.665560
1.000000 0.089637 0.660765
1.000000 0.086652 0.657974
0.005006 0.238415 0.680874
0.106976 0.235880 0.676732
0.250825 0.233144 0.671674
0.405668 0.230198 0.666229
0.566009 0.227148 0.660590
0.726349 0.224097 0.654952
0.881192 0.221152 0.649507
1.000000 0.218375 0.644570
1.000000 0.215390 0.641779
0.010429 0.376992 0.663442
0.100933 0.374407 0.659451
0.244781 0.371670 0.654393
0.399625 0.368724 0.648948
0.559965 0.365674 0.643310
0.720306 0.362624 0.637671
0.875149 0.359678 0.632226
1.000000 0.356942 0.627168
1.000000 0.353967 0.624347
0.016045 0.520489 0.645391
0.094675 0.517851 0.641557
0.238523 0.515115 0.636499
0.393367 0.512169 0.631054
0.553707 0.509119 0.625416
0.714048 0.506069 0.619777
0.868891 0.503123 0.614333
1.000000 0.500387 0.609274
1.000000 0.497464 0.606296
0.021660 0.663986 0.627340
0.088417 0.661296 0.623663
0.232265 0.658559 0.618605
0.387109 0.655614 0.613160
0.547449 0.652564 0.607522
0.707790 0.649513 0.601884
0.862633 0.646568 0.596439
1.000000 0.643831 0.591380
1.000000 0.640961 0.588245
0.027083 0.802563 0.609908
0.082373 0.799822 0.606383
0.226222 0.797086 0.601325
0.381065 0.794140 0.595880
0.541406 0.791090 0.590241
0.701746 0.788040 0.584603
0.856590 0.785094 0.579158
1.000000 0.782358 0.574100
1.000000 0.779538 0.570813
0.032121 0.931301 0.593713
0.076759 0.928513 0.590330
0.220608 0.925776 0.585271
0.375451 0.922831 0.579826
0.535791 0.919780 0.574188
0.696132 0.916730 0.568550
0.850975 0.913785 0.563105
0.994824 0.911048 0.558046
1.000000 0.908275 0.554618
0.035422 1.000000 0.580679
0.070747 1.000000 0.577288
0.214728 1.000000 0.572080
0.369715 1.000000 0.566474
0.530203 1.000000 0.560670
0.690692 1.000000 0.554865
0.845678 1.000000 0.549259
0.989660 1.000000 0.544051
1.000000 1.000000 0.540366
0.000000 0.001231 0.849931
0.117353 0.001760 0.845405
0.261334 0.002391 0.840197
0.416320 0.003069 0.834591
0.576809 0.003772 0.828786
0.737298 0.004474 0.822981
0.892284 0.005153 0.817376
1.000000 0.005659 0.812541
1.000000 0.005654 0.809617
0.000488 0.108786 0.835878
0.112011 0.106293 0.831609
0.255859 0.103557 0.826551
0.410703 0.100611 0.821106
0.571043 0.097561 0.815468
0.731384 0.094511 0.809829
0.886227 0.091565 0.804384
1.000000 0.088746 0.799574
1.000000 0.085760 0.796783
0.005526 0.237523 0.819684
0.106397 0.234984 0.815556
0.250245 0.232247 0.810498
0.405088 0.229301 0.805053
0.565429 0.226251 0.799414
0.725770 0.223201 0.793776
0.880613 0.220255 0.788331
1.000000 0.217483 0.783380
1.000000 0.214498 0.780589
0.010949 0.376100 0.802251
0.100353 0.373510 0.798275
0.244202 0.370774 0.793217
0.399045 0.367828 0.787772
0.559386 0.364778 0.782134
0.719726 0.361727 0.776495
0.874569 0.358782 0.771050
1.000000 0.356045 0.765992
1.000000 0.353075 0.763156
0.016565 0.519597 0.784200
0.094095 0.516955 0.780381
0.237944 0.514218 0.775323
0.392787 0.511273 0.769878
0.553128 0.508222 0.764240
0.713468 0.505172 0.758601
0.868311 0.502226 0.753157
1.000000 0.499490 0.748098
1.000000 0.496572 0.745105
0.022180 0.663094 0.766149
0.087837 0.660399 0.762487
0.231686 0.657663 0.757429
0.386529 0.654717 0.751984
0.546870 0.651667 0.746346
0.707210 0.648617 0.740708
0.862053 0.645671 0.735263
1.000000 0.642935 0.730204
1.000000 0.640069 0.727054
0.027603 0.801671 0.748717
0.081794 0.798926 0.745207
0.225642 0.796189 0.740149
0.380486 0.793244 0.734704
0.540826 0.790194 0.729065
0.701167 0.787143 0.723427
0.856010 0.784198 0.717982
0.999858 0.781461 0.712924
1.000000 0.778646 0.709622
0.032641 0.930409 0.732523
0.076179 0.927616 0.729154
0.220028 0.924880 0.724095
0.374871 0.921934 0.718650
0.535212 0.918884 0.713012
0.695552 0.915834 0.707374
0.850396 0.912888 0.701929
0.994244 0.910152 0.696870
1.000000 0.907384 0.693428
0.035986 1.000000 0.719440
0.070211 1.000000 0.716063
0.214192 1.000000 0.710855
0.369179 1.000000 0.705249
0.529667 1.000000 0.699445
0.690156 1.000000 0.693640
0.845142 1.000000 0.688034
0.989124 1.000000 0.682826
1.000000 1.000000 0.679126
0.000000 0.001427 0.978838
0.116855 0.001952 0.974326
0.260836 0.002582 0.969118
0.415822 0.003261 0.963512
0.576311 0.003963 0.957707
0.736800 0.004666 0.951903
0.891786 0.005344 0.946297
1.000000 0.005855 0.941448
1.000000 0.005851 0.938525
0.000972 0.107957 0.964831
0.111473 0.105460 0.960576
0.255321 0.102724 0.955518
0.410164 0.099778 0.950073
0.570505 0.096728 0.944434
0.730846 0.093678 0.938796
0.885689 0.090732 0.933351
1.000000 0.087917 0.928527
1.000000 0.084932 0.925736
0.006009 0.236695 0.948637
0.105858 0.234151 0.944523
0.249707 0.231414 0.939464
0.404550 0.228468 0.934019
0.564891 0.225418 0.928381
0.725231 0.222368 0.922743
0.880074 0.219422 0.917298
1.000000 0.216655 0.912333
1.000000 0.213669 0.909542
0.011432 0.375272 0.931205
0.099815 0.372677 0.927242
0.243663 0.369941 0.922184
0.398507 0.366995 0.916739
0.558847 0.363945 0.911100
0.719188 0.360895 0.905462
0.874031 0.357949 0.900017
1.000000 0.355212 0.894959
1.000000 0.352247 0.892110
0.017048 0.518769 0.913154
0.093557 0.516122 0.909348
0.237405 0.513385 0.904290
0.392249 0.510440 0.898845
0.552589 0.507389 0.893206
0.712930 0.504339 0.887568
0.867773 0.501394 0.882123
1.000000 0.498657 0.877065
1.000000 0.495744 0.874058
0.022663 0.662266 0.895102
0.087299 0.659566 0.891454
0.231147 0.656830 0.886396
0.385991 0.653884 0.880951
0.546331 0.650834 0.875313
0.706672 0.647784 0.869674
0.861515 0.644838 0.864229
1.000000 0.642102 0.859171
1.000000 0.639241 0.856007
0.028086 0.800843 0.877670
0.081255 0.798093 0.874174
0.225104 0.795357 0.869115
0.379947 0.792411 0.863670
0.540288 0.789361 0.858032
0.700628 0.786310 0.852394
0.855472 0.783365 0.846949
0.999320 0.780628 0.841890
1.000000 0.777818 0.838575
0.033124 0.929580 0.861476
0.075641 0.926783 0.858120
0.219490 0.924047 0.853062
0.374333 0.921101 0.847617
0.534673 0.918051 0.841979
0.695014 0.915001 0.836340
0.849857 0.912055 0.830895
0.993706 0.909319 0.825837
1.000000 0.906555 0.822381
0.036509 1.000000 0.848347
0.069713 1.000000 0.844984
0.213694 1.000000 0.839776
0.368681 1.000000 0.834171
0.529169 1.000000 0.828366
0.689658 1.000000 0.822561
0.844644 1.000000 0.816955
0.988626 1.000000 0.811747
1.000000 1.000000 0.808043
0.000000 0.001516 1.000000
0.116200 0.002042 1.000000
0.260195 0.002677 1.000000
0.415196 0.003361 1.000000
0.575699 0.004069 1.000000
0.736203 0.004777 1.000000
0.891204 0.005461 1.000000
1.000000 0.005981 1.000000
1.000000 0.005981 1.000000
0.001211 0.107154 1.000000
0.110820 0.104657 1.000000
0.254682 0.101925 1.000000
0.409539 0.098985 1.000000
0.569895 0.095941 1.000000
0.730251 0.092896 1.000000
0.885108 0.089956 1.000000
1.000000 0.087150 1.000000
1.000000 0.084169 1.000000
0.006292 0.235907 1.000000
0.105248 0.233363 1.000000
0.249110 0.230632 1.000000
0.403968 0.227692 1.000000
0.564323 0.224647 1.000000
0.724679 0.221602 1.000000
0.879537 0.218662 1.000000
1.000000 0.215903 1.000000
1.000000 0.212923 1.000000
0.011761 0.374501 1.000000
0.099251 0.371907 1.000000
0.243112 0.369175 1.000000
0.397970 0.366235 1.000000
0.558326 0.363191 1.000000
0.718681 0.360146 1.000000
0.873539 0.357206 1.000000
1.000000 0.354474 1.000000
1.000000 0.351513 1.000000
0.017424 0.518016 1.000000
0.093040 0.515369 1.000000
0.236902 0.512638 1.000000
0.391760 0.509698 1.000000
0.552112 0.506652 1.000000
0.712453 0.503602 1.000000
0.867296 0.500656 0.996304
1.000000 0.497920 0.991246
1.000000 0.495010 0.988227
0.023086 0.661531 1.000000
0.086822 0.658829 1.000000
0.230671 0.656093 1.000000
0.385514 0.653147 0.995131
0.545854 0.650097 0.989493
0.706195 0.647046 0.983855
0.861038 0.644101 0.978410
1.000000 0.641364 0.973352
1.000000 0.638507 0.970176
0.028514 0.800110 0.991839
0.080779 0.797356 0.988354
0.224627 0.794619 0.983296
0.379470 0.791674 0.977851
0.539811 0.788623 0.972213
0.700152 0.785573 0.966574
0.854995 0.782627 0.961129
0.998843 0.779891 0.956071
1.000000 0.777084 0.952744
0.033552 0.928847 0.975644
0.075164 0.926046 0.972301
0.219013 0.923310 0.967243
0.373856 0.920364 0.961798
0.534197 0.917314 0.956159
0.694537 0.914263 0.950521
0.849381 0.911318 0.945076
0.993229 0.908581 0.940018
1.000000 0.905822 0.936549
0.036973 1.000000 0.962476
0.069272 1.000000 0.959125
0.213254 1.000000 0.953917
0.368240 1.000000 0.948311
0.528728 1.000000 0.942506
0.689217 1.000000 0.936701
0.844203 1.000000 0.931095
0.988185 1.000000 0.925888
1.000000 1.000000 0.922212
