assets/luts/midnight.cube
# Midnight — Studio filter "midnight"
# Generated by scripts/generate-filter-luts.mjs — do not edit by hand.
LUT_3D_SIZE 9
DOMAIN_MIN 0.0 0.0 0.0
DOMAIN_MAX 1.0 1.0 1.0
0.012631 0.032311 0.130392
0.118706 0.034992 0.131610
0.229702 0.037796 0.132885
0.343345 0.040668 0.134190
0.458838 0.043586 0.135517
0.575763 0.046541 0.136860
0.693861 0.049525 0.138216
0.812952 0.052534 0.139584
0.908535 0.054949 0.140682
0.022468 0.144479 0.134490
0.128542 0.147159 0.135709
0.239539 0.149964 0.136984
0.353181 0.152835 0.138289
0.468674 0.155753 0.139615
0.585600 0.158708 0.140958
0.703697 0.161692 0.142315
0.822788 0.164701 0.143683
0.918371 0.167117 0.144780
0.032761 0.261851 0.138779
0.138835 0.264531 0.139998
0.249832 0.267336 0.141272
0.363474 0.270207 0.142578
0.478967 0.273126 0.143904
0.595893 0.276080 0.145247
0.713990 0.279064 0.146603
0.833081 0.282073 0.147971
0.928664 0.284489 0.149069
0.043299 0.382020 0.143170
0.149373 0.384701 0.144388
0.260370 0.387505 0.145663
0.374012 0.390377 0.146969
0.489505 0.393295 0.148295
0.606431 0.396250 0.149638
0.724528 0.399234 0.150994
0.843619 0.402243 0.152362
0.939202 0.404658 0.153460
0.054009 0.504147 0.147633
0.160083 0.506828 0.148851
0.271080 0.509632 0.150126
0.384722 0.512504 0.151431
0.500215 0.515422 0.152757
0.617141 0.518377 0.154100
0.735238 0.521361 0.155457
0.854329 0.524370 0.156825
0.949912 0.526785 0.157922
0.064851 0.627789 0.152150
0.170926 0.630469 0.153369
0.281922 0.633274 0.154643
0.395565 0.636145 0.155949
0.511058 0.639064 0.157275
0.627983 0.642018 0.158618
0.746081 0.645002 0.159975
0.865172 0.648011 0.161342
0.960755 0.650427 0.162440
0.075803 0.752670 0.156713
0.181877 0.755350 0.157932
0.292874 0.758155 0.159207
0.406516 0.761026 0.160512
0.522009 0.763944 0.161838
0.638935 0.766899 0.163181
0.757032 0.769883 0.164538
0.876123 0.772892 0.165905
0.971706 0.775307 0.167003
0.086846 0.878601 0.161315
0.192921 0.881281 0.162533
0.303917 0.884086 0.163808
0.417560 0.886958 0.165113
0.533053 0.889876 0.166440
0.649978 0.892830 0.167783
0.768076 0.895815 0.169139
0.887167 0.898824 0.170507
0.982750 0.901239 0.171605
0.095710 0.979674 0.165008
0.201784 0.982355 0.166226
0.312781 0.985159 0.167501
0.426423 0.988031 0.168806
0.541916 0.990949 0.170133
0.658842 0.993904 0.171476
0.776939 0.996888 0.172832
0.896030 0.999897 0.174200
0.991613 1.000000 0.175298
0.013624 0.033222 0.233956
0.119699 0.035902 0.235175
0.230695 0.038707 0.236449
0.344338 0.041578 0.237755
0.459831 0.044497 0.239081
0.576756 0.047451 0.240424
0.694854 0.050435 0.241780
0.813945 0.053444 0.243148
0.909528 0.055860 0.244246
0.023461 0.145389 0.238055
0.129535 0.148069 0.239273
0.240532 0.150874 0.240548
0.354174 0.153745 0.241853
0.469667 0.156664 0.243180
0.586593 0.159618 0.244523
0.704690 0.162602 0.245879
0.823781 0.165612 0.247247
0.919364 0.168027 0.248345
0.033754 0.262761 0.242343
0.139828 0.265441 0.243562
0.250825 0.268246 0.244837
0.364467 0.271118 0.246142
0.479960 0.274036 0.247468
0.596886 0.276990 0.248811
0.714983 0.279974 0.250168
0.834074 0.282984 0.251536
0.929657 0.285399 0.252633
0.044292 0.382931 0.246734
0.150366 0.385611 0.247953
0.261363 0.388416 0.249228
0.375005 0.391287 0.250533
0.490498 0.394206 0.251859
0.607424 0.397160 0.253202
0.725521 0.400144 0.254559
0.844612 0.403153 0.255926
0.940195 0.405569 0.257024
0.055002 0.505058 0.251197
0.161076 0.507738 0.252415
0.272073 0.510543 0.253690
0.385715 0.513414 0.254995
0.501208 0.516332 0.256322
0.618134 0.519287 0.257665
0.736231 0.522271 0.259021
0.855322 0.525280 0.260389
0.950905 0.527695 0.261487
0.065844 0.628699 0.255715
0.171919 0.631379 0.256933
0.282915 0.634184 0.258208
0.396558 0.637056 0.259513
0.512051 0.639974 0.260839
0.628976 0.642928 0.262182
0.747074 0.645912 0.263539
0.866165 0.648922 0.264907
0.961748 0.651337 0.266004
0.076796 0.753580 0.260278
0.182870 0.756260 0.261496
0.293867 0.759065 0.262771
0.407509 0.761936 0.264076
0.523002 0.764855 0.265403
0.639928 0.767809 0.266745
0.758025 0.770793 0.268102
0.877116 0.773803 0.269470
0.972699 0.776218 0.270568
0.087839 0.879511 0.264879
0.193914 0.882192 0.266097
0.304910 0.884996 0.267372
0.418553 0.887868 0.268677
0.534046 0.890786 0.270004
0.650971 0.893741 0.271347
0.769069 0.896725 0.272703
0.888160 0.899734 0.274071
0.983743 0.902149 0.275169
0.096703 0.980584 0.268572
0.202777 0.983265 0.269791
0.313774 0.986069 0.271065
0.427416 0.988941 0.272371
0.542909 0.991859 0.273697
0.659835 0.994814 0.275040
0.777932 0.997798 0.276396
0.897023 1.000000 0.277764
0.992606 1.000000 0.278862
0.014663 0.034174 0.342326
0.120738 0.036855 0.343544
0.231735 0.039659 0.344819
0.345377 0.042531 0.346125
0.460870 0.045449 0.347451
0.577795 0.048404 0.348794
0.695893 0.051388 0.350150
0.814984 0.054397 0.351518
0.910567 0.056812 0.352616
0.024500 0.146341 0.346425
0.130574 0.149022 0.347643
0.241571 0.151826 0.348918
0.355213 0.154698 0.350223
0.470706 0.157616 0.351550
0.587632 0.160571 0.352893
0.705729 0.163555 0.354249
0.824820 0.166564 0.355617
0.920403 0.168979 0.356715
0.034793 0.263714 0.350713
0.140867 0.266394 0.351932
0.251864 0.269199 0.353207
0.365506 0.272070 0.354512
0.480999 0.274988 0.355838
0.597925 0.277943 0.357181
0.716022 0.280927 0.358538
0.835113 0.283936 0.359905
0.930696 0.286351 0.361003
0.045331 0.383883 0.355104
0.151405 0.386564 0.356323
0.262402 0.389368 0.357597
0.376044 0.392240 0.358903
0.491537 0.395158 0.360229
0.608463 0.398113 0.361572
0.726560 0.401097 0.362929
0.845651 0.404106 0.364296
0.941234 0.406521 0.365394
0.056041 0.506010 0.359567
0.162115 0.508690 0.360785
0.273112 0.511495 0.362060
0.386754 0.514367 0.363365
0.502247 0.517285 0.364692
0.619173 0.520239 0.366035
0.737270 0.523223 0.367391
0.856361 0.526233 0.368759
0.951944 0.528648 0.369857
0.066883 0.629652 0.364084
0.172958 0.632332 0.365303
0.283955 0.635137 0.366578
0.397597 0.638008 0.367883
0.513090 0.640926 0.369209
0.630015 0.643881 0.370552
0.748113 0.646865 0.371909
0.867204 0.649874 0.373277
0.962787 0.652289 0.374374
0.077835 0.754532 0.368648
0.183909 0.757213 0.369866
0.294906 0.760017 0.371141
0.408548 0.762889 0.372446
0.524041 0.765807 0.373772
0.640967 0.768762 0.375115
0.759064 0.771746 0.376472
0.878155 0.774755 0.377840
0.973738 0.777170 0.378937
0.088878 0.880464 0.373249
0.194953 0.883144 0.374467
0.305949 0.885949 0.375742
0.419592 0.888820 0.377047
0.535085 0.891739 0.378374
0.652010 0.894693 0.379717
0.770108 0.897677 0.381073
0.889199 0.900686 0.382441
0.984782 0.903102 0.383539
0.097742 0.981537 0.376942
0.203816 0.984217 0.378160
0.314813 0.987022 0.379435
0.428455 0.989893 0.380741
0.543948 0.992812 0.382067
0.660874 0.995766 0.383410
0.778971 0.998750 0.384766
0.898062 1.000000 0.386134
0.993645 1.000000 0.387232
0.015727 0.035149 0.453279
0.121802 0.037830 0.454497
0.232798 0.040634 0.455772
0.346441 0.043506 0.457078
0.461934 0.046424 0.458404
0.578859 0.049379 0.459747
0.696957 0.052363 0.461103
0.816048 0.055372 0.462471
0.911631 0.057787 0.463569
0.025564 0.147317 0.457378
0.131638 0.149997 0.458596
0.242635 0.152802 0.459871
0.356277 0.155673 0.461176
0.471770 0.158591 0.462503
0.588696 0.161546 0.463845
0.706793 0.164530 0.465202
0.825884 0.167539 0.466570
0.921467 0.169954 0.467668
0.035857 0.264689 0.461666
0.141931 0.267369 0.462885
0.252928 0.270174 0.464159
0.366570 0.273045 0.465465
0.482063 0.275964 0.466791
0.598989 0.278918 0.468134
0.717086 0.281902 0.469491
0.836177 0.284911 0.470858
0.931760 0.287327 0.471956
0.046395 0.384858 0.466057
0.152469 0.387539 0.467276
0.263466 0.390343 0.468550
0.377108 0.393215 0.469856
0.492601 0.396133 0.471182
0.609527 0.399088 0.472525
0.727624 0.402072 0.473881
0.846715 0.405081 0.475249
0.942298 0.407496 0.476347
0.057105 0.506985 0.470520
0.163179 0.509666 0.471738
0.274176 0.512470 0.473013
0.387818 0.515342 0.474318
0.503311 0.518260 0.475645
0.620237 0.521215 0.476988
0.738334 0.524199 0.478344
0.857425 0.527208 0.479712
0.953008 0.529623 0.480810
0.067947 0.630627 0.475037
0.174022 0.633307 0.476256
0.285018 0.636112 0.477531
0.398661 0.638983 0.478836
0.514154 0.641902 0.480162
0.631079 0.644856 0.481505
0.749177 0.647840 0.482862
0.868268 0.650849 0.484230
0.963851 0.653265 0.485327
0.078899 0.755508 0.479600
0.184973 0.758188 0.480819
0.295970 0.760993 0.482094
0.409612 0.763864 0.483399
0.525105 0.766782 0.484725
0.642031 0.769737 0.486068
0.760128 0.772721 0.487425
0.879219 0.775730 0.488793
0.974802 0.778145 0.489890
0.089942 0.881439 0.484202
0.196017 0.884119 0.485420
0.307013 0.886924 0.486695
0.420655 0.889796 0.488000
0.536149 0.892714 0.489327
0.653074 0.895668 0.490670
0.771172 0.898652 0.492026
0.890263 0.901662 0.493394
0.985846 0.904077 0.494492
0.098806 0.982512 0.487895
0.204880 0.985192 0.489113
0.315877 0.987997 0.490388
0.429519 0.990869 0.491693
0.545012 0.993787 0.493020
0.661938 0.996741 0.494363
0.780035 0.999726 0.495719
0.899126 1.000000 0.497087
0.994709 1.000000 0.498185
0.016808 0.036140 0.566039
0.122883 0.038821 0.567257
0.233880 0.041625 0.568532
0.347522 0.044497 0.569837
0.463015 0.047415 0.571164
0.579940 0.050370 0.572507
0.698038 0.053354 0.573863
0.817129 0.056363 0.575231
0.912712 0.058778 0.576329
0.026645 0.148308 0.570138
0.132719 0.150988 0.571356
0.243716 0.153793 0.572631
0.357358 0.156664 0.573936
0.472851 0.159582 0.575262
0.589777 0.162537 0.576605
0.707874 0.165521 0.577962
0.826965 0.168530 0.579330
0.922548 0.170946 0.580427
0.036938 0.265680 0.574426
0.143012 0.268360 0.575645
0.254009 0.271165 0.576919
0.367651 0.274036 0.578225
0.483144 0.276955 0.579551
0.600070 0.279909 0.580894
0.718167 0.282893 0.582251
0.837258 0.285902 0.583618
0.932841 0.288318 0.584716
0.047476 0.385849 0.578817
0.153550 0.388530 0.580035
0.264547 0.391334 0.581310
0.378189 0.394206 0.582616
0.493682 0.397124 0.583942
0.610608 0.400079 0.585285
0.728705 0.403063 0.586641
0.847796 0.406072 0.588009
0.943379 0.408487 0.589107
0.058186 0.507976 0.583280
0.164260 0.510657 0.584498
0.275257 0.513461 0.585773
0.388899 0.516333 0.587078
0.504392 0.519251 0.588405
0.621318 0.522206 0.589747
0.739415 0.525190 0.591104
0.858506 0.528199 0.592472
0.954089 0.530614 0.593570
0.069028 0.631618 0.587797
0.175103 0.634298 0.589016
0.286100 0.637103 0.590291
0.399742 0.639974 0.591596
0.515235 0.642893 0.592922
0.632160 0.645847 0.594265
0.750258 0.648831 0.595622
0.869349 0.651840 0.596989
0.964932 0.654256 0.598087
0.079980 0.756499 0.592360
0.186054 0.759179 0.593579
0.297051 0.761984 0.594854
0.410693 0.764855 0.596159
0.526186 0.767773 0.597485
0.643112 0.770728 0.598828
0.761209 0.773712 0.600185
0.880300 0.776721 0.601553
0.975883 0.779136 0.602650
0.091023 0.882430 0.596962
0.197098 0.885110 0.598180
0.308094 0.887915 0.599455
0.421737 0.890787 0.600760
0.537230 0.893705 0.602087
0.654155 0.896659 0.603430
0.772253 0.899644 0.604786
0.891344 0.902653 0.606154
0.986927 0.905068 0.607252
0.099887 0.983503 0.600655
0.205961 0.986184 0.601873
0.316958 0.988988 0.603148
0.430600 0.991860 0.604453
0.546093 0.994778 0.605780
0.663019 0.997733 0.607123
0.781116 1.000000 0.608479
0.900207 1.000000 0.609847
0.995790 1.000000 0.610945
0.017903 0.037144 0.680198
0.123977 0.039824 0.681416
0.234974 0.042629 0.682691
0.348616 0.045500 0.683996
0.464109 0.048419 0.685322
0.581035 0.051373 0.686665
0.699132 0.054357 0.688022
0.818223 0.057366 0.689390
0.913806 0.059782 0.690487
0.027739 0.149311 0.684296
0.133814 0.151991 0.685514
0.244811 0.154796 0.686789
0.358453 0.157668 0.688094
0.473946 0.160586 0.689421
0.590871 0.163540 0.690764
0.708969 0.166524 0.692120
0.828060 0.169534 0.693488
0.923643 0.171949 0.694586
0.038032 0.266683 0.688585
0.144107 0.269363 0.689803
0.255103 0.272168 0.691078
0.368746 0.275040 0.692383
0.484239 0.277958 0.693710
0.601164 0.280912 0.695053
0.719262 0.283897 0.696409
0.838353 0.286906 0.697777
0.933936 0.289321 0.698875
0.048571 0.386853 0.692976
0.154645 0.389533 0.694194
0.265642 0.392338 0.695469
0.379284 0.395209 0.696774
0.494777 0.398128 0.698101
0.611702 0.401082 0.699444
0.729800 0.404066 0.700800
0.848891 0.407075 0.702168
0.944474 0.409491 0.703266
0.059280 0.508980 0.697438
0.165355 0.511660 0.698656
0.276351 0.514465 0.699931
0.389994 0.517336 0.701237
0.505487 0.520254 0.702563
0.622412 0.523209 0.703906
0.740510 0.526193 0.705262
0.859601 0.529202 0.706630
0.955184 0.531618 0.707728
0.070123 0.632621 0.701956
0.176197 0.635301 0.703174
0.287194 0.638106 0.704449
0.400836 0.640978 0.705754
0.516329 0.643896 0.707081
0.633255 0.646850 0.708424
0.751352 0.649835 0.709780
0.870443 0.652844 0.711148
0.966026 0.655259 0.712246
0.081074 0.757502 0.706519
0.187149 0.760182 0.707737
0.298145 0.762987 0.709012
0.411788 0.765859 0.710317
0.527281 0.768777 0.711644
0.644206 0.771731 0.712987
0.762304 0.774715 0.714343
0.881395 0.777725 0.715711
0.976978 0.780140 0.716809
0.092118 0.883433 0.711120
0.198192 0.886114 0.712339
0.309189 0.888918 0.713614
0.422831 0.891790 0.714919
0.538324 0.894708 0.716245
0.655250 0.897663 0.717588
0.773347 0.900647 0.718945
0.892438 0.903656 0.720312
0.988021 0.906071 0.721410
0.100981 0.984507 0.714814
0.207056 0.987187 0.716032
0.318052 0.989992 0.717307
0.431695 0.992863 0.718612
0.547188 0.995781 0.719938
0.664113 0.998736 0.721281
0.782211 1.000000 0.722638
0.901302 1.000000 0.724006
0.996885 1.000000 0.725103
0.019009 0.038157 0.795500
0.125083 0.040838 0.796719
0.236080 0.043642 0.797993
0.349722 0.046514 0.799299
0.465215 0.049432 0.800625
0.582141 0.052387 0.801968
0.700238 0.055371 0.803325
0.819329 0.058380 0.804692
0.914912 0.060795 0.805790
0.028845 0.150324 0.799599
0.134919 0.153005 0.800817
0.245916 0.155809 0.802092
0.359558 0.158681 0.803397
0.475051 0.161599 0.804724
0.591977 0.164554 0.806067
0.710074 0.167538 0.807423
0.829165 0.170547 0.808791
0.924748 0.172962 0.809889
0.039138 0.267697 0.803887
0.145212 0.270377 0.805106
0.256209 0.273182 0.806381
0.369851 0.276053 0.807686
0.485344 0.278971 0.809012
0.602270 0.281926 0.810355
0.720367 0.284910 0.811712
0.839458 0.287919 0.813080
0.935041 0.290334 0.814177
0.049676 0.387866 0.808278
0.155751 0.390547 0.809497
0.266747 0.393351 0.810772
0.380389 0.396223 0.812077
0.495883 0.399141 0.813403
0.612808 0.402096 0.814746
0.730905 0.405080 0.816103
0.849997 0.408089 0.817470
0.945580 0.410504 0.818568
0.060386 0.509993 0.812741
0.166460 0.512673 0.813959
0.277457 0.515478 0.815234
0.391099 0.518350 0.816539
0.506592 0.521268 0.817866
0.623518 0.524222 0.819209
0.741615 0.527207 0.820565
0.860706 0.530216 0.821933
0.956289 0.532631 0.823031
0.071229 0.633635 0.817259
0.177303 0.636315 0.818477
0.288300 0.639120 0.819752
0.401942 0.641991 0.821057
0.517435 0.644909 0.822384
0.634360 0.647864 0.823726
0.752458 0.650848 0.825083
0.871549 0.653857 0.826451
0.967132 0.656272 0.827549
0.082180 0.758515 0.821822
0.188254 0.761196 0.823040
0.299251 0.764000 0.824315
0.412893 0.766872 0.825620
0.528386 0.769790 0.826947
0.645312 0.772745 0.828290
0.763409 0.775729 0.829646
0.882500 0.778738 0.831014
0.978083 0.781153 0.832112
0.093223 0.884447 0.826423
0.199298 0.887127 0.827641
0.310294 0.889932 0.828916
0.423937 0.892803 0.830222
0.539430 0.895722 0.831548
0.656355 0.898676 0.832891
0.774453 0.901660 0.834247
0.893544 0.904669 0.835615
0.989127 0.907085 0.836713
0.102087 0.985520 0.830116
0.208161 0.988200 0.831335
0.319158 0.991005 0.832609
0.432800 0.993877 0.833915
0.548293 0.996795 0.835241
0.665219 0.999749 0.836584
0.783316 1.000000 0.837941
0.902407 1.000000 0.839308
0.997990 1.000000 0.840406
0.020123 0.039179 0.911773
0.126198 0.041859 0.912991
0.237195 0.044664 0.914266
0.350837 0.047536 0.915571
0.466330 0.050454 0.916898
0.583255 0.053408 0.918241
0.701353 0.056393 0.919597
0.820444 0.059402 0.920965
0.916027 0.061817 0.922063
0.029960 0.151346 0.915872
0.136034 0.154027 0.917090
0.247031 0.156831 0.918365
0.360673 0.159703 0.919670
0.476166 0.162621 0.920996
0.593092 0.165576 0.922339
0.711189 0.168560 0.923696
0.830280 0.171569 0.925064
0.925863 0.173984 0.926161
0.040253 0.268719 0.920160
0.146327 0.271399 0.921379
0.257324 0.274203 0.922653
0.370966 0.277075 0.923959
0.486459 0.279993 0.925285
0.603385 0.282948 0.926628
0.721482 0.285932 0.927985
0.840573 0.288941 0.929352
0.936156 0.291356 0.930450
0.050791 0.388888 0.924551
0.156865 0.391569 0.925769
0.267862 0.394373 0.927044
0.381504 0.397245 0.928350
0.496997 0.400163 0.929676
0.613923 0.403118 0.931019
0.732020 0.406102 0.932375
0.851111 0.409111 0.933743
0.946694 0.411526 0.934841
0.061501 0.511015 0.929014
0.167575 0.513695 0.930232
0.278572 0.516500 0.931507
0.392214 0.519372 0.932812
0.507707 0.522290 0.934139
0.624633 0.525244 0.935481
0.742730 0.528228 0.936838
0.861821 0.531238 0.938206
0.957404 0.533653 0.939304
0.072343 0.634657 0.933531
0.178418 0.637337 0.934750
0.289415 0.640142 0.936025
0.403057 0.643013 0.937330
0.518550 0.645931 0.938656
0.635475 0.648886 0.939999
0.753573 0.651870 0.941356
0.872664 0.654879 0.942723
0.968247 0.657294 0.943821
0.083295 0.759537 0.938094
0.189369 0.762218 0.939313
0.300366 0.765022 0.940588
0.414008 0.767894 0.941893
0.529501 0.770812 0.943219
0.646427 0.773767 0.944562
0.764524 0.776751 0.945919
0.883615 0.779760 0.947287
0.979198 0.782175 0.948384
0.094338 0.885469 0.942696
0.200413 0.888149 0.943914
0.311409 0.890954 0.945189
0.425052 0.893825 0.946494
0.540545 0.896744 0.947821
0.657470 0.899698 0.949164
0.775568 0.902682 0.950520
0.894659 0.905691 0.951888
0.990242 0.908107 0.952986
0.103202 0.986542 0.946389
0.209276 0.989222 0.947607
0.320273 0.992027 0.948882
0.433915 0.994898 0.950187
0.549408 0.997817 0.951514
0.666334 1.000000 0.952857
0.784431 1.000000 0.954213
0.903522 1.000000 0.955581
0.999105 1.000000 0.956679
0.021018 0.039999 1.000000
0.127093 0.042680 1.000000
0.238089 0.045484 1.000000
0.351732 0.048356 1.000000
0.467225 0.051274 1.000000
0.584150 0.054229 1.000000
0.702248 0.057213 1.000000
0.821339 0.060222 1.000000
0.916922 0.062637 1.000000
0.030855 0.152167 1.000000
0.136929 0.154847 1.000000
0.247926 0.157652 1.000000
0.361568 0.160523 1.000000
0.477061 0.163441 1.000000
0.593987 0.166396 1.000000
0.712084 0.169380 1.000000
0.831175 0.172389 1.000000
0.926758 0.174804 1.000000
0.041148 0.269539 1.000000
0.147222 0.272219 1.000000
0.258219 0.275024 1.000000
0.371861 0.277895 1.000000
0.487354 0.280814 1.000000
0.604279 0.283768 1.000000
0.722377 0.286752 1.000000
0.841468 0.289761 1.000000
0.937051 0.292177 1.000000
0.051686 0.389708 1.000000
0.157760 0.392389 1.000000
0.268757 0.395193 1.000000
0.382399 0.398065 1.000000
0.497892 0.400983 1.000000
0.614818 0.403938 1.000000
0.732915 0.406922 1.000000
0.852006 0.409931 1.000000
0.947589 0.412346 1.000000
0.062396 0.511835 1.000000
0.168470 0.514516 1.000000
0.279467 0.517320 1.000000
0.393109 0.520192 1.000000
0.508602 0.523110 1.000000
0.625527 0.526065 1.000000
0.743625 0.529049 1.000000
0.862716 0.532058 1.000000
0.958299 0.534473 1.000000
0.073238 0.635477 1.000000
0.179313 0.638157 1.000000
0.290309 0.640962 1.000000
0.403952 0.643833 1.000000
0.519445 0.646752 1.000000
0.636370 0.649706 1.000000
0.754468 0.652690 1.000000
0.873559 0.655699 1.000000
0.969142 0.658115 1.000000
0.084190 0.760358 1.000000
0.190264 0.763038 1.000000
0.301261 0.765843 1.000000
0.414903 0.768714 1.000000
0.530396 0.771632 1.000000
0.647321 0.774587 1.000000
0.765419 0.777571 1.000000
0.884510 0.780580 1.000000
0.980093 0.782995 1.000000
0.095233 0.886289 1.000000
0.201307 0.888969 1.000000
0.312304 0.891774 1.000000
0.425946 0.894646 1.000000
0.541439 0.897564 1.000000
0.658365 0.900518 1.000000
0.776462 0.903502 1.000000
0.895553 0.906512 1.000000
0.991136 0.908927 1.000000
0.104097 0.987362 1.000000
0.210171 0.990042 1.000000
0.321168 0.992847 1.000000
0.434810 0.995719 1.000000
0.550303 0.998637 1.000000
0.667228 1.000000 1.000000
0.785326 1.000000 1.000000
0.904417 1.000000 1.000000
1.000000 1.000000 1.000000
