assets/luts/midnight.cube
# Midnight — Studio filter "midnight"
# Generated by scripts/generate-filter-luts.mjs — do not edit by hand.
LUT_3D_SIZE 17
DOMAIN_MIN 0.0 0.0 0.0
DOMAIN_MAX 1.0 1.0 1.0
0.012631 0.032311 0.130392
0.064741 0.033628 0.130990
0.118706 0.034992 0.131610
0.173795 0.036384 0.132243
0.229702 0.037796 0.132885
0.286256 0.039225 0.133535
0.343345 0.040668 0.134190
0.400891 0.042122 0.134851
0.458838 0.043586 0.135517
0.517140 0.045059 0.136187
0.575763 0.046541 0.136860
0.634678 0.048029 0.137537
0.693861 0.049525 0.138216
0.753291 0.051027 0.138899
0.812952 0.052534 0.139584
0.872828 0.054047 0.140272
0.908535 0.054949 0.140682
0.017464 0.087414 0.132405
0.069573 0.088731 0.133004
0.123538 0.090095 0.133624
0.178627 0.091487 0.134256
0.234535 0.092899 0.134899
0.291088 0.094328 0.135548
0.348177 0.095771 0.136204
0.405723 0.097225 0.136865
0.463670 0.098689 0.137530
0.521972 0.100162 0.138200
0.580596 0.101644 0.138873
0.639510 0.103132 0.139550
0.698693 0.104628 0.140230
0.758123 0.106129 0.140912
0.817784 0.107637 0.141598
0.877660 0.109150 0.142285
0.913367 0.110052 0.142695
0.022468 0.144479 0.134490
0.074578 0.145795 0.135089
0.128542 0.147159 0.135709
0.183632 0.148551 0.136342
0.239539 0.149964 0.136984
0.296092 0.151393 0.137633
0.353181 0.152835 0.138289
0.410728 0.154289 0.138950
0.468674 0.155753 0.139615
0.526977 0.157227 0.140285
0.585600 0.158708 0.140958
0.644515 0.160197 0.141635
0.703697 0.161692 0.142315
0.763128 0.163194 0.142997
0.822788 0.164701 0.143683
0.882664 0.166214 0.144370
0.918371 0.167117 0.144780
0.027576 0.202732 0.136619
0.079686 0.204049 0.137218
0.133651 0.205412 0.137837
0.188740 0.206804 0.138470
0.244647 0.208217 0.139112
0.301201 0.209646 0.139762
0.358290 0.211089 0.140417
0.415836 0.212543 0.141078
0.473783 0.214007 0.141744
0.532085 0.215480 0.142414
0.590708 0.216962 0.143087
0.649623 0.218450 0.143764
0.708806 0.219946 0.144443
0.768236 0.221447 0.145126
0.827897 0.222955 0.145811
0.887773 0.224468 0.146499
0.923480 0.225370 0.146909
0.032761 0.261851 0.138779
0.084870 0.263168 0.139378
0.138835 0.264531 0.139998
0.193924 0.265923 0.140630
0.249832 0.267336 0.141272
0.306385 0.268765 0.141922
0.363474 0.270207 0.142578
0.421020 0.271661 0.143239
0.478967 0.273126 0.143904
0.537270 0.274599 0.144574
0.595893 0.276080 0.145247
0.654807 0.277569 0.145924
0.713990 0.279064 0.146603
0.773420 0.280566 0.147286
0.833081 0.282073 0.147971
0.892957 0.283586 0.148659
0.928664 0.284489 0.149069
0.038005 0.321653 0.140964
0.090115 0.322969 0.141563
0.144079 0.324333 0.142183
0.199169 0.325725 0.142815
0.255076 0.327138 0.143457
0.311630 0.328567 0.144107
0.368718 0.330009 0.144763
0.426265 0.331463 0.145424
0.484211 0.332927 0.146089
0.542514 0.334401 0.146759
0.601137 0.335882 0.147432
0.660052 0.337371 0.148109
0.719234 0.338866 0.148789
0.778665 0.340368 0.149471
0.838325 0.341875 0.150156
0.898202 0.343388 0.150844
0.933908 0.344290 0.151254
0.043299 0.382020 0.143170
0.095409 0.383337 0.143769
0.149373 0.384701 0.144388
0.204463 0.386093 0.145021
0.260370 0.387505 0.145663
0.316923 0.388934 0.146313
0.374012 0.390377 0.146969
0.431559 0.391831 0.147629
0.489505 0.393295 0.148295
0.547808 0.394769 0.148965
0.606431 0.396250 0.149638
0.665346 0.397738 0.150315
0.724528 0.399234 0.150994
0.783959 0.400736 0.151677
0.843619 0.402243 0.152362
0.903495 0.403756 0.153050
0.939202 0.404658 0.153460
0.048635 0.442872 0.145394
0.100745 0.444189 0.145992
0.154710 0.445553 0.146612
0.209799 0.446945 0.147245
0.265706 0.448357 0.147887
0.322260 0.449786 0.148536
0.379349 0.451229 0.149192
0.436895 0.452683 0.149853
0.494842 0.454147 0.150519
0.553144 0.455620 0.151188
0.611767 0.457102 0.151861
0.670682 0.458590 0.152538
0.729865 0.460086 0.153218
0.789295 0.461587 0.153900
0.848956 0.463095 0.154586
0.908832 0.464608 0.155273
0.944539 0.465510 0.155684
0.054009 0.504147 0.147633
0.106119 0.505464 0.148231
0.160083 0.506828 0.148851
0.215172 0.508220 0.149484
0.271080 0.509632 0.150126
0.327633 0.511061 0.150775
0.384722 0.512504 0.151431
0.442269 0.513958 0.152092
0.500215 0.515422 0.152757
0.558518 0.516895 0.153427
0.617141 0.518377 0.154100
0.676055 0.519865 0.154777
0.735238 0.521361 0.155457
0.794668 0.522862 0.156139
0.854329 0.524370 0.156825
0.914205 0.525883 0.157512
0.949912 0.526785 0.157922
0.059415 0.565799 0.149885
0.111525 0.567115 0.150484
0.165490 0.568479 0.151104
0.220579 0.569871 0.151736
0.276486 0.571284 0.152378
0.333040 0.572713 0.153028
0.390129 0.574155 0.153684
0.447675 0.575609 0.154345
0.505622 0.577073 0.155010
0.563924 0.578547 0.155680
0.622547 0.580028 0.156353
0.681462 0.581517 0.157030
0.740645 0.583012 0.157710
0.800075 0.584514 0.158392
0.859736 0.586021 0.159077
0.919612 0.587534 0.159765
0.955319 0.588436 0.160175
0.064851 0.627789 0.152150
0.116961 0.629106 0.152749
0.170926 0.630469 0.153369
0.226015 0.631861 0.154001
0.281922 0.633274 0.154643
0.338476 0.634703 0.155293
0.395565 0.636145 0.155949
0.453111 0.637599 0.156610
0.511058 0.639064 0.157275
0.569360 0.640537 0.157945
0.627983 0.642018 0.158618
0.686898 0.643507 0.159295
0.746081 0.645002 0.159975
0.805511 0.646504 0.160657
0.865172 0.648011 0.161342
0.925048 0.649524 0.162030
0.960755 0.650427 0.162440
0.070315 0.690088 0.154427
0.122424 0.691404 0.155025
0.176389 0.692768 0.155645
0.231478 0.694160 0.156278
0.287386 0.695573 0.156920
0.343939 0.697002 0.157569
0.401028 0.698444 0.158225
0.458574 0.699898 0.158886
0.516521 0.701362 0.159552
0.574824 0.702836 0.160221
0.633447 0.704317 0.160895
0.692361 0.705806 0.161571
0.751544 0.707301 0.162251
0.810974 0.708803 0.162934
0.870635 0.710310 0.163619
0.930511 0.711823 0.164306
0.966218 0.712725 0.164717
0.075803 0.752670 0.156713
0.127913 0.753986 0.157312
0.181877 0.755350 0.157932
0.236966 0.756742 0.158564
0.292874 0.758155 0.159207
0.349427 0.759584 0.159856
0.406516 0.761026 0.160512
0.464063 0.762480 0.161173
0.522009 0.763944 0.161838
0.580312 0.765418 0.162508
0.638935 0.766899 0.163181
0.697849 0.768388 0.163858
0.757032 0.769883 0.164538
0.816462 0.771385 0.165220
0.876123 0.772892 0.165905
0.935999 0.774405 0.166593
0.971706 0.775307 0.167003
0.081314 0.815514 0.159010
0.133424 0.816830 0.159608
0.187388 0.818194 0.160228
0.242477 0.819586 0.160861
0.298385 0.820999 0.161503
0.354938 0.822428 0.162152
0.412027 0.823870 0.162808
0.469574 0.825324 0.163469
0.527520 0.826788 0.164135
0.585823 0.828262 0.164804
0.644446 0.829743 0.165478
0.703361 0.831232 0.166154
0.762543 0.832727 0.166834
0.821974 0.834229 0.167517
0.881634 0.835736 0.168202
0.941510 0.837249 0.168889
0.977217 0.838151 0.169300
0.086846 0.878601 0.161315
0.138956 0.879918 0.161913
0.192921 0.881281 0.162533
0.248010 0.882673 0.163166
0.303917 0.884086 0.163808
0.360471 0.885515 0.164458
0.417560 0.886958 0.165113
0.475106 0.888412 0.165774
0.533053 0.889876 0.166440
0.591355 0.891349 0.167109
0.649978 0.892830 0.167783
0.708893 0.894319 0.168459
0.768076 0.895815 0.169139
0.827506 0.897316 0.169822
0.887167 0.898824 0.170507
0.947043 0.900337 0.171195
0.982750 0.901239 0.171605
0.092399 0.941916 0.163628
0.144508 0.943233 0.164227
0.198473 0.944597 0.164847
0.253562 0.945989 0.165479
0.309470 0.947401 0.166121
0.366023 0.948830 0.166771
0.423112 0.950273 0.167427
0.480658 0.951727 0.168088
0.538605 0.953191 0.168753
0.596907 0.954664 0.169423
0.655531 0.956146 0.170096
0.714445 0.957634 0.170773
0.773628 0.959130 0.171453
0.833058 0.960632 0.172135
0.892719 0.962139 0.172820
0.952595 0.963652 0.173508
0.988302 0.964554 0.173918
0.095710 0.979674 0.165008
0.147820 0.980991 0.165606
0.201784 0.982355 0.166226
0.256873 0.983747 0.166859
0.312781 0.985159 0.167501
0.369334 0.986588 0.168151
0.426423 0.988031 0.168806
0.483970 0.989485 0.169467
0.541916 0.990949 0.170133
0.600219 0.992422 0.170803
0.658842 0.993904 0.171476
0.717756 0.995392 0.172152
0.776939 0.996888 0.172832
0.836369 0.998389 0.173515
0.896030 0.999897 0.174200
0.955906 1.000000 0.174888
0.991613 1.000000 0.175298
0.013119 0.032759 0.181269
0.065229 0.034075 0.181867
0.119194 0.035439 0.182487
0.174283 0.036831 0.183120
0.230190 0.038244 0.183762
0.286744 0.039673 0.184411
0.343833 0.041115 0.185067
0.401379 0.042569 0.185728
0.459326 0.044033 0.186394
0.517628 0.045507 0.187063
0.576251 0.046988 0.187736
0.635166 0.048477 0.188413
0.694349 0.049972 0.189093
0.753779 0.051474 0.189775
0.813440 0.052981 0.190461
0.873316 0.054494 0.191148
0.909023 0.055396 0.191559
0.017951 0.087862 0.183282
0.070061 0.089178 0.183881
0.124026 0.090542 0.184500
0.179115 0.091934 0.185133
0.235023 0.093347 0.185775
0.291576 0.094776 0.186425
0.348665 0.096218 0.187080
0.406211 0.097672 0.187741
0.464158 0.099136 0.188407
0.522460 0.100610 0.189077
0.581083 0.102091 0.189750
0.639998 0.103580 0.190427
0.699181 0.105075 0.191106
0.758611 0.106577 0.191789
0.818272 0.108084 0.192474
0.878148 0.109597 0.193162
0.913855 0.110499 0.193572
0.022956 0.144926 0.185367
0.075065 0.146243 0.185966
0.129030 0.147606 0.186585
0.184119 0.148998 0.187218
0.240027 0.150411 0.187860
0.296580 0.151840 0.188510
0.353669 0.153282 0.189166
0.411215 0.154736 0.189826
0.469162 0.156201 0.190492
0.527465 0.157674 0.191162
0.586088 0.159155 0.191835
0.645002 0.160644 0.192512
0.704185 0.162139 0.193191
0.763615 0.163641 0.193874
0.823276 0.165148 0.194559
0.883152 0.166661 0.195247
0.918859 0.167564 0.195657
0.028064 0.203179 0.187496
0.080174 0.204496 0.188094
0.134139 0.205860 0.188714
0.189228 0.207252 0.189347
0.245135 0.208664 0.189989
0.301689 0.210093 0.190638
0.358777 0.211536 0.191294
0.416324 0.212990 0.191955
0.474271 0.214454 0.192621
0.532573 0.215927 0.193290
0.591196 0.217409 0.193964
0.650111 0.218897 0.194640
0.709294 0.220393 0.195320
0.768724 0.221894 0.196003
0.828385 0.223402 0.196688
0.888261 0.224915 0.197375
0.923968 0.225817 0.197786
0.033249 0.262298 0.189656
0.085358 0.263615 0.190254
0.139323 0.264978 0.190874
0.194412 0.266370 0.191507
0.250320 0.267783 0.192149
0.306873 0.269212 0.192799
0.363962 0.270654 0.193454
0.421508 0.272109 0.194115
0.479455 0.273573 0.194781
0.537757 0.275046 0.195450
0.596380 0.276527 0.196124
0.655295 0.278016 0.196800
0.714478 0.279511 0.197480
0.773908 0.281013 0.198163
0.833569 0.282521 0.198848
0.893445 0.284034 0.199536
0.929152 0.284936 0.199946
0.038493 0.322100 0.191841
0.090603 0.323417 0.192439
0.144567 0.324780 0.193059
0.199657 0.326172 0.193692
0.255564 0.327585 0.194334
0.312117 0.329014 0.194984
0.369206 0.330456 0.195639
0.426753 0.331910 0.196300
0.484699 0.333375 0.196966
0.543002 0.334848 0.197635
0.601625 0.336329 0.198309
0.660540 0.337818 0.198985
0.719722 0.339313 0.199665
0.779153 0.340815 0.200348
0.838813 0.342322 0.201033
0.898689 0.343835 0.201721
0.934396 0.344738 0.202131
0.043787 0.382468 0.194047
0.095896 0.383784 0.194645
0.149861 0.385148 0.195265
0.204950 0.386540 0.195898
0.260858 0.387953 0.196540
0.317411 0.389382 0.197189
0.374500 0.390824 0.197845
0.432047 0.392278 0.198506
0.489993 0.393742 0.199172
0.548296 0.395216 0.199841
0.606919 0.396697 0.200515
0.665833 0.398186 0.201191
0.725016 0.399681 0.201871
0.784446 0.401183 0.202554
0.844107 0.402690 0.203239
0.903983 0.404203 0.203927
0.939690 0.405106 0.204337
0.049123 0.443319 0.196270
0.101233 0.444636 0.196869
0.155198 0.446000 0.197489
0.210287 0.447392 0.198121
0.266194 0.448804 0.198763
0.322748 0.450233 0.199413
0.379836 0.451676 0.200069
0.437383 0.453130 0.200730
0.495329 0.454594 0.201395
0.553632 0.456068 0.202065
0.612255 0.457549 0.202738
0.671170 0.459037 0.203415
0.730352 0.460533 0.204094
0.789783 0.462035 0.204777
0.849444 0.463542 0.205462
0.909320 0.465055 0.206150
0.945026 0.465957 0.206560
0.054497 0.504594 0.198509
0.106606 0.505911 0.199108
0.160571 0.507275 0.199727
0.215660 0.508667 0.200360
0.271568 0.510079 0.201002
0.328121 0.511508 0.201652
0.385210 0.512951 0.202308
0.442756 0.514405 0.202969
0.500703 0.515869 0.203634
0.559005 0.517343 0.204304
0.617628 0.518824 0.204977
0.676543 0.520312 0.205654
0.735726 0.521808 0.206333
0.795156 0.523310 0.207016
0.854817 0.524817 0.207701
0.914693 0.526330 0.208389
0.950400 0.527232 0.208799
0.059903 0.566246 0.200762
0.112013 0.567562 0.201360
0.165977 0.568926 0.201980
0.221067 0.570318 0.202613
0.276974 0.571731 0.203255
0.333528 0.573160 0.203905
0.390616 0.574602 0.204560
0.448163 0.576056 0.205221
0.506109 0.577521 0.205887
0.564412 0.578994 0.206556
0.623035 0.580475 0.207230
0.681950 0.581964 0.207906
0.741132 0.583459 0.208586
0.800563 0.584961 0.209269
0.860223 0.586468 0.209954
0.920100 0.587981 0.210642
0.955806 0.588884 0.211052
0.065339 0.628236 0.203027
0.117449 0.629553 0.203625
0.171414 0.630916 0.204245
0.226503 0.632308 0.204878
0.282410 0.633721 0.205520
0.338964 0.635150 0.206170
0.396053 0.636593 0.206825
0.453599 0.638047 0.207486
0.511546 0.639511 0.208152
0.569848 0.640984 0.208821
0.628471 0.642465 0.209495
0.687386 0.643954 0.210171
0.746569 0.645449 0.210851
0.805999 0.646951 0.211534
0.865660 0.648459 0.212219
0.925536 0.649972 0.212907
0.961243 0.650874 0.213317
0.070802 0.690535 0.205303
0.122912 0.691851 0.205902
0.176877 0.693215 0.206522
0.231966 0.694607 0.207154
0.287874 0.696020 0.207796
0.344427 0.697449 0.208446
0.401516 0.698891 0.209102
0.459062 0.700345 0.209763
0.517009 0.701810 0.210428
0.575311 0.703283 0.211098
0.633934 0.704764 0.211771
0.692849 0.706253 0.212448
0.752032 0.707748 0.213128
0.811462 0.709250 0.213810
0.871123 0.710757 0.214495
0.930999 0.712270 0.215183
0.966706 0.713173 0.215593
0.076291 0.753117 0.207590
0.128400 0.754434 0.208189
0.182365 0.755797 0.208808
0.237454 0.757189 0.209441
0.293362 0.758602 0.210083
0.349915 0.760031 0.210733
0.407004 0.761473 0.211388
0.464550 0.762927 0.212049
0.522497 0.764392 0.212715
0.580799 0.765865 0.213385
0.639422 0.767346 0.214058
0.698337 0.768835 0.214735
0.757520 0.770330 0.215414
0.816950 0.771832 0.216097
0.876611 0.773339 0.216782
0.936487 0.774852 0.217470
0.972194 0.775755 0.217880
0.081802 0.815961 0.209886
0.133911 0.817277 0.210485
0.187876 0.818641 0.211105
0.242965 0.820033 0.211737
0.298873 0.821446 0.212379
0.355426 0.822875 0.213029
0.412515 0.824317 0.213685
0.470061 0.825771 0.214346
0.528008 0.827236 0.215011
0.586310 0.828709 0.215681
0.644934 0.830190 0.216354
0.703848 0.831679 0.217031
0.763031 0.833174 0.217711
0.822461 0.834676 0.218393
0.882122 0.836183 0.219078
0.941998 0.837696 0.219766
0.977705 0.838599 0.220176
0.087334 0.879048 0.212191
0.139444 0.880365 0.212790
0.193408 0.881729 0.213410
0.248498 0.883121 0.214042
0.304405 0.884533 0.214685
0.360959 0.885962 0.215334
0.418047 0.887405 0.215990
0.475594 0.888859 0.216651
0.533540 0.890323 0.217316
0.591843 0.891796 0.217986
0.650466 0.893278 0.218659
0.709381 0.894766 0.219336
0.768563 0.896262 0.220016
0.827994 0.897763 0.220698
0.887654 0.899271 0.221384
0.947531 0.900784 0.222071
0.983237 0.901686 0.222481
0.092886 0.942364 0.214505
0.144996 0.943680 0.215103
0.198961 0.945044 0.215723
0.254050 0.946436 0.216356
0.309958 0.947849 0.216998
0.366511 0.949278 0.217648
0.423600 0.950720 0.218303
0.481146 0.952174 0.218964
0.539093 0.953638 0.219630
0.597395 0.955112 0.220299
0.656018 0.956593 0.220973
0.714933 0.958082 0.221649
0.774116 0.959577 0.222329
0.833546 0.961079 0.223012
0.893207 0.962586 0.223697
0.953083 0.964099 0.224385
0.988790 0.965001 0.224795
0.096198 0.980121 0.215885
0.148307 0.981438 0.216483
0.202272 0.982802 0.217103
0.257361 0.984194 0.217736
0.313269 0.985606 0.218378
0.369822 0.987035 0.219027
0.426911 0.988478 0.219683
0.484457 0.989932 0.220344
0.542404 0.991396 0.221010
0.600706 0.992869 0.221679
0.659329 0.994351 0.222352
0.718244 0.995839 0.223029
0.777427 0.997335 0.223709
0.836857 0.998837 0.224391
0.896518 1.000000 0.225077
0.956394 1.000000 0.225764
0.992101 1.000000 0.226175
0.013624 0.033222 0.233956
0.065734 0.034538 0.234555
0.119699 0.035902 0.235175
0.174788 0.037294 0.235807
0.230695 0.038707 0.236449
0.287249 0.040136 0.237099
0.344338 0.041578 0.237755
0.401884 0.043032 0.238416
0.459831 0.044497 0.239081
0.518133 0.045970 0.239751
0.576756 0.047451 0.240424
0.635671 0.048940 0.241101
0.694854 0.050435 0.241780
0.754284 0.051937 0.242463
0.813945 0.053444 0.243148
0.873821 0.054957 0.243836
0.909528 0.055860 0.244246
0.018457 0.088325 0.235970
0.070566 0.089641 0.236568
0.124531 0.091005 0.237188
0.179620 0.092397 0.237821
0.235528 0.093810 0.238463
0.292081 0.095239 0.239112
0.349170 0.096681 0.239768
0.406716 0.098135 0.240429
0.464663 0.099599 0.241095
0.522965 0.101073 0.241764
0.581589 0.102554 0.242437
0.640503 0.104043 0.243114
0.699686 0.105538 0.243794
0.759116 0.107040 0.244476
0.818777 0.108547 0.245162
0.878653 0.110060 0.245849
0.914360 0.110962 0.246260
0.023461 0.145389 0.238055
0.075571 0.146706 0.238653
0.129535 0.148069 0.239273
0.184625 0.149461 0.239906
0.240532 0.150874 0.240548
0.297085 0.152303 0.241197
0.354174 0.153745 0.241853
0.411721 0.155200 0.242514
0.469667 0.156664 0.243180
0.527970 0.158137 0.243849
0.586593 0.159618 0.244523
0.645508 0.161107 0.245199
0.704690 0.162602 0.245879
0.764121 0.164104 0.246562
0.823781 0.165612 0.247247
0.883657 0.167125 0.247935
0.919364 0.168027 0.248345
0.028569 0.203642 0.240183
0.080679 0.204959 0.240782
0.134644 0.206323 0.241402
0.189733 0.207715 0.242034
0.245640 0.209127 0.242676
0.302194 0.210556 0.243326
0.359283 0.211999 0.243982
0.416829 0.213453 0.244643
0.474776 0.214917 0.245308
0.533078 0.216390 0.245978
0.591701 0.217872 0.246651
0.650616 0.219360 0.247328
0.709799 0.220856 0.248008
0.769229 0.222358 0.248690
0.828890 0.223865 0.249375
0.888766 0.225378 0.250063
0.924473 0.226280 0.250473
0.033754 0.262761 0.242343
0.085863 0.264078 0.242942
0.139828 0.265441 0.243562
0.194917 0.266833 0.244194
0.250825 0.268246 0.244837
0.307378 0.269675 0.245486
0.364467 0.271118 0.246142
0.422013 0.272572 0.246803
0.479960 0.274036 0.247468
0.538263 0.275509 0.248138
0.596886 0.276990 0.248811
0.655800 0.278479 0.249488
0.714983 0.279974 0.250168
0.774413 0.281476 0.250850
0.834074 0.282984 0.251536
0.893950 0.284497 0.252223
0.929657 0.285399 0.252633
0.038998 0.322563 0.244529
0.091108 0.323880 0.245127
0.145072 0.325243 0.245747
0.200162 0.326635 0.246380
0.256069 0.328048 0.247022
0.312623 0.329477 0.247671
0.369711 0.330919 0.248327
0.427258 0.332373 0.248988
0.485204 0.333838 0.249653
0.543507 0.335311 0.250323
0.602130 0.336792 0.250996
0.661045 0.338281 0.251673
0.720227 0.339776 0.252353
0.779658 0.341278 0.253035
0.839318 0.342786 0.253721
0.899194 0.344298 0.254408
0.934901 0.345201 0.254818
0.044292 0.382931 0.246734
0.096402 0.384247 0.247333
0.150366 0.385611 0.247953
0.205456 0.387003 0.248585
0.261363 0.388416 0.249228
0.317916 0.389845 0.249877
0.375005 0.391287 0.250533
0.432552 0.392741 0.251194
0.490498 0.394206 0.251859
0.548801 0.395679 0.252529
0.607424 0.397160 0.253202
0.666339 0.398649 0.253879
0.725521 0.400144 0.254559
0.784952 0.401646 0.255241
0.844612 0.403153 0.255926
0.904488 0.404666 0.256614
0.940195 0.405569 0.257024
0.049628 0.443783 0.248958
0.101738 0.445099 0.249556
0.155703 0.446463 0.250176
0.210792 0.447855 0.250809
0.266699 0.449268 0.251451
0.323253 0.450697 0.252101
0.380342 0.452139 0.252756
0.437888 0.453593 0.253417
0.495835 0.455057 0.254083
0.554137 0.456531 0.254752
0.612760 0.458012 0.255426
0.671675 0.459501 0.256102
0.730858 0.460996 0.256782
0.790288 0.462498 0.257465
0.849949 0.464005 0.258150
0.909825 0.465518 0.258838
0.945532 0.466420 0.259248
0.055002 0.505058 0.251197
0.107112 0.506374 0.251795
0.161076 0.507738 0.252415
0.216165 0.509130 0.253048
0.272073 0.510543 0.253690
0.328626 0.511972 0.254339
0.385715 0.513414 0.254995
0.443262 0.514868 0.255656
0.501208 0.516332 0.256322
0.559511 0.517806 0.256991
0.618134 0.519287 0.257665
0.677048 0.520776 0.258341
0.736231 0.522271 0.259021
0.795661 0.523773 0.259704
0.855322 0.525280 0.260389
0.915198 0.526793 0.261077
0.950905 0.527695 0.261487
0.060408 0.566709 0.253449
0.112518 0.568026 0.254048
0.166483 0.569389 0.254668
0.221572 0.570781 0.255301
0.277479 0.572194 0.255943
0.334033 0.573623 0.256592
0.391122 0.575065 0.257248
0.448668 0.576519 0.257909
0.506615 0.577984 0.258574
0.564917 0.579457 0.259244
0.623540 0.580938 0.259917
0.682455 0.582427 0.260594
0.741638 0.583922 0.261274
0.801068 0.585424 0.261956
0.860729 0.586931 0.262642
0.920605 0.588444 0.263329
0.956312 0.589347 0.263739
0.065844 0.628699 0.255715
0.117954 0.630016 0.256313
0.171919 0.631379 0.256933
0.227008 0.632771 0.257566
0.282915 0.634184 0.258208
0.339469 0.635613 0.258857
0.396558 0.637056 0.259513
0.454104 0.638510 0.260174
0.512051 0.639974 0.260839
0.570353 0.641447 0.261509
0.628976 0.642928 0.262182
0.687891 0.644417 0.262859
0.747074 0.645912 0.263539
0.806504 0.647414 0.264221
0.866165 0.648922 0.264907
0.926041 0.650435 0.265594
0.961748 0.651337 0.266004
0.071308 0.690998 0.257991
0.123417 0.692315 0.258589
0.177382 0.693678 0.259209
0.232471 0.695070 0.259842
0.288379 0.696483 0.260484
0.344932 0.697912 0.261134
0.402021 0.699354 0.261789
0.459567 0.700808 0.262450
0.517514 0.702273 0.263116
0.575817 0.703746 0.263785
0.634440 0.705227 0.264459
0.693354 0.706716 0.265135
0.752537 0.708211 0.265815
0.811967 0.709713 0.266498
0.871628 0.711220 0.267183
0.931504 0.712733 0.267871
0.967211 0.713636 0.268281
0.076796 0.753580 0.260278
0.128906 0.754897 0.260876
0.182870 0.756260 0.261496
0.237959 0.757652 0.262129
0.293867 0.759065 0.262771
0.350420 0.760494 0.263420
0.407509 0.761936 0.264076
0.465056 0.763391 0.264737
0.523002 0.764855 0.265403
0.581305 0.766328 0.266072
0.639928 0.767809 0.266745
0.698842 0.769298 0.267422
0.758025 0.770793 0.268102
0.817455 0.772295 0.268784
0.877116 0.773803 0.269470
0.936992 0.775315 0.270157
0.972699 0.776218 0.270568
0.082307 0.816424 0.262574
0.134417 0.817741 0.263172
0.188381 0.819104 0.263792
0.243470 0.820496 0.264425
0.299378 0.821909 0.265067
0.355931 0.823338 0.265717
0.413020 0.824780 0.266372
0.470567 0.826234 0.267033
0.528513 0.827699 0.267699
0.586816 0.829172 0.268368
0.645439 0.830653 0.269042
0.704353 0.832142 0.269718
0.763536 0.833637 0.270398
0.822967 0.835139 0.271081
0.882627 0.836646 0.271766
0.942503 0.838159 0.272454
0.978210 0.839062 0.272864
0.087839 0.879511 0.264879
0.139949 0.880828 0.265478
0.193914 0.882192 0.266097
0.249003 0.883584 0.266730
0.304910 0.884996 0.267372
0.361464 0.886425 0.268022
0.418553 0.887868 0.268677
0.476099 0.889322 0.269338
0.534046 0.890786 0.270004
0.592348 0.892259 0.270674
0.650971 0.893741 0.271347
0.709886 0.895229 0.272024
0.769069 0.896725 0.272703
0.828499 0.898226 0.273386
0.888160 0.899734 0.274071
0.948036 0.901247 0.274759
0.983743 0.902149 0.275169
0.093392 0.942827 0.267193
0.145501 0.944143 0.267791
0.199466 0.945507 0.268411
0.254555 0.946899 0.269044
0.310463 0.948312 0.269686
0.367016 0.949741 0.270335
0.424105 0.951183 0.270991
0.481651 0.952637 0.271652
0.539598 0.954101 0.272317
0.597900 0.955575 0.272987
0.656524 0.957056 0.273660
0.715438 0.958545 0.274337
0.774621 0.960040 0.275017
0.834051 0.961542 0.275699
0.893712 0.963049 0.276385
0.953588 0.964562 0.277072
0.989295 0.965464 0.277482
0.096703 0.980584 0.268572
0.148813 0.981901 0.269171
0.202777 0.983265 0.269791
0.257866 0.984657 0.270423
0.313774 0.986069 0.271065
0.370327 0.987498 0.271715
0.427416 0.988941 0.272371
0.484963 0.990395 0.273032
0.542909 0.991859 0.273697
0.601212 0.993332 0.274367
0.659835 0.994814 0.275040
0.718749 0.996302 0.275717
0.777932 0.997798 0.276396
0.837362 0.999300 0.277079
0.897023 1.000000 0.277764
0.956899 1.000000 0.278452
0.992606 1.000000 0.278862
0.014140 0.033694 0.287742
0.066250 0.035011 0.288340
0.120215 0.036375 0.288960
0.175304 0.037767 0.289593
0.231211 0.039179 0.290235
0.287765 0.040608 0.290885
0.344853 0.042051 0.291540
0.402400 0.043505 0.292201
0.460347 0.044969 0.292867
0.518649 0.046442 0.293536
0.577272 0.047924 0.294210
0.636187 0.049412 0.294886
0.695369 0.050908 0.295566
0.754800 0.052410 0.296249
0.814461 0.053917 0.296934
