assets/luts/midnight.cube
# Midnight — Studio filter "midnight"
# Generated by scripts/generate-filter-luts.mjs — do not edit by hand.
LUT_3D_SIZE 5
DOMAIN_MIN 0.0 0.0 0.0
DOMAIN_MAX 1.0 1.0 1.0
0.012631 0.032311 0.130392
0.229702 0.037796 0.132885
0.458838 0.043586 0.135517
0.693861 0.049525 0.138216
0.908535 0.054949 0.140682
0.032761 0.261851 0.138779
0.249832 0.267336 0.141272
0.478967 0.273126 0.143904
0.713990 0.279064 0.146603
0.928664 0.284489 0.149069
0.054009 0.504147 0.147633
0.271080 0.509632 0.150126
0.500215 0.515422 0.152757
0.735238 0.521361 0.155457
0.949912 0.526785 0.157922
0.075803 0.752670 0.156713
0.292874 0.758155 0.159207
0.522009 0.763944 0.161838
0.757032 0.769883 0.164538
0.971706 0.775307 0.167003
0.095710 0.979674 0.165008
0.312781 0.985159 0.167501
0.541916 0.990949 0.170133
0.776939 0.996888 0.172832
0.991613 1.000000 0.175298
0.014663 0.034174 0.342326
0.231735 0.039659 0.344819
0.460870 0.045449 0.347451
0.695893 0.051388 0.350150
0.910567 0.056812 0.352616
0.034793 0.263714 0.350713
0.251864 0.269199 0.353207
0.480999 0.274988 0.355838
0.716022 0.280927 0.358538
0.930696 0.286351 0.361003
0.056041 0.506010 0.359567
0.273112 0.511495 0.362060
0.502247 0.517285 0.364692
0.737270 0.523223 0.367391
0.951944 0.528648 0.369857
0.077835 0.754532 0.368648
0.294906 0.760017 0.371141
0.524041 0.765807 0.373772
0.759064 0.771746 0.376472
0.973738 0.777170 0.378937
0.097742 0.981537 0.376942
0.314813 0.987022 0.379435
0.543948 0.992812 0.382067
0.778971 0.998750 0.384766
0.993645 1.000000 0.387232
0.016808 0.036140 0.566039
0.233880 0.041625 0.568532
0.463015 0.047415 0.571164
0.698038 0.053354 0.573863
0.912712 0.058778 0.576329
0.036938 0.265680 0.574426
0.254009 0.271165 0.576919
0.483144 0.276955 0.579551
0.718167 0.282893 0.582251
0.932841 0.288318 0.584716
0.058186 0.507976 0.583280
0.275257 0.513461 0.585773
0.504392 0.519251 0.588405
0.739415 0.525190 0.591104
0.954089 0.530614 0.593570
0.079980 0.756499 0.592360
0.297051 0.761984 0.594854
0.526186 0.767773 0.597485
0.761209 0.773712 0.600185
0.975883 0.779136 0.602650
0.099887 0.983503 0.600655
0.316958 0.988988 0.603148
0.546093 0.994778 0.605780
0.781116 1.000000 0.608479
0.995790 1.000000 0.610945
0.019009 0.038157 0.795500
0.236080 0.043642 0.797993
0.465215 0.049432 0.800625
0.700238 0.055371 0.803325
0.914912 0.060795 0.805790
0.039138 0.267697 0.803887
0.256209 0.273182 0.806381
0.485344 0.278971 0.809012
0.720367 0.284910 0.811712
0.935041 0.290334 0.814177
0.060386 0.509993 0.812741
0.277457 0.515478 0.815234
0.506592 0.521268 0.817866
0.741615 0.527207 0.820565
0.956289 0.532631 0.823031
0.082180 0.758515 0.821822
0.299251 0.764000 0.824315
0.528386 0.769790 0.826947
0.763409 0.775729 0.829646
0.978083 0.781153 0.832112
0.102087 0.985520 0.830116
0.319158 0.991005 0.832609
0.548293 0.996795 0.835241
0.783316 1.000000 0.837941
0.997990 1.000000 0.840406
0.021018 0.039999 1.000000
0.238089 0.045484 1.000000
0.467225 0.051274 1.000000
0.702248 0.057213 1.000000
0.916922 0.062637 1.000000
0.041148 0.269539 1.000000
0.258219 0.275024 1.000000
0.487354 0.280814 1.000000
0.722377 0.286752 1.000000
0.937051 0.292177 1.000000
0.062396 0.511835 1.000000
0.279467 0.517320 1.000000
0.508602 0.523110 1.000000
0.743625 0.529049 1.000000
0.958299 0.534473 1.000000
0.084190 0.760358 1.000000
0.301261 0.765843 1.000000
0.530396 0.771632 1.000000
0.765419 0.777571 1.000000
0.980093 0.782995 1.000000
0.104097 0.987362 1.000000
0.321168 0.992847 1.000000
0.550303 0.998637 1.000000
0.785326 1.000000 1.000000
1.000000 1.000000 1.000000
