assets/luts/mint.cube
# Mint — Studio filter "mint"
# Generated by scripts/generate-filter-luts.mjs — do not edit by hand.
LUT_3D_SIZE 5
DOMAIN_MIN 0.0 0.0 0.0
DOMAIN_MAX 1.0 1.0 1.0
0.100000 0.149000 0.127000
0.316142 0.150913 0.127957
0.532284 0.152827 0.128913
0.748425 0.154740 0.129870
0.964567 0.156654 0.130827
0.108046 0.369187 0.130218
0.324188 0.371100 0.131175
0.540330 0.373014 0.132132
0.756471 0.374927 0.133088
0.972613 0.376840 0.134045
0.116092 0.589374 0.133437
0.332234 0.591287 0.134394
0.548376 0.593200 0.135350
0.764517 0.595114 0.136307
0.980659 0.597027 0.137264
0.124138 0.809560 0.136655
0.340280 0.811474 0.137612
0.556422 0.813387 0.138569
0.772563 0.815301 0.139525
0.988705 0.817214 0.140482
0.132184 1.000000 0.139874
0.348326 1.000000 0.140830
0.564468 1.000000 0.141787
0.780609 1.000000 0.142744
0.996751 1.000000 0.143700
0.100812 0.149650 0.341075
0.316954 0.151563 0.342032
0.533096 0.153477 0.342988
0.749238 0.155390 0.343945
0.965379 0.157303 0.344902
0.108858 0.369837 0.344293
0.325000 0.371750 0.345250
0.541142 0.373663 0.346207
0.757283 0.375577 0.347163
0.973425 0.377490 0.348120
0.116904 0.590023 0.347512
0.333046 0.591937 0.348468
0.549188 0.593850 0.349425
0.765329 0.595764 0.350382
0.981471 0.597677 0.351339
0.124950 0.810210 0.350730
0.341092 0.812124 0.351687
0.557234 0.814037 0.352644
0.773375 0.815950 0.353600
0.989517 0.817864 0.354557
0.132996 1.000000 0.353949
0.349138 1.000000 0.354905
0.565280 1.000000 0.355862
0.781421 1.000000 0.356819
0.997563 1.000000 0.357775
0.101625 0.150300 0.555150
0.317766 0.152213 0.556107
0.533908 0.154126 0.557063
0.750050 0.156040 0.558020
0.966191 0.157953 0.558977
0.109671 0.370486 0.558368
0.325812 0.372400 0.559325
0.541954 0.374313 0.560282
0.758096 0.376227 0.561238
0.974237 0.378140 0.562195
0.117717 0.590673 0.561587
0.333858 0.592587 0.562543
0.550000 0.594500 0.563500
0.766142 0.596413 0.564457
0.982283 0.598327 0.565413
0.125762 0.810860 0.564805
0.341904 0.812773 0.565762
0.558046 0.814687 0.566718
0.774188 0.816600 0.567675
0.990329 0.818514 0.568632
0.133808 1.000000 0.568023
0.349950 1.000000 0.568980
0.566092 1.000000 0.569937
0.782234 1.000000 0.570894
0.998375 1.000000 0.571850
0.102437 0.150949 0.769225
0.318578 0.152863 0.770181
0.534720 0.154776 0.771138
0.750862 0.156690 0.772095
0.967004 0.158603 0.773052
0.110483 0.371136 0.772443
0.326624 0.373050 0.773400
0.542766 0.374963 0.774357
0.758908 0.376876 0.775313
0.975050 0.378790 0.776270
0.118529 0.591323 0.775662
0.334670 0.593236 0.776618
0.550812 0.595150 0.777575
0.766954 0.597063 0.778532
0.983096 0.598977 0.779488
0.126575 0.811510 0.778880
0.342717 0.813423 0.779837
0.558858 0.815337 0.780793
0.775000 0.817250 0.781750
0.991142 0.819163 0.782707
0.134621 1.000000 0.782098
0.350762 1.000000 0.783055
0.566904 1.000000 0.784012
0.783046 1.000000 0.784968
0.999188 1.000000 0.785925
0.103249 0.151599 0.983300
0.319391 0.153513 0.984256
0.535532 0.155426 0.985213
0.751674 0.157339 0.986170
0.967816 0.159253 0.987126
0.111295 0.371786 0.986518
0.327437 0.373699 0.987475
0.543579 0.375613 0.988431
0.759720 0.377526 0.989388
0.975862 0.379440 0.990345
0.119341 0.591973 0.989736
0.335483 0.593886 0.990693
0.551625 0.595800 0.991650
0.767766 0.597713 0.992606
0.983908 0.599626 0.993563
0.127387 0.812160 0.992955
0.343529 0.814073 0.993912
0.559671 0.815986 0.994868
0.775812 0.817900 0.995825
0.991954 0.819813 0.996782
0.135433 1.000000 0.996173
0.351575 1.000000 0.997130
0.567717 1.000000 0.998087
0.783858 1.000000 0.999043
1.000000 1.000000 1.000000
