assets/luts/mint.cube
# Mint — Studio filter "mint"
# Generated by scripts/generate-filter-luts.mjs — do not edit by hand.
LUT_3D_SIZE 17
DOMAIN_MIN 0.0 0.0 0.0
DOMAIN_MAX 1.0 1.0 1.0
0.100000 0.149000 0.127000
0.154035 0.149478 0.127239
0.208071 0.149957 0.127478
0.262106 0.150435 0.127718
0.316142 0.150913 0.127957
0.370177 0.151392 0.128196
0.424213 0.151870 0.128435
0.478248 0.152348 0.128674
0.532284 0.152827 0.128913
0.586319 0.153305 0.129153
0.640354 0.153784 0.129392
0.694390 0.154262 0.129631
0.748425 0.154740 0.129870
0.802461 0.155219 0.130109
0.856496 0.155697 0.130348
0.910532 0.156175 0.130588
0.964567 0.156654 0.130827
0.102012 0.204047 0.127805
0.156047 0.204525 0.128044
0.210082 0.205003 0.128283
0.264118 0.205482 0.128522
0.318153 0.205960 0.128761
0.372189 0.206438 0.129000
0.426224 0.206917 0.129240
0.480260 0.207395 0.129479
0.534295 0.207873 0.129718
0.588330 0.208352 0.129957
0.642366 0.208830 0.130196
0.696401 0.209309 0.130436
0.750437 0.209787 0.130675
0.804472 0.210265 0.130914
0.858508 0.210744 0.131153
0.912543 0.211222 0.131392
0.966579 0.211700 0.131631
0.104023 0.259093 0.128609
0.158058 0.259572 0.128848
0.212094 0.260050 0.129088
0.266129 0.260528 0.129327
0.320165 0.261007 0.129566
0.374200 0.261485 0.129805
0.428236 0.261964 0.130044
0.482271 0.262442 0.130283
0.536307 0.262920 0.130523
0.590342 0.263399 0.130762
0.644377 0.263877 0.131001
0.698413 0.264355 0.131240
0.752448 0.264834 0.131479
0.806484 0.265312 0.131718
0.860519 0.265790 0.131958
0.914555 0.266269 0.132197
0.968590 0.266747 0.132436
0.106035 0.314140 0.129414
0.160070 0.314618 0.129653
0.214105 0.315097 0.129892
0.268141 0.315575 0.130131
0.322176 0.316053 0.130371
0.376212 0.316532 0.130610
0.430247 0.317010 0.130849
0.484283 0.317489 0.131088
0.538318 0.317967 0.131327
0.592353 0.318445 0.131566
0.646389 0.318924 0.131806
0.700424 0.319402 0.132045
0.754460 0.319880 0.132284
0.808495 0.320359 0.132523
0.862531 0.320837 0.132762
0.916566 0.321315 0.133001
0.970602 0.321794 0.133241
0.108046 0.369187 0.130218
0.162081 0.369665 0.130458
0.216117 0.370143 0.130697
0.270152 0.370622 0.130936
0.324188 0.371100 0.131175
0.378223 0.371579 0.131414
0.432259 0.372057 0.131653
0.486294 0.372535 0.131893
0.540330 0.373014 0.132132
0.594365 0.373492 0.132371
0.648400 0.373970 0.132610
0.702436 0.374449 0.132849
0.756471 0.374927 0.133088
0.810507 0.375405 0.133328
0.864542 0.375884 0.133567
0.918578 0.376362 0.133806
0.972613 0.376840 0.134045
0.110058 0.424233 0.131023
0.164093 0.424712 0.131262
0.218128 0.425190 0.131501
0.272164 0.425669 0.131741
0.326199 0.426147 0.131980
0.380235 0.426625 0.132219
0.434270 0.427104 0.132458
0.488306 0.427582 0.132697
0.542341 0.428060 0.132936
0.596376 0.428539 0.133176
0.650412 0.429017 0.133415
0.704447 0.429495 0.133654
0.758483 0.429974 0.133893
0.812518 0.430452 0.134132
0.866554 0.430930 0.134371
0.920589 0.431409 0.134611
0.974625 0.431887 0.134850
0.112069 0.479280 0.131828
0.166104 0.479759 0.132067
0.220140 0.480237 0.132306
0.274175 0.480715 0.132545
0.328211 0.481194 0.132784
0.382246 0.481672 0.133023
0.436282 0.482150 0.133263
0.490317 0.482629 0.133502
0.544353 0.483107 0.133741
0.598388 0.483585 0.133980
0.652423 0.484064 0.134219
0.706459 0.484542 0.134459
0.760494 0.485020 0.134698
0.814530 0.485499 0.134937
0.868565 0.485977 0.135176
0.922601 0.486455 0.135415
0.976636 0.486934 0.135654
0.114080 0.534327 0.132632
0.168116 0.534805 0.132871
0.222151 0.535284 0.133111
0.276187 0.535762 0.133350
0.330222 0.536240 0.133589
0.384258 0.536719 0.133828
0.438293 0.537197 0.134067
0.492329 0.537675 0.134306
0.546364 0.538154 0.134546
0.600399 0.538632 0.134785
0.654435 0.539110 0.135024
0.708470 0.539589 0.135263
0.762506 0.540067 0.135502
0.816541 0.540545 0.135741
0.870577 0.541024 0.135981
0.924612 0.541502 0.136220
0.978648 0.541981 0.136459
0.116092 0.589374 0.133437
0.170127 0.589852 0.133676
0.224163 0.590330 0.133915
0.278198 0.590809 0.134154
0.332234 0.591287 0.134394
0.386269 0.591765 0.134633
0.440305 0.592244 0.134872
0.494340 0.592722 0.135111
0.548376 0.593200 0.135350
0.602411 0.593679 0.135589
0.656446 0.594157 0.135829
0.710482 0.594635 0.136068
0.764517 0.595114 0.136307
0.818553 0.595592 0.136546
0.872588 0.596070 0.136785
0.926624 0.596549 0.137024
0.980659 0.597027 0.137264
0.118104 0.644420 0.134241
0.172139 0.644899 0.134481
0.226174 0.645377 0.134720
0.280210 0.645855 0.134959
0.334245 0.646334 0.135198
0.388281 0.646812 0.135437
0.442316 0.647290 0.135676
0.496352 0.647769 0.135916
0.550387 0.648247 0.136155
0.604422 0.648725 0.136394
0.658458 0.649204 0.136633
0.712493 0.649682 0.136872
0.766529 0.650160 0.137111
0.820564 0.650639 0.137351
0.874600 0.651117 0.137590
0.928635 0.651596 0.137829
0.982671 0.652074 0.138068
0.120115 0.699467 0.135046
0.174150 0.699945 0.135285
0.228186 0.700424 0.135524
0.282221 0.700902 0.135764
0.336257 0.701380 0.136003
0.390292 0.701859 0.136242
0.444328 0.702337 0.136481
0.498363 0.702815 0.136720
0.552399 0.703294 0.136959
0.606434 0.703772 0.137199
0.660469 0.704251 0.137438
0.714505 0.704729 0.137677
0.768540 0.705207 0.137916
0.822576 0.705686 0.138155
0.876611 0.706164 0.138394
0.930647 0.706642 0.138634
0.984682 0.707121 0.138873
0.122126 0.754514 0.135851
0.176162 0.754992 0.136090
0.230197 0.755470 0.136329
0.284233 0.755949 0.136568
0.338268 0.756427 0.136807
0.392304 0.756905 0.137046
0.446339 0.757384 0.137286
0.500375 0.757862 0.137525
0.554410 0.758341 0.137764
0.608445 0.758819 0.138003
0.662481 0.759297 0.138242
0.716516 0.759776 0.138482
0.770552 0.760254 0.138721
0.824587 0.760732 0.138960
0.878623 0.761211 0.139199
0.932658 0.761689 0.139438
0.986694 0.762167 0.139677
0.124138 0.809560 0.136655
0.178173 0.810039 0.136894
0.232209 0.810517 0.137134
0.286244 0.810995 0.137373
0.340280 0.811474 0.137612
0.394315 0.811952 0.137851
0.448351 0.812431 0.138090
0.502386 0.812909 0.138329
0.556422 0.813387 0.138569
0.610457 0.813866 0.138808
0.664492 0.814344 0.139047
0.718528 0.814822 0.139286
0.772563 0.815301 0.139525
0.826599 0.815779 0.139764
0.880634 0.816257 0.140004
0.934670 0.816736 0.140243
0.988705 0.817214 0.140482
0.126150 0.864607 0.137460
0.180185 0.865085 0.137699
0.234220 0.865564 0.137938
0.288256 0.866042 0.138177
0.342291 0.866521 0.138417
0.396327 0.866999 0.138656
0.450362 0.867477 0.138895
0.504398 0.867956 0.139134
0.558433 0.868434 0.139373
0.612468 0.868912 0.139612
0.666504 0.869391 0.139852
0.720539 0.869869 0.140091
0.774575 0.870347 0.140330
0.828610 0.870826 0.140569
0.882646 0.871304 0.140808
0.936681 0.871782 0.141047
0.990716 0.872261 0.141287
0.128161 0.919654 0.138264
0.182196 0.920132 0.138504
0.236232 0.920610 0.138743
0.290267 0.921089 0.138982
0.344303 0.921567 0.139221
0.398338 0.922046 0.139460
0.452374 0.922524 0.139699
0.506409 0.923002 0.139939
0.560445 0.923481 0.140178
0.614480 0.923959 0.140417
0.668515 0.924437 0.140656
0.722551 0.924916 0.140895
0.776586 0.925394 0.141135
0.830622 0.925872 0.141374
0.884657 0.926351 0.141613
0.938693 0.926829 0.141852
0.992728 0.927307 0.142091
0.130173 0.974700 0.139069
0.184208 0.975179 0.139308
0.238243 0.975657 0.139547
0.292279 0.976136 0.139787
0.346314 0.976614 0.140026
0.400350 0.977092 0.140265
0.454385 0.977571 0.140504
0.508421 0.978049 0.140743
0.562456 0.978527 0.140982
0.616491 0.979006 0.141222
0.670527 0.979484 0.141461
0.724562 0.979962 0.141700
0.778598 0.980441 0.141939
0.832633 0.980919 0.142178
0.886669 0.981397 0.142417
0.940704 0.981876 0.142657
0.994739 0.982354 0.142896
0.132184 1.000000 0.139874
0.186219 1.000000 0.140113
0.240255 1.000000 0.140352
0.294290 1.000000 0.140591
0.348326 1.000000 0.140830
0.402361 1.000000 0.141069
0.456397 1.000000 0.141309
0.510432 1.000000 0.141548
0.564468 1.000000 0.141787
0.618503 1.000000 0.142026
0.672538 1.000000 0.142265
0.726574 1.000000 0.142505
0.780609 1.000000 0.142744
0.834645 1.000000 0.142983
0.888680 1.000000 0.143222
0.942716 1.000000 0.143461
0.996751 1.000000 0.143700
0.100203 0.149162 0.180519
0.154239 0.149641 0.180758
0.208274 0.150119 0.180997
0.262309 0.150598 0.181236
0.316345 0.151076 0.181475
0.370380 0.151554 0.181715
0.424416 0.152033 0.181954
0.478451 0.152511 0.182193
0.532487 0.152989 0.182432
0.586522 0.153468 0.182671
0.640557 0.153946 0.182910
0.694593 0.154424 0.183150
0.748628 0.154903 0.183389
0.802664 0.155381 0.183628
0.856699 0.155859 0.183867
0.910735 0.156338 0.184106
0.964770 0.156816 0.184346
0.102215 0.204209 0.181323
0.156250 0.204687 0.181562
0.210285 0.205166 0.181802
0.264321 0.205644 0.182041
0.318356 0.206123 0.182280
0.372392 0.206601 0.182519
0.426427 0.207079 0.182758
0.480463 0.207558 0.182998
0.534498 0.208036 0.183237
0.588533 0.208514 0.183476
0.642569 0.208993 0.183715
0.696604 0.209471 0.183954
0.750640 0.209949 0.184193
0.804675 0.210428 0.184433
0.858711 0.210906 0.184672
0.912746 0.211384 0.184911
0.966782 0.211863 0.185150
0.104226 0.259256 0.182128
0.158261 0.259734 0.182367
0.212297 0.260213 0.182606
0.266332 0.260691 0.182845
0.320368 0.261169 0.183085
0.374403 0.261648 0.183324
0.428439 0.262126 0.183563
0.482474 0.262604 0.183802
0.536510 0.263083 0.184041
0.590545 0.263561 0.184280
0.644580 0.264039 0.184520
0.698616 0.264518 0.184759
0.752651 0.264996 0.184998
0.806687 0.265474 0.185237
0.860722 0.265953 0.185476
0.914758 0.266431 0.185716
0.968793 0.266909 0.185955
0.106238 0.314303 0.182933
0.160273 0.314781 0.183172
0.214308 0.315259 0.183411
0.268344 0.315738 0.183650
0.322379 0.316216 0.183889
0.376415 0.316694 0.184128
0.430450 0.317173 0.184368
0.484486 0.317651 0.184607
0.538521 0.318129 0.184846
0.592556 0.318608 0.185085
0.646592 0.319086 0.185324
0.700627 0.319564 0.185563
0.754663 0.320043 0.185803
0.808698 0.320521 0.186042
0.862734 0.320999 0.186281
0.916769 0.321478 0.186520
0.970805 0.321956 0.186759
0.108249 0.369349 0.183737
0.162284 0.369828 0.183976
0.216320 0.370306 0.184215
0.270355 0.370784 0.184455
0.324391 0.371263 0.184694
0.378426 0.371741 0.184933
0.432462 0.372219 0.185172
0.486497 0.372698 0.185411
0.540533 0.373176 0.185651
0.594568 0.373654 0.185890
0.648603 0.374133 0.186129
0.702639 0.374611 0.186368
0.756674 0.375089 0.186607
0.810710 0.375568 0.186846
0.864745 0.376046 0.187086
0.918781 0.376524 0.187325
0.972816 0.377003 0.187564
0.110261 0.424396 0.184542
0.164296 0.424874 0.184781
0.218331 0.425353 0.185020
0.272367 0.425831 0.185259
0.326402 0.426309 0.185498
0.380438 0.426788 0.185738
0.434473 0.427266 0.185977
0.488509 0.427744 0.186216
0.542544 0.428223 0.186455
0.596579 0.428701 0.186694
0.650615 0.429179 0.186933
0.704650 0.429658 0.187173
0.758686 0.430136 0.187412
0.812721 0.430614 0.187651
0.866757 0.431093 0.187890
0.920792 0.431571 0.188129
0.974828 0.432050 0.188369
0.112272 0.479443 0.185346
0.166307 0.479921 0.185585
0.220343 0.480399 0.185825
0.274378 0.480878 0.186064
0.328414 0.481356 0.186303
0.382449 0.481834 0.186542
0.436485 0.482313 0.186781
0.490520 0.482791 0.187021
0.544556 0.483269 0.187260
0.598591 0.483748 0.187499
0.652626 0.484226 0.187738
0.706662 0.484704 0.187977
0.760697 0.485183 0.188216
0.814733 0.485661 0.188456
0.868768 0.486140 0.188695
0.922804 0.486618 0.188934
0.976839 0.487096 0.189173
0.114284 0.534489 0.186151
0.168319 0.534968 0.186390
0.222354 0.535446 0.186629
0.276390 0.535924 0.186868
0.330425 0.536403 0.187108
0.384461 0.536881 0.187347
0.438496 0.537359 0.187586
0.492532 0.537838 0.187825
0.546567 0.538316 0.188064
0.600602 0.538795 0.188303
0.654638 0.539273 0.188543
0.708673 0.539751 0.188782
0.762709 0.540230 0.189021
0.816744 0.540708 0.189260
0.870780 0.541186 0.189499
0.924815 0.541665 0.189739
0.978851 0.542143 0.189978
0.116295 0.589536 0.186956
0.170330 0.590014 0.187195
0.224366 0.590493 0.187434
0.278401 0.590971 0.187673
0.332437 0.591449 0.187912
0.386472 0.591928 0.188151
0.440508 0.592406 0.188391
0.494543 0.592885 0.188630
0.548579 0.593363 0.188869
0.602614 0.593841 0.189108
0.656649 0.594320 0.189347
0.710685 0.594798 0.189586
0.764720 0.595276 0.189826
0.818756 0.595755 0.190065
0.872791 0.596233 0.190304
0.926827 0.596711 0.190543
0.980862 0.597190 0.190782
0.118307 0.644583 0.187760
0.172342 0.645061 0.187999
0.226377 0.645539 0.188238
0.280413 0.646018 0.188478
0.334448 0.646496 0.188717
0.388484 0.646974 0.188956
0.442519 0.647453 0.189195
0.496555 0.647931 0.189434
0.550590 0.648410 0.189674
0.604625 0.648888 0.189913
0.658661 0.649366 0.190152
0.712696 0.649845 0.190391
0.766732 0.650323 0.190630
0.820767 0.650801 0.190869
0.874803 0.651280 0.191109
0.928838 0.651758 0.191348
0.982874 0.652236 0.191587
0.120318 0.699629 0.188565
0.174353 0.700108 0.188804
0.228389 0.700586 0.189043
0.282424 0.701064 0.189282
0.336460 0.701543 0.189521
0.390495 0.702021 0.189761
0.444531 0.702500 0.190000
0.498566 0.702978 0.190239
0.552602 0.703456 0.190478
0.606637 0.703935 0.190717
0.660672 0.704413 0.190956
0.714708 0.704891 0.191196
0.768743 0.705370 0.191435
0.822779 0.705848 0.191674
0.876814 0.706326 0.191913
0.930850 0.706805 0.192152
0.984885 0.707283 0.192392
0.122330 0.754676 0.189369
0.176365 0.755154 0.189608
0.230400 0.755633 0.189848
0.284436 0.756111 0.190087
0.338471 0.756590 0.190326
0.392507 0.757068 0.190565
0.446542 0.757546 0.190804
0.500578 0.758025 0.191044
0.554613 0.758503 0.191283
0.608648 0.758981 0.191522
0.662684 0.759460 0.191761
0.716719 0.759938 0.192000
0.770755 0.760416 0.192239
0.824790 0.760895 0.192479
0.878826 0.761373 0.192718
0.932861 0.761851 0.192957
0.986897 0.762330 0.193196
0.124341 0.809723 0.190174
0.178376 0.810201 0.190413
0.232412 0.810680 0.190652
0.286447 0.811158 0.190891
0.340483 0.811636 0.191131
0.394518 0.812115 0.191370
0.448554 0.812593 0.191609
0.502589 0.813071 0.191848
0.556625 0.813550 0.192087
0.610660 0.814028 0.192326
0.664695 0.814506 0.192566
0.718731 0.814985 0.192805
0.772766 0.815463 0.193044
0.826802 0.815941 0.193283
0.880837 0.816420 0.193522
0.934873 0.816898 0.193762
0.988908 0.817376 0.194001
0.126353 0.864770 0.190979
0.180388 0.865248 0.191218
0.234423 0.865726 0.191457
0.288459 0.866205 0.191696
0.342494 0.866683 0.191935
0.396530 0.867161 0.192174
0.450565 0.867640 0.192414
0.504601 0.868118 0.192653
0.558636 0.868596 0.192892
0.612671 0.869075 0.193131
0.666707 0.869553 0.193370
0.720742 0.870031 0.193609
0.774778 0.870510 0.193849
0.828813 0.870988 0.194088
0.882849 0.871466 0.194327
0.936884 0.871945 0.194566
0.990920 0.872423 0.194805
0.128364 0.919816 0.191783
0.182400 0.920295 0.192022
0.236435 0.920773 0.192261
0.290470 0.921251 0.192501
0.344506 0.921730 0.192740
0.398541 0.922208 0.192979
0.452577 0.922686 0.193218
0.506612 0.923165 0.193457
0.560648 0.923643 0.193697
0.614683 0.924121 0.193936
0.668718 0.924600 0.194175
0.722754 0.925078 0.194414
0.776789 0.925556 0.194653
0.830825 0.926035 0.194892
0.884860 0.926513 0.195132
0.938896 0.926991 0.195371
0.992931 0.927470 0.195610
0.130376 0.974863 0.192588
0.184411 0.975341 0.192827
0.238446 0.975820 0.193066
0.292482 0.976298 0.193305
0.346517 0.976776 0.193544
0.400553 0.977255 0.193784
0.454588 0.977733 0.194023
0.508624 0.978211 0.194262
0.562659 0.978690 0.194501
0.616694 0.979168 0.194740
0.670730 0.979646 0.194979
0.724765 0.980125 0.195219
0.778801 0.980603 0.195458
0.832836 0.981081 0.195697
0.886872 0.981560 0.195936
0.940907 0.982038 0.196175
0.994943 0.982517 0.196415
0.132387 1.000000 0.193392
0.186423 1.000000 0.193632
0.240458 1.000000 0.193871
0.294493 1.000000 0.194110
0.348529 1.000000 0.194349
0.402564 1.000000 0.194588
0.456600 1.000000 0.194827
0.510635 1.000000 0.195067
0.564671 1.000000 0.195306
0.618706 1.000000 0.195545
0.672741 1.000000 0.195784
0.726777 1.000000 0.196023
0.780812 1.000000 0.196262
0.834848 1.000000 0.196502
0.888883 1.000000 0.196741
0.942919 1.000000 0.196980
0.996954 1.000000 0.197219
0.100406 0.149325 0.234037
0.154442 0.149803 0.234277
0.208477 0.150282 0.234516
0.262512 0.150760 0.234755
0.316548 0.151238 0.234994
0.370583 0.151717 0.235233
0.424619 0.152195 0.235473
0.478654 0.152673 0.235712
0.532690 0.153152 0.235951
0.586725 0.153630 0.236190
0.640760 0.154108 0.236429
0.694796 0.154587 0.236668
0.748831 0.155065 0.236908
0.802867 0.155543 0.237147
0.856902 0.156022 0.237386
0.910938 0.156500 0.237625
0.964973 0.156979 0.237864
0.102418 0.204372 0.234842
0.156453 0.204850 0.235081
0.210489 0.205328 0.235320
0.264524 0.205807 0.235560
0.318559 0.206285 0.235799
0.372595 0.206763 0.236038
0.426630 0.207242 0.236277
0.480666 0.207720 0.236516
0.534701 0.208198 0.236755
0.588737 0.208677 0.236995
0.642772 0.209155 0.237234
0.696807 0.209633 0.237473
0.750843 0.210112 0.237712
0.804878 0.210590 0.237951
0.858914 0.211069 0.238191
0.912949 0.211547 0.238430
0.966985 0.212025 0.238669
0.104429 0.259418 0.235647
0.158465 0.259897 0.235886
0.212500 0.260375 0.236125
0.266535 0.260853 0.236364
0.320571 0.261332 0.236603
0.374606 0.261810 0.236843
0.428642 0.262288 0.237082
0.482677 0.262767 0.237321
0.536713 0.263245 0.237560
0.590748 0.263723 0.237799
0.644783 0.264202 0.238038
0.698819 0.264680 0.238278
0.752854 0.265159 0.238517
0.806890 0.265637 0.238756
0.860925 0.266115 0.238995
0.914961 0.266594 0.239234
0.968996 0.267072 0.239473
0.106441 0.314465 0.236451
0.160476 0.314943 0.236690
0.214512 0.315422 0.236930
0.268547 0.315900 0.237169
0.322582 0.316378 0.237408
0.376618 0.316857 0.237647
0.430653 0.317335 0.237886
0.484689 0.317813 0.238125
0.538724 0.318292 0.238365
0.592760 0.318770 0.238604
0.646795 0.319248 0.238843
0.700830 0.319727 0.239082
0.754866 0.320205 0.239321
0.808901 0.320684 0.239561
0.862937 0.321162 0.239800
0.916972 0.321640 0.240039
0.971008 0.322119 0.240278
0.108452 0.369512 0.237256
0.162488 0.369990 0.237495
0.216523 0.370468 0.237734
0.270558 0.370947 0.237973
0.324594 0.371425 0.238213
0.378629 0.371903 0.238452
0.432665 0.372382 0.238691
0.486700 0.372860 0.238930
0.540736 0.373339 0.239169
0.594771 0.373817 0.239408
0.648806 0.374295 0.239648
0.702842 0.374774 0.239887
0.756877 0.375252 0.240126
0.810913 0.375730 0.240365
0.864948 0.376209 0.240604
0.918984 0.376687 0.240843
0.973019 0.377165 0.241083
0.110464 0.424558 0.238060
0.164499 0.425037 0.238300
0.218535 0.425515 0.238539
0.272570 0.425993 0.238778
0.326605 0.426472 0.239017
0.380641 0.426950 0.239256
0.434676 0.427428 0.239496
0.488712 0.427907 0.239735
0.542747 0.428385 0.239974
0.596783 0.428864 0.240213
0.650818 0.429342 0.240452
0.704853 0.429820 0.240691
0.758889 0.430299 0.240931
0.812924 0.430777 0.241170
0.866960 0.431255 0.241409
0.920995 0.431734 0.241648
0.975031 0.432212 0.241887
0.112475 0.479605 0.238865
0.166511 0.480083 0.239104
0.220546 0.480562 0.239343
0.274581 0.481040 0.239583
0.328617 0.481518 0.239822
0.382652 0.481997 0.240061
0.436688 0.482475 0.240300
0.490723 0.482954 0.240539
0.544759 0.483432 0.240778
0.598794 0.483910 0.241018
0.652829 0.484389 0.241257
0.706865 0.484867 0.241496
0.760900 0.485345 0.241735
0.814936 0.485824 0.241974
0.868971 0.486302 0.242214
0.923007 0.486780 0.242453
0.977042 0.487259 0.242692
0.114487 0.534652 0.239670
0.168522 0.535130 0.239909
0.222558 0.535608 0.240148
0.276593 0.536087 0.240387
0.330628 0.536565 0.240626
0.384664 0.537044 0.240866
0.438699 0.537522 0.241105
0.492735 0.538000 0.241344
0.546770 0.538479 0.241583
0.600806 0.538957 0.241822
0.654841 0.539435 0.242061
0.708876 0.539914 0.242301
0.762912 0.540392 0.242540
0.816947 0.540870 0.242779
0.870983 0.541349 0.243018
0.925018 0.541827 0.243257
0.979054 0.542305 0.243496
0.116498 0.589699 0.240474
0.170534 0.590177 0.240713
0.224569 0.590655 0.240953
0.278604 0.591134 0.241192
0.332640 0.591612 0.241431
0.386675 0.592090 0.241670
0.440711 0.592569 0.241909
0.494746 0.593047 0.242148
0.548782 0.593525 0.242388
0.602817 0.594004 0.242627
0.656852 0.594482 0.242866
0.710888 0.594960 0.243105
0.764923 0.595439 0.243344
0.818959 0.595917 0.243584
0.872994 0.596395 0.243823
0.927030 0.596874 0.244062
0.981065 0.597352 0.244301
0.118510 0.644745 0.241279
0.172545 0.645224 0.241518
0.226581 0.645702 0.241757
0.280616 0.646180 0.241996
0.334651 0.646659 0.242236
0.388687 0.647137 0.242475
0.442722 0.647615 0.242714
0.496758 0.648094 0.242953
0.550793 0.648572 0.243192
0.604829 0.649050 0.243431
0.658864 0.649529 0.243671
0.712899 0.650007 0.243910
0.766935 0.650485 0.244149
0.820970 0.650964 0.244388
0.875006 0.651442 0.244627
0.929041 0.651920 0.244866
0.983077 0.652399 0.245106
0.120521 0.699792 0.242083
0.174557 0.700270 0.242323
0.228592 0.700749 0.242562
0.282627 0.701227 0.242801
0.336663 0.701705 0.243040
0.390698 0.702184 0.243279
0.444734 0.702662 0.243519
0.498769 0.703140 0.243758
0.552805 0.703619 0.243997
0.606840 0.704097 0.244236
0.660875 0.704575 0.244475
0.714911 0.705054 0.244714
0.768946 0.705532 0.244954
0.822982 0.706010 0.245193
0.877017 0.706489 0.245432
0.931053 0.706967 0.245671
0.985088 0.707445 0.245910
0.122533 0.754839 0.242888
0.176568 0.755317 0.243127
0.230604 0.755795 0.243366
0.284639 0.756274 0.243606
0.338674 0.756752 0.243845
0.392710 0.757230 0.244084
0.446745 0.757709 0.244323
0.500781 0.758187 0.244562
0.554816 0.758665 0.244801
0.608852 0.759144 0.245041
0.662887 0.759622 0.245280
0.716922 0.760100 0.245519
0.770958 0.760579 0.245758
0.824993 0.761057 0.245997
0.879029 0.761535 0.246237
0.933064 0.762014 0.246476
0.987100 0.762492 0.246715
0.124544 0.809885 0.243693
0.178580 0.810364 0.243932
0.232615 0.810842 0.244171
0.286650 0.811320 0.244410
0.340686 0.811799 0.244649
0.394721 0.812277 0.244889
0.448757 0.812755 0.245128
0.502792 0.813234 0.245367
0.556828 0.813712 0.245606
0.610863 0.814190 0.245845
0.664898 0.814669 0.246084
0.718934 0.815147 0.246324
0.772969 0.815626 0.246563
0.827005 0.816104 0.246802
0.881040 0.816582 0.247041
0.935076 0.817061 0.247280
0.989111 0.817539 0.247519
0.126556 0.864932 0.244497
0.180591 0.865410 0.244736
0.234627 0.865889 0.244976
0.288662 0.866367 0.245215
0.342697 0.866845 0.245454
0.396733 0.867324 0.245693
0.450768 0.867802 0.245932
0.504804 0.868280 0.246171
0.558839 0.868759 0.246411
0.612875 0.869237 0.246650
0.666910 0.869716 0.246889
0.720945 0.870194 0.247128
0.774981 0.870672 0.247367
0.829016 0.871151 0.247607
0.883052 0.871629 0.247846
0.937087 0.872107 0.248085
0.991123 0.872586 0.248324
0.128567 0.919979 0.245302
0.182603 0.920457 0.245541
0.236638 0.920935 0.245780
0.290673 0.921414 0.246019
0.344709 0.921892 0.246259
0.398744 0.922370 0.246498
0.452780 0.922849 0.246737
0.506815 0.923327 0.246976
0.560851 0.923805 0.247215
0.614886 0.924284 0.247454
0.668921 0.924762 0.247694
0.722957 0.925241 0.247933
0.776992 0.925719 0.248172
0.831028 0.926197 0.248411
0.885063 0.926676 0.248650
0.939099 0.927154 0.248889
0.993134 0.927632 0.249129
0.130579 0.975025 0.246106
0.184614 0.975504 0.246346
0.238650 0.975982 0.246585
0.292685 0.976460 0.246824
0.346720 0.976939 0.247063
0.400756 0.977417 0.247302
0.454791 0.977896 0.247542
0.508827 0.978374 0.247781
0.562862 0.978852 0.248020
0.616898 0.979331 0.248259
0.670933 0.979809 0.248498
0.724968 0.980287 0.248737
0.779004 0.980766 0.248977
0.833039 0.981244 0.249216
0.887075 0.981722 0.249455
0.941110 0.982201 0.249694
0.995146 0.982679 0.249933
0.132590 1.000000 0.246911
0.186626 1.000000 0.247150
0.240661 1.000000 0.247389
0.294696 1.000000 0.247629
0.348732 1.000000 0.247868
0.402767 1.000000 0.248107
0.456803 1.000000 0.248346
0.510838 1.000000 0.248585
0.564874 1.000000 0.248824
0.618909 1.000000 0.249064
0.672945 1.000000 0.249303
0.726980 1.000000 0.249542
0.781015 1.000000 0.249781
0.835051 1.000000 0.250020
0.889086 1.000000 0.250260
0.943122 1.000000 0.250499
0.997157 1.000000 0.250738
0.100609 0.149487 0.287556
0.154645 0.149966 0.287795
0.208680 0.150444 0.288035
0.262715 0.150922 0.288274
0.316751 0.151401 0.288513
0.370786 0.151879 0.288752
0.424822 0.152357 0.288991
0.478857 0.152836 0.289230
0.532893 0.153314 0.289470
0.586928 0.153792 0.289709
0.640964 0.154271 0.289948
0.694999 0.154749 0.290187
0.749034 0.155228 0.290426
0.803070 0.155706 0.290665
0.857105 0.156184 0.290905
