assets/luts/mint.cube
# Mint — Studio filter "mint"
# Generated by scripts/generate-filter-luts.mjs — do not edit by hand.
LUT_3D_SIZE 9
DOMAIN_MIN 0.0 0.0 0.0
DOMAIN_MAX 1.0 1.0 1.0
0.100000 0.149000 0.127000
0.208071 0.149957 0.127478
0.316142 0.150913 0.127957
0.424213 0.151870 0.128435
0.532284 0.152827 0.128913
0.640354 0.153784 0.129392
0.748425 0.154740 0.129870
0.856496 0.155697 0.130348
0.964567 0.156654 0.130827
0.104023 0.259093 0.128609
0.212094 0.260050 0.129088
0.320165 0.261007 0.129566
0.428236 0.261964 0.130044
0.536307 0.262920 0.130523
0.644377 0.263877 0.131001
0.752448 0.264834 0.131479
0.860519 0.265790 0.131958
0.968590 0.266747 0.132436
0.108046 0.369187 0.130218
0.216117 0.370143 0.130697
0.324188 0.371100 0.131175
0.432259 0.372057 0.131653
0.540330 0.373014 0.132132
0.648400 0.373970 0.132610
0.756471 0.374927 0.133088
0.864542 0.375884 0.133567
0.972613 0.376840 0.134045
0.112069 0.479280 0.131828
0.220140 0.480237 0.132306
0.328211 0.481194 0.132784
0.436282 0.482150 0.133263
0.544353 0.483107 0.133741
0.652423 0.484064 0.134219
0.760494 0.485020 0.134698
0.868565 0.485977 0.135176
0.976636 0.486934 0.135654
0.116092 0.589374 0.133437
0.224163 0.590330 0.133915
0.332234 0.591287 0.134394
0.440305 0.592244 0.134872
0.548376 0.593200 0.135350
0.656446 0.594157 0.135829
0.764517 0.595114 0.136307
0.872588 0.596070 0.136785
0.980659 0.597027 0.137264
0.120115 0.699467 0.135046
0.228186 0.700424 0.135524
0.336257 0.701380 0.136003
0.444328 0.702337 0.136481
0.552399 0.703294 0.136959
0.660469 0.704251 0.137438
0.768540 0.705207 0.137916
0.876611 0.706164 0.138394
0.984682 0.707121 0.138873
0.124138 0.809560 0.136655
0.232209 0.810517 0.137134
0.340280 0.811474 0.137612
0.448351 0.812431 0.138090
0.556422 0.813387 0.138569
0.664492 0.814344 0.139047
0.772563 0.815301 0.139525
0.880634 0.816257 0.140004
0.988705 0.817214 0.140482
0.128161 0.919654 0.138264
0.236232 0.920610 0.138743
0.344303 0.921567 0.139221
0.452374 0.922524 0.139699
0.560445 0.923481 0.140178
0.668515 0.924437 0.140656
0.776586 0.925394 0.141135
0.884657 0.926351 0.141613
0.992728 0.927307 0.142091
0.132184 1.000000 0.139874
0.240255 1.000000 0.140352
0.348326 1.000000 0.140830
0.456397 1.000000 0.141309
0.564468 1.000000 0.141787
0.672538 1.000000 0.142265
0.780609 1.000000 0.142744
0.888680 1.000000 0.143222
0.996751 1.000000 0.143700
0.100406 0.149325 0.234037
0.208477 0.150282 0.234516
0.316548 0.151238 0.234994
0.424619 0.152195 0.235473
0.532690 0.153152 0.235951
0.640760 0.154108 0.236429
0.748831 0.155065 0.236908
0.856902 0.156022 0.237386
0.964973 0.156979 0.237864
0.104429 0.259418 0.235647
0.212500 0.260375 0.236125
0.320571 0.261332 0.236603
0.428642 0.262288 0.237082
0.536713 0.263245 0.237560
0.644783 0.264202 0.238038
0.752854 0.265159 0.238517
0.860925 0.266115 0.238995
0.968996 0.267072 0.239473
0.108452 0.369512 0.237256
0.216523 0.370468 0.237734
0.324594 0.371425 0.238213
0.432665 0.372382 0.238691
0.540736 0.373339 0.239169
0.648806 0.374295 0.239648
0.756877 0.375252 0.240126
0.864948 0.376209 0.240604
0.973019 0.377165 0.241083
0.112475 0.479605 0.238865
0.220546 0.480562 0.239343
0.328617 0.481518 0.239822
0.436688 0.482475 0.240300
0.544759 0.483432 0.240778
0.652829 0.484389 0.241257
0.760900 0.485345 0.241735
0.868971 0.486302 0.242214
0.977042 0.487259 0.242692
0.116498 0.589699 0.240474
0.224569 0.590655 0.240953
0.332640 0.591612 0.241431
0.440711 0.592569 0.241909
0.548782 0.593525 0.242388
0.656852 0.594482 0.242866
0.764923 0.595439 0.243344
0.872994 0.596395 0.243823
0.981065 0.597352 0.244301
0.120521 0.699792 0.242083
0.228592 0.700749 0.242562
0.336663 0.701705 0.243040
0.444734 0.702662 0.243519
0.552805 0.703619 0.243997
0.660875 0.704575 0.244475
0.768946 0.705532 0.244954
0.877017 0.706489 0.245432
0.985088 0.707445 0.245910
0.124544 0.809885 0.243693
0.232615 0.810842 0.244171
0.340686 0.811799 0.244649
0.448757 0.812755 0.245128
0.556828 0.813712 0.245606
0.664898 0.814669 0.246084
0.772969 0.815626 0.246563
0.881040 0.816582 0.247041
0.989111 0.817539 0.247519
0.128567 0.919979 0.245302
0.236638 0.920935 0.245780
0.344709 0.921892 0.246259
0.452780 0.922849 0.246737
0.560851 0.923805 0.247215
0.668921 0.924762 0.247694
0.776992 0.925719 0.248172
0.885063 0.926676 0.248650
0.993134 0.927632 0.249129
0.132590 1.000000 0.246911
0.240661 1.000000 0.247389
0.348732 1.000000 0.247868
0.456803 1.000000 0.248346
0.564874 1.000000 0.248824
0.672945 1.000000 0.249303
0.781015 1.000000 0.249781
0.889086 1.000000 0.250260
0.997157 1.000000 0.250738
0.100812 0.149650 0.341075
0.208883 0.150607 0.341553
0.316954 0.151563 0.342032
0.425025 0.152520 0.342510
0.533096 0.153477 0.342988
0.641167 0.154433 0.343467
0.749238 0.155390 0.343945
0.857308 0.156347 0.344423
0.965379 0.157303 0.344902
0.104835 0.259743 0.342684
0.212906 0.260700 0.343162
0.320977 0.261657 0.343641
0.429048 0.262613 0.344119
0.537119 0.263570 0.344598
0.645190 0.264527 0.345076
0.753260 0.265483 0.345554
0.861331 0.266440 0.346033
0.969402 0.267397 0.346511
0.108858 0.369837 0.344293
0.216929 0.370793 0.344772
0.325000 0.371750 0.345250
0.433071 0.372707 0.345728
0.541142 0.373663 0.346207
0.649213 0.374620 0.346685
0.757283 0.375577 0.347163
0.865354 0.376534 0.347642
0.973425 0.377490 0.348120
0.112881 0.479930 0.345903
0.220952 0.480887 0.346381
0.329023 0.481843 0.346859
0.437094 0.482800 0.347338
0.545165 0.483757 0.347816
0.653236 0.484714 0.348294
0.761306 0.485670 0.348773
0.869377 0.486627 0.349251
0.977448 0.487584 0.349729
0.116904 0.590023 0.347512
0.224975 0.590980 0.347990
0.333046 0.591937 0.348468
0.441117 0.592893 0.348947
0.549188 0.593850 0.349425
0.657259 0.594807 0.349903
0.765329 0.595764 0.350382
0.873400 0.596720 0.350860
0.981471 0.597677 0.351339
0.120927 0.700117 0.349121
0.228998 0.701073 0.349599
0.337069 0.702030 0.350078
0.445140 0.702987 0.350556
0.553211 0.703944 0.351034
0.661282 0.704900 0.351513
0.769352 0.705857 0.351991
0.877423 0.706814 0.352469
0.985494 0.707770 0.352948
0.124950 0.810210 0.350730
0.233021 0.811167 0.351208
0.341092 0.812124 0.351687
0.449163 0.813080 0.352165
0.557234 0.814037 0.352644
0.665305 0.814994 0.353122
0.773375 0.815950 0.353600
0.881446 0.816907 0.354079
0.989517 0.817864 0.354557
0.128973 0.920304 0.352339
0.237044 0.921260 0.352818
0.345115 0.922217 0.353296
0.453186 0.923174 0.353774
0.561257 0.924130 0.354253
0.669328 0.925087 0.354731
0.777398 0.926044 0.355209
0.885469 0.927001 0.355688
0.993540 0.927957 0.356166
0.132996 1.000000 0.353949
0.241067 1.000000 0.354427
0.349138 1.000000 0.354905
0.457209 1.000000 0.355384
0.565280 1.000000 0.355862
0.673351 1.000000 0.356340
0.781421 1.000000 0.356819
0.889492 1.000000 0.357297
0.997563 1.000000 0.357775
0.101218 0.149975 0.448112
0.209289 0.150931 0.448591
0.317360 0.151888 0.449069
0.425431 0.152845 0.449547
0.533502 0.153802 0.450026
0.641573 0.154758 0.450504
0.749644 0.155715 0.450982
0.857714 0.156672 0.451461
0.965785 0.157628 0.451939
0.105241 0.260068 0.449722
0.213312 0.261025 0.450200
0.321383 0.261982 0.450678
0.429454 0.262938 0.451157
0.537525 0.263895 0.451635
0.645596 0.264852 0.452113
0.753667 0.265808 0.452592
0.861737 0.266765 0.453070
0.969808 0.267722 0.453548
0.109264 0.370162 0.451331
0.217335 0.371118 0.451809
0.325406 0.372075 0.452287
0.433477 0.373032 0.452766
0.541548 0.373988 0.453244
0.649619 0.374945 0.453723
0.757690 0.375902 0.454201
0.865760 0.376858 0.454679
0.973831 0.377815 0.455158
0.113287 0.480255 0.452940
0.221358 0.481212 0.453418
0.329429 0.482168 0.453897
0.437500 0.483125 0.454375
0.545571 0.484082 0.454853
0.653642 0.485038 0.455332
0.761713 0.485995 0.455810
0.869783 0.486952 0.456288
0.977854 0.487909 0.456767
0.117310 0.590348 0.454549
0.225381 0.591305 0.455027
0.333452 0.592262 0.455506
0.441523 0.593218 0.455984
0.549594 0.594175 0.456463
0.657665 0.595132 0.456941
0.765736 0.596089 0.457419
0.873806 0.597045 0.457898
0.981877 0.598002 0.458376
0.121333 0.700442 0.456158
0.229404 0.701398 0.456637
0.337475 0.702355 0.457115
0.445546 0.703312 0.457593
0.553617 0.704268 0.458072
0.661688 0.705225 0.458550
0.769759 0.706182 0.459028
0.877829 0.707139 0.459507
0.985900 0.708095 0.459985
0.125356 0.810535 0.457768
0.233427 0.811492 0.458246
0.341498 0.812449 0.458724
0.449569 0.813405 0.459203
0.557640 0.814362 0.459681
0.665711 0.815319 0.460159
0.773782 0.816275 0.460638
0.881852 0.817232 0.461116
0.989923 0.818189 0.461594
0.129379 0.920628 0.459377
0.237450 0.921585 0.459855
0.345521 0.922542 0.460333
0.453592 0.923499 0.460812
0.561663 0.924455 0.461290
0.669734 0.925412 0.461769
0.777805 0.926369 0.462247
0.885875 0.927325 0.462725
0.993946 0.928282 0.463204
0.133402 1.000000 0.460986
0.241473 1.000000 0.461464
0.349544 1.000000 0.461943
0.457615 1.000000 0.462421
0.565686 1.000000 0.462899
0.673757 1.000000 0.463378
0.781828 1.000000 0.463856
0.889898 1.000000 0.464334
0.997969 1.000000 0.464813
0.101625 0.150300 0.555150
0.209695 0.151256 0.555628
0.317766 0.152213 0.556107
0.425837 0.153170 0.556585
0.533908 0.154126 0.557063
0.641979 0.155083 0.557542
0.750050 0.156040 0.558020
0.858121 0.156997 0.558498
0.966191 0.157953 0.558977
0.105648 0.260393 0.556759
0.213718 0.261350 0.557237
0.321789 0.262306 0.557716
0.429860 0.263263 0.558194
0.537931 0.264220 0.558672
0.646002 0.265177 0.559151
0.754073 0.266133 0.559629
0.862144 0.267090 0.560107
0.970214 0.268047 0.560586
0.109671 0.370486 0.558368
0.217741 0.371443 0.558847
0.325812 0.372400 0.559325
0.433883 0.373356 0.559803
0.541954 0.374313 0.560282
0.650025 0.375270 0.560760
0.758096 0.376227 0.561238
0.866167 0.377183 0.561717
0.974237 0.378140 0.562195
0.113694 0.480580 0.559977
0.221764 0.481537 0.560456
0.329835 0.482493 0.560934
0.437906 0.483450 0.561412
0.545977 0.484407 0.561891
0.654048 0.485363 0.562369
0.762119 0.486320 0.562848
0.870190 0.487277 0.563326
0.978260 0.488233 0.563804
0.117717 0.590673 0.561587
0.225787 0.591630 0.562065
0.333858 0.592587 0.562543
0.441929 0.593543 0.563022
0.550000 0.594500 0.563500
0.658071 0.595457 0.563978
0.766142 0.596413 0.564457
0.874213 0.597370 0.564935
0.982283 0.598327 0.565413
0.121740 0.700767 0.563196
0.229810 0.701723 0.563674
0.337881 0.702680 0.564153
0.445952 0.703637 0.564631
0.554023 0.704593 0.565109
0.662094 0.705550 0.565588
0.770165 0.706507 0.566066
0.878236 0.707464 0.566544
0.986306 0.708420 0.567023
0.125762 0.810860 0.564805
0.233833 0.811817 0.565283
0.341904 0.812773 0.565762
0.449975 0.813730 0.566240
0.558046 0.814687 0.566718
0.666117 0.815643 0.567197
0.774188 0.816600 0.567675
0.882259 0.817557 0.568153
0.990329 0.818514 0.568632
0.129785 0.920953 0.566414
0.237856 0.921910 0.566893
0.345927 0.922867 0.567371
0.453998 0.923823 0.567849
0.562069 0.924780 0.568328
0.670140 0.925737 0.568806
0.778211 0.926694 0.569284
0.886282 0.927650 0.569763
0.994352 0.928607 0.570241
0.133808 1.000000 0.568023
0.241879 1.000000 0.568502
0.349950 1.000000 0.568980
0.458021 1.000000 0.569458
0.566092 1.000000 0.569937
0.674163 1.000000 0.570415
0.782234 1.000000 0.570894
0.890305 1.000000 0.571372
0.998375 1.000000 0.571850
0.102031 0.150625 0.662187
0.210102 0.151581 0.662666
0.318172 0.152538 0.663144
0.426243 0.153495 0.663622
0.534314 0.154451 0.664101
0.642385 0.155408 0.664579
0.750456 0.156365 0.665057
0.858527 0.157321 0.665536
0.966598 0.158278 0.666014
0.106054 0.260718 0.663796
0.214125 0.261675 0.664275
0.322195 0.262631 0.664753
0.430266 0.263588 0.665231
0.538337 0.264545 0.665710
0.646408 0.265501 0.666188
0.754479 0.266458 0.666667
0.862550 0.267415 0.667145
0.970621 0.268372 0.667623
0.110077 0.370811 0.665406
0.218148 0.371768 0.665884
0.326218 0.372725 0.666362
0.434289 0.373681 0.666841
0.542360 0.374638 0.667319
0.650431 0.375595 0.667797
0.758502 0.376551 0.668276
0.866573 0.377508 0.668754
0.974644 0.378465 0.669232
0.114100 0.480905 0.667015
0.222171 0.481861 0.667493
0.330241 0.482818 0.667972
0.438312 0.483775 0.668450
0.546383 0.484732 0.668928
0.654454 0.485688 0.669407
0.762525 0.486645 0.669885
0.870596 0.487602 0.670363
0.978667 0.488558 0.670842
0.118123 0.590998 0.668624
0.226194 0.591955 0.669102
0.334264 0.592912 0.669581
0.442335 0.593868 0.670059
0.550406 0.594825 0.670537
0.658477 0.595782 0.671016
0.766548 0.596738 0.671494
0.874619 0.597695 0.671972
0.982690 0.598652 0.672451
0.122146 0.701091 0.670233
0.230217 0.702048 0.670712
0.338287 0.703005 0.671190
0.446358 0.703962 0.671668
0.554429 0.704918 0.672147
0.662500 0.705875 0.672625
0.770571 0.706832 0.673103
0.878642 0.707788 0.673582
0.986713 0.708745 0.674060
0.126169 0.811185 0.671842
0.234240 0.812142 0.672321
0.342310 0.813098 0.672799
0.450381 0.814055 0.673277
0.558452 0.815012 0.673756
0.666523 0.815968 0.674234
0.774594 0.816925 0.674713
0.882665 0.817882 0.675191
0.990736 0.818839 0.675669
0.130192 0.921278 0.673452
0.238263 0.922235 0.673930
0.346333 0.923192 0.674408
0.454404 0.924148 0.674887
0.562475 0.925105 0.675365
0.670546 0.926062 0.675843
0.778617 0.927018 0.676322
0.886688 0.927975 0.676800
0.994759 0.928932 0.677278
0.134215 1.000000 0.675061
0.242286 1.000000 0.675539
0.350356 1.000000 0.676018
0.458427 1.000000 0.676496
0.566498 1.000000 0.676974
0.674569 1.000000 0.677453
0.782640 1.000000 0.677931
0.890711 1.000000 0.678409
0.998782 1.000000 0.678888
0.102437 0.150949 0.769225
0.210508 0.151906 0.769703
0.318578 0.152863 0.770181
0.426649 0.153819 0.770660
0.534720 0.154776 0.771138
0.642791 0.155733 0.771616
0.750862 0.156690 0.772095
0.858933 0.157646 0.772573
0.967004 0.158603 0.773052
0.106460 0.261043 0.770834
0.214531 0.262000 0.771312
0.322601 0.262956 0.771791
0.430672 0.263913 0.772269
0.538743 0.264870 0.772747
0.646814 0.265826 0.773226
0.754885 0.266783 0.773704
0.862956 0.267740 0.774182
0.971027 0.268696 0.774661
0.110483 0.371136 0.772443
0.218554 0.372093 0.772921
0.326624 0.373050 0.773400
0.434695 0.374006 0.773878
0.542766 0.374963 0.774357
0.650837 0.375920 0.774835
0.758908 0.376876 0.775313
0.866979 0.377833 0.775792
0.975050 0.378790 0.776270
0.114506 0.481230 0.774052
0.222577 0.482186 0.774531
0.330647 0.483143 0.775009
0.438718 0.484100 0.775487
0.546789 0.485056 0.775966
0.654860 0.486013 0.776444
0.762931 0.486970 0.776922
0.871002 0.487926 0.777401
0.979073 0.488883 0.777879
0.118529 0.591323 0.775662
0.226600 0.592280 0.776140
0.334670 0.593236 0.776618
0.442741 0.594193 0.777097
0.550812 0.595150 0.777575
0.658883 0.596107 0.778053
0.766954 0.597063 0.778532
0.875025 0.598020 0.779010
0.983096 0.598977 0.779488
0.122552 0.701416 0.777271
0.230623 0.702373 0.777749
0.338694 0.703330 0.778227
0.446764 0.704287 0.778706
0.554835 0.705243 0.779184
0.662906 0.706200 0.779662
0.770977 0.707157 0.780141
0.879048 0.708113 0.780619
0.987119 0.709070 0.781098
0.126575 0.811510 0.778880
0.234646 0.812466 0.779358
0.342717 0.813423 0.779837
0.450787 0.814380 0.780315
0.558858 0.815337 0.780793
0.666929 0.816293 0.781272
0.775000 0.817250 0.781750
0.883071 0.818207 0.782228
0.991142 0.819163 0.782707
0.130598 0.921603 0.780489
0.238669 0.922560 0.780967
0.346740 0.923517 0.781446
0.454810 0.924473 0.781924
0.562881 0.925430 0.782403
0.670952 0.926387 0.782881
0.779023 0.927343 0.783359
0.887094 0.928300 0.783838
0.995165 0.929257 0.784316
0.134621 1.000000 0.782098
0.242692 1.000000 0.782577
0.350762 1.000000 0.783055
0.458833 1.000000 0.783533
0.566904 1.000000 0.784012
0.674975 1.000000 0.784490
0.783046 1.000000 0.784968
0.891117 1.000000 0.785447
0.999188 1.000000 0.785925
0.102843 0.151274 0.876262
0.210914 0.152231 0.876740
0.318985 0.153188 0.877219
0.427055 0.154144 0.877697
0.535126 0.155101 0.878176
0.643197 0.156058 0.878654
0.751268 0.157015 0.879132
0.859339 0.157971 0.879611
0.967410 0.158928 0.880089
0.106866 0.261368 0.877871
0.214937 0.262324 0.878350
0.323008 0.263281 0.878828
0.431078 0.264238 0.879306
0.539149 0.265195 0.879785
0.647220 0.266151 0.880263
0.755291 0.267108 0.880741
0.863362 0.268065 0.881220
0.971433 0.269021 0.881698
0.110889 0.371461 0.879481
0.218960 0.372418 0.879959
0.327031 0.373374 0.880437
0.435101 0.374331 0.880916
0.543172 0.375288 0.881394
0.651243 0.376245 0.881872
0.759314 0.377201 0.882351
0.867385 0.378158 0.882829
0.975456 0.379115 0.883307
0.114912 0.481554 0.881090
0.222983 0.482511 0.881568
0.331054 0.483468 0.882046
0.439125 0.484425 0.882525
0.547195 0.485381 0.883003
0.655266 0.486338 0.883481
0.763337 0.487295 0.883960
0.871408 0.488251 0.884438
0.979479 0.489208 0.884917
0.118935 0.591648 0.882699
0.227006 0.592605 0.883177
0.335077 0.593561 0.883656
0.443148 0.594518 0.884134
0.551218 0.595475 0.884612
0.659289 0.596431 0.885091
0.767360 0.597388 0.885569
0.875431 0.598345 0.886047
0.983502 0.599302 0.886526
0.122958 0.701741 0.884308
0.231029 0.702698 0.884787
0.339100 0.703655 0.885265
0.447171 0.704611 0.885743
0.555241 0.705568 0.886222
0.663312 0.706525 0.886700
0.771383 0.707481 0.887178
0.879454 0.708438 0.887657
0.987525 0.709395 0.888135
0.126981 0.811835 0.885917
0.235052 0.812791 0.886396
0.343123 0.813748 0.886874
0.451194 0.814705 0.887352
0.559264 0.815662 0.887831
0.667335 0.816618 0.888309
0.775406 0.817575 0.888787
0.883477 0.818532 0.889266
0.991548 0.819488 0.889744
0.131004 0.921928 0.887527
0.239075 0.922885 0.888005
0.347146 0.923841 0.888483
0.455217 0.924798 0.888962
0.563287 0.925755 0.889440
0.671358 0.926712 0.889918
0.779429 0.927668 0.890397
0.887500 0.928625 0.890875
0.995571 0.929582 0.891353
0.135027 1.000000 0.889136
0.243098 1.000000 0.889614
0.351169 1.000000 0.890092
0.459240 1.000000 0.890571
0.567310 1.000000 0.891049
0.675381 1.000000 0.891527
0.783452 1.000000 0.892006
0.891523 1.000000 0.892484
0.999594 1.000000 0.892963
0.103249 0.151599 0.983300
0.211320 0.152556 0.983778
0.319391 0.153513 0.984256
0.427462 0.154469 0.984735
0.535532 0.155426 0.985213
0.643603 0.156383 0.985691
0.751674 0.157339 0.986170
0.859745 0.158296 0.986648
0.967816 0.159253 0.987126
0.107272 0.261693 0.984909
0.215343 0.262649 0.985387
0.323414 0.263606 0.985865
0.431485 0.264563 0.986344
0.539556 0.265519 0.986822
0.647626 0.266476 0.987301
0.755697 0.267433 0.987779
0.863768 0.268390 0.988257
0.971839 0.269346 0.988736
0.111295 0.371786 0.986518
0.219366 0.372743 0.986996
0.327437 0.373699 0.987475
0.435508 0.374656 0.987953
0.543579 0.375613 0.988431
0.651649 0.376570 0.988910
0.759720 0.377526 0.989388
0.867791 0.378483 0.989866
0.975862 0.379440 0.990345
0.115318 0.481879 0.988127
0.223389 0.482836 0.988606
0.331460 0.483793 0.989084
0.439531 0.484749 0.989562
0.547602 0.485706 0.990041
0.655672 0.486663 0.990519
0.763743 0.487620 0.990997
0.871814 0.488576 0.991476
0.979885 0.489533 0.991954
0.119341 0.591973 0.989736
0.227412 0.592930 0.990215
0.335483 0.593886 0.990693
0.443554 0.594843 0.991171
0.551625 0.595800 0.991650
0.659695 0.596756 0.992128
0.767766 0.597713 0.992606
0.875837 0.598670 0.993085
0.983908 0.599626 0.993563
0.123364 0.702066 0.991346
0.231435 0.703023 0.991824
0.339506 0.703980 0.992302
0.447577 0.704936 0.992781
0.555648 0.705893 0.993259
0.663718 0.706850 0.993737
0.771789 0.707806 0.994216
0.879860 0.708763 0.994694
0.987931 0.709720 0.995172
0.127387 0.812160 0.992955
0.235458 0.813116 0.993433
0.343529 0.814073 0.993912
0.451600 0.815030 0.994390
0.559671 0.815986 0.994868
0.667741 0.816943 0.995347
0.775812 0.817900 0.995825
0.883883 0.818857 0.996303
0.991954 0.819813 0.996782
0.131410 0.922253 0.994564
0.239481 0.923210 0.995042
0.347552 0.924166 0.995521
0.455623 0.925123 0.995999
0.563694 0.926080 0.996477
0.671764 0.927036 0.996956
0.779835 0.927993 0.997434
0.887906 0.928950 0.997912
0.995977 0.929907 0.998391
0.135433 1.000000 0.996173
0.243504 1.000000 0.996652
0.351575 1.000000 0.997130
0.459646 1.000000 0.997608
0.567717 1.000000 0.998087
0.675787 1.000000 0.998565
0.783858 1.000000 0.999043
0.891929 1.000000 0.999522
1.000000 1.000000 1.000000
