assets/luts/mono.cube
# Mono — Studio filter "mono"
# Generated by scripts/generate-filter-luts.mjs — do not edit by hand.
LUT_3D_SIZE 9
DOMAIN_MIN 0.0 0.0 0.0
DOMAIN_MAX 1.0 1.0 1.0
0.060000 0.060000 0.060000
0.084981 0.084981 0.084981
0.109961 0.109961 0.109961
0.134941 0.134941 0.134941
0.159922 0.159922 0.159922
0.184903 0.184903 0.184903
0.209883 0.209883 0.209883
0.234864 0.234864 0.234864
0.259844 0.259844 0.259844
0.144036 0.144036 0.144036
0.169016 0.169016 0.169016
0.193997 0.193997 0.193997
0.218977 0.218977 0.218977
0.243958 0.243958 0.243958
0.268938 0.268938 0.268938
0.293919 0.293919 0.293919
0.318900 0.318900 0.318900
0.343880 0.343880 0.343880
0.228072 0.228072 0.228072
0.253052 0.253052 0.253052
0.278033 0.278033 0.278033
0.303013 0.303013 0.303013
0.327994 0.327994 0.327994
0.352975 0.352975 0.352975
0.377955 0.377955 0.377955
0.402935 0.402935 0.402935
0.427916 0.427916 0.427916
0.312108 0.312108 0.312108
0.337089 0.337089 0.337089
0.362069 0.362069 0.362069
0.387049 0.387049 0.387049
0.412030 0.412030 0.412030
0.437011 0.437011 0.437011
0.461991 0.461991 0.461991
0.486972 0.486972 0.486972
0.511952 0.511952 0.511952
0.396144 0.396144 0.396144
0.421125 0.421125 0.421125
0.446105 0.446105 0.446105
0.471085 0.471085 0.471085
0.496066 0.496066 0.496066
0.521046 0.521046 0.521046
0.546027 0.546027 0.546027
0.571008 0.571008 0.571008
0.595988 0.595988 0.595988
0.480180 0.480180 0.480180
0.505161 0.505161 0.505161
0.530141 0.530141 0.530141
0.555122 0.555122 0.555122
0.580102 0.580102 0.580102
0.605082 0.605082 0.605082
0.630063 0.630063 0.630063
0.655044 0.655044 0.655044
0.680024 0.680024 0.680024
0.564216 0.564216 0.564216
0.589197 0.589197 0.589197
0.614177 0.614177 0.614177
0.639158 0.639158 0.639158
0.664138 0.664138 0.664138
0.689119 0.689119 0.689119
0.714099 0.714099 0.714099
0.739080 0.739080 0.739080
0.764060 0.764060 0.764060
0.648252 0.648252 0.648252
0.673232 0.673232 0.673232
0.698213 0.698213 0.698213
0.723193 0.723193 0.723193
0.748174 0.748174 0.748174
0.773154 0.773154 0.773154
0.798135 0.798135 0.798135
0.823115 0.823115 0.823115
0.848096 0.848096 0.848096
0.732288 0.732288 0.732288
0.757269 0.757269 0.757269
0.782249 0.782249 0.782249
0.807230 0.807230 0.807230
0.832210 0.832210 0.832210
0.857190 0.857190 0.857190
0.882171 0.882171 0.882171
0.907151 0.907151 0.907151
0.932132 0.932132 0.932132
0.068484 0.068484 0.068484
0.093464 0.093464 0.093464
0.118445 0.118445 0.118445
0.143425 0.143425 0.143425
0.168406 0.168406 0.168406
0.193386 0.193386 0.193386
0.218367 0.218367 0.218367
0.243347 0.243347 0.243347
0.268327 0.268327 0.268327
0.152520 0.152520 0.152520
0.177500 0.177500 0.177500
0.202481 0.202481 0.202481
0.227461 0.227461 0.227461
0.252441 0.252441 0.252441
0.277422 0.277422 0.277422
0.302403 0.302403 0.302403
0.327383 0.327383 0.327383
0.352363 0.352363 0.352363
0.236555 0.236555 0.236555
0.261536 0.261536 0.261536
0.286517 0.286517 0.286517
0.311497 0.311497 0.311497
0.336478 0.336478 0.336478
0.361458 0.361458 0.361458
0.386439 0.386439 0.386439
0.411419 0.411419 0.411419
0.436399 0.436399 0.436399
0.320591 0.320591 0.320591
0.345572 0.345572 0.345572
0.370553 0.370553 0.370553
0.395533 0.395533 0.395533
0.420513 0.420513 0.420513
0.445494 0.445494 0.445494
0.470474 0.470474 0.470474
0.495455 0.495455 0.495455
0.520436 0.520436 0.520436
0.404627 0.404627 0.404627
0.429608 0.429608 0.429608
0.454588 0.454588 0.454588
0.479569 0.479569 0.479569
0.504549 0.504549 0.504549
0.529530 0.529530 0.529530
0.554510 0.554510 0.554510
0.579491 0.579491 0.579491
0.604471 0.604471 0.604471
0.488663 0.488663 0.488663
0.513644 0.513644 0.513644
0.538624 0.538624 0.538624
0.563605 0.563605 0.563605
0.588585 0.588585 0.588585
0.613566 0.613566 0.613566
0.638546 0.638546 0.638546
0.663527 0.663527 0.663527
0.688507 0.688507 0.688507
0.572699 0.572699 0.572699
0.597680 0.597680 0.597680
0.622660 0.622660 0.622660
0.647641 0.647641 0.647641
0.672621 0.672621 0.672621
0.697602 0.697602 0.697602
0.722582 0.722582 0.722582
0.747563 0.747563 0.747563
0.772543 0.772543 0.772543
0.656735 0.656735 0.656735
0.681716 0.681716 0.681716
0.706696 0.706696 0.706696
0.731677 0.731677 0.731677
0.756657 0.756657 0.756657
0.781638 0.781638 0.781638
0.806618 0.806618 0.806618
0.831599 0.831599 0.831599
0.856579 0.856579 0.856579
0.740771 0.740771 0.740771
0.765752 0.765752 0.765752
0.790732 0.790732 0.790732
0.815713 0.815713 0.815713
0.840693 0.840693 0.840693
0.865674 0.865674 0.865674
0.890654 0.890654 0.890654
0.915635 0.915635 0.915635
0.940615 0.940615 0.940615
0.076967 0.076967 0.076967
0.101947 0.101947 0.101947
0.126928 0.126928 0.126928
0.151909 0.151909 0.151909
0.176889 0.176889 0.176889
0.201870 0.201870 0.201870
0.226850 0.226850 0.226850
0.251831 0.251831 0.251831
0.276811 0.276811 0.276811
0.161003 0.161003 0.161003
0.185983 0.185983 0.185983
0.210964 0.210964 0.210964
0.235945 0.235945 0.235945
0.260925 0.260925 0.260925
0.285906 0.285906 0.285906
0.310886 0.310886 0.310886
0.335867 0.335867 0.335867
0.360847 0.360847 0.360847
0.245039 0.245039 0.245039
0.270019 0.270019 0.270019
0.295000 0.295000 0.295000
0.319981 0.319981 0.319981
0.344961 0.344961 0.344961
0.369942 0.369942 0.369942
0.394922 0.394922 0.394922
0.419902 0.419902 0.419902
0.444883 0.444883 0.444883
0.329075 0.329075 0.329075
0.354056 0.354056 0.354056
0.379036 0.379036 0.379036
0.404017 0.404017 0.404017
0.428997 0.428997 0.428997
0.453978 0.453978 0.453978
0.478958 0.478958 0.478958
0.503938 0.503938 0.503938
0.528919 0.528919 0.528919
0.413111 0.413111 0.413111
0.438091 0.438091 0.438091
0.463072 0.463072 0.463072
0.488053 0.488053 0.488053
0.513033 0.513033 0.513033
0.538014 0.538014 0.538014
0.562994 0.562994 0.562994
0.587975 0.587975 0.587975
0.612955 0.612955 0.612955
0.497147 0.497147 0.497147
0.522127 0.522127 0.522127
0.547108 0.547108 0.547108
0.572088 0.572088 0.572088
0.597069 0.597069 0.597069
0.622049 0.622049 0.622049
0.647030 0.647030 0.647030
0.672010 0.672010 0.672010
0.696991 0.696991 0.696991
0.581183 0.581183 0.581183
0.606163 0.606163 0.606163
0.631144 0.631144 0.631144
0.656124 0.656124 0.656124
0.681105 0.681105 0.681105
0.706086 0.706086 0.706086
0.731066 0.731066 0.731066
0.756046 0.756046 0.756046
0.781027 0.781027 0.781027
0.665219 0.665219 0.665219
0.690199 0.690199 0.690199
0.715180 0.715180 0.715180
0.740160 0.740160 0.740160
0.765141 0.765141 0.765141
0.790122 0.790122 0.790122
0.815102 0.815102 0.815102
0.840082 0.840082 0.840082
0.865063 0.865063 0.865063
0.749255 0.749255 0.749255
0.774235 0.774235 0.774235
0.799216 0.799216 0.799216
0.824196 0.824196 0.824196
0.849177 0.849177 0.849177
0.874157 0.874157 0.874157
0.899138 0.899138 0.899138
0.924118 0.924118 0.924118
0.949099 0.949099 0.949099
0.085450 0.085450 0.085450
0.110431 0.110431 0.110431
0.135412 0.135412 0.135412
0.160392 0.160392 0.160392
0.185373 0.185373 0.185373
0.210353 0.210353 0.210353
0.235334 0.235334 0.235334
0.260314 0.260314 0.260314
0.285295 0.285295 0.285295
0.169486 0.169486 0.169486
0.194467 0.194467 0.194467
0.219448 0.219448 0.219448
0.244428 0.244428 0.244428
0.269408 0.269408 0.269408
0.294389 0.294389 0.294389
0.319370 0.319370 0.319370
0.344350 0.344350 0.344350
0.369331 0.369331 0.369331
0.253522 0.253522 0.253522
0.278503 0.278503 0.278503
0.303484 0.303484 0.303484
0.328464 0.328464 0.328464
0.353445 0.353445 0.353445
0.378425 0.378425 0.378425
0.403406 0.403406 0.403406
0.428386 0.428386 0.428386
0.453367 0.453367 0.453367
0.337558 0.337558 0.337558
0.362539 0.362539 0.362539
0.387520 0.387520 0.387520
0.412500 0.412500 0.412500
0.437480 0.437480 0.437480
0.462461 0.462461 0.462461
0.487441 0.487441 0.487441
0.512422 0.512422 0.512422
0.537403 0.537403 0.537403
0.421594 0.421594 0.421594
0.446575 0.446575 0.446575
0.471555 0.471555 0.471555
0.496536 0.496536 0.496536
0.521517 0.521517 0.521517
0.546497 0.546497 0.546497
0.571477 0.571477 0.571477
0.596458 0.596458 0.596458
0.621439 0.621439 0.621439
0.505630 0.505630 0.505630
0.530611 0.530611 0.530611
0.555591 0.555591 0.555591
0.580572 0.580572 0.580572
0.605552 0.605552 0.605552
0.630533 0.630533 0.630533
0.655513 0.655513 0.655513
0.680494 0.680494 0.680494
0.705474 0.705474 0.705474
0.589666 0.589666 0.589666
0.614647 0.614647 0.614647
0.639628 0.639628 0.639628
0.664608 0.664608 0.664608
0.689589 0.689589 0.689589
0.714569 0.714569 0.714569
0.739549 0.739549 0.739549
0.764530 0.764530 0.764530
0.789511 0.789511 0.789511
0.673702 0.673702 0.673702
0.698683 0.698683 0.698683
0.723663 0.723663 0.723663
0.748644 0.748644 0.748644
0.773624 0.773624 0.773624
0.798605 0.798605 0.798605
0.823585 0.823585 0.823585
0.848566 0.848566 0.848566
0.873546 0.873546 0.873546
0.757738 0.757738 0.757738
0.782719 0.782719 0.782719
0.807699 0.807699 0.807699
0.832680 0.832680 0.832680
0.857660 0.857660 0.857660
0.882641 0.882641 0.882641
0.907621 0.907621 0.907621
0.932602 0.932602 0.932602
0.957582 0.957582 0.957582
0.093934 0.093934 0.093934
0.118915 0.118915 0.118915
0.143895 0.143895 0.143895
0.168876 0.168876 0.168876
0.193856 0.193856 0.193856
0.218837 0.218837 0.218837
0.243817 0.243817 0.243817
0.268797 0.268797 0.268797
0.293778 0.293778 0.293778
0.177970 0.177970 0.177970
0.202950 0.202950 0.202950
0.227931 0.227931 0.227931
0.252912 0.252912 0.252912
0.277892 0.277892 0.277892
0.302872 0.302872 0.302872
0.327853 0.327853 0.327853
0.352834 0.352834 0.352834
0.377814 0.377814 0.377814
0.262006 0.262006 0.262006
0.286986 0.286986 0.286986
0.311967 0.311967 0.311967
0.336948 0.336948 0.336948
0.361928 0.361928 0.361928
0.386909 0.386909 0.386909
0.411889 0.411889 0.411889
0.436869 0.436869 0.436869
0.461850 0.461850 0.461850
0.346042 0.346042 0.346042
0.371023 0.371023 0.371023
0.396003 0.396003 0.396003
0.420984 0.420984 0.420984
0.445964 0.445964 0.445964
0.470945 0.470945 0.470945
0.495925 0.495925 0.495925
0.520906 0.520906 0.520906
0.545886 0.545886 0.545886
0.430078 0.430078 0.430078
0.455059 0.455059 0.455059
0.480039 0.480039 0.480039
0.505019 0.505019 0.505019
0.530000 0.530000 0.530000
0.554980 0.554980 0.554980
0.579961 0.579961 0.579961
0.604942 0.604942 0.604942
0.629922 0.629922 0.629922
0.514114 0.514114 0.514114
0.539095 0.539095 0.539095
0.564075 0.564075 0.564075
0.589056 0.589056 0.589056
0.614036 0.614036 0.614036
0.639016 0.639016 0.639016
0.663997 0.663997 0.663997
0.688978 0.688978 0.688978
0.713958 0.713958 0.713958
0.598150 0.598150 0.598150
0.623131 0.623131 0.623131
0.648111 0.648111 0.648111
0.673092 0.673092 0.673092
0.698072 0.698072 0.698072
0.723053 0.723053 0.723053
0.748033 0.748033 0.748033
0.773014 0.773014 0.773014
0.797994 0.797994 0.797994
0.682186 0.682186 0.682186
0.707166 0.707166 0.707166
0.732147 0.732147 0.732147
0.757127 0.757127 0.757127
0.782108 0.782108 0.782108
0.807088 0.807088 0.807088
0.832069 0.832069 0.832069
0.857049 0.857049 0.857049
0.882030 0.882030 0.882030
0.766222 0.766222 0.766222
0.791203 0.791203 0.791203
0.816183 0.816183 0.816183
0.841164 0.841164 0.841164
0.866144 0.866144 0.866144
0.891124 0.891124 0.891124
0.916105 0.916105 0.916105
0.941086 0.941086 0.941086
0.966066 0.966066 0.966066
0.102417 0.102417 0.102417
0.127398 0.127398 0.127398
0.152379 0.152379 0.152379
0.177359 0.177359 0.177359
0.202340 0.202340 0.202340
0.227320 0.227320 0.227320
0.252301 0.252301 0.252301
0.277281 0.277281 0.277281
0.302261 0.302261 0.302261
0.186453 0.186453 0.186453
0.211434 0.211434 0.211434
0.236414 0.236414 0.236414
0.261395 0.261395 0.261395
0.286376 0.286376 0.286376
0.311356 0.311356 0.311356
0.336336 0.336336 0.336336
0.361317 0.361317 0.361317
0.386298 0.386298 0.386298
0.270489 0.270489 0.270489
0.295470 0.295470 0.295470
0.320450 0.320450 0.320450
0.345431 0.345431 0.345431
0.370412 0.370412 0.370412
0.395392 0.395392 0.395392
0.420373 0.420373 0.420373
0.445353 0.445353 0.445353
0.470333 0.470333 0.470333
0.354525 0.354525 0.354525
0.379506 0.379506 0.379506
0.404486 0.404486 0.404486
0.429467 0.429467 0.429467
0.454448 0.454448 0.454448
0.479428 0.479428 0.479428
0.504408 0.504408 0.504408
0.529389 0.529389 0.529389
0.554369 0.554369 0.554369
0.438561 0.438561 0.438561
0.463542 0.463542 0.463542
0.488522 0.488522 0.488522
0.513503 0.513503 0.513503
0.538484 0.538484 0.538484
0.563464 0.563464 0.563464
0.588445 0.588445 0.588445
0.613425 0.613425 0.613425
0.638405 0.638405 0.638405
0.522597 0.522597 0.522597
0.547578 0.547578 0.547578
0.572558 0.572558 0.572558
0.597539 0.597539 0.597539
0.622519 0.622519 0.622519
0.647500 0.647500 0.647500
0.672480 0.672480 0.672480
0.697461 0.697461 0.697461
0.722441 0.722441 0.722441
0.606633 0.606633 0.606633
0.631614 0.631614 0.631614
0.656594 0.656594 0.656594
0.681575 0.681575 0.681575
0.706556 0.706556 0.706556
0.731536 0.731536 0.731536
0.756516 0.756516 0.756516
0.781497 0.781497 0.781497
0.806477 0.806477 0.806477
0.690669 0.690669 0.690669
0.715650 0.715650 0.715650
0.740630 0.740630 0.740630
0.765611 0.765611 0.765611
0.790591 0.790591 0.790591
0.815572 0.815572 0.815572
0.840552 0.840552 0.840552
0.865533 0.865533 0.865533
0.890513 0.890513 0.890513
0.774705 0.774705 0.774705
0.799686 0.799686 0.799686
0.824666 0.824666 0.824666
0.849647 0.849647 0.849647
0.874627 0.874627 0.874627
0.899608 0.899608 0.899608
0.924588 0.924588 0.924588
0.949569 0.949569 0.949569
0.974549 0.974549 0.974549
0.110901 0.110901 0.110901
0.135881 0.135881 0.135881
0.160862 0.160862 0.160862
0.185843 0.185843 0.185843
0.210823 0.210823 0.210823
0.235804 0.235804 0.235804
0.260784 0.260784 0.260784
0.285764 0.285764 0.285764
0.310745 0.310745 0.310745
0.194937 0.194937 0.194937
0.219917 0.219917 0.219917
0.244898 0.244898 0.244898
0.269879 0.269879 0.269879
0.294859 0.294859 0.294859
0.319840 0.319840 0.319840
0.344820 0.344820 0.344820
0.369800 0.369800 0.369800
0.394781 0.394781 0.394781
0.278973 0.278973 0.278973
0.303953 0.303953 0.303953
0.328934 0.328934 0.328934
0.353915 0.353915 0.353915
0.378895 0.378895 0.378895
0.403876 0.403876 0.403876
0.428856 0.428856 0.428856
0.453836 0.453836 0.453836
0.478817 0.478817 0.478817
0.363009 0.363009 0.363009
0.387990 0.387990 0.387990
0.412970 0.412970 0.412970
0.437950 0.437950 0.437950
0.462931 0.462931 0.462931
0.487911 0.487911 0.487911
0.512892 0.512892 0.512892
0.537872 0.537872 0.537872
0.562853 0.562853 0.562853
0.447045 0.447045 0.447045
0.472025 0.472025 0.472025
0.497006 0.497006 0.497006
0.521987 0.521987 0.521987
0.546967 0.546967 0.546967
0.571948 0.571948 0.571948
0.596928 0.596928 0.596928
0.621909 0.621909 0.621909
0.646889 0.646889 0.646889
0.531081 0.531081 0.531081
0.556061 0.556061 0.556061
0.581042 0.581042 0.581042
0.606023 0.606023 0.606023
0.631003 0.631003 0.631003
0.655983 0.655983 0.655983
0.680964 0.680964 0.680964
0.705944 0.705944 0.705944
0.730925 0.730925 0.730925
0.615117 0.615117 0.615117
0.640097 0.640097 0.640097
0.665078 0.665078 0.665078
0.690059 0.690059 0.690059
0.715039 0.715039 0.715039
0.740020 0.740020 0.740020
0.765000 0.765000 0.765000
0.789980 0.789980 0.789980
0.814961 0.814961 0.814961
0.699153 0.699153 0.699153
0.724133 0.724133 0.724133
0.749114 0.749114 0.749114
0.774095 0.774095 0.774095
0.799075 0.799075 0.799075
0.824056 0.824056 0.824056
0.849036 0.849036 0.849036
0.874016 0.874016 0.874016
0.898997 0.898997 0.898997
0.783189 0.783189 0.783189
0.808169 0.808169 0.808169
0.833150 0.833150 0.833150
0.858131 0.858131 0.858131
0.883111 0.883111 0.883111
0.908091 0.908091 0.908091
0.933072 0.933072 0.933072
0.958052 0.958052 0.958052
0.983033 0.983033 0.983033
0.119385 0.119385 0.119385
0.144365 0.144365 0.144365
0.169345 0.169345 0.169345
0.194326 0.194326 0.194326
0.219306 0.219306 0.219306
0.244287 0.244287 0.244287
0.269267 0.269267 0.269267
0.294248 0.294248 0.294248
0.319228 0.319228 0.319228
0.203420 0.203420 0.203420
0.228401 0.228401 0.228401
0.253381 0.253381 0.253381
0.278362 0.278362 0.278362
0.303342 0.303342 0.303342
0.328323 0.328323 0.328323
0.353303 0.353303 0.353303
0.378284 0.378284 0.378284
0.403264 0.403264 0.403264
0.287457 0.287457 0.287457
0.312437 0.312437 0.312437
0.337417 0.337417 0.337417
0.362398 0.362398 0.362398
0.387379 0.387379 0.387379
0.412359 0.412359 0.412359
0.437339 0.437339 0.437339
0.462320 0.462320 0.462320
0.487300 0.487300 0.487300
0.371493 0.371493 0.371493
0.396473 0.396473 0.396473
0.421453 0.421453 0.421453
0.446434 0.446434 0.446434
0.471414 0.471414 0.471414
0.496395 0.496395 0.496395
0.521375 0.521375 0.521375
0.546356 0.546356 0.546356
0.571337 0.571337 0.571337
0.455528 0.455528 0.455528
0.480509 0.480509 0.480509
0.505489 0.505489 0.505489
0.530470 0.530470 0.530470
0.555450 0.555450 0.555450
0.580431 0.580431 0.580431
0.605411 0.605411 0.605411
0.630392 0.630392 0.630392
0.655373 0.655373 0.655373
0.539564 0.539564 0.539564
0.564545 0.564545 0.564545
0.589525 0.589525 0.589525
0.614506 0.614506 0.614506
0.639486 0.639486 0.639486
0.664467 0.664467 0.664467
0.689447 0.689447 0.689447
0.714428 0.714428 0.714428
0.739408 0.739408 0.739408
0.623601 0.623601 0.623601
0.648581 0.648581 0.648581
0.673562 0.673562 0.673562
0.698542 0.698542 0.698542
0.723523 0.723523 0.723523
0.748503 0.748503 0.748503
0.773483 0.773483 0.773483
0.798464 0.798464 0.798464
0.823445 0.823445 0.823445
0.707636 0.707636 0.707636
0.732617 0.732617 0.732617
0.757597 0.757597 0.757597
0.782578 0.782578 0.782578
0.807558 0.807558 0.807558
0.832539 0.832539 0.832539
0.857519 0.857519 0.857519
0.882500 0.882500 0.882500
0.907480 0.907480 0.907480
0.791672 0.791672 0.791672
0.816653 0.816653 0.816653
0.841633 0.841633 0.841633
0.866614 0.866614 0.866614
0.891594 0.891594 0.891594
0.916575 0.916575 0.916575
0.941555 0.941555 0.941555
0.966536 0.966536 0.966536
0.991516 0.991516 0.991516
0.127868 0.127868 0.127868
0.152848 0.152848 0.152848
0.177829 0.177829 0.177829
0.202810 0.202810 0.202810
0.227790 0.227790 0.227790
0.252771 0.252771 0.252771
0.277751 0.277751 0.277751
0.302731 0.302731 0.302731
0.327712 0.327712 0.327712
0.211904 0.211904 0.211904
0.236884 0.236884 0.236884
0.261865 0.261865 0.261865
0.286846 0.286846 0.286846
0.311826 0.311826 0.311826
0.336807 0.336807 0.336807
0.361787 0.361787 0.361787
0.386767 0.386767 0.386767
0.411748 0.411748 0.411748
0.295940 0.295940 0.295940
0.320920 0.320920 0.320920
0.345901 0.345901 0.345901
0.370881 0.370881 0.370881
0.395862 0.395862 0.395862
0.420843 0.420843 0.420843
0.445823 0.445823 0.445823
0.470803 0.470803 0.470803
0.495784 0.495784 0.495784
0.379976 0.379976 0.379976
0.404956 0.404956 0.404956
0.429937 0.429937 0.429937
0.454917 0.454917 0.454917
0.479898 0.479898 0.479898
0.504879 0.504879 0.504879
0.529859 0.529859 0.529859
0.554840 0.554840 0.554840
0.579820 0.579820 0.579820
0.464012 0.464012 0.464012
0.488992 0.488992 0.488992
0.513973 0.513973 0.513973
0.538953 0.538953 0.538953
0.563934 0.563934 0.563934
0.588915 0.588915 0.588915
0.613895 0.613895 0.613895
0.638876 0.638876 0.638876
0.663856 0.663856 0.663856
0.548048 0.548048 0.548048
0.573029 0.573029 0.573029
0.598009 0.598009 0.598009
0.622990 0.622990 0.622990
0.647970 0.647970 0.647970
0.672951 0.672951 0.672951
0.697931 0.697931 0.697931
0.722912 0.722912 0.722912
0.747892 0.747892 0.747892
0.632084 0.632084 0.632084
0.657065 0.657065 0.657065
0.682045 0.682045 0.682045
0.707026 0.707026 0.707026
0.732006 0.732006 0.732006
0.756987 0.756987 0.756987
0.781967 0.781967 0.781967
0.806948 0.806948 0.806948
0.831928 0.831928 0.831928
0.716120 0.716120 0.716120
0.741100 0.741100 0.741100
0.766081 0.766081 0.766081
0.791061 0.791061 0.791061
0.816042 0.816042 0.816042
0.841023 0.841023 0.841023
0.866003 0.866003 0.866003
0.890983 0.890983 0.890983
0.915964 0.915964 0.915964
0.800156 0.800156 0.800156
0.825137 0.825137 0.825137
0.850117 0.850117 0.850117
0.875098 0.875098 0.875098
0.900078 0.900078 0.900078
0.925059 0.925059 0.925059
0.950039 0.950039 0.950039
0.975020 0.975020 0.975020
1.000000 1.000000 1.000000
