assets/luts/mono.cube
# Mono — Studio filter "mono"
# Generated by scripts/generate-filter-luts.mjs — do not edit by hand.
LUT_3D_SIZE 5
DOMAIN_MIN 0.0 0.0 0.0
DOMAIN_MAX 1.0 1.0 1.0
0.060000 0.060000 0.060000
0.109961 0.109961 0.109961
0.159922 0.159922 0.159922
0.209883 0.209883 0.209883
0.259844 0.259844 0.259844
0.228072 0.228072 0.228072
0.278033 0.278033 0.278033
0.327994 0.327994 0.327994
0.377955 0.377955 0.377955
0.427916 0.427916 0.427916
0.396144 0.396144 0.396144
0.446105 0.446105 0.446105
0.496066 0.496066 0.496066
0.546027 0.546027 0.546027
0.595988 0.595988 0.595988
0.564216 0.564216 0.564216
0.614177 0.614177 0.614177
0.664138 0.664138 0.664138
0.714099 0.714099 0.714099
0.764060 0.764060 0.764060
0.732288 0.732288 0.732288
0.782249 0.782249 0.782249
0.832210 0.832210 0.832210
0.882171 0.882171 0.882171
0.932132 0.932132 0.932132
0.076967 0.076967 0.076967
0.126928 0.126928 0.126928
0.176889 0.176889 0.176889
0.226850 0.226850 0.226850
0.276811 0.276811 0.276811
0.245039 0.245039 0.245039
0.295000 0.295000 0.295000
0.344961 0.344961 0.344961
0.394922 0.394922 0.394922
0.444883 0.444883 0.444883
0.413111 0.413111 0.413111
0.463072 0.463072 0.463072
0.513033 0.513033 0.513033
0.562994 0.562994 0.562994
0.612955 0.612955 0.612955
0.581183 0.581183 0.581183
0.631144 0.631144 0.631144
0.681105 0.681105 0.681105
0.731066 0.731066 0.731066
0.781027 0.781027 0.781027
0.749255 0.749255 0.749255
0.799216 0.799216 0.799216
0.849177 0.849177 0.849177
0.899138 0.899138 0.899138
0.949099 0.949099 0.949099
0.093934 0.093934 0.093934
0.143895 0.143895 0.143895
0.193856 0.193856 0.193856
0.243817 0.243817 0.243817
0.293778 0.293778 0.293778
0.262006 0.262006 0.262006
0.311967 0.311967 0.311967
0.361928 0.361928 0.361928
0.411889 0.411889 0.411889
0.461850 0.461850 0.461850
0.430078 0.430078 0.430078
0.480039 0.480039 0.480039
0.530000 0.530000 0.530000
0.579961 0.579961 0.579961
0.629922 0.629922 0.629922
0.598150 0.598150 0.598150
0.648111 0.648111 0.648111
0.698072 0.698072 0.698072
0.748033 0.748033 0.748033
0.797994 0.797994 0.797994
0.766222 0.766222 0.766222
0.816183 0.816183 0.816183
0.866144 0.866144 0.866144
0.916105 0.916105 0.916105
0.966066 0.966066 0.966066
0.110901 0.110901 0.110901
0.160862 0.160862 0.160862
0.210823 0.210823 0.210823
0.260784 0.260784 0.260784
0.310745 0.310745 0.310745
0.278973 0.278973 0.278973
0.328934 0.328934 0.328934
0.378895 0.378895 0.378895
0.428856 0.428856 0.428856
0.478817 0.478817 0.478817
0.447045 0.447045 0.447045
0.497006 0.497006 0.497006
0.546967 0.546967 0.546967
0.596928 0.596928 0.596928
0.646889 0.646889 0.646889
0.615117 0.615117 0.615117
0.665078 0.665078 0.665078
0.715039 0.715039 0.715039
0.765000 0.765000 0.765000
0.814961 0.814961 0.814961
0.783189 0.783189 0.783189
0.833150 0.833150 0.833150
0.883111 0.883111 0.883111
0.933072 0.933072 0.933072
0.983033 0.983033 0.983033
0.127868 0.127868 0.127868
0.177829 0.177829 0.177829
0.227790 0.227790 0.227790
0.277751 0.277751 0.277751
0.327712 0.327712 0.327712
0.295940 0.295940 0.295940
0.345901 0.345901 0.345901
0.395862 0.395862 0.395862
0.445823 0.445823 0.445823
0.495784 0.495784 0.495784
0.464012 0.464012 0.464012
0.513973 0.513973 0.513973
0.563934 0.563934 0.563934
0.613895 0.613895 0.613895
0.663856 0.663856 0.663856
0.632084 0.632084 0.632084
0.682045 0.682045 0.682045
0.732006 0.732006 0.732006
0.781967 0.781967 0.781967
0.831928 0.831928 0.831928
0.800156 0.800156 0.800156
0.850117 0.850117 0.850117
0.900078 0.900078 0.900078
0.950039 0.950039 0.950039
1.000000 1.000000 1.000000
