assets/luts/mono.cube
# Mono — Studio filter "mono"
# Generated by scripts/generate-filter-luts.mjs — do not edit by hand.
LUT_3D_SIZE 17
DOMAIN_MIN 0.0 0.0 0.0
DOMAIN_MAX 1.0 1.0 1.0
0.060000 0.060000 0.060000
0.072490 0.072490 0.072490
0.084981 0.084981 0.084981
0.097471 0.097471 0.097471
0.109961 0.109961 0.109961
0.122451 0.122451 0.122451
0.134941 0.134941 0.134941
0.147432 0.147432 0.147432
0.159922 0.159922 0.159922
0.172412 0.172412 0.172412
0.184903 0.184903 0.184903
0.197393 0.197393 0.197393
0.209883 0.209883 0.209883
0.222373 0.222373 0.222373
0.234864 0.234864 0.234864
0.247354 0.247354 0.247354
0.259844 0.259844 0.259844
0.102018 0.102018 0.102018
0.114508 0.114508 0.114508
0.126999 0.126999 0.126999
0.139489 0.139489 0.139489
0.151979 0.151979 0.151979
0.164469 0.164469 0.164469
0.176959 0.176959 0.176959
0.189450 0.189450 0.189450
0.201940 0.201940 0.201940
0.214430 0.214430 0.214430
0.226920 0.226920 0.226920
0.239411 0.239411 0.239411
0.251901 0.251901 0.251901
0.264391 0.264391 0.264391
0.276882 0.276882 0.276882
0.289372 0.289372 0.289372
0.301862 0.301862 0.301862
0.144036 0.144036 0.144036
0.156526 0.156526 0.156526
0.169016 0.169016 0.169016
0.181507 0.181507 0.181507
0.193997 0.193997 0.193997
0.206487 0.206487 0.206487
0.218977 0.218977 0.218977
0.231468 0.231468 0.231468
0.243958 0.243958 0.243958
0.256448 0.256448 0.256448
0.268938 0.268938 0.268938
0.281429 0.281429 0.281429
0.293919 0.293919 0.293919
0.306409 0.306409 0.306409
0.318900 0.318900 0.318900
0.331390 0.331390 0.331390
0.343880 0.343880 0.343880
0.186054 0.186054 0.186054
0.198544 0.198544 0.198544
0.211035 0.211035 0.211035
0.223525 0.223525 0.223525
0.236015 0.236015 0.236015
0.248505 0.248505 0.248505
0.260995 0.260995 0.260995
0.273486 0.273486 0.273486
0.285976 0.285976 0.285976
0.298466 0.298466 0.298466
0.310957 0.310957 0.310957
0.323447 0.323447 0.323447
0.335937 0.335937 0.335937
0.348427 0.348427 0.348427
0.360918 0.360918 0.360918
0.373408 0.373408 0.373408
0.385898 0.385898 0.385898
0.228072 0.228072 0.228072
0.240562 0.240562 0.240562
0.253052 0.253052 0.253052
0.265543 0.265543 0.265543
0.278033 0.278033 0.278033
0.290523 0.290523 0.290523
0.303013 0.303013 0.303013
0.315504 0.315504 0.315504
0.327994 0.327994 0.327994
0.340484 0.340484 0.340484
0.352975 0.352975 0.352975
0.365465 0.365465 0.365465
0.377955 0.377955 0.377955
0.390445 0.390445 0.390445
0.402935 0.402935 0.402935
0.415426 0.415426 0.415426
0.427916 0.427916 0.427916
0.270090 0.270090 0.270090
0.282580 0.282580 0.282580
0.295071 0.295071 0.295071
0.307561 0.307561 0.307561
0.320051 0.320051 0.320051
0.332541 0.332541 0.332541
0.345031 0.345031 0.345031
0.357522 0.357522 0.357522
0.370012 0.370012 0.370012
0.382502 0.382502 0.382502
0.394992 0.394992 0.394992
0.407483 0.407483 0.407483
0.419973 0.419973 0.419973
0.432463 0.432463 0.432463
0.444954 0.444954 0.444954
0.457444 0.457444 0.457444
0.469934 0.469934 0.469934
0.312108 0.312108 0.312108
0.324598 0.324598 0.324598
0.337089 0.337089 0.337089
0.349579 0.349579 0.349579
0.362069 0.362069 0.362069
0.374559 0.374559 0.374559
0.387049 0.387049 0.387049
0.399540 0.399540 0.399540
0.412030 0.412030 0.412030
0.424520 0.424520 0.424520
0.437011 0.437011 0.437011
0.449501 0.449501 0.449501
0.461991 0.461991 0.461991
0.474481 0.474481 0.474481
0.486972 0.486972 0.486972
0.499462 0.499462 0.499462
0.511952 0.511952 0.511952
0.354126 0.354126 0.354126
0.366616 0.366616 0.366616
0.379106 0.379106 0.379106
0.391597 0.391597 0.391597
0.404087 0.404087 0.404087
0.416577 0.416577 0.416577
0.429067 0.429067 0.429067
0.441558 0.441558 0.441558
0.454048 0.454048 0.454048
0.466538 0.466538 0.466538
0.479028 0.479028 0.479028
0.491519 0.491519 0.491519
0.504009 0.504009 0.504009
0.516499 0.516499 0.516499
0.528990 0.528990 0.528990
0.541480 0.541480 0.541480
0.553970 0.553970 0.553970
0.396144 0.396144 0.396144
0.408634 0.408634 0.408634
0.421125 0.421125 0.421125
0.433615 0.433615 0.433615
0.446105 0.446105 0.446105
0.458595 0.458595 0.458595
0.471085 0.471085 0.471085
0.483576 0.483576 0.483576
0.496066 0.496066 0.496066
0.508556 0.508556 0.508556
0.521046 0.521046 0.521046
0.533537 0.533537 0.533537
0.546027 0.546027 0.546027
0.558517 0.558517 0.558517
0.571008 0.571008 0.571008
0.583498 0.583498 0.583498
0.595988 0.595988 0.595988
0.438162 0.438162 0.438162
0.450652 0.450652 0.450652
0.463143 0.463143 0.463143
0.475633 0.475633 0.475633
0.488123 0.488123 0.488123
0.500613 0.500613 0.500613
0.513103 0.513103 0.513103
0.525594 0.525594 0.525594
0.538084 0.538084 0.538084
0.550574 0.550574 0.550574
0.563064 0.563064 0.563064
0.575555 0.575555 0.575555
0.588045 0.588045 0.588045
0.600535 0.600535 0.600535
0.613026 0.613026 0.613026
0.625516 0.625516 0.625516
0.638006 0.638006 0.638006
0.480180 0.480180 0.480180
0.492670 0.492670 0.492670
0.505161 0.505161 0.505161
0.517651 0.517651 0.517651
0.530141 0.530141 0.530141
0.542631 0.542631 0.542631
0.555122 0.555122 0.555122
0.567612 0.567612 0.567612
0.580102 0.580102 0.580102
0.592592 0.592592 0.592592
0.605082 0.605082 0.605082
0.617573 0.617573 0.617573
0.630063 0.630063 0.630063
0.642553 0.642553 0.642553
0.655044 0.655044 0.655044
0.667534 0.667534 0.667534
0.680024 0.680024 0.680024
0.522198 0.522198 0.522198
0.534688 0.534688 0.534688
0.547178 0.547178 0.547178
0.559669 0.559669 0.559669
0.572159 0.572159 0.572159
0.584649 0.584649 0.584649
0.597139 0.597139 0.597139
0.609630 0.609630 0.609630
0.622120 0.622120 0.622120
0.634610 0.634610 0.634610
0.647100 0.647100 0.647100
0.659591 0.659591 0.659591
0.672081 0.672081 0.672081
0.684571 0.684571 0.684571
0.697061 0.697061 0.697061
0.709552 0.709552 0.709552
0.722042 0.722042 0.722042
0.564216 0.564216 0.564216
0.576706 0.576706 0.576706
0.589197 0.589197 0.589197
0.601687 0.601687 0.601687
0.614177 0.614177 0.614177
0.626667 0.626667 0.626667
0.639158 0.639158 0.639158
0.651648 0.651648 0.651648
0.664138 0.664138 0.664138
0.676628 0.676628 0.676628
0.689119 0.689119 0.689119
0.701609 0.701609 0.701609
0.714099 0.714099 0.714099
0.726589 0.726589 0.726589
0.739080 0.739080 0.739080
0.751570 0.751570 0.751570
0.764060 0.764060 0.764060
0.606234 0.606234 0.606234
0.618724 0.618724 0.618724
0.631215 0.631215 0.631215
0.643705 0.643705 0.643705
0.656195 0.656195 0.656195
0.668685 0.668685 0.668685
0.681176 0.681176 0.681176
0.693666 0.693666 0.693666
0.706156 0.706156 0.706156
0.718646 0.718646 0.718646
0.731137 0.731137 0.731137
0.743627 0.743627 0.743627
0.756117 0.756117 0.756117
0.768607 0.768607 0.768607
0.781098 0.781098 0.781098
0.793588 0.793588 0.793588
0.806078 0.806078 0.806078
0.648252 0.648252 0.648252
0.660742 0.660742 0.660742
0.673232 0.673232 0.673232
0.685723 0.685723 0.685723
0.698213 0.698213 0.698213
0.710703 0.710703 0.710703
0.723193 0.723193 0.723193
0.735684 0.735684 0.735684
0.748174 0.748174 0.748174
0.760664 0.760664 0.760664
0.773154 0.773154 0.773154
0.785645 0.785645 0.785645
0.798135 0.798135 0.798135
0.810625 0.810625 0.810625
0.823115 0.823115 0.823115
0.835606 0.835606 0.835606
0.848096 0.848096 0.848096
0.690270 0.690270 0.690270
0.702760 0.702760 0.702760
0.715251 0.715251 0.715251
0.727741 0.727741 0.727741
0.740231 0.740231 0.740231
0.752721 0.752721 0.752721
0.765212 0.765212 0.765212
0.777702 0.777702 0.777702
0.790192 0.790192 0.790192
0.802682 0.802682 0.802682
0.815172 0.815172 0.815172
0.827663 0.827663 0.827663
0.840153 0.840153 0.840153
0.852643 0.852643 0.852643
0.865133 0.865133 0.865133
0.877624 0.877624 0.877624
0.890114 0.890114 0.890114
0.732288 0.732288 0.732288
0.744778 0.744778 0.744778
0.757269 0.757269 0.757269
0.769759 0.769759 0.769759
0.782249 0.782249 0.782249
0.794739 0.794739 0.794739
0.807230 0.807230 0.807230
0.819720 0.819720 0.819720
0.832210 0.832210 0.832210
0.844700 0.844700 0.844700
0.857190 0.857190 0.857190
0.869681 0.869681 0.869681
0.882171 0.882171 0.882171
0.894661 0.894661 0.894661
0.907151 0.907151 0.907151
0.919642 0.919642 0.919642
0.932132 0.932132 0.932132
0.064242 0.064242 0.064242
0.076732 0.076732 0.076732
0.089222 0.089222 0.089222
0.101712 0.101712 0.101712
0.114203 0.114203 0.114203
0.126693 0.126693 0.126693
0.139183 0.139183 0.139183
0.151674 0.151674 0.151674
0.164164 0.164164 0.164164
0.176654 0.176654 0.176654
0.189144 0.189144 0.189144
0.201634 0.201634 0.201634
0.214125 0.214125 0.214125
0.226615 0.226615 0.226615
0.239105 0.239105 0.239105
0.251595 0.251595 0.251595
0.264086 0.264086 0.264086
0.106260 0.106260 0.106260
0.118750 0.118750 0.118750
0.131240 0.131240 0.131240
0.143730 0.143730 0.143730
0.156221 0.156221 0.156221
0.168711 0.168711 0.168711
0.181201 0.181201 0.181201
0.193691 0.193691 0.193691
0.206182 0.206182 0.206182
0.218672 0.218672 0.218672
0.231162 0.231162 0.231162
0.243652 0.243652 0.243652
0.256143 0.256143 0.256143
0.268633 0.268633 0.268633
0.281123 0.281123 0.281123
0.293613 0.293613 0.293613
0.306104 0.306104 0.306104
0.148278 0.148278 0.148278
0.160768 0.160768 0.160768
0.173258 0.173258 0.173258
0.185749 0.185749 0.185749
0.198239 0.198239 0.198239
0.210729 0.210729 0.210729
0.223219 0.223219 0.223219
0.235709 0.235709 0.235709
0.248200 0.248200 0.248200
0.260690 0.260690 0.260690
0.273180 0.273180 0.273180
0.285670 0.285670 0.285670
0.298161 0.298161 0.298161
0.310651 0.310651 0.310651
0.323141 0.323141 0.323141
0.335631 0.335631 0.335631
0.348122 0.348122 0.348122
0.190296 0.190296 0.190296
0.202786 0.202786 0.202786
0.215276 0.215276 0.215276
0.227766 0.227766 0.227766
0.240257 0.240257 0.240257
0.252747 0.252747 0.252747
0.265237 0.265237 0.265237
0.277728 0.277728 0.277728
0.290218 0.290218 0.290218
0.302708 0.302708 0.302708
0.315198 0.315198 0.315198
0.327688 0.327688 0.327688
0.340179 0.340179 0.340179
0.352669 0.352669 0.352669
0.365159 0.365159 0.365159
0.377649 0.377649 0.377649
0.390140 0.390140 0.390140
0.232314 0.232314 0.232314
0.244804 0.244804 0.244804
0.257294 0.257294 0.257294
0.269784 0.269784 0.269784
0.282275 0.282275 0.282275
0.294765 0.294765 0.294765
0.307255 0.307255 0.307255
0.319746 0.319746 0.319746
0.332236 0.332236 0.332236
0.344726 0.344726 0.344726
0.357216 0.357216 0.357216
0.369706 0.369706 0.369706
0.382197 0.382197 0.382197
0.394687 0.394687 0.394687
0.407177 0.407177 0.407177
0.419667 0.419667 0.419667
0.432158 0.432158 0.432158
0.274332 0.274332 0.274332
0.286822 0.286822 0.286822
0.299312 0.299312 0.299312
0.311802 0.311802 0.311802
0.324293 0.324293 0.324293
0.336783 0.336783 0.336783
0.349273 0.349273 0.349273
0.361763 0.361763 0.361763
0.374254 0.374254 0.374254
0.386744 0.386744 0.386744
0.399234 0.399234 0.399234
0.411724 0.411724 0.411724
0.424215 0.424215 0.424215
0.436705 0.436705 0.436705
0.449195 0.449195 0.449195
0.461685 0.461685 0.461685
0.474176 0.474176 0.474176
0.316350 0.316350 0.316350
0.328840 0.328840 0.328840
0.341330 0.341330 0.341330
0.353820 0.353820 0.353820
0.366311 0.366311 0.366311
0.378801 0.378801 0.378801
0.391291 0.391291 0.391291
0.403781 0.403781 0.403781
0.416272 0.416272 0.416272
0.428762 0.428762 0.428762
0.441252 0.441252 0.441252
0.453742 0.453742 0.453742
0.466233 0.466233 0.466233
0.478723 0.478723 0.478723
0.491213 0.491213 0.491213
0.503703 0.503703 0.503703
0.516194 0.516194 0.516194
0.358368 0.358368 0.358368
0.370858 0.370858 0.370858
0.383348 0.383348 0.383348
0.395838 0.395838 0.395838
0.408329 0.408329 0.408329
0.420819 0.420819 0.420819
0.433309 0.433309 0.433309
0.445799 0.445799 0.445799
0.458290 0.458290 0.458290
0.470780 0.470780 0.470780
0.483270 0.483270 0.483270
0.495760 0.495760 0.495760
0.508251 0.508251 0.508251
0.520741 0.520741 0.520741
0.533231 0.533231 0.533231
0.545721 0.545721 0.545721
0.558212 0.558212 0.558212
0.400386 0.400386 0.400386
0.412876 0.412876 0.412876
0.425366 0.425366 0.425366
0.437856 0.437856 0.437856
0.450347 0.450347 0.450347
0.462837 0.462837 0.462837
0.475327 0.475327 0.475327
0.487817 0.487817 0.487817
0.500308 0.500308 0.500308
0.512798 0.512798 0.512798
0.525288 0.525288 0.525288
0.537779 0.537779 0.537779
0.550269 0.550269 0.550269
0.562759 0.562759 0.562759
0.575249 0.575249 0.575249
0.587739 0.587739 0.587739
0.600230 0.600230 0.600230
0.442404 0.442404 0.442404
0.454894 0.454894 0.454894
0.467384 0.467384 0.467384
0.479874 0.479874 0.479874
0.492365 0.492365 0.492365
0.504855 0.504855 0.504855
0.517345 0.517345 0.517345
0.529836 0.529836 0.529836
0.542326 0.542326 0.542326
0.554816 0.554816 0.554816
0.567306 0.567306 0.567306
0.579797 0.579797 0.579797
0.592287 0.592287 0.592287
0.604777 0.604777 0.604777
0.617267 0.617267 0.617267
0.629757 0.629757 0.629757
0.642248 0.642248 0.642248
0.484422 0.484422 0.484422
0.496912 0.496912 0.496912
0.509402 0.509402 0.509402
0.521892 0.521892 0.521892
0.534383 0.534383 0.534383
0.546873 0.546873 0.546873
0.559363 0.559363 0.559363
0.571854 0.571854 0.571854
0.584344 0.584344 0.584344
0.596834 0.596834 0.596834
0.609324 0.609324 0.609324
0.621814 0.621814 0.621814
0.634305 0.634305 0.634305
0.646795 0.646795 0.646795
0.659285 0.659285 0.659285
0.671775 0.671775 0.671775
0.684266 0.684266 0.684266
0.526440 0.526440 0.526440
0.538930 0.538930 0.538930
0.551420 0.551420 0.551420
0.563910 0.563910 0.563910
0.576401 0.576401 0.576401
0.588891 0.588891 0.588891
0.601381 0.601381 0.601381
0.613872 0.613872 0.613872
0.626362 0.626362 0.626362
0.638852 0.638852 0.638852
0.651342 0.651342 0.651342
0.663833 0.663833 0.663833
0.676323 0.676323 0.676323
0.688813 0.688813 0.688813
0.701303 0.701303 0.701303
0.713794 0.713794 0.713794
0.726284 0.726284 0.726284
0.568458 0.568458 0.568458
0.580948 0.580948 0.580948
0.593438 0.593438 0.593438
0.605929 0.605929 0.605929
0.618419 0.618419 0.618419
0.630909 0.630909 0.630909
0.643399 0.643399 0.643399
0.655890 0.655890 0.655890
0.668380 0.668380 0.668380
0.680870 0.680870 0.680870
0.693360 0.693360 0.693360
0.705850 0.705850 0.705850
0.718341 0.718341 0.718341
0.730831 0.730831 0.730831
0.743321 0.743321 0.743321
0.755811 0.755811 0.755811
0.768302 0.768302 0.768302
0.610476 0.610476 0.610476
0.622966 0.622966 0.622966
0.635456 0.635456 0.635456
0.647946 0.647946 0.647946
0.660437 0.660437 0.660437
0.672927 0.672927 0.672927
0.685417 0.685417 0.685417
0.697907 0.697907 0.697907
0.710398 0.710398 0.710398
0.722888 0.722888 0.722888
0.735378 0.735378 0.735378
0.747868 0.747868 0.747868
0.760359 0.760359 0.760359
0.772849 0.772849 0.772849
0.785339 0.785339 0.785339
0.797829 0.797829 0.797829
0.810320 0.810320 0.810320
0.652494 0.652494 0.652494
0.664984 0.664984 0.664984
0.677474 0.677474 0.677474
0.689964 0.689964 0.689964
0.702455 0.702455 0.702455
0.714945 0.714945 0.714945
0.727435 0.727435 0.727435
0.739925 0.739925 0.739925
0.752416 0.752416 0.752416
0.764906 0.764906 0.764906
0.777396 0.777396 0.777396
0.789886 0.789886 0.789886
0.802377 0.802377 0.802377
0.814867 0.814867 0.814867
0.827357 0.827357 0.827357
0.839847 0.839847 0.839847
0.852338 0.852338 0.852338
0.694512 0.694512 0.694512
0.707002 0.707002 0.707002
0.719492 0.719492 0.719492
0.731982 0.731982 0.731982
0.744473 0.744473 0.744473
0.756963 0.756963 0.756963
0.769453 0.769453 0.769453
0.781944 0.781944 0.781944
0.794434 0.794434 0.794434
0.806924 0.806924 0.806924
0.819414 0.819414 0.819414
0.831904 0.831904 0.831904
0.844395 0.844395 0.844395
0.856885 0.856885 0.856885
0.869375 0.869375 0.869375
0.881865 0.881865 0.881865
0.894356 0.894356 0.894356
0.736530 0.736530 0.736530
0.749020 0.749020 0.749020
0.761510 0.761510 0.761510
0.774000 0.774000 0.774000
0.786491 0.786491 0.786491
0.798981 0.798981 0.798981
0.811471 0.811471 0.811471
0.823962 0.823962 0.823962
0.836452 0.836452 0.836452
0.848942 0.848942 0.848942
0.861432 0.861432 0.861432
0.873922 0.873922 0.873922
0.886413 0.886413 0.886413
0.898903 0.898903 0.898903
0.911393 0.911393 0.911393
0.923883 0.923883 0.923883
0.936374 0.936374 0.936374
0.068484 0.068484 0.068484
0.080974 0.080974 0.080974
0.093464 0.093464 0.093464
0.105954 0.105954 0.105954
0.118445 0.118445 0.118445
0.130935 0.130935 0.130935
0.143425 0.143425 0.143425
0.155915 0.155915 0.155915
0.168406 0.168406 0.168406
0.180896 0.180896 0.180896
0.193386 0.193386 0.193386
0.205876 0.205876 0.205876
0.218367 0.218367 0.218367
0.230857 0.230857 0.230857
0.243347 0.243347 0.243347
0.255837 0.255837 0.255837
0.268327 0.268327 0.268327
0.110501 0.110501 0.110501
0.122992 0.122992 0.122992
0.135482 0.135482 0.135482
0.147972 0.147972 0.147972
0.160463 0.160463 0.160463
0.172953 0.172953 0.172953
0.185443 0.185443 0.185443
0.197933 0.197933 0.197933
0.210423 0.210423 0.210423
0.222914 0.222914 0.222914
0.235404 0.235404 0.235404
0.247894 0.247894 0.247894
0.260385 0.260385 0.260385
0.272875 0.272875 0.272875
0.285365 0.285365 0.285365
0.297855 0.297855 0.297855
0.310346 0.310346 0.310346
0.152520 0.152520 0.152520
0.165010 0.165010 0.165010
0.177500 0.177500 0.177500
0.189990 0.189990 0.189990
0.202481 0.202481 0.202481
0.214971 0.214971 0.214971
0.227461 0.227461 0.227461
0.239951 0.239951 0.239951
0.252441 0.252441 0.252441
0.264932 0.264932 0.264932
0.277422 0.277422 0.277422
0.289912 0.289912 0.289912
0.302403 0.302403 0.302403
0.314893 0.314893 0.314893
0.327383 0.327383 0.327383
0.339873 0.339873 0.339873
0.352363 0.352363 0.352363
0.194538 0.194538 0.194538
0.207028 0.207028 0.207028
0.219518 0.219518 0.219518
0.232008 0.232008 0.232008
0.244499 0.244499 0.244499
0.256989 0.256989 0.256989
0.269479 0.269479 0.269479
0.281969 0.281969 0.281969
0.294459 0.294459 0.294459
0.306950 0.306950 0.306950
0.319440 0.319440 0.319440
0.331930 0.331930 0.331930
0.344420 0.344420 0.344420
0.356911 0.356911 0.356911
0.369401 0.369401 0.369401
0.381891 0.381891 0.381891
0.394381 0.394381 0.394381
0.236555 0.236555 0.236555
0.249046 0.249046 0.249046
0.261536 0.261536 0.261536
0.274026 0.274026 0.274026
0.286517 0.286517 0.286517
0.299007 0.299007 0.299007
0.311497 0.311497 0.311497
0.323987 0.323987 0.323987
0.336478 0.336478 0.336478
0.348968 0.348968 0.348968
0.361458 0.361458 0.361458
0.373948 0.373948 0.373948
0.386439 0.386439 0.386439
0.398929 0.398929 0.398929
0.411419 0.411419 0.411419
0.423909 0.423909 0.423909
0.436399 0.436399 0.436399
0.278573 0.278573 0.278573
0.291064 0.291064 0.291064
0.303554 0.303554 0.303554
0.316044 0.316044 0.316044
0.328534 0.328534 0.328534
0.341025 0.341025 0.341025
0.353515 0.353515 0.353515
0.366005 0.366005 0.366005
0.378495 0.378495 0.378495
0.390986 0.390986 0.390986
0.403476 0.403476 0.403476
0.415966 0.415966 0.415966
0.428457 0.428457 0.428457
0.440947 0.440947 0.440947
0.453437 0.453437 0.453437
0.465927 0.465927 0.465927
0.478417 0.478417 0.478417
0.320591 0.320591 0.320591
0.333082 0.333082 0.333082
0.345572 0.345572 0.345572
0.358062 0.358062 0.358062
0.370553 0.370553 0.370553
0.383043 0.383043 0.383043
0.395533 0.395533 0.395533
0.408023 0.408023 0.408023
0.420513 0.420513 0.420513
0.433004 0.433004 0.433004
0.445494 0.445494 0.445494
0.457984 0.457984 0.457984
0.470474 0.470474 0.470474
0.482965 0.482965 0.482965
0.495455 0.495455 0.495455
0.507945 0.507945 0.507945
0.520436 0.520436 0.520436
0.362609 0.362609 0.362609
0.375100 0.375100 0.375100
0.387590 0.387590 0.387590
0.400080 0.400080 0.400080
0.412571 0.412571 0.412571
0.425061 0.425061 0.425061
0.437551 0.437551 0.437551
0.450041 0.450041 0.450041
0.462531 0.462531 0.462531
0.475022 0.475022 0.475022
0.487512 0.487512 0.487512
0.500002 0.500002 0.500002
0.512492 0.512492 0.512492
0.524983 0.524983 0.524983
0.537473 0.537473 0.537473
0.549963 0.549963 0.549963
0.562453 0.562453 0.562453
0.404627 0.404627 0.404627
0.417118 0.417118 0.417118
0.429608 0.429608 0.429608
0.442098 0.442098 0.442098
0.454588 0.454588 0.454588
0.467079 0.467079 0.467079
0.479569 0.479569 0.479569
0.492059 0.492059 0.492059
0.504549 0.504549 0.504549
0.517040 0.517040 0.517040
0.529530 0.529530 0.529530
0.542020 0.542020 0.542020
0.554510 0.554510 0.554510
0.567001 0.567001 0.567001
0.579491 0.579491 0.579491
0.591981 0.591981 0.591981
0.604471 0.604471 0.604471
0.446646 0.446646 0.446646
0.459136 0.459136 0.459136
0.471626 0.471626 0.471626
0.484116 0.484116 0.484116
0.496607 0.496607 0.496607
0.509097 0.509097 0.509097
0.521587 0.521587 0.521587
0.534077 0.534077 0.534077
0.546567 0.546567 0.546567
0.559058 0.559058 0.559058
0.571548 0.571548 0.571548
0.584038 0.584038 0.584038
0.596528 0.596528 0.596528
0.609019 0.609019 0.609019
0.621509 0.621509 0.621509
0.633999 0.633999 0.633999
0.646489 0.646489 0.646489
0.488663 0.488663 0.488663
0.501154 0.501154 0.501154
0.513644 0.513644 0.513644
0.526134 0.526134 0.526134
0.538624 0.538624 0.538624
0.551115 0.551115 0.551115
0.563605 0.563605 0.563605
0.576095 0.576095 0.576095
0.588585 0.588585 0.588585
0.601076 0.601076 0.601076
0.613566 0.613566 0.613566
0.626056 0.626056 0.626056
0.638546 0.638546 0.638546
0.651037 0.651037 0.651037
0.663527 0.663527 0.663527
0.676017 0.676017 0.676017
0.688507 0.688507 0.688507
0.530682 0.530682 0.530682
0.543172 0.543172 0.543172
0.555662 0.555662 0.555662
0.568152 0.568152 0.568152
0.580642 0.580642 0.580642
0.593133 0.593133 0.593133
0.605623 0.605623 0.605623
0.618113 0.618113 0.618113
0.630603 0.630603 0.630603
0.643094 0.643094 0.643094
0.655584 0.655584 0.655584
0.668074 0.668074 0.668074
0.680564 0.680564 0.680564
0.693055 0.693055 0.693055
0.705545 0.705545 0.705545
0.718035 0.718035 0.718035
0.730525 0.730525 0.730525
0.572699 0.572699 0.572699
0.585190 0.585190 0.585190
0.597680 0.597680 0.597680
0.610170 0.610170 0.610170
0.622660 0.622660 0.622660
0.635151 0.635151 0.635151
0.647641 0.647641 0.647641
0.660131 0.660131 0.660131
0.672621 0.672621 0.672621
0.685112 0.685112 0.685112
0.697602 0.697602 0.697602
0.710092 0.710092 0.710092
0.722582 0.722582 0.722582
0.735073 0.735073 0.735073
0.747563 0.747563 0.747563
0.760053 0.760053 0.760053
0.772543 0.772543 0.772543
0.614717 0.614717 0.614717
0.627208 0.627208 0.627208
0.639698 0.639698 0.639698
0.652188 0.652188 0.652188
0.664678 0.664678 0.664678
0.677169 0.677169 0.677169
0.689659 0.689659 0.689659
0.702149 0.702149 0.702149
0.714639 0.714639 0.714639
0.727130 0.727130 0.727130
0.739620 0.739620 0.739620
0.752110 0.752110 0.752110
0.764600 0.764600 0.764600
0.777091 0.777091 0.777091
0.789581 0.789581 0.789581
0.802071 0.802071 0.802071
0.814561 0.814561 0.814561
0.656735 0.656735 0.656735
0.669226 0.669226 0.669226
0.681716 0.681716 0.681716
0.694206 0.694206 0.694206
0.706696 0.706696 0.706696
0.719187 0.719187 0.719187
0.731677 0.731677 0.731677
0.744167 0.744167 0.744167
0.756657 0.756657 0.756657
0.769148 0.769148 0.769148
0.781638 0.781638 0.781638
0.794128 0.794128 0.794128
0.806618 0.806618 0.806618
0.819109 0.819109 0.819109
0.831599 0.831599 0.831599
0.844089 0.844089 0.844089
0.856579 0.856579 0.856579
0.698753 0.698753 0.698753
0.711244 0.711244 0.711244
0.723734 0.723734 0.723734
0.736224 0.736224 0.736224
0.748714 0.748714 0.748714
0.761205 0.761205 0.761205
0.773695 0.773695 0.773695
0.786185 0.786185 0.786185
0.798675 0.798675 0.798675
0.811166 0.811166 0.811166
0.823656 0.823656 0.823656
0.836146 0.836146 0.836146
0.848636 0.848636 0.848636
0.861127 0.861127 0.861127
0.873617 0.873617 0.873617
0.886107 0.886107 0.886107
0.898597 0.898597 0.898597
0.740771 0.740771 0.740771
0.753262 0.753262 0.753262
0.765752 0.765752 0.765752
0.778242 0.778242 0.778242
0.790732 0.790732 0.790732
0.803223 0.803223 0.803223
0.815713 0.815713 0.815713
0.828203 0.828203 0.828203
0.840693 0.840693 0.840693
0.853184 0.853184 0.853184
0.865674 0.865674 0.865674
0.878164 0.878164 0.878164
0.890654 0.890654 0.890654
0.903145 0.903145 0.903145
0.915635 0.915635 0.915635
0.928125 0.928125 0.928125
0.940615 0.940615 0.940615
0.072725 0.072725 0.072725
0.085215 0.085215 0.085215
0.097706 0.097706 0.097706
0.110196 0.110196 0.110196
0.122686 0.122686 0.122686
0.135177 0.135177 0.135177
0.147667 0.147667 0.147667
0.160157 0.160157 0.160157
0.172647 0.172647 0.172647
0.185138 0.185138 0.185138
0.197628 0.197628 0.197628
0.210118 0.210118 0.210118
0.222608 0.222608 0.222608
0.235099 0.235099 0.235099
0.247589 0.247589 0.247589
