assets/luts/moonlight.cube
# Moonlight — Studio filter "moonlight"
# Generated by scripts/generate-filter-luts.mjs — do not edit by hand.
LUT_3D_SIZE 17
DOMAIN_MIN 0.0 0.0 0.0
DOMAIN_MAX 1.0 1.0 1.0
0.000000 0.010000 0.120000
0.018285 0.011366 0.120910
0.064160 0.013002 0.122001
0.113417 0.014759 0.123173
0.165006 0.016599 0.124400
0.218403 0.018504 0.125669
0.273285 0.020462 0.126974
0.329435 0.022465 0.128310
0.386692 0.024507 0.129671
0.444936 0.026585 0.131056
0.504072 0.028694 0.132463
0.564020 0.030832 0.133888
0.624717 0.032997 0.135332
0.686109 0.035187 0.136792
0.748149 0.037400 0.138267
0.810796 0.039635 0.139757
0.874016 0.041890 0.141260
0.000000 0.051422 0.123063
0.023185 0.052788 0.123973
0.069061 0.054424 0.125064
0.118317 0.056181 0.126235
0.169907 0.058022 0.127462
0.223303 0.059926 0.128732
0.278185 0.061884 0.130037
0.334335 0.063887 0.131372
0.391592 0.065929 0.132734
0.449837 0.068007 0.134119
0.508972 0.070116 0.135525
0.568921 0.072255 0.136951
0.629618 0.074420 0.138394
0.691010 0.076610 0.139854
0.753049 0.078823 0.141330
0.815697 0.081057 0.142819
0.878916 0.083312 0.144323
0.000000 0.101057 0.126733
0.029057 0.102423 0.127643
0.074932 0.104059 0.128734
0.124189 0.105816 0.129905
0.175778 0.107656 0.131132
0.229175 0.109561 0.132402
0.284057 0.111519 0.133707
0.340207 0.113522 0.135042
0.397464 0.115564 0.136404
0.455709 0.117642 0.137789
0.514844 0.119751 0.139195
0.574793 0.121889 0.140621
0.635490 0.124054 0.142064
0.696881 0.126244 0.143524
0.758921 0.128457 0.145000
0.821568 0.130692 0.146489
0.884788 0.132947 0.147993
0.000000 0.154350 0.130673
0.035362 0.155716 0.131584
0.081237 0.157352 0.132675
0.130494 0.159109 0.133846
0.182083 0.160949 0.135073
0.235480 0.162854 0.136342
0.290362 0.164812 0.137648
0.346512 0.166815 0.138983
0.403769 0.168857 0.140344
0.462014 0.170935 0.141729
0.521149 0.173044 0.143136
0.581097 0.175182 0.144561
0.641795 0.177348 0.146005
0.703186 0.179537 0.147465
0.765226 0.181750 0.148940
0.827873 0.183985 0.150430
0.891093 0.186240 0.151933
0.003680 0.210167 0.134800
0.041965 0.211533 0.135711
0.087841 0.213169 0.136802
0.137097 0.214926 0.137973
0.188687 0.216767 0.139200
0.242083 0.218671 0.140470
0.296965 0.220629 0.141775
0.353115 0.222632 0.143110
0.410372 0.224674 0.144472
0.468617 0.226752 0.145857
0.527752 0.228861 0.147263
0.587701 0.231000 0.148688
0.648398 0.233165 0.150132
0.709790 0.235355 0.151592
0.771829 0.237568 0.153067
0.834477 0.239802 0.154557
0.897696 0.242057 0.156060
0.010515 0.267940 0.139072
0.048800 0.269305 0.139982
0.094675 0.270942 0.141073
0.143932 0.272699 0.142245
0.195521 0.274539 0.143471
0.248918 0.276444 0.144741
0.303800 0.278401 0.146046
0.359950 0.280404 0.147382
0.417207 0.282447 0.148743
0.475451 0.284524 0.150128
0.534587 0.286634 0.151534
0.594535 0.288772 0.152960
0.655232 0.290937 0.154403
0.716624 0.293127 0.155863
0.778664 0.295340 0.157339
0.841311 0.297575 0.158828
0.904531 0.299830 0.160332
0.017540 0.327320 0.143462
0.055825 0.328685 0.144373
0.101700 0.330322 0.145464
0.150957 0.332079 0.146635
0.202546 0.333919 0.147862
0.255943 0.335823 0.149132
0.310825 0.337781 0.150437
0.366974 0.339784 0.151772
0.424232 0.341826 0.153134
0.482476 0.343904 0.154519
0.541612 0.346013 0.155925
0.601560 0.348152 0.157351
0.662257 0.350317 0.158794
0.723649 0.352507 0.160254
0.785689 0.354720 0.161729
0.848336 0.356954 0.163219
0.911556 0.359210 0.164722
0.024727 0.388070 0.147954
0.063012 0.389436 0.148865
0.108887 0.391072 0.149956
0.158144 0.392829 0.151127
0.209733 0.394670 0.152354
0.263130 0.396574 0.153624
0.318012 0.398532 0.154929
0.374161 0.400535 0.156264
0.431419 0.402577 0.157626
0.489663 0.404655 0.159011
0.548799 0.406764 0.160417
0.608747 0.408903 0.161842
0.669444 0.411068 0.163286
0.730836 0.413258 0.164746
0.792876 0.415471 0.166221
0.855523 0.417705 0.167711
0.918743 0.419960 0.169214
0.032056 0.450020 0.152535
0.070341 0.451386 0.153445
0.116216 0.453022 0.154536
0.165472 0.454779 0.155707
0.217062 0.456620 0.156934
0.270458 0.458524 0.158204
0.325341 0.460482 0.159509
0.381490 0.462485 0.160844
0.438748 0.464527 0.162206
0.496992 0.466605 0.163591
0.556127 0.468714 0.164997
0.616076 0.470853 0.166423
0.676773 0.473018 0.167866
0.738165 0.475208 0.169326
0.800204 0.477421 0.170802
0.862852 0.479655 0.172291
0.926072 0.481910 0.173795
0.039511 0.513038 0.157194
0.077796 0.514403 0.158105
0.123671 0.516040 0.159196
0.172928 0.517797 0.160367
0.224517 0.519637 0.161594
0.277914 0.521542 0.162864
0.332796 0.523499 0.164169
0.388945 0.525502 0.165504
0.446203 0.527545 0.166866
0.504447 0.529622 0.168251
0.563583 0.531732 0.169657
0.623531 0.533870 0.171082
0.684228 0.536035 0.172526
0.745620 0.538225 0.173986
0.807660 0.540438 0.175461
0.870307 0.542673 0.176951
0.933527 0.544928 0.178454
0.047080 0.577019 0.161925
0.085365 0.578385 0.162835
0.131240 0.580021 0.163926
0.180497 0.581778 0.165098
0.232086 0.583618 0.166324
0.285483 0.585523 0.167594
0.340365 0.587481 0.168899
0.396515 0.589484 0.170235
0.453772 0.591526 0.171596
0.512016 0.593604 0.172981
0.571152 0.595713 0.174388
0.631100 0.597851 0.175813
0.691797 0.600016 0.177257
0.753189 0.602206 0.178717
0.815229 0.604419 0.180192
0.877876 0.606654 0.181682
0.941096 0.608909 0.183185
0.054753 0.641880 0.166721
0.093038 0.643246 0.167631
0.138913 0.644882 0.168722
0.188170 0.646639 0.169893
0.239759 0.648480 0.171120
0.293156 0.650384 0.172390
0.348038 0.652342 0.173695
0.404188 0.654345 0.175030
0.461445 0.656387 0.176392
0.519690 0.658465 0.177777
0.578825 0.660574 0.179183
0.638774 0.662713 0.180609
0.699471 0.664878 0.182052
0.760862 0.667068 0.183512
0.822902 0.669281 0.184988
0.885549 0.671515 0.186477
0.948769 0.673770 0.187981
0.062522 0.707552 0.171576
0.100807 0.708917 0.172487
0.146683 0.710554 0.173578
0.195939 0.712311 0.174749
0.247529 0.714151 0.175976
0.300925 0.716056 0.177246
0.355807 0.718013 0.178551
0.411957 0.720016 0.179886
0.469214 0.722059 0.181248
0.527459 0.724136 0.182633
0.586594 0.726246 0.184039
0.646543 0.728384 0.185465
0.707240 0.730549 0.186908
0.768632 0.732739 0.188368
0.830671 0.734952 0.189843
0.893319 0.737187 0.191333
0.956538 0.739442 0.192836
0.070380 0.773974 0.176488
0.108665 0.775340 0.177398
0.154541 0.776976 0.178489
0.203797 0.778733 0.179660
0.255387 0.780574 0.180887
0.308783 0.782478 0.182157
0.363665 0.784436 0.183462
0.419815 0.786439 0.184797
0.477072 0.788481 0.186159
0.535317 0.790559 0.187544
0.594452 0.792668 0.188950
0.654401 0.794807 0.190376
0.715098 0.796972 0.191819
0.776490 0.799162 0.193279
0.838529 0.801375 0.194755
0.901176 0.803609 0.196244
0.964396 0.805864 0.197748
0.078321 0.841098 0.181451
0.116606 0.842464 0.182361
0.162481 0.844100 0.183452
0.211738 0.845857 0.184623
0.263327 0.847697 0.185850
0.316724 0.849602 0.187120
0.371606 0.851560 0.188425
0.427756 0.853563 0.189760
0.485013 0.855605 0.191122
0.543258 0.857683 0.192507
0.602393 0.859792 0.193913
0.662342 0.861930 0.195339
0.723039 0.864095 0.196782
0.784430 0.866285 0.198242
0.846470 0.868498 0.199718
0.909117 0.870733 0.201207
0.972337 0.872988 0.202711
0.086340 0.908879 0.186463
0.124625 0.910245 0.187373
0.170500 0.911881 0.188464
0.219757 0.913638 0.189635
0.271346 0.915479 0.190862
0.324743 0.917383 0.192132
0.379625 0.919341 0.193437
0.435775 0.921344 0.194772
0.493032 0.923386 0.196134
0.551276 0.925464 0.197519
0.610412 0.927573 0.198925
0.670360 0.929712 0.200351
0.731057 0.931877 0.201794
0.792449 0.934067 0.203254
0.854489 0.936280 0.204729
0.917136 0.938514 0.206219
0.980356 0.940769 0.207723
0.094432 0.977280 0.191520
0.132717 0.978646 0.192430
0.178592 0.980282 0.193521
0.227849 0.982039 0.194693
0.279438 0.983879 0.195920
0.332835 0.985784 0.197189
0.387717 0.987742 0.198494
0.443867 0.989745 0.199830
0.501124 0.991787 0.201191
0.559368 0.993865 0.202576
0.618504 0.995974 0.203983
0.678452 0.998112 0.205408
0.739149 1.000000 0.206852
0.800541 1.000000 0.208312
0.862581 1.000000 0.209787
0.925228 1.000000 0.211277
0.988448 1.000000 0.212780
0.000000 0.010464 0.157137
0.018780 0.011829 0.158048
0.064655 0.013466 0.159139
0.113911 0.015223 0.160310
0.165501 0.017063 0.161537
0.218897 0.018968 0.162807
0.273780 0.020925 0.164112
0.329929 0.022928 0.165447
0.387187 0.024971 0.166809
0.445431 0.027048 0.168194
0.504566 0.029158 0.169600
0.564515 0.031296 0.171026
0.625212 0.033461 0.172469
0.686604 0.035651 0.173929
0.748643 0.037864 0.175404
0.811291 0.040099 0.176894
0.874511 0.042354 0.178397
0.000000 0.051886 0.160200
0.023680 0.053252 0.161111
0.069555 0.054888 0.162201
0.118812 0.056645 0.163373
0.170401 0.058485 0.164600
0.223798 0.060390 0.165869
0.278680 0.062348 0.167175
0.334830 0.064351 0.168510
0.392087 0.066393 0.169871
0.450332 0.068471 0.171256
0.509467 0.070580 0.172663
0.569415 0.072718 0.174088
0.630113 0.074883 0.175532
0.691504 0.077073 0.176992
0.753544 0.079286 0.178467
0.816191 0.081521 0.179957
0.879411 0.083776 0.181460
0.000000 0.101521 0.163870
0.029552 0.102886 0.164780
0.075427 0.104523 0.165871
0.124684 0.106280 0.167043
0.176273 0.108120 0.168270
0.229670 0.110025 0.169539
0.284552 0.111982 0.170844
0.340702 0.113985 0.172180
0.397959 0.116028 0.173541
0.456203 0.118105 0.174926
0.515339 0.120215 0.176333
0.575287 0.122353 0.177758
0.635985 0.124518 0.179202
0.697376 0.126708 0.180662
0.759416 0.128921 0.182137
0.822063 0.131156 0.183627
0.885283 0.133411 0.185130
0.000000 0.154814 0.167811
0.035857 0.156180 0.168721
0.081732 0.157816 0.169812
0.130988 0.159573 0.170983
0.182578 0.161413 0.172210
0.235974 0.163318 0.173480
0.290857 0.165276 0.174785
0.347006 0.167278 0.176120
0.404264 0.169321 0.177482
0.462508 0.171398 0.178867
0.521644 0.173508 0.180273
0.581592 0.175646 0.181699
0.642289 0.177811 0.183142
0.703681 0.180001 0.184602
0.765721 0.182214 0.186077
0.828368 0.184449 0.187567
0.891588 0.186704 0.189071
0.004175 0.210631 0.171938
0.042460 0.211997 0.172848
0.088335 0.213633 0.173939
0.137592 0.215390 0.175110
0.189181 0.217230 0.176337
0.242578 0.219135 0.177607
0.297460 0.221093 0.178912
0.353610 0.223096 0.180247
0.410867 0.225138 0.181609
0.469112 0.227216 0.182994
0.528247 0.229325 0.184400
0.588195 0.231463 0.185826
0.648893 0.233628 0.187269
0.710284 0.235818 0.188729
0.772324 0.238031 0.190204
0.834971 0.240266 0.191694
0.898191 0.242521 0.193198
0.011010 0.268403 0.176209
0.049295 0.269769 0.177120
0.095170 0.271405 0.178211
0.144426 0.273162 0.179382
0.196016 0.275003 0.180609
0.249412 0.276907 0.181879
0.304295 0.278865 0.183184
0.360444 0.280868 0.184519
0.417702 0.282910 0.185881
0.475946 0.284988 0.187266
0.535081 0.287097 0.188672
0.595030 0.289236 0.190097
0.655727 0.291401 0.191541
0.717119 0.293591 0.193001
0.779158 0.295804 0.194476
0.841806 0.298038 0.195966
0.905026 0.300293 0.197469
0.018035 0.327783 0.180600
0.056319 0.329149 0.181510
0.102195 0.330785 0.182601
0.151451 0.332542 0.183772
0.203041 0.334383 0.184999
0.256437 0.336287 0.186269
0.311320 0.338245 0.187574
0.367469 0.340248 0.188909
0.424727 0.342290 0.190271
0.482971 0.344368 0.191656
0.542106 0.346477 0.193062
0.602055 0.348616 0.194488
0.662752 0.350781 0.195931
0.724144 0.352971 0.197391
0.786183 0.355184 0.198867
0.848831 0.357418 0.200356
0.912051 0.359673 0.201860
0.025222 0.388534 0.185092
0.063506 0.389900 0.186002
0.109382 0.391536 0.187093
0.158638 0.393293 0.188264
0.210228 0.395133 0.189491
0.263624 0.397038 0.190761
0.318507 0.398996 0.192066
0.374656 0.400999 0.193401
0.431914 0.403041 0.194763
0.490158 0.405119 0.196148
0.549293 0.407228 0.197554
0.609242 0.409367 0.198980
0.669939 0.411532 0.200423
0.731331 0.413721 0.201883
0.793370 0.415934 0.203358
0.856018 0.418169 0.204848
0.919238 0.420424 0.206352
0.032550 0.450484 0.189672
0.070835 0.451850 0.190583
0.116711 0.453486 0.191674
0.165967 0.455243 0.192845
0.217557 0.457083 0.194072
0.270953 0.458988 0.195341
0.325835 0.460946 0.196647
0.381985 0.462949 0.197982
0.439242 0.464991 0.199343
0.497487 0.467069 0.200729
0.556622 0.469178 0.202135
0.616571 0.471316 0.203560
0.677268 0.473481 0.205004
0.738660 0.475671 0.206464
0.800699 0.477884 0.207939
0.863346 0.480119 0.209429
0.926566 0.482374 0.210932
0.040006 0.513501 0.194332
0.078290 0.514867 0.195242
0.124166 0.516504 0.196333
0.173422 0.518261 0.197504
0.225012 0.520101 0.198731
0.278408 0.522005 0.200001
0.333291 0.523963 0.201306
0.389440 0.525966 0.202641
0.446698 0.528008 0.204003
0.504942 0.530086 0.205388
0.564077 0.532195 0.206794
0.624026 0.534334 0.208220
0.684723 0.536499 0.209663
0.746115 0.538689 0.211123
0.808154 0.540902 0.212598
0.870802 0.543136 0.214088
0.934022 0.545391 0.215592
0.047575 0.577483 0.199062
0.085860 0.578849 0.199973
0.131735 0.580485 0.201064
0.180991 0.582242 0.202235
0.232581 0.584082 0.203462
0.285977 0.585987 0.204732
0.340860 0.587944 0.206037
0.397009 0.589947 0.207372
0.454267 0.591990 0.208734
0.512511 0.594067 0.210119
0.571646 0.596177 0.211525
0.631595 0.598315 0.212951
0.692292 0.600480 0.214394
0.753684 0.602670 0.215854
0.815723 0.604883 0.217329
0.878371 0.607118 0.218819
0.941591 0.609373 0.220322
0.055248 0.642344 0.203858
0.093533 0.643710 0.204769
0.139408 0.645346 0.205860
0.188665 0.647103 0.207031
0.240254 0.648943 0.208258
0.293651 0.650848 0.209527
0.348533 0.652806 0.210833
0.404682 0.654809 0.212168
0.461940 0.656851 0.213529
0.520184 0.658929 0.214914
0.579320 0.661038 0.216321
0.639268 0.663176 0.217746
0.699965 0.665341 0.219190
0.761357 0.667531 0.220650
0.823397 0.669744 0.222125
0.886044 0.671979 0.223615
0.949264 0.674234 0.225118
0.063017 0.708015 0.208714
0.101302 0.709381 0.209624
0.147177 0.711017 0.210715
0.196434 0.712774 0.211887
0.248023 0.714615 0.213113
0.301420 0.716519 0.214383
0.356302 0.718477 0.215688
0.412452 0.720480 0.217024
0.469709 0.722522 0.218385
0.527954 0.724600 0.219770
0.587089 0.726709 0.221176
0.647037 0.728848 0.222602
0.707735 0.731013 0.224045
0.769126 0.733203 0.225505
0.831166 0.735416 0.226981
0.893813 0.737650 0.228470
0.957033 0.739905 0.229974
0.070875 0.774438 0.213625
0.109160 0.775804 0.214536
0.155035 0.777440 0.215626
0.204292 0.779197 0.216798
0.255881 0.781037 0.218025
0.309278 0.782942 0.219294
0.364160 0.784900 0.220600
0.420310 0.786903 0.221935
0.477567 0.788945 0.223296
0.535812 0.791023 0.224681
0.594947 0.793132 0.226088
0.654895 0.795270 0.227513
0.715593 0.797436 0.228957
0.776984 0.799625 0.230417
0.839024 0.801838 0.231892
0.901671 0.804073 0.233382
0.964891 0.806328 0.234885
0.078816 0.841562 0.218588
0.117101 0.842927 0.219499
0.162976 0.844564 0.220590
0.212233 0.846321 0.221761
0.263822 0.848161 0.222988
0.317219 0.850066 0.224257
0.372101 0.852023 0.225563
0.428251 0.854026 0.226898
0.485508 0.856069 0.228259
0.543752 0.858146 0.229645
0.602888 0.860256 0.231051
0.662836 0.862394 0.232476
0.723533 0.864559 0.233920
0.784925 0.866749 0.235380
0.846965 0.868962 0.236855
0.909612 0.871197 0.238345
0.972832 0.873452 0.239848
0.086835 0.909343 0.223600
0.125120 0.910709 0.224510
0.170995 0.912345 0.225601
0.220251 0.914102 0.226773
0.271841 0.915942 0.227999
0.325237 0.917847 0.229269
0.380120 0.919805 0.230574
0.436269 0.921808 0.231910
0.493527 0.923850 0.233271
0.551771 0.925928 0.234656
0.610906 0.928037 0.236062
0.670855 0.930175 0.237488
0.731552 0.932340 0.238931
0.792944 0.934530 0.240391
0.854983 0.936743 0.241867
0.917631 0.938978 0.243356
0.980851 0.941233 0.244860
0.094927 0.977744 0.228657
0.133212 0.979109 0.229568
0.179087 0.980746 0.230659
0.228343 0.982503 0.231830
0.279933 0.984343 0.233057
0.333329 0.986248 0.234327
0.388212 0.988205 0.235632
0.444361 0.990208 0.236967
0.501619 0.992251 0.238329
0.559863 0.994328 0.239714
0.618998 0.996438 0.241120
0.678947 0.998576 0.242546
0.739644 1.000000 0.243989
0.801036 1.000000 0.245449
0.863075 1.000000 0.246924
0.925723 1.000000 0.248414
0.988943 1.000000 0.249917
0.000000 0.011020 0.201638
0.019372 0.012385 0.202548
0.065248 0.014022 0.203639
0.114504 0.015779 0.204810
0.166094 0.017619 0.206037
0.219490 0.019523 0.207307
0.274373 0.021481 0.208612
0.330522 0.023484 0.209947
0.387780 0.025526 0.211309
0.446024 0.027604 0.212694
0.505159 0.029713 0.214100
0.565108 0.031852 0.215526
0.625805 0.034017 0.216969
0.687197 0.036207 0.218429
0.749236 0.038420 0.219905
0.811884 0.040654 0.221394
0.875103 0.042910 0.222898
0.000000 0.052442 0.204700
0.024273 0.053807 0.205611
0.070148 0.055444 0.206702
0.119405 0.057201 0.207873
0.170994 0.059041 0.209100
0.224391 0.060946 0.210370
0.279273 0.062903 0.211675
0.335422 0.064906 0.213010
0.392680 0.066949 0.214372
0.450924 0.069026 0.215757
0.510060 0.071136 0.217163
0.570008 0.073274 0.218589
0.630705 0.075439 0.220032
0.692097 0.077629 0.221492
0.754137 0.079842 0.222967
0.816784 0.082077 0.224457
0.880004 0.084332 0.225960
0.000000 0.102077 0.208370
0.030145 0.103442 0.209281
0.076020 0.105079 0.210372
0.125277 0.106836 0.211543
0.176866 0.108676 0.212770
0.230263 0.110581 0.214040
0.285145 0.112538 0.215345
0.341294 0.114541 0.216680
0.398552 0.116583 0.218042
0.456796 0.118661 0.219427
0.515932 0.120770 0.220833
0.575880 0.122909 0.222259
0.636577 0.125074 0.223702
0.697969 0.127264 0.225162
0.760009 0.129477 0.226637
0.822656 0.131711 0.228127
0.885876 0.133967 0.229630
0.000000 0.155370 0.212311
0.036449 0.156735 0.213221
0.082325 0.158372 0.214312
0.131581 0.160129 0.215484
0.183171 0.161969 0.216710
0.236567 0.163874 0.217980
0.291450 0.165831 0.219285
0.347599 0.167834 0.220621
0.404857 0.169877 0.221982
0.463101 0.171954 0.223367
0.522236 0.174064 0.224773
0.582185 0.176202 0.226199
0.642882 0.178367 0.227642
0.704274 0.180557 0.229102
0.766313 0.182770 0.230578
0.828961 0.185005 0.232067
0.892181 0.187260 0.233571
0.004768 0.211187 0.216438
0.043053 0.212552 0.217348
0.088928 0.214189 0.218439
0.138185 0.215946 0.219611
0.189774 0.217786 0.220837
0.243171 0.219691 0.222107
0.298053 0.221648 0.223412
0.354202 0.223651 0.224748
0.411460 0.225694 0.226109
0.469704 0.227771 0.227494
0.528840 0.229881 0.228901
0.588788 0.232019 0.230326
0.649485 0.234184 0.231770
0.710877 0.236374 0.233229
0.772917 0.238587 0.234705
0.835564 0.240822 0.236195
0.898784 0.243077 0.237698
0.011602 0.268959 0.220710
0.049887 0.270325 0.221620
0.095763 0.271961 0.222711
0.145019 0.273718 0.223882
0.196609 0.275558 0.225109
0.250005 0.277463 0.226379
0.304888 0.279421 0.227684
0.361037 0.281424 0.229019
0.418295 0.283466 0.230381
0.476539 0.285544 0.231766
0.535674 0.287653 0.233172
0.595623 0.289791 0.234598
0.656320 0.291957 0.236041
0.717712 0.294146 0.237501
0.779751 0.296359 0.238976
0.842399 0.298594 0.240466
0.905618 0.300849 0.241970
0.018627 0.328339 0.225100
0.056912 0.329705 0.226010
0.102787 0.331341 0.227101
0.152044 0.333098 0.228273
0.203633 0.334938 0.229500
0.257030 0.336843 0.230769
0.311912 0.338801 0.232074
0.368062 0.340804 0.233410
0.425319 0.342846 0.234771
0.483564 0.344924 0.236156
0.542699 0.347033 0.237563
0.602648 0.349171 0.238988
0.663345 0.351336 0.240432
0.724736 0.353526 0.241892
0.786776 0.355739 0.243367
0.849423 0.357974 0.244857
0.912643 0.360229 0.246360
0.025814 0.389090 0.229592
0.064099 0.390456 0.230502
0.109974 0.392092 0.231593
0.159231 0.393849 0.232765
0.210820 0.395689 0.233991
0.264217 0.397594 0.235261
0.319099 0.399552 0.236566
0.375249 0.401554 0.237902
0.432506 0.403597 0.239263
0.490751 0.405674 0.240648
0.549886 0.407784 0.242055
0.609835 0.409922 0.243480
0.670532 0.412087 0.244924
0.731923 0.414277 0.246383
0.793963 0.416490 0.247859
0.856610 0.418725 0.249349
0.919830 0.420980 0.250852
0.033143 0.451040 0.234172
0.071428 0.452405 0.235083
0.117303 0.454042 0.236174
0.166560 0.455799 0.237345
0.218149 0.457639 0.238572
0.271546 0.459544 0.239842
0.326428 0.461501 0.241147
0.382578 0.463504 0.242482
0.439835 0.465547 0.243844
0.498080 0.467624 0.245229
0.557215 0.469734 0.246635
0.617163 0.471872 0.248061
0.677861 0.474037 0.249504
0.739252 0.476227 0.250964
0.801292 0.478440 0.252439
0.863939 0.480675 0.253929
0.927159 0.482930 0.255432
0.040598 0.514057 0.238832
0.078883 0.515423 0.239742
0.124758 0.517059 0.240833
0.174015 0.518816 0.242005
0.225604 0.520656 0.243231
0.279001 0.522561 0.244501
0.333883 0.524519 0.245806
0.390033 0.526522 0.247142
0.447290 0.528564 0.248503
0.505535 0.530642 0.249888
0.564670 0.532751 0.251295
0.624619 0.534890 0.252720
0.685316 0.537055 0.254164
0.746707 0.539244 0.255623
0.808747 0.541457 0.257099
0.871394 0.543692 0.258589
0.934614 0.545947 0.260092
0.048167 0.578039 0.243563
0.086452 0.579404 0.244473
0.132328 0.581041 0.245564
0.181584 0.582798 0.246735
0.233174 0.584638 0.247962
0.286570 0.586543 0.249232
0.341453 0.588500 0.250537
0.397602 0.590503 0.251872
0.454860 0.592546 0.253234
0.513104 0.594623 0.254619
0.572239 0.596733 0.256025
0.632188 0.598871 0.257451
0.692885 0.601036 0.258894
0.754277 0.603226 0.260354
0.816316 0.605439 0.261830
0.878964 0.607674 0.263319
0.942183 0.609929 0.264823
0.055841 0.642900 0.248358
0.094126 0.644265 0.249269
0.140001 0.645902 0.250360
0.189257 0.647659 0.251531
0.240847 0.649499 0.252758
0.294243 0.651404 0.254028
0.349126 0.653361 0.255333
0.405275 0.655364 0.256668
0.462533 0.657407 0.258030
0.520777 0.659484 0.259415
0.579912 0.661594 0.260821
0.639861 0.663732 0.262247
0.700558 0.665897 0.263690
0.761950 0.668087 0.265150
0.823990 0.670300 0.266625
0.886637 0.672535 0.268115
0.949857 0.674790 0.269618
0.063610 0.708571 0.253214
0.101895 0.709937 0.254125
0.147770 0.711573 0.255216
0.197027 0.713330 0.256387
0.248616 0.715170 0.257614
0.302013 0.717075 0.258883
0.356895 0.719033 0.260189
0.413044 0.721036 0.261524
0.470302 0.723078 0.262885
0.528546 0.725156 0.264271
0.587682 0.727265 0.265677
0.647630 0.729403 0.267102
0.708327 0.731569 0.268546
0.769719 0.733758 0.270006
0.831759 0.735971 0.271481
0.894406 0.738206 0.272971
0.957626 0.740461 0.274474
0.071468 0.774994 0.258125
0.109753 0.776359 0.259036
0.155628 0.777996 0.260127
0.204885 0.779753 0.261298
0.256474 0.781593 0.262525
0.309871 0.783498 0.263795
0.364753 0.785455 0.265100
0.420902 0.787458 0.266435
0.478160 0.789501 0.267797
0.536404 0.791578 0.269182
0.595540 0.793688 0.270588
0.655488 0.795826 0.272014
0.716185 0.797991 0.273457
0.777577 0.800181 0.274917
0.839617 0.802394 0.276392
0.902264 0.804629 0.277882
0.965484 0.806884 0.279385
0.079409 0.842118 0.263088
0.117694 0.843483 0.263999
0.163569 0.845120 0.265090
0.212826 0.846877 0.266261
0.264415 0.848717 0.267488
0.317811 0.850622 0.268758
0.372694 0.852579 0.270063
0.428843 0.854582 0.271398
0.486101 0.856624 0.272760
0.544345 0.858702 0.274145
0.603481 0.860811 0.275551
0.663429 0.862950 0.276977
0.724126 0.865115 0.278420
0.785518 0.867305 0.279880
0.847558 0.869518 0.281355
0.910205 0.871752 0.282845
0.973425 0.874008 0.284348
0.087427 0.909899 0.268100
0.125712 0.911264 0.269011
0.171588 0.912901 0.270102
0.220844 0.914658 0.271273
0.272434 0.916498 0.272500
0.325830 0.918403 0.273769
0.380713 0.920360 0.275075
0.436862 0.922363 0.276410
0.494120 0.924406 0.277771
0.552364 0.926483 0.279157
0.611499 0.928593 0.280563
0.671448 0.930731 0.281988
0.732145 0.932896 0.283432
0.793537 0.935086 0.284892
0.855576 0.937299 0.286367
0.918224 0.939534 0.287857
0.981443 0.941789 0.289360
0.095519 0.978300 0.273158
0.133804 0.979665 0.274068
0.179680 0.981302 0.275159
0.228936 0.983059 0.276330
0.280526 0.984899 0.277557
0.333922 0.986803 0.278827
0.388805 0.988761 0.280132
0.444954 0.990764 0.281467
0.502212 0.992806 0.282829
0.560456 0.994884 0.284214
0.619591 0.996993 0.285620
0.679540 0.999132 0.287046
0.740237 1.000000 0.288489
0.801629 1.000000 0.289949
0.863668 1.000000 0.291425
0.926316 1.000000 0.292914
0.989535 1.000000 0.294418
0.000000 0.011616 0.249418
0.020009 0.012982 0.250328
0.065884 0.014618 0.251419
0.115141 0.016375 0.252591
0.166730 0.018215 0.253817
0.220127 0.020120 0.255087
0.275009 0.022078 0.256392
0.331158 0.024081 0.257728
0.388416 0.026123 0.259089
0.446660 0.028201 0.260474
0.505796 0.030310 0.261881
0.565744 0.032448 0.263306
0.626441 0.034614 0.264750
0.687833 0.036803 0.266209
0.749873 0.039016 0.267685
