assets/luts/moonlight.cube
# Moonlight — Studio filter "moonlight"
# Generated by scripts/generate-filter-luts.mjs — do not edit by hand.
LUT_3D_SIZE 5
DOMAIN_MIN 0.0 0.0 0.0
DOMAIN_MAX 1.0 1.0 1.0
0.000000 0.010000 0.120000
0.165006 0.016599 0.124400
0.386692 0.024507 0.129671
0.624717 0.032997 0.135332
0.874016 0.041890 0.141260
0.003680 0.210167 0.134800
0.188687 0.216767 0.139200
0.410372 0.224674 0.144472
0.648398 0.233165 0.150132
0.897696 0.242057 0.156060
0.032056 0.450020 0.152535
0.217062 0.456620 0.156934
0.438748 0.464527 0.162206
0.676773 0.473018 0.167866
0.926072 0.481910 0.173795
0.062522 0.707552 0.171576
0.247529 0.714151 0.175976
0.469214 0.722059 0.181248
0.707240 0.730549 0.186908
0.956538 0.739442 0.192836
0.094432 0.977280 0.191520
0.279438 0.983879 0.195920
0.501124 0.991787 0.201191
0.739149 1.000000 0.206852
0.988448 1.000000 0.212780
0.000000 0.012241 0.299461
0.167397 0.018840 0.303861
0.389083 0.026748 0.309132
0.627108 0.035239 0.314793
0.876407 0.044131 0.320721
0.006071 0.212408 0.314261
0.191077 0.219008 0.318661
0.412763 0.226915 0.323933
0.650788 0.235406 0.329593
0.900087 0.244298 0.335521
0.034446 0.452261 0.331996
0.219452 0.458861 0.336395
0.441138 0.466768 0.341667
0.679164 0.475259 0.347327
0.928462 0.484151 0.353256
0.064913 0.709793 0.351038
0.249919 0.716392 0.355437
0.471605 0.724300 0.360709
0.709630 0.732790 0.366369
0.958929 0.741683 0.372298
0.096823 0.979521 0.370981
0.281829 0.986120 0.375381
0.503515 0.994028 0.380652
0.741540 1.000000 0.386313
0.990839 1.000000 0.392241
0.000000 0.014927 0.514502
0.170261 0.021526 0.518902
0.391947 0.029434 0.524174
0.629973 0.037924 0.529834
0.879271 0.046817 0.535762
0.008935 0.215094 0.529303
0.193942 0.221693 0.533702
0.415628 0.229601 0.538974
0.653653 0.238091 0.544634
0.902951 0.246984 0.550563
0.037311 0.454947 0.547037
0.222317 0.461546 0.551437
0.444003 0.469454 0.556709
0.682028 0.477944 0.562369
0.931327 0.486837 0.568297
0.067777 0.712478 0.566079
0.252784 0.719078 0.570478
0.474470 0.726985 0.575750
0.712495 0.735476 0.581411
0.961793 0.744368 0.587339
0.099687 0.982207 0.586022
0.284693 0.988806 0.590422
0.506379 0.996714 0.595694
0.744405 1.000000 0.601354
0.993703 1.000000 0.607282
0.000000 0.017810 0.745394
0.173337 0.024409 0.749793
0.395023 0.032317 0.755065
0.633048 0.040807 0.760725
0.882347 0.049700 0.766654
0.012011 0.217977 0.760194
0.197017 0.224577 0.764593
0.418703 0.232484 0.769865
0.656729 0.240975 0.775525
0.906027 0.249867 0.781454
0.040386 0.457830 0.777928
0.225393 0.464430 0.782328
0.447078 0.472337 0.787600
0.685104 0.480828 0.793260
0.934402 0.489720 0.799188
0.070853 0.715362 0.796970
0.255859 0.721961 0.801370
0.477545 0.729869 0.806641
0.715571 0.738359 0.812302
0.964869 0.747252 0.818230
0.102763 0.985090 0.816914
0.287769 0.991689 0.821313
0.509455 0.999597 0.826585
0.747480 1.000000 0.832245
0.996779 1.000000 0.838174
0.000000 0.020830 0.987220
0.176558 0.027429 0.991620
0.398244 0.035337 0.996891
0.636269 0.043827 1.000000
0.885568 0.052720 1.000000
0.015232 0.220997 1.000000
0.200239 0.227597 1.000000
0.421924 0.235504 1.000000
0.659950 0.243995 1.000000
0.909248 0.252887 1.000000
0.043608 0.460850 1.000000
0.228614 0.467450 1.000000
0.450300 0.475357 1.000000
0.688325 0.483848 1.000000
0.937624 0.492740 1.000000
0.074074 0.718382 1.000000
0.259081 0.724981 1.000000
0.480766 0.732889 1.000000
0.718792 0.741379 1.000000
0.968090 0.750272 1.000000
0.105984 0.988110 1.000000
0.290990 0.994709 1.000000
0.512676 1.000000 1.000000
0.750701 1.000000 1.000000
1.000000 1.000000 1.000000
