assets/luts/moonlight.cube
# Moonlight — Studio filter "moonlight"
# Generated by scripts/generate-filter-luts.mjs — do not edit by hand.
LUT_3D_SIZE 9
DOMAIN_MIN 0.0 0.0 0.0
DOMAIN_MAX 1.0 1.0 1.0
0.000000 0.010000 0.120000
0.064160 0.013002 0.122001
0.165006 0.016599 0.124400
0.273285 0.020462 0.126974
0.386692 0.024507 0.129671
0.504072 0.028694 0.132463
0.624717 0.032997 0.135332
0.748149 0.037400 0.138267
0.874016 0.041890 0.141260
0.000000 0.101057 0.126733
0.074932 0.104059 0.128734
0.175778 0.107656 0.131132
0.284057 0.111519 0.133707
0.397464 0.115564 0.136404
0.514844 0.119751 0.139195
0.635490 0.124054 0.142064
0.758921 0.128457 0.145000
0.884788 0.132947 0.147993
0.003680 0.210167 0.134800
0.087841 0.213169 0.136802
0.188687 0.216767 0.139200
0.296965 0.220629 0.141775
0.410372 0.224674 0.144472
0.527752 0.228861 0.147263
0.648398 0.233165 0.150132
0.771829 0.237568 0.153067
0.897696 0.242057 0.156060
0.017540 0.327320 0.143462
0.101700 0.330322 0.145464
0.202546 0.333919 0.147862
0.310825 0.337781 0.150437
0.424232 0.341826 0.153134
0.541612 0.346013 0.155925
0.662257 0.350317 0.158794
0.785689 0.354720 0.161729
0.911556 0.359210 0.164722
0.032056 0.450020 0.152535
0.116216 0.453022 0.154536
0.217062 0.456620 0.156934
0.325341 0.460482 0.159509
0.438748 0.464527 0.162206
0.556127 0.468714 0.164997
0.676773 0.473018 0.167866
0.800204 0.477421 0.170802
0.926072 0.481910 0.173795
0.047080 0.577019 0.161925
0.131240 0.580021 0.163926
0.232086 0.583618 0.166324
0.340365 0.587481 0.168899
0.453772 0.591526 0.171596
0.571152 0.595713 0.174388
0.691797 0.600016 0.177257
0.815229 0.604419 0.180192
0.941096 0.608909 0.183185
0.062522 0.707552 0.171576
0.146683 0.710554 0.173578
0.247529 0.714151 0.175976
0.355807 0.718013 0.178551
0.469214 0.722059 0.181248
0.586594 0.726246 0.184039
0.707240 0.730549 0.186908
0.830671 0.734952 0.189843
0.956538 0.739442 0.192836
0.078321 0.841098 0.181451
0.162481 0.844100 0.183452
0.263327 0.847697 0.185850
0.371606 0.851560 0.188425
0.485013 0.855605 0.191122
0.602393 0.859792 0.193913
0.723039 0.864095 0.196782
0.846470 0.868498 0.199718
0.972337 0.872988 0.202711
0.094432 0.977280 0.191520
0.178592 0.980282 0.193521
0.279438 0.983879 0.195920
0.387717 0.987742 0.198494
0.501124 0.991787 0.201191
0.618504 0.995974 0.203983
0.739149 1.000000 0.206852
0.862581 1.000000 0.209787
0.988448 1.000000 0.212780
0.000000 0.011020 0.201638
0.065248 0.014022 0.203639
0.166094 0.017619 0.206037
0.274373 0.021481 0.208612
0.387780 0.025526 0.211309
0.505159 0.029713 0.214100
0.625805 0.034017 0.216969
0.749236 0.038420 0.219905
0.875103 0.042910 0.222898
0.000000 0.102077 0.208370
0.076020 0.105079 0.210372
0.176866 0.108676 0.212770
0.285145 0.112538 0.215345
0.398552 0.116583 0.218042
0.515932 0.120770 0.220833
0.636577 0.125074 0.223702
0.760009 0.129477 0.226637
0.885876 0.133967 0.229630
0.004768 0.211187 0.216438
0.088928 0.214189 0.218439
0.189774 0.217786 0.220837
0.298053 0.221648 0.223412
0.411460 0.225694 0.226109
0.528840 0.229881 0.228901
0.649485 0.234184 0.231770
0.772917 0.238587 0.234705
0.898784 0.243077 0.237698
0.018627 0.328339 0.225100
0.102787 0.331341 0.227101
0.203633 0.334938 0.229500
0.311912 0.338801 0.232074
0.425319 0.342846 0.234771
0.542699 0.347033 0.237563
0.663345 0.351336 0.240432
0.786776 0.355739 0.243367
0.912643 0.360229 0.246360
0.033143 0.451040 0.234172
0.117303 0.454042 0.236174
0.218149 0.457639 0.238572
0.326428 0.461501 0.241147
0.439835 0.465547 0.243844
0.557215 0.469734 0.246635
0.677861 0.474037 0.249504
0.801292 0.478440 0.252439
0.927159 0.482930 0.255432
0.048167 0.578039 0.243563
0.132328 0.581041 0.245564
0.233174 0.584638 0.247962
0.341453 0.588500 0.250537
0.454860 0.592546 0.253234
0.572239 0.596733 0.256025
0.692885 0.601036 0.258894
0.816316 0.605439 0.261830
0.942183 0.609929 0.264823
0.063610 0.708571 0.253214
0.147770 0.711573 0.255216
0.248616 0.715170 0.257614
0.356895 0.719033 0.260189
0.470302 0.723078 0.262885
0.587682 0.727265 0.265677
0.708327 0.731569 0.268546
0.831759 0.735971 0.271481
0.957626 0.740461 0.274474
0.079409 0.842118 0.263088
0.163569 0.845120 0.265090
0.264415 0.848717 0.267488
0.372694 0.852579 0.270063
0.486101 0.856624 0.272760
0.603481 0.860811 0.275551
0.724126 0.865115 0.278420
0.847558 0.869518 0.281355
0.973425 0.874008 0.284348
0.095519 0.978300 0.273158
0.179680 0.981302 0.275159
0.280526 0.984899 0.277557
0.388805 0.988761 0.280132
0.502212 0.992806 0.282829
0.619591 0.996993 0.285620
0.740237 1.000000 0.288489
0.863668 1.000000 0.291425
0.989535 1.000000 0.294418
0.000000 0.012241 0.299461
0.066551 0.015243 0.301462
0.167397 0.018840 0.303861
0.275676 0.022703 0.306435
0.389083 0.026748 0.309132
0.506462 0.030935 0.311924
0.627108 0.035239 0.314793
0.750539 0.039641 0.317728
0.876407 0.044131 0.320721
0.000000 0.103298 0.306194
0.077323 0.106300 0.308195
0.178169 0.109897 0.310593
0.286448 0.113760 0.313168
0.399855 0.117805 0.315865
0.517235 0.121992 0.318656
0.637880 0.126296 0.321525
0.761312 0.130698 0.324461
0.887179 0.135188 0.327454
0.006071 0.212408 0.314261
0.090231 0.215410 0.316263
0.191077 0.219008 0.318661
0.299356 0.222870 0.321236
0.412763 0.226915 0.323933
0.530143 0.231102 0.326724
0.650788 0.235406 0.329593
0.774220 0.239809 0.332528
0.900087 0.244298 0.335521
0.019930 0.329561 0.322923
0.104091 0.332563 0.324925
0.204937 0.336160 0.327323
0.313215 0.340022 0.329898
0.426622 0.344068 0.332595
0.544002 0.348255 0.335386
0.664648 0.352558 0.338255
0.788079 0.356961 0.341190
0.913946 0.361451 0.344183
0.034446 0.452261 0.331996
0.118606 0.455263 0.333997
0.219452 0.458861 0.336395
0.327731 0.462723 0.338970
0.441138 0.466768 0.341667
0.558518 0.470955 0.344458
0.679164 0.475259 0.347327
0.802595 0.479662 0.350263
0.928462 0.484151 0.353256
0.049471 0.579260 0.341386
0.133631 0.582262 0.343387
0.234477 0.585859 0.345786
0.342756 0.589722 0.348360
0.456163 0.593767 0.351057
0.573542 0.597954 0.353849
0.694188 0.602258 0.356718
0.817619 0.606660 0.359653
0.943487 0.611150 0.362646
0.064913 0.709793 0.351038
0.149073 0.712795 0.353039
0.249919 0.716392 0.355437
0.358198 0.720254 0.358012
0.471605 0.724300 0.360709
0.588985 0.728487 0.363500
0.709630 0.732790 0.366369
0.833062 0.737193 0.369304
0.958929 0.741683 0.372298
0.080712 0.843339 0.360912
0.164872 0.846341 0.362913
0.265718 0.849938 0.365311
0.373997 0.853801 0.367886
0.487404 0.857846 0.370583
0.604784 0.862033 0.373374
0.725429 0.866337 0.376243
0.848861 0.870739 0.379179
0.974728 0.875229 0.382172
0.096823 0.979521 0.370981
0.180983 0.982523 0.372982
0.281829 0.986120 0.375381
0.390108 0.989983 0.377955
0.503515 0.994028 0.380652
0.620894 0.998215 0.383444
0.741540 1.000000 0.386313
0.864971 1.000000 0.389248
0.990839 1.000000 0.392241
0.000000 0.013553 0.404495
0.067950 0.016555 0.406496
0.168796 0.020152 0.408894
0.277075 0.024014 0.411469
0.390482 0.028060 0.414166
0.507861 0.032247 0.416957
0.628507 0.036550 0.419826
0.751938 0.040953 0.422761
0.877806 0.045443 0.425755
0.000000 0.104610 0.411227
0.078722 0.107612 0.413229
0.179568 0.111209 0.415627
0.287847 0.115071 0.418202
0.401254 0.119117 0.420898
0.518634 0.123304 0.423690
0.639279 0.127607 0.426559
0.762711 0.132010 0.429494
0.888578 0.136500 0.432487
0.007470 0.213720 0.419295
0.091630 0.216722 0.421296
0.192476 0.220319 0.423694
0.300755 0.224182 0.426269
0.414162 0.228227 0.428966
0.531542 0.232414 0.431757
0.652188 0.236718 0.434626
0.775619 0.241120 0.437562
0.901486 0.245610 0.440555
0.021329 0.330872 0.427957
0.105490 0.333874 0.429958
0.206336 0.337472 0.432356
0.314615 0.341334 0.434931
0.428022 0.345379 0.437628
0.545401 0.349566 0.440420
0.666047 0.353870 0.443289
0.789478 0.358273 0.446224
0.915345 0.362762 0.449217
0.035845 0.453573 0.437029
0.120006 0.456575 0.439031
0.220852 0.460172 0.441429
0.329130 0.464035 0.444004
0.442537 0.468080 0.446701
0.559917 0.472267 0.449492
0.680563 0.476570 0.452361
0.803994 0.480973 0.455296
0.929861 0.485463 0.458289
0.050870 0.580572 0.446420
0.135030 0.583574 0.448421
0.235876 0.587171 0.450819
0.344155 0.591034 0.453394
0.457562 0.595079 0.456091
0.574941 0.599266 0.458882
0.695587 0.603569 0.461751
0.819018 0.607972 0.464686
0.944886 0.612462 0.467680
0.066312 0.711104 0.456071
0.150472 0.714107 0.458072
0.251318 0.717704 0.460471
0.359597 0.721566 0.463045
0.473004 0.725611 0.465742
0.590384 0.729798 0.468534
0.711030 0.734102 0.471403
0.834461 0.738505 0.474338
0.960328 0.742994 0.477331
0.082111 0.844651 0.465945
0.166271 0.847653 0.467947
0.267117 0.851250 0.470345
0.375396 0.855113 0.472920
0.488803 0.859158 0.475617
0.606183 0.863345 0.478408
0.726828 0.867648 0.481277
0.850260 0.872051 0.484212
0.976127 0.876541 0.487205
0.098222 0.980833 0.476015
0.182382 0.983835 0.478016
0.283228 0.987432 0.480414
0.391507 0.991294 0.482989
0.504914 0.995340 0.485686
0.622293 0.999527 0.488477
0.742939 1.000000 0.491346
0.866370 1.000000 0.494281
0.992238 1.000000 0.497275
0.000000 0.014927 0.514502
0.069415 0.017929 0.516504
0.170261 0.021526 0.518902
0.278540 0.025388 0.521477
0.391947 0.029434 0.524174
0.509327 0.033621 0.526965
0.629973 0.037924 0.529834
0.753404 0.042327 0.532769
0.879271 0.046817 0.535762
0.000000 0.105984 0.521235
0.080188 0.108986 0.523237
0.181034 0.112583 0.525635
0.289312 0.116445 0.528210
0.402719 0.120491 0.530906
0.520099 0.124678 0.533698
0.640745 0.128981 0.536567
0.764176 0.133384 0.539502
0.890043 0.137874 0.542495
0.008935 0.215094 0.529303
0.093096 0.218096 0.531304
0.193942 0.221693 0.533702
0.302220 0.225556 0.536277
0.415628 0.229601 0.538974
0.533007 0.233788 0.541765
0.653653 0.238091 0.544634
0.777084 0.242494 0.547570
0.902951 0.246984 0.550563
0.022795 0.332246 0.537965
0.106955 0.335248 0.539966
0.207801 0.338845 0.542364
0.316080 0.342708 0.544939
0.429487 0.346753 0.547636
0.546867 0.350940 0.550427
0.667512 0.355244 0.553296
0.790944 0.359646 0.556232
0.916811 0.364136 0.559225
0.037311 0.454947 0.547037
0.121471 0.457949 0.549039
0.222317 0.461546 0.551437
0.330596 0.465408 0.554012
0.444003 0.469454 0.556709
0.561382 0.473641 0.559500
0.682028 0.477944 0.562369
0.805460 0.482347 0.565304
0.931327 0.486837 0.568297
0.052335 0.581946 0.556427
0.136495 0.584948 0.558429
0.237341 0.588545 0.560827
0.345620 0.592407 0.563402
0.459027 0.596453 0.566099
0.576407 0.600640 0.568890
0.697053 0.604943 0.571759
0.820484 0.609346 0.574694
0.946351 0.613836 0.577687
0.067777 0.712478 0.566079
0.151938 0.715480 0.568080
0.252784 0.719078 0.570478
0.361062 0.722940 0.573053
0.474470 0.726985 0.575750
0.591849 0.731172 0.578542
0.712495 0.735476 0.581411
0.835926 0.739879 0.584346
0.961793 0.744368 0.587339
0.083576 0.846025 0.575953
0.167737 0.849027 0.577955
0.268583 0.852624 0.580353
0.376861 0.856486 0.582928
0.490268 0.860532 0.585625
0.607648 0.864719 0.588416
0.728294 0.869022 0.591285
0.851725 0.873425 0.594220
0.977592 0.877915 0.597213
0.099687 0.982207 0.586022
0.183847 0.985209 0.588024
0.284693 0.988806 0.590422
0.392972 0.992668 0.592997
0.506379 0.996714 0.595694
0.623759 1.000000 0.598485
0.744405 1.000000 0.601354
0.867836 1.000000 0.604289
0.993703 1.000000 0.607282
0.000000 0.016349 0.628364
0.070932 0.019351 0.630365
0.171778 0.022948 0.632763
0.280057 0.026810 0.635338
0.393464 0.030855 0.638035
0.510844 0.035042 0.640827
0.631489 0.039346 0.643696
0.754921 0.043749 0.646631
0.880788 0.048239 0.649624
0.000000 0.107406 0.635097
0.081704 0.110408 0.637098
0.182550 0.114005 0.639496
0.290829 0.117867 0.642071
0.404236 0.121913 0.644768
0.521616 0.126099 0.647559
0.642262 0.130403 0.650428
0.765693 0.134806 0.653363
0.891560 0.139296 0.656357
0.010452 0.216516 0.643164
0.094612 0.219518 0.645166
0.195458 0.223115 0.647564
0.303737 0.226977 0.650139
0.417144 0.231023 0.652835
0.534524 0.235210 0.655627
0.655170 0.239513 0.658496
0.778601 0.243916 0.661431
0.904468 0.248406 0.664424
0.024312 0.333668 0.651826
0.108472 0.336670 0.653828
0.209318 0.340267 0.656226
0.317597 0.344130 0.658801
0.431004 0.348175 0.661498
0.548383 0.352362 0.664289
0.669029 0.356665 0.667158
0.792460 0.361068 0.670093
0.918328 0.365558 0.673086
0.038827 0.456369 0.660899
0.122988 0.459371 0.662900
0.223834 0.462968 0.665298
0.332112 0.466830 0.667873
0.445520 0.470876 0.670570
0.562899 0.475063 0.673361
0.683545 0.479366 0.676230
0.806976 0.483769 0.679166
0.932843 0.488259 0.682159
0.053852 0.583368 0.670289
0.138012 0.586370 0.672290
0.238858 0.589967 0.674688
0.347137 0.593829 0.677263
0.460544 0.597875 0.679960
0.577924 0.602062 0.682752
0.698569 0.606365 0.685621
0.822001 0.610768 0.688556
0.947868 0.615258 0.691549
0.069294 0.713900 0.679940
0.153454 0.716902 0.681942
0.254300 0.720499 0.684340
0.362579 0.724362 0.686915
0.475986 0.728407 0.689612
0.593366 0.732594 0.692403
0.714012 0.736898 0.695272
0.837443 0.741300 0.698207
0.963310 0.745790 0.701200
0.085093 0.847447 0.689815
0.169253 0.850449 0.691816
0.270099 0.854046 0.694214
0.378378 0.857908 0.696789
0.491785 0.861954 0.699486
0.609165 0.866141 0.702277
0.729811 0.870444 0.705146
0.853242 0.874847 0.708082
0.979109 0.879337 0.711075
0.101204 0.983629 0.699884
0.185364 0.986631 0.701885
0.286210 0.990228 0.704283
0.394489 0.994090 0.706858
0.507896 0.998135 0.709555
0.625276 1.000000 0.712347
0.745921 1.000000 0.715216
0.869353 1.000000 0.718151
0.995220 1.000000 0.721144
0.000000 0.017810 0.745394
0.072491 0.020812 0.747395
0.173337 0.024409 0.749793
0.281616 0.028272 0.752368
0.395023 0.032317 0.755065
0.512402 0.036504 0.757856
0.633048 0.040807 0.760725
0.756479 0.045210 0.763660
0.882347 0.049700 0.766654
0.000000 0.108867 0.752126
0.083263 0.111869 0.754128
0.184109 0.115466 0.756526
0.292388 0.119329 0.759101
0.405795 0.123374 0.761798
0.523175 0.127561 0.764589
0.643821 0.131864 0.767458
0.767252 0.136267 0.770393
0.893119 0.140757 0.773386
0.012011 0.217977 0.760194
0.096171 0.220979 0.762195
0.197017 0.224577 0.764593
0.305296 0.228439 0.767168
0.418703 0.232484 0.769865
0.536083 0.236671 0.772656
0.656729 0.240975 0.775525
0.780160 0.245378 0.778461
0.906027 0.249867 0.781454
0.025871 0.335130 0.768856
0.110031 0.338132 0.770857
0.210877 0.341729 0.773256
0.319156 0.345591 0.775830
0.432563 0.349636 0.778527
0.549942 0.353823 0.781319
0.670588 0.358127 0.784188
0.794019 0.362530 0.787123
0.919887 0.367020 0.790116
0.040386 0.457830 0.777928
0.124547 0.460832 0.779930
0.225393 0.464430 0.782328
0.333671 0.468292 0.784903
0.447078 0.472337 0.787600
0.564458 0.476524 0.790391
0.685104 0.480828 0.793260
0.808535 0.485231 0.796195
0.934402 0.489720 0.799188
0.055411 0.584829 0.787319
0.139571 0.587831 0.789320
0.240417 0.591428 0.791718
0.348696 0.595291 0.794293
0.462103 0.599336 0.796990
0.579482 0.603523 0.799781
0.700128 0.607827 0.802650
0.823559 0.612229 0.805585
0.949427 0.616719 0.808579
0.070853 0.715362 0.796970
0.155013 0.718364 0.798971
0.255859 0.721961 0.801370
0.364138 0.725823 0.803945
0.477545 0.729869 0.806641
0.594925 0.734056 0.809433
0.715571 0.738359 0.812302
0.839002 0.742762 0.815237
0.964869 0.747252 0.818230
0.086652 0.848908 0.806844
0.170812 0.851910 0.808846
0.271658 0.855507 0.811244
0.379937 0.859370 0.813819
0.493344 0.863415 0.816516
0.610724 0.867602 0.819307
0.731369 0.871905 0.822176
0.854801 0.876308 0.825111
0.980668 0.880798 0.828104
0.102763 0.985090 0.816914
0.186923 0.988092 0.818915
0.287769 0.991689 0.821313
0.396048 0.995552 0.823888
0.509455 0.999597 0.826585
0.626834 1.000000 0.829376
0.747480 1.000000 0.832245
0.870911 1.000000 0.835180
0.996779 1.000000 0.838174
0.000000 0.019305 0.865125
0.074086 0.022307 0.867127
0.174932 0.025905 0.869525
0.283211 0.029767 0.872100
0.396618 0.033812 0.874797
0.513997 0.037999 0.877588
0.634643 0.042303 0.880457
0.758074 0.046706 0.883392
0.883942 0.051195 0.886385
0.000698 0.110362 0.871858
0.084858 0.113364 0.873859
0.185704 0.116962 0.876258
0.293983 0.120824 0.878832
0.407390 0.124869 0.881529
0.524770 0.129056 0.884321
0.645415 0.133360 0.887190
0.768847 0.137763 0.890125
0.894714 0.142252 0.893118
0.013606 0.219473 0.879926
0.097766 0.222475 0.881927
0.198612 0.226072 0.884325
0.306891 0.229934 0.886900
0.420298 0.233979 0.889597
0.537678 0.238166 0.892388
0.658323 0.242470 0.895257
0.781755 0.246873 0.898192
0.907622 0.251363 0.901186
0.027465 0.336625 0.888588
0.111626 0.339627 0.890589
0.212472 0.343224 0.892987
0.320750 0.347086 0.895562
0.434158 0.351132 0.898259
0.551537 0.355319 0.901050
0.672183 0.359622 0.903919
0.795614 0.364025 0.906855
0.921481 0.368515 0.909848
0.041981 0.459326 0.897660
0.126141 0.462328 0.899662
0.226987 0.465925 0.902060
0.335266 0.469787 0.904635
0.448673 0.473832 0.907331
0.566053 0.478019 0.910123
0.686699 0.482323 0.912992
0.810130 0.486726 0.915927
0.935997 0.491216 0.918920
0.057006 0.586324 0.907050
0.141166 0.589326 0.909052
0.242012 0.592924 0.911450
0.350291 0.596786 0.914025
0.463698 0.600831 0.916722
0.581077 0.605018 0.919513
0.701723 0.609322 0.922382
0.825154 0.613725 0.925317
0.951022 0.618214 0.928310
0.072448 0.716857 0.916702
0.156608 0.719859 0.918703
0.257454 0.723456 0.921101
0.365733 0.727319 0.923676
0.479140 0.731364 0.926373
0.596520 0.735551 0.929164
0.717165 0.739854 0.932033
0.840597 0.744257 0.934969
0.966464 0.748747 0.937962
0.088247 0.850403 0.926576
0.172407 0.853405 0.928578
0.273253 0.857003 0.930976
0.381532 0.860865 0.933551
0.494939 0.864910 0.936247
0.612319 0.869097 0.939039
0.732964 0.873401 0.941908
0.856396 0.877804 0.944843
0.982263 0.882293 0.947836
0.104358 0.986585 0.936645
0.188518 0.989587 0.938647
0.289364 0.993185 0.941045
0.397643 0.997047 0.943620
0.511050 1.000000 0.946317
0.628429 1.000000 0.949108
0.749075 1.000000 0.951977
0.872506 1.000000 0.954912
0.998374 1.000000 0.957905
0.000000 0.020830 0.987220
0.075712 0.023832 0.989221
0.176558 0.027429 0.991620
0.284837 0.031292 0.994194
0.398244 0.035337 0.996891
0.515624 0.039524 0.999683
0.636269 0.043827 1.000000
0.759701 0.048230 1.000000
0.885568 0.052720 1.000000
0.002324 0.111887 0.993953
0.086484 0.114889 0.995954
0.187330 0.118486 0.998352
0.295609 0.122349 1.000000
0.409016 0.126394 1.000000
0.526396 0.130581 1.000000
0.647042 0.134884 1.000000
0.770473 0.139287 1.000000
0.896340 0.143777 1.000000
0.015232 0.220997 1.000000
0.099393 0.223999 1.000000
0.200239 0.227597 1.000000
0.308517 0.231459 1.000000
0.421924 0.235504 1.000000
0.539304 0.239691 1.000000
0.659950 0.243995 1.000000
0.783381 0.248398 1.000000
0.909248 0.252887 1.000000
0.029092 0.338150 1.000000
0.113252 0.341152 1.000000
0.214098 0.344749 1.000000
0.322377 0.348611 1.000000
0.435784 0.352656 1.000000
0.553164 0.356843 1.000000
0.673809 0.361147 1.000000
0.797241 0.365550 1.000000
0.923108 0.370040 1.000000
0.043608 0.460850 1.000000
0.127768 0.463852 1.000000
0.228614 0.467450 1.000000
0.336893 0.471312 1.000000
0.450300 0.475357 1.000000
0.567679 0.479544 1.000000
0.688325 0.483848 1.000000
0.811756 0.488251 1.000000
0.937624 0.492740 1.000000
0.058632 0.587849 1.000000
0.142792 0.590851 1.000000
0.243638 0.594448 1.000000
0.351917 0.598311 1.000000
0.465324 0.602356 1.000000
0.582704 0.606543 1.000000
0.703349 0.610846 1.000000
0.826781 0.615249 1.000000
0.952648 0.619739 1.000000
0.074074 0.718382 1.000000
0.158235 0.721384 1.000000
0.259081 0.724981 1.000000
0.367359 0.728843 1.000000
0.480766 0.732889 1.000000
0.598146 0.737076 1.000000
0.718792 0.741379 1.000000
0.842223 0.745782 1.000000
0.968090 0.750272 1.000000
0.089873 0.851928 1.000000
0.174033 0.854930 1.000000
0.274879 0.858527 1.000000
0.383158 0.862390 1.000000
0.496565 0.866435 1.000000
0.613945 0.870622 1.000000
0.734591 0.874925 1.000000
0.858022 0.879328 1.000000
0.983889 0.883818 1.000000
0.105984 0.988110 1.000000
0.190144 0.991112 1.000000
0.290990 0.994709 1.000000
0.399269 0.998572 1.000000
0.512676 1.000000 1.000000
0.630056 1.000000 1.000000
0.750701 1.000000 1.000000
0.874133 1.000000 1.000000
1.000000 1.000000 1.000000
