assets/luts/neon.cube
# Neon — Studio filter "neon"
# Generated by scripts/generate-filter-luts.mjs — do not edit by hand.
LUT_3D_SIZE 17
DOMAIN_MIN 0.0 0.0 0.0
DOMAIN_MAX 1.0 1.0 1.0
0.015238 0.000000 0.081126
0.110083 0.000000 0.074334
0.204927 0.000000 0.067542
0.299772 0.000000 0.060750
0.394617 0.000000 0.053958
0.489462 0.000000 0.047166
0.584307 0.000000 0.040374
0.679152 0.000000 0.033582
0.773996 0.000000 0.026790
0.868841 0.000000 0.019998
0.963686 0.000000 0.013206
1.000000 0.000000 0.006414
1.000000 0.000000 0.000000
1.000000 0.000000 0.000000
1.000000 0.000000 0.000000
1.000000 0.000000 0.000000
1.000000 0.000000 0.000000
0.009749 0.000000 0.080055
0.104594 0.000000 0.073263
0.199439 0.000000 0.066471
0.294284 0.000000 0.059679
0.389129 0.000000 0.052887
0.483973 0.000000 0.046095
0.578818 0.000000 0.039303
0.673663 0.000000 0.032511
0.768508 0.000000 0.025719
0.863353 0.000000 0.018927
0.958197 0.000000 0.012136
1.000000 0.000000 0.005344
1.000000 0.000000 0.000000
1.000000 0.000000 0.000000
1.000000 0.000000 0.000000
1.000000 0.000000 0.000000
1.000000 0.000000 0.000000
0.000000 0.039806 0.067732
0.087529 0.034659 0.060616
0.182050 0.029513 0.053500
0.276571 0.024367 0.046384
0.371091 0.019221 0.039268
0.465612 0.014075 0.032152
0.560133 0.008928 0.025036
0.654654 0.003782 0.017920
0.749174 0.000000 0.010804
0.843695 0.000000 0.003688
0.938216 0.000000 0.000000
1.000000 0.000000 0.000000
1.000000 0.000000 0.000000
1.000000 0.000000 0.000000
1.000000 0.000000 0.000000
1.000000 0.000000 0.000000
1.000000 0.000000 0.000000
0.000000 0.125443 0.043793
0.059173 0.120297 0.036677
0.153693 0.115151 0.029561
0.248214 0.110005 0.022445
0.342735 0.104859 0.015329
0.437256 0.099712 0.008213
0.531776 0.094566 0.001097
0.626297 0.089420 0.000000
0.720818 0.084274 0.000000
0.815338 0.079127 0.000000
0.909859 0.073981 0.000000
1.000000 0.068835 0.000000
1.000000 0.063689 0.000000
1.000000 0.058543 0.000000
1.000000 0.053396 0.000000
1.000000 0.054443 0.000000
1.000000 0.055661 0.000000
0.000000 0.210743 0.019516
0.030816 0.205935 0.012738
0.125337 0.200789 0.005622
0.219857 0.195643 0.000000
0.314378 0.190496 0.000000
0.408899 0.185350 0.000000
0.503420 0.180204 0.000000
0.597940 0.175058 0.000000
0.692461 0.169911 0.000000
0.786982 0.164765 0.000000
0.881502 0.159619 0.000000
0.976023 0.154473 0.000000
1.000000 0.149327 0.000000
1.000000 0.144180 0.000000
1.000000 0.139034 0.000000
1.000000 0.139711 0.000000
1.000000 0.140928 0.000000
0.000000 0.296010 0.000000
0.002459 0.291573 0.000000
0.096980 0.286427 0.000000
0.191501 0.281280 0.000000
0.286021 0.276134 0.000000
0.380542 0.270988 0.000000
0.475063 0.265842 0.000000
0.569584 0.260696 0.000000
0.664104 0.255549 0.000000
0.758625 0.250403 0.000000
0.853146 0.245257 0.000000
0.947666 0.240111 0.000000
1.000000 0.234964 0.000000
1.000000 0.229818 0.000000
1.000000 0.224672 0.000000
1.000000 0.224978 0.000000
1.000000 0.226196 0.000000
0.000000 0.381277 0.000000
0.000000 0.377211 0.000000
0.068623 0.372064 0.000000
0.163144 0.366918 0.000000
0.257665 0.361772 0.000000
0.352186 0.356626 0.000000
0.446706 0.351480 0.000000
0.541227 0.346333 0.000000
0.635748 0.341187 0.000000
0.730268 0.336041 0.000000
0.824789 0.330895 0.000000
0.919310 0.325748 0.000000
1.000000 0.320602 0.000000
1.000000 0.315456 0.000000
1.000000 0.310310 0.000000
1.000000 0.310246 0.000000
1.000000 0.311463 0.000000
0.000000 0.466545 0.000000
0.000000 0.462848 0.000000
0.040267 0.457702 0.000000
0.134787 0.452556 0.000000
0.229308 0.447410 0.000000
0.323829 0.442264 0.000000
0.418350 0.437117 0.000000
0.512870 0.431971 0.000000
0.607391 0.426825 0.000000
0.701912 0.421679 0.000000
0.796432 0.416532 0.000000
0.890953 0.411386 0.000000
0.985474 0.406240 0.000000
1.000000 0.401094 0.000000
1.000000 0.395948 0.000000
1.000000 0.395513 0.000000
1.000000 0.396730 0.000000
0.000000 0.551812 0.000000
0.000000 0.548486 0.000000
0.011910 0.543340 0.000000
0.106431 0.538194 0.000000
0.200951 0.533048 0.000000
0.295472 0.527901 0.000000
0.389993 0.522755 0.000000
0.484514 0.517609 0.000000
0.579034 0.512463 0.000000
0.673555 0.507317 0.000000
0.768076 0.502170 0.000000
0.862596 0.497024 0.000000
0.957117 0.491878 0.000000
1.000000 0.486732 0.000000
1.000000 0.481585 0.000000
1.000000 0.480780 0.000000
1.000000 0.481998 0.000000
0.000000 0.637080 0.000000
0.000000 0.634124 0.000000
0.000000 0.628978 0.000000
0.078074 0.623832 0.000000
0.172595 0.618685 0.000000
0.267116 0.613539 0.000000
0.361636 0.608393 0.000000
0.456157 0.603247 0.000000
0.550678 0.598101 0.000000
0.645198 0.592954 0.000000
0.739719 0.587808 0.000000
0.834240 0.582662 0.000000
0.928760 0.577516 0.000000
1.000000 0.572369 0.000000
1.000000 0.567223 0.000000
1.000000 0.566048 0.000000
1.000000 0.567265 0.000000
0.000000 0.722347 0.000000
0.000000 0.719762 0.000000
0.000000 0.714616 0.000000
0.049717 0.709469 0.000000
0.144238 0.704323 0.000000
0.238759 0.699177 0.000000
0.333280 0.694031 0.000000
0.427800 0.688885 0.000000
0.522321 0.683738 0.000000
0.616842 0.678592 0.000000
0.711362 0.673446 0.000000
0.805883 0.668300 0.000000
0.900404 0.663153 0.000000
0.994925 0.658007 0.000000
1.000000 0.652861 0.000000
1.000000 0.651315 0.000000
1.000000 0.652533 0.000000
0.000000 0.807614 0.000000
0.000000 0.805400 0.000000
0.000000 0.800253 0.000000
0.021361 0.795107 0.000000
0.115881 0.789961 0.000000
0.210402 0.784815 0.000000
0.304923 0.779669 0.000000
0.399444 0.774522 0.000000
0.493964 0.769376 0.000000
0.588485 0.764230 0.000000
0.683006 0.759084 0.000000
0.777526 0.753937 0.000000
0.872047 0.748791 0.000000
0.966568 0.743645 0.000000
1.000000 0.738499 0.000000
1.000000 0.736583 0.000000
1.000000 0.737800 0.000000
0.000000 0.892882 0.000000
0.000000 0.891037 0.000000
0.000000 0.885891 0.000000
0.000000 0.880745 0.000000
0.087525 0.875599 0.000000
0.182045 0.870453 0.000000
0.276566 0.865306 0.000000
0.371087 0.860160 0.000000
0.465608 0.855014 0.000000
0.560128 0.849868 0.000000
0.654649 0.844722 0.000000
0.749170 0.839575 0.000000
0.843690 0.834429 0.000000
0.938211 0.829283 0.000000
1.000000 0.824137 0.000000
1.000000 0.821850 0.000000
1.000000 0.823067 0.000000
0.000000 0.978149 0.000000
0.000000 0.976675 0.000000
0.000000 0.971529 0.000000
0.000000 0.966383 0.000000
0.059168 0.961237 0.000000
0.153689 0.956090 0.000000
0.248210 0.950944 0.000000
0.342730 0.945798 0.000000
0.437251 0.940652 0.000000
0.531772 0.935506 0.000000
0.626292 0.930359 0.000000
0.720813 0.925213 0.000000
0.815334 0.920067 0.000000
0.909855 0.914921 0.000000
1.000000 0.909774 0.000000
1.000000 0.907118 0.000000
1.000000 0.908335 0.000000
0.000000 1.000000 0.000000
0.000000 1.000000 0.000000
0.000000 1.000000 0.000000
0.000000 1.000000 0.000000
0.030811 1.000000 0.000000
0.125332 1.000000 0.000000
0.219853 1.000000 0.000000
0.314374 1.000000 0.000000
0.408894 1.000000 0.000000
0.503415 1.000000 0.000000
0.597936 1.000000 0.000000
0.692456 1.000000 0.000000
0.786977 1.000000 0.000000
0.881498 1.000000 0.000000
0.976019 0.995412 0.000000
1.000000 0.992385 0.000000
1.000000 0.993602 0.000000
0.000000 1.000000 0.000000
0.000000 1.000000 0.000000
0.000000 1.000000 0.000000
0.000000 1.000000 0.000000
0.011905 1.000000 0.000000
0.106750 1.000000 0.000000
0.201595 1.000000 0.000000
0.296439 1.000000 0.000000
0.391284 1.000000 0.000000
0.486129 1.000000 0.000000
0.580974 1.000000 0.000000
0.675819 1.000000 0.000000
0.770663 1.000000 0.000000
0.865508 1.000000 0.000000
0.960353 1.000000 0.000000
1.000000 1.000000 0.000000
1.000000 1.000000 0.000000
0.000000 1.000000 0.000000
0.000000 1.000000 0.000000
0.000000 1.000000 0.000000
0.000000 1.000000 0.000000
0.006416 1.000000 0.000000
0.101261 1.000000 0.000000
0.196106 1.000000 0.000000
0.290951 1.000000 0.000000
0.385796 1.000000 0.000000
0.480640 1.000000 0.000000
0.575485 1.000000 0.000000
0.670330 1.000000 0.000000
0.765175 1.000000 0.000000
0.860020 1.000000 0.000000
0.954865 1.000000 0.000000
1.000000 1.000000 0.000000
1.000000 1.000000 0.000000
0.012485 0.000000 0.181769
0.107330 0.000000 0.174977
0.202175 0.000000 0.168185
0.297020 0.000000 0.161393
0.391865 0.000000 0.154601
0.486709 0.000000 0.147809
0.581554 0.000000 0.141018
0.676399 0.000000 0.134226
0.771244 0.000000 0.127434
0.866089 0.000000 0.120642
0.960933 0.000000 0.113850
1.000000 0.000000 0.107058
1.000000 0.000000 0.100266
1.000000 0.000000 0.093474
1.000000 0.000000 0.087585
1.000000 0.000000 0.087157
1.000000 0.000000 0.086729
0.006997 0.000000 0.180699
0.101842 0.000000 0.173907
0.196686 0.000000 0.167115
0.291531 0.000000 0.160323
0.386376 0.000000 0.153531
0.481221 0.000000 0.146739
0.576066 0.000000 0.139947
0.670910 0.000000 0.133155
0.765755 0.000000 0.126363
0.860600 0.000000 0.119571
0.955445 0.000000 0.112779
1.000000 0.000000 0.105987
1.000000 0.000000 0.099195
1.000000 0.000000 0.092403
1.000000 0.000000 0.086144
1.000000 0.000000 0.085716
1.000000 0.000000 0.085287
0.000000 0.038058 0.168266
0.084667 0.032912 0.161150
0.179187 0.027765 0.154033
0.273708 0.022619 0.146917
0.368229 0.017473 0.139801
0.462750 0.012327 0.132685
0.557270 0.007181 0.125569
0.651791 0.002034 0.118453
0.746312 0.000000 0.111337
0.840832 0.000000 0.104221
0.935353 0.000000 0.097105
1.000000 0.000000 0.089989
1.000000 0.000000 0.082873
1.000000 0.000000 0.075757
1.000000 0.000000 0.068803
1.000000 0.000000 0.068051
1.000000 0.000000 0.067298
0.000000 0.123690 0.144321
0.056310 0.118549 0.137211
0.150831 0.113403 0.130095
0.245351 0.108257 0.122979
0.339872 0.103111 0.115862
0.434393 0.097965 0.108746
0.528914 0.092818 0.101630
0.623434 0.087672 0.094514
0.717955 0.082526 0.087398
0.812476 0.077380 0.080282
0.906996 0.072234 0.073166
1.000000 0.067087 0.066050
1.000000 0.061941 0.058934
1.000000 0.056795 0.051818
1.000000 0.051649 0.044702
1.000000 0.052658 0.043742
1.000000 0.053876 0.042989
0.000000 0.208957 0.120012
0.027953 0.204187 0.113272
0.122474 0.199041 0.106156
0.216995 0.193895 0.099040
0.311516 0.188749 0.091924
0.406036 0.183602 0.084808
0.500557 0.178456 0.077691
0.595078 0.173310 0.070575
0.689598 0.168164 0.063459
0.784119 0.163018 0.056343
0.878640 0.157871 0.049227
0.973160 0.152725 0.042111
1.000000 0.147579 0.034995
1.000000 0.142433 0.027879
1.000000 0.137287 0.020763
1.000000 0.137926 0.019432
1.000000 0.139143 0.018680
0.000000 0.294225 0.095702
0.000000 0.289825 0.089333
0.094117 0.284679 0.082217
0.188638 0.279533 0.075101
0.283159 0.274386 0.067985
0.377680 0.269240 0.060869
0.472200 0.264094 0.053753
0.566721 0.258948 0.046637
0.661242 0.253802 0.039520
0.755762 0.248655 0.032404
0.850283 0.243509 0.025288
0.944804 0.238363 0.018172
1.000000 0.233217 0.011056
1.000000 0.228071 0.003940
1.000000 0.222924 0.000000
1.000000 0.223193 0.000000
1.000000 0.224411 0.000000
0.000000 0.379492 0.071393
0.000000 0.375463 0.065394
0.065761 0.370317 0.058278
0.160281 0.365170 0.051162
0.254802 0.360024 0.044046
0.349323 0.354878 0.036930
0.443844 0.349732 0.029814
0.538364 0.344586 0.022698
0.632885 0.339439 0.015582
0.727406 0.334293 0.008466
0.821926 0.329147 0.001349
0.916447 0.324001 0.000000
1.000000 0.318855 0.000000
1.000000 0.313708 0.000000
1.000000 0.308562 0.000000
1.000000 0.308461 0.000000
1.000000 0.309678 0.000000
0.000000 0.464760 0.047084
0.000000 0.461101 0.041455
0.037404 0.455955 0.034339
0.131925 0.450808 0.027223
0.226446 0.445662 0.020107
0.320966 0.440516 0.012991
0.415487 0.435370 0.005875
0.510008 0.430223 0.000000
0.604528 0.425077 0.000000
0.699049 0.419931 0.000000
0.793570 0.414785 0.000000
0.888090 0.409639 0.000000
0.982611 0.404492 0.000000
1.000000 0.399346 0.000000
1.000000 0.394200 0.000000
1.000000 0.393728 0.000000
1.000000 0.394945 0.000000
0.000000 0.550027 0.022775
0.000000 0.546739 0.017516
0.009047 0.541592 0.010400
0.103568 0.536446 0.003284
0.198089 0.531300 0.000000
0.292610 0.526154 0.000000
0.387130 0.521007 0.000000
0.481651 0.515861 0.000000
0.576172 0.510715 0.000000
0.670692 0.505569 0.000000
0.765213 0.500423 0.000000
0.859734 0.495276 0.000000
0.954255 0.490130 0.000000
1.000000 0.484984 0.000000
1.000000 0.479838 0.000000
1.000000 0.478995 0.000000
1.000000 0.480213 0.000000
0.000000 0.635295 0.000000
0.000000 0.632376 0.000000
0.000000 0.627230 0.000000
0.075211 0.622084 0.000000
0.169732 0.616938 0.000000
0.264253 0.611791 0.000000
0.358774 0.606645 0.000000
0.453294 0.601499 0.000000
0.547815 0.596353 0.000000
0.642336 0.591207 0.000000
0.736856 0.586060 0.000000
0.831377 0.580914 0.000000
0.925898 0.575768 0.000000
1.000000 0.570622 0.000000
1.000000 0.565476 0.000000
1.000000 0.564263 0.000000
1.000000 0.565480 0.000000
0.000000 0.720562 0.000000
0.000000 0.718014 0.000000
0.000000 0.712868 0.000000
0.046855 0.707722 0.000000
0.141375 0.702576 0.000000
0.235896 0.697429 0.000000
0.330417 0.692283 0.000000
0.424938 0.687137 0.000000
0.519458 0.681991 0.000000
0.613979 0.676844 0.000000
0.708500 0.671698 0.000000
0.803020 0.666552 0.000000
0.897541 0.661406 0.000000
0.992062 0.656260 0.000000
1.000000 0.651113 0.000000
1.000000 0.649530 0.000000
1.000000 0.650748 0.000000
0.000000 0.805829 0.000000
0.000000 0.803652 0.000000
0.000000 0.798506 0.000000
0.018498 0.793360 0.000000
0.113019 0.788213 0.000000
0.207540 0.783067 0.000000
0.302060 0.777921 0.000000
0.396581 0.772775 0.000000
0.491102 0.767628 0.000000
0.585622 0.762482 0.000000
0.680143 0.757336 0.000000
0.774664 0.752190 0.000000
0.869185 0.747044 0.000000
0.963705 0.741897 0.000000
1.000000 0.736751 0.000000
1.000000 0.734798 0.000000
1.000000 0.736015 0.000000
0.000000 0.891097 0.000000
0.000000 0.889290 0.000000
0.000000 0.884144 0.000000
0.000000 0.878997 0.000000
0.084662 0.873851 0.000000
0.179183 0.868705 0.000000
0.273704 0.863559 0.000000
0.368224 0.858412 0.000000
0.462745 0.853266 0.000000
0.557266 0.848120 0.000000
0.651786 0.842974 0.000000
0.746307 0.837828 0.000000
0.840828 0.832681 0.000000
0.935349 0.827535 0.000000
1.000000 0.822389 0.000000
1.000000 0.820065 0.000000
1.000000 0.821282 0.000000
0.000000 0.976364 0.000000
0.000000 0.974928 0.000000
0.000000 0.969781 0.000000
0.000000 0.964635 0.000000
0.056305 0.959489 0.000000
0.150826 0.954343 0.000000
0.245347 0.949197 0.000000
0.339868 0.944050 0.000000
0.434388 0.938904 0.000000
0.528909 0.933758 0.000000
0.623430 0.928612 0.000000
0.717950 0.923465 0.000000
0.812471 0.918319 0.000000
0.906992 0.913173 0.000000
1.000000 0.908027 0.000000
1.000000 0.905332 0.000000
1.000000 0.906550 0.000000
0.000000 1.000000 0.000000
0.000000 1.000000 0.000000
0.000000 1.000000 0.000000
0.000000 1.000000 0.000000
0.027949 1.000000 0.000000
0.122470 1.000000 0.000000
0.216990 1.000000 0.000000
0.311511 1.000000 0.000000
0.406032 1.000000 0.000000
0.500552 1.000000 0.000000
0.595073 1.000000 0.000000
0.689594 1.000000 0.000000
0.784115 1.000000 0.000000
0.878635 0.998811 0.000000
0.973156 0.993665 0.000000
1.000000 0.990600 0.000000
1.000000 0.991817 0.000000
0.000000 1.000000 0.000000
0.000000 1.000000 0.000000
0.000000 1.000000 0.000000
0.000000 1.000000 0.000000
0.009152 1.000000 0.000000
0.103997 1.000000 0.000000
0.198842 1.000000 0.000000
0.293687 1.000000 0.000000
0.388532 1.000000 0.000000
0.483376 1.000000 0.000000
0.578221 1.000000 0.000000
0.673066 1.000000 0.000000
0.767911 1.000000 0.000000
0.862756 1.000000 0.000000
0.957601 1.000000 0.000000
1.000000 1.000000 0.000000
1.000000 1.000000 0.000000
0.000000 1.000000 0.000000
0.000000 1.000000 0.000000
0.000000 1.000000 0.000000
0.000000 1.000000 0.000000
0.003664 1.000000 0.000000
0.098509 1.000000 0.000000
0.193353 1.000000 0.000000
0.288198 1.000000 0.000000
0.383043 1.000000 0.000000
0.477888 1.000000 0.000000
0.572733 1.000000 0.000000
0.667578 1.000000 0.000000
0.762422 1.000000 0.000000
0.857267 1.000000 0.000000
0.952112 1.000000 0.000000
1.000000 1.000000 0.000000
1.000000 1.000000 0.000000
0.009733 0.000000 0.282413
0.104578 0.000000 0.275621
0.199422 0.000000 0.268829
0.294267 0.000000 0.262037
0.389112 0.000000 0.255245
0.483957 0.000000 0.248453
0.578802 0.000000 0.241661
0.673646 0.000000 0.234869
0.768491 0.000000 0.228077
0.863336 0.000000 0.221285
0.958181 0.000000 0.214493
1.000000 0.000000 0.207701
1.000000 0.000000 0.200909
1.000000 0.000000 0.194117
1.000000 0.000000 0.188191
1.000000 0.000000 0.187763
1.000000 0.000000 0.187335
0.004244 0.000000 0.281342
0.099089 0.000000 0.274550
0.193934 0.000000 0.267758
0.288779 0.000000 0.260966
0.383623 0.000000 0.254174
0.478468 0.000000 0.247382
0.573313 0.000000 0.240590
0.668158 0.000000 0.233798
0.763003 0.000000 0.227006
0.857847 0.000000 0.220214
0.952692 0.000000 0.213422
1.000000 0.000000 0.206630
1.000000 0.000000 0.199838
1.000000 0.000000 0.193046
1.000000 0.000000 0.186750
1.000000 0.000000 0.186322
1.000000 0.000000 0.185893
0.000000 0.036310 0.268799
0.081804 0.031164 0.261683
0.176325 0.026018 0.254567
0.270846 0.020872 0.247451
0.365366 0.015725 0.240335
0.459887 0.010579 0.233219
0.554408 0.005433 0.226103
0.648928 0.000287 0.218986
0.743449 0.000000 0.211870
0.837970 0.000000 0.204754
0.932490 0.000000 0.197638
1.000000 0.000000 0.190522
1.000000 0.000000 0.183406
1.000000 0.000000 0.176290
1.000000 0.000000 0.169299
1.000000 0.000000 0.168547
1.000000 0.000000 0.167794
0.000000 0.121905 0.244817
0.053447 0.116802 0.237744
0.147968 0.111656 0.230628
0.242489 0.106509 0.223512
0.337010 0.101363 0.216396
0.431530 0.096217 0.209280
0.526051 0.091071 0.202164
0.620572 0.085925 0.195048
0.715092 0.080778 0.187932
0.809613 0.075632 0.180816
0.904134 0.070486 0.173699
0.998655 0.065340 0.166583
1.000000 0.060193 0.159467
1.000000 0.055047 0.152351
1.000000 0.049901 0.145235
1.000000 0.050873 0.144238
1.000000 0.052091 0.143485
0.000000 0.207172 0.220508
0.025091 0.202440 0.213805
0.119611 0.197293 0.206689
0.214132 0.192147 0.199573
0.308653 0.187001 0.192457
0.403174 0.181855 0.185341
0.497694 0.176709 0.178225
0.592215 0.171562 0.171109
0.686736 0.166416 0.163993
0.781256 0.161270 0.156877
0.875777 0.156124 0.149761
0.970298 0.150977 0.142645
1.000000 0.145831 0.135528
1.000000 0.140685 0.128412
1.000000 0.135539 0.121296
1.000000 0.136141 0.119928
1.000000 0.137358 0.119176
0.000000 0.292440 0.196198
0.000000 0.288077 0.189866
0.091255 0.282931 0.182750
0.185775 0.277785 0.175634
0.280296 0.272639 0.168518
0.374817 0.267493 0.161402
0.469338 0.262346 0.154286
0.563858 0.257200 0.147170
0.658379 0.252054 0.140054
0.752900 0.246908 0.132938
0.847420 0.241762 0.125822
0.941941 0.236615 0.118706
1.000000 0.231469 0.111590
1.000000 0.226323 0.104474
1.000000 0.221177 0.097357
1.000000 0.221408 0.095619
1.000000 0.222625 0.094867
0.000000 0.377707 0.171889
0.000000 0.373715 0.165927
0.062898 0.368569 0.158811
0.157419 0.363423 0.151695
0.251940 0.358277 0.144579
0.346460 0.353130 0.137463
0.440981 0.347984 0.130347
0.535502 0.342838 0.123231
0.630022 0.337692 0.116115
0.724543 0.332546 0.108999
0.819064 0.327399 0.101883
0.913585 0.322253 0.094767
1.000000 0.317107 0.087651
1.000000 0.311961 0.080535
1.000000 0.306814 0.073419
1.000000 0.306676 0.071310
1.000000 0.307893 0.070557
0.000000 0.462975 0.147580
0.000000 0.459353 0.141988
0.034541 0.454207 0.134872
0.129062 0.449061 0.127756
0.223583 0.443914 0.120640
0.318104 0.438768 0.113524
0.412624 0.433622 0.106408
0.507145 0.428476 0.099292
0.601666 0.423330 0.092176
0.696186 0.418183 0.085060
0.790707 0.413037 0.077944
0.885228 0.407891 0.070828
0.979749 0.402745 0.063712
1.000000 0.397598 0.056596
1.000000 0.392452 0.049480
1.000000 0.391943 0.047000
1.000000 0.393160 0.046248
0.000000 0.548242 0.123271
0.000000 0.544991 0.118050
0.006185 0.539845 0.110934
0.100705 0.534698 0.103817
0.195226 0.529552 0.096701
0.289747 0.524406 0.089585
0.384268 0.519260 0.082469
0.478788 0.514114 0.075353
0.573309 0.508967 0.068237
0.667830 0.503821 0.061121
0.762350 0.498675 0.054005
0.856871 0.493529 0.046889
0.951392 0.488383 0.039773
1.000000 0.483236 0.032657
1.000000 0.478090 0.025541
1.000000 0.477210 0.022691
1.000000 0.478428 0.021939
0.000000 0.633509 0.098961
0.000000 0.630629 0.094111
0.000000 0.625482 0.086995
0.072349 0.620336 0.079879
0.166870 0.615190 0.072763
0.261390 0.610044 0.065646
0.355911 0.604898 0.058530
0.450432 0.599751 0.051414
0.544952 0.594605 0.044298
0.639473 0.589459 0.037182
0.733994 0.584313 0.030066
0.828515 0.579167 0.022950
0.923035 0.574020 0.015834
1.000000 0.568874 0.008718
1.000000 0.563728 0.001602
1.000000 0.562478 0.000000
1.000000 0.563695 0.000000
0.000000 0.718777 0.074652
0.000000 0.716266 0.070172
0.000000 0.711120 0.063056
0.043992 0.705974 0.055940
0.138513 0.700828 0.048824
0.233034 0.695682 0.041708
0.327554 0.690535 0.034592
0.422075 0.685389 0.027475
0.516596 0.680243 0.020359
0.611116 0.675097 0.013243
0.705637 0.669951 0.006127
0.800158 0.664804 0.000000
0.894679 0.659658 0.000000
0.989199 0.654512 0.000000
1.000000 0.649366 0.000000
1.000000 0.647745 0.000000
1.000000 0.648962 0.000000
0.000000 0.804044 0.050343
0.000000 0.801904 0.046233
0.000000 0.796758 0.039117
0.015635 0.791612 0.032001
0.110156 0.786466 0.024885
0.204677 0.781319 0.017769
0.299198 0.776173 0.010653
0.393718 0.771027 0.003537
0.488239 0.765881 0.000000
0.582760 0.760735 0.000000
0.677280 0.755588 0.000000
0.771801 0.750442 0.000000
0.866322 0.745296 0.000000
0.960843 0.740150 0.000000
1.000000 0.735003 0.000000
1.000000 0.733013 0.000000
1.000000 0.734230 0.000000
0.000000 0.889312 0.026034
0.000000 0.887542 0.022294
0.000000 0.882396 0.015178
0.000000 0.877250 0.008062
0.081800 0.872103 0.000946
0.176320 0.866957 0.000000
0.270841 0.861811 0.000000
0.365362 0.856665 0.000000
0.459882 0.851519 0.000000
0.554403 0.846372 0.000000
0.648924 0.841226 0.000000
0.743445 0.836080 0.000000
0.837965 0.830934 0.000000
0.932486 0.825788 0.000000
1.000000 0.820641 0.000000
1.000000 0.818280 0.000000
1.000000 0.819497 0.000000
0.000000 0.974579 0.001724
0.000000 0.973180 0.000000
0.000000 0.968034 0.000000
0.000000 0.962887 0.000000
0.053443 0.957741 0.000000
0.147964 0.952595 0.000000
0.242484 0.947449 0.000000
0.337005 0.942303 0.000000
0.431526 0.937156 0.000000
0.526046 0.932010 0.000000
0.620567 0.926864 0.000000
0.715088 0.921718 0.000000
0.809609 0.916572 0.000000
0.904129 0.911425 0.000000
0.998650 0.906279 0.000000
1.000000 0.903547 0.000000
1.000000 0.904765 0.000000
0.000000 1.000000 0.000000
0.000000 1.000000 0.000000
0.000000 1.000000 0.000000
0.000000 1.000000 0.000000
0.025086 1.000000 0.000000
0.119607 1.000000 0.000000
0.214128 1.000000 0.000000
0.308648 1.000000 0.000000
0.403169 1.000000 0.000000
0.497690 1.000000 0.000000
0.592210 1.000000 0.000000
0.686731 1.000000 0.000000
0.781252 1.000000 0.000000
0.875773 0.997063 0.000000
0.970293 0.991917 0.000000
1.000000 0.988815 0.000000
1.000000 0.990032 0.000000
0.000000 1.000000 0.000000
0.000000 1.000000 0.000000
0.000000 1.000000 0.000000
0.000000 1.000000 0.000000
0.006400 1.000000 0.000000
0.101245 1.000000 0.000000
0.196089 1.000000 0.000000
0.290934 1.000000 0.000000
0.385779 1.000000 0.000000
0.480624 1.000000 0.000000
0.575469 1.000000 0.000000
0.670314 1.000000 0.000000
0.765158 1.000000 0.000000
0.860003 1.000000 0.000000
0.954848 1.000000 0.000000
1.000000 1.000000 0.000000
1.000000 1.000000 0.000000
0.000000 1.000000 0.000000
0.000000 1.000000 0.000000
0.000000 1.000000 0.000000
0.000000 1.000000 0.000000
0.000911 1.000000 0.000000
0.095756 1.000000 0.000000
0.190601 1.000000 0.000000
0.285446 1.000000 0.000000
0.380291 1.000000 0.000000
0.475135 1.000000 0.000000
0.569980 1.000000 0.000000
0.664825 1.000000 0.000000
0.759670 1.000000 0.000000
0.854515 1.000000 0.000000
0.949359 1.000000 0.000000
1.000000 1.000000 0.000000
1.000000 1.000000 0.000000
0.006980 0.000000 0.383056
0.101825 0.000000 0.376264
0.196670 0.000000 0.369472
0.291515 0.000000 0.362680
0.386359 0.000000 0.355888
0.481204 0.000000 0.349096
0.576049 0.000000 0.342304
0.670894 0.000000 0.335512
0.765739 0.000000 0.328720
0.860583 0.000000 0.321928
0.955428 0.000000 0.315137
1.000000 0.000000 0.308345
1.000000 0.000000 0.301553
1.000000 0.000000 0.294761
1.000000 0.000000 0.288797
