assets/luts/neon.cube
# Neon — Studio filter "neon"
# Generated by scripts/generate-filter-luts.mjs — do not edit by hand.
LUT_3D_SIZE 9
DOMAIN_MIN 0.0 0.0 0.0
DOMAIN_MAX 1.0 1.0 1.0
0.015238 0.000000 0.081126
0.204927 0.000000 0.067542
0.394617 0.000000 0.053958
0.584307 0.000000 0.040374
0.773996 0.000000 0.026790
0.963686 0.000000 0.013206
1.000000 0.000000 0.000000
1.000000 0.000000 0.000000
1.000000 0.000000 0.000000
0.000000 0.039806 0.067732
0.182050 0.029513 0.053500
0.371091 0.019221 0.039268
0.560133 0.008928 0.025036
0.749174 0.000000 0.010804
0.938216 0.000000 0.000000
1.000000 0.000000 0.000000
1.000000 0.000000 0.000000
1.000000 0.000000 0.000000
0.000000 0.210743 0.019516
0.125337 0.200789 0.005622
0.314378 0.190496 0.000000
0.503420 0.180204 0.000000
0.692461 0.169911 0.000000
0.881502 0.159619 0.000000
1.000000 0.149327 0.000000
1.000000 0.139034 0.000000
1.000000 0.140928 0.000000
0.000000 0.381277 0.000000
0.068623 0.372064 0.000000
0.257665 0.361772 0.000000
0.446706 0.351480 0.000000
0.635748 0.341187 0.000000
0.824789 0.330895 0.000000
1.000000 0.320602 0.000000
1.000000 0.310310 0.000000
1.000000 0.311463 0.000000
0.000000 0.551812 0.000000
0.011910 0.543340 0.000000
0.200951 0.533048 0.000000
0.389993 0.522755 0.000000
0.579034 0.512463 0.000000
0.768076 0.502170 0.000000
0.957117 0.491878 0.000000
1.000000 0.481585 0.000000
1.000000 0.481998 0.000000
0.000000 0.722347 0.000000
0.000000 0.714616 0.000000
0.144238 0.704323 0.000000
0.333280 0.694031 0.000000
0.522321 0.683738 0.000000
0.711362 0.673446 0.000000
0.900404 0.663153 0.000000
1.000000 0.652861 0.000000
1.000000 0.652533 0.000000
0.000000 0.892882 0.000000
0.000000 0.885891 0.000000
0.087525 0.875599 0.000000
0.276566 0.865306 0.000000
0.465608 0.855014 0.000000
0.654649 0.844722 0.000000
0.843690 0.834429 0.000000
1.000000 0.824137 0.000000
1.000000 0.823067 0.000000
0.000000 1.000000 0.000000
0.000000 1.000000 0.000000
0.030811 1.000000 0.000000
0.219853 1.000000 0.000000
0.408894 1.000000 0.000000
0.597936 1.000000 0.000000
0.786977 1.000000 0.000000
0.976019 0.995412 0.000000
1.000000 0.993602 0.000000
0.000000 1.000000 0.000000
0.000000 1.000000 0.000000
0.006416 1.000000 0.000000
0.196106 1.000000 0.000000
0.385796 1.000000 0.000000
0.575485 1.000000 0.000000
0.765175 1.000000 0.000000
0.954865 1.000000 0.000000
1.000000 1.000000 0.000000
0.009733 0.000000 0.282413
0.199422 0.000000 0.268829
0.389112 0.000000 0.255245
0.578802 0.000000 0.241661
0.768491 0.000000 0.228077
0.958181 0.000000 0.214493
1.000000 0.000000 0.200909
1.000000 0.000000 0.188191
1.000000 0.000000 0.187335
0.000000 0.036310 0.268799
0.176325 0.026018 0.254567
0.365366 0.015725 0.240335
0.554408 0.005433 0.226103
0.743449 0.000000 0.211870
0.932490 0.000000 0.197638
1.000000 0.000000 0.183406
1.000000 0.000000 0.169299
1.000000 0.000000 0.167794
0.000000 0.207172 0.220508
0.119611 0.197293 0.206689
0.308653 0.187001 0.192457
0.497694 0.176709 0.178225
0.686736 0.166416 0.163993
0.875777 0.156124 0.149761
1.000000 0.145831 0.135528
1.000000 0.135539 0.121296
1.000000 0.137358 0.119176
0.000000 0.377707 0.171889
0.062898 0.368569 0.158811
0.251940 0.358277 0.144579
0.440981 0.347984 0.130347
0.630022 0.337692 0.116115
0.819064 0.327399 0.101883
1.000000 0.317107 0.087651
1.000000 0.306814 0.073419
1.000000 0.307893 0.070557
0.000000 0.548242 0.123271
0.006185 0.539845 0.110934
0.195226 0.529552 0.096701
0.384268 0.519260 0.082469
0.573309 0.508967 0.068237
0.762350 0.498675 0.054005
0.951392 0.488383 0.039773
1.000000 0.478090 0.025541
1.000000 0.478428 0.021939
0.000000 0.718777 0.074652
0.000000 0.711120 0.063056
0.138513 0.700828 0.048824
0.327554 0.690535 0.034592
0.516596 0.680243 0.020359
0.705637 0.669951 0.006127
0.894679 0.659658 0.000000
1.000000 0.649366 0.000000
1.000000 0.648962 0.000000
0.000000 0.889312 0.026034
0.000000 0.882396 0.015178
0.081800 0.872103 0.000946
0.270841 0.861811 0.000000
0.459882 0.851519 0.000000
0.648924 0.841226 0.000000
0.837965 0.830934 0.000000
1.000000 0.820641 0.000000
1.000000 0.819497 0.000000
0.000000 1.000000 0.000000
0.000000 1.000000 0.000000
0.025086 1.000000 0.000000
0.214128 1.000000 0.000000
0.403169 1.000000 0.000000
0.592210 1.000000 0.000000
0.781252 1.000000 0.000000
0.970293 0.991917 0.000000
1.000000 0.990032 0.000000
0.000000 1.000000 0.000000
0.000000 1.000000 0.000000
0.000911 1.000000 0.000000
0.190601 1.000000 0.000000
0.380291 1.000000 0.000000
0.569980 1.000000 0.000000
0.759670 1.000000 0.000000
0.949359 1.000000 0.000000
1.000000 1.000000 0.000000
0.004228 0.000000 0.483700
0.193917 0.000000 0.470116
0.383607 0.000000 0.456532
0.573296 0.000000 0.442948
0.762986 0.000000 0.429364
0.952676 0.000000 0.415780
1.000000 0.000000 0.402196
1.000000 0.000000 0.389403
1.000000 0.000000 0.388547
0.000000 0.032815 0.469866
0.170600 0.022522 0.455633
0.359641 0.012230 0.441401
0.548682 0.001938 0.427169
0.737724 0.000000 0.412937
0.926765 0.000000 0.398705
1.000000 0.000000 0.384473
1.000000 0.000000 0.370291
1.000000 0.000000 0.368786
0.000000 0.203602 0.421500
0.113886 0.193798 0.407756
0.302928 0.183506 0.393524
0.491969 0.173213 0.379292
0.681010 0.162921 0.365059
0.870052 0.152628 0.350827
1.000000 0.142336 0.336595
1.000000 0.132043 0.322363
1.000000 0.133788 0.320168
0.000000 0.374137 0.372881
0.057173 0.365074 0.359878
0.246214 0.354781 0.345646
0.435256 0.344489 0.331414
0.624297 0.334196 0.317182
0.813339 0.323904 0.302950
1.000000 0.313612 0.288717
1.000000 0.303319 0.274485
1.000000 0.304323 0.271549
0.000000 0.544672 0.324263
0.000460 0.536349 0.312000
0.189501 0.526057 0.297768
0.378542 0.515764 0.283536
0.567584 0.505472 0.269304
0.756625 0.495180 0.255072
0.945667 0.484887 0.240840
1.000000 0.474595 0.226608
1.000000 0.474858 0.222931
0.000000 0.715207 0.275644
0.000000 0.707625 0.264122
0.132788 0.697332 0.249890
0.321829 0.687040 0.235658
0.510870 0.676748 0.221426
0.699912 0.666455 0.207194
0.888953 0.656163 0.192962
1.000000 0.645870 0.178730
1.000000 0.645392 0.174312
0.000000 0.885742 0.227025
0.000000 0.878901 0.216245
0.076074 0.868608 0.202013
0.265116 0.858316 0.187780
0.454157 0.848023 0.173548
0.643199 0.837731 0.159316
0.832240 0.827438 0.145084
1.000000 0.817146 0.130852
1.000000 0.815927 0.125694
0.000000 1.000000 0.178407
0.000000 1.000000 0.168367
0.019361 1.000000 0.154135
0.208402 1.000000 0.139903
0.397444 1.000000 0.125671
0.586485 1.000000 0.111438
0.775527 0.998714 0.097206
0.964568 0.988422 0.082974
1.000000 0.986462 0.077075
0.000000 1.000000 0.161251
0.000000 1.000000 0.152600
0.000000 1.000000 0.139016
0.185096 1.000000 0.125432
0.374785 1.000000 0.111848
0.564475 1.000000 0.098264
0.754165 1.000000 0.084680
0.943854 1.000000 0.071096
1.000000 1.000000 0.065104
0.000000 0.000000 0.684986
0.188412 0.000000 0.671402
0.378102 0.000000 0.657819
0.567791 0.000000 0.644235
0.757481 0.000000 0.630651
0.947171 0.000000 0.617067
1.000000 0.000000 0.603483
1.000000 0.000000 0.590615
1.000000 0.000000 0.589759
0.000000 0.029320 0.670932
0.164874 0.019027 0.656700
0.353916 0.008735 0.642468
0.542957 0.000000 0.628236
0.731999 0.000000 0.614004
0.921040 0.000000 0.599772
1.000000 0.000000 0.585540
1.000000 0.000000 0.571307
1.000000 0.000000 0.569778
0.000000 0.200032 0.622492
0.108161 0.190303 0.608822
0.297202 0.180010 0.594590
0.486244 0.169718 0.580358
0.675285 0.159425 0.566126
0.864327 0.149133 0.551894
1.000000 0.138841 0.537662
1.000000 0.128548 0.523430
1.000000 0.130218 0.521160
0.000000 0.370567 0.573873
0.051448 0.361578 0.560945
0.240489 0.351286 0.546713
0.429530 0.340993 0.532480
0.618572 0.330701 0.518248
0.807613 0.320409 0.504016
0.996655 0.310116 0.489784
1.000000 0.299824 0.475552
1.000000 0.300753 0.472541
0.000000 0.541102 0.525254
0.000000 0.532854 0.513067
0.183776 0.522561 0.498835
0.372817 0.512269 0.484603
0.561859 0.501977 0.470371
0.750900 0.491684 0.456138
0.939941 0.481392 0.441906
1.000000 0.471099 0.427674
1.000000 0.471287 0.423923
0.000000 0.711637 0.476636
0.000000 0.704130 0.465189
0.127062 0.693837 0.450957
0.316104 0.683545 0.436725
0.505145 0.673252 0.422493
0.694187 0.662960 0.408261
0.883228 0.652667 0.394029
1.000000 0.642375 0.379796
1.000000 0.641822 0.375304
0.000000 0.882171 0.428017
0.000000 0.875405 0.417311
0.070349 0.865113 0.403079
0.259390 0.854820 0.388847
0.448432 0.844528 0.374615
0.637473 0.834235 0.360383
0.826515 0.823943 0.346151
1.000000 0.813651 0.331919
1.000000 0.812357 0.326685
0.000000 1.000000 0.379399
0.000000 1.000000 0.369434
0.013636 1.000000 0.355202
0.202677 1.000000 0.340969
0.391719 1.000000 0.326737
0.580760 1.000000 0.312505
0.769801 0.995219 0.298273
0.958843 0.984926 0.284041
1.000000 0.982892 0.278067
0.000000 1.000000 0.362463
0.000000 1.000000 0.353886
0.000000 1.000000 0.340303
0.179591 1.000000 0.326719
0.369280 1.000000 0.313135
0.558970 1.000000 0.299551
0.748660 1.000000 0.285967
0.938349 1.000000 0.272383
1.000000 1.000000 0.266316
0.000000 0.000000 0.886273
0.182907 0.000000 0.872689
0.372597 0.000000 0.859105
0.562286 0.000000 0.845521
0.751976 0.000000 0.831938
0.941665 0.000000 0.818354
1.000000 0.000000 0.804770
1.000000 0.000000 0.791827
1.000000 0.000000 0.790971
0.000000 0.025824 0.871999
0.159149 0.015532 0.857767
0.348190 0.005239 0.843535
0.537232 0.000000 0.829303
0.726273 0.000000 0.815071
0.915315 0.000000 0.800838
1.000000 0.000000 0.786606
1.000000 0.000000 0.772374
1.000000 0.000000 0.770770
0.000000 0.196462 0.823483
0.102436 0.186807 0.809889
0.291477 0.176515 0.795657
0.480519 0.166222 0.781425
0.669560 0.155930 0.767193
0.858601 0.145638 0.752961
1.000000 0.135345 0.738729
1.000000 0.125053 0.724496
1.000000 0.126648 0.722152
0.000000 0.366997 0.774865
0.045722 0.358083 0.762011
0.234764 0.347791 0.747779
0.423805 0.337498 0.733547
0.612847 0.327206 0.719315
0.801888 0.316913 0.705083
0.990929 0.306621 0.690851
1.000000 0.296328 0.676619
1.000000 0.297182 0.673533
0.000000 0.537532 0.726246
0.000000 0.529359 0.714134
0.178050 0.519066 0.699902
0.367092 0.508774 0.685669
0.556133 0.498481 0.671437
0.745175 0.488189 0.657205
0.934216 0.477896 0.642973
1.000000 0.467604 0.628741
1.000000 0.467717 0.624914
0.000000 0.708066 0.677628
0.000000 0.700634 0.666256
0.121337 0.690342 0.652024
0.310379 0.680049 0.637792
0.499420 0.669757 0.623560
0.688461 0.659464 0.609327
0.877503 0.649172 0.595095
1.000000 0.638880 0.580863
1.000000 0.638252 0.576296
0.000000 0.878601 0.629009
0.000000 0.871910 0.618378
0.064624 0.861617 0.604146
0.253665 0.851325 0.589914
0.442707 0.841033 0.575682
0.631748 0.830740 0.561450
0.820789 0.820448 0.547218
1.000000 0.810155 0.532985
1.000000 0.808787 0.527677
0.000000 1.000000 0.580391
0.000000 1.000000 0.570500
0.007910 1.000000 0.556268
0.196952 1.000000 0.542036
0.385993 1.000000 0.527804
0.575035 1.000000 0.513572
0.764076 0.991723 0.499340
0.953118 0.981431 0.485108
1.000000 0.979322 0.479059
0.000000 1.000000 0.563675
0.000000 1.000000 0.555173
0.000000 1.000000 0.541589
0.174086 1.000000 0.528005
0.363775 1.000000 0.514421
0.553465 1.000000 0.500838
0.743154 1.000000 0.487254
0.932844 1.000000 0.473670
1.000000 1.000000 0.467528
0.000000 0.000000 1.000000
0.177402 0.000000 1.000000
0.367091 0.000000 1.000000
0.556781 0.000000 1.000000
0.746471 0.000000 1.000000
0.936160 0.000000 1.000000
1.000000 0.000000 1.000000
1.000000 0.000000 0.993040
1.000000 0.000000 0.992183
0.000000 0.022329 1.000000
0.153424 0.012036 1.000000
0.342465 0.001744 1.000000
0.531507 0.000000 1.000000
0.720548 0.000000 1.000000
0.909589 0.000000 1.000000
1.000000 0.000000 0.987673
1.000000 0.000000 0.973441
1.000000 0.000000 0.971762
0.000000 0.192892 1.000000
0.096710 0.183312 1.000000
0.285752 0.173020 0.996724
0.474793 0.162727 0.982492
0.663835 0.152435 0.968259
0.852876 0.142142 0.954027
1.000000 0.131850 0.939795
1.000000 0.121557 0.925563
1.000000 0.123077 0.923144
0.000000 0.363427 0.975857
0.039997 0.354588 0.963078
0.229039 0.344295 0.948846
0.418080 0.334003 0.934614
0.607121 0.323710 0.920382
0.796163 0.313418 0.906150
0.985204 0.303125 0.891918
1.000000 0.292833 0.877685
1.000000 0.293612 0.874525
0.000000 0.533961 0.927238
0.000000 0.525863 0.915200
0.172325 0.515571 0.900968
0.361367 0.505278 0.886736
0.550408 0.494986 0.872504
0.739449 0.484693 0.858272
0.928491 0.474401 0.844040
1.000000 0.464109 0.829808
1.000000 0.464147 0.825906
0.000000 0.704496 0.878620
0.000000 0.697139 0.867323
0.115612 0.686846 0.853090
0.304653 0.676554 0.838858
0.493695 0.666262 0.824626
0.682736 0.655969 0.810394
0.871778 0.645677 0.796162
1.000000 0.635384 0.781930
1.000000 0.634682 0.777288
0.000000 0.875031 0.830001
0.000000 0.868414 0.819445
0.058899 0.858122 0.805213
0.247940 0.847830 0.790981
0.436981 0.837537 0.776748
0.626023 0.827245 0.762516
0.815064 0.816952 0.748284
1.000000 0.806660 0.734052
1.000000 0.805217 0.728669
0.000000 1.000000 0.781383
0.000000 1.000000 0.771567
0.002185 1.000000 0.757335
0.191227 1.000000 0.743103
0.380268 1.000000 0.728871
0.569309 0.998520 0.714639
0.758351 0.988228 0.700406
0.947392 0.977935 0.686174
1.000000 0.975752 0.680051
0.000000 1.000000 0.764887
0.000000 1.000000 0.756460
0.000000 1.000000 0.742876
0.168580 1.000000 0.729292
0.358270 1.000000 0.715708
0.547960 1.000000 0.702124
0.737649 1.000000 0.688540
0.927339 1.000000 0.674957
1.000000 1.000000 0.668740
0.000000 0.000000 1.000000
0.171897 0.000000 1.000000
0.361586 0.000000 1.000000
0.551276 0.000000 1.000000
0.740966 0.000000 1.000000
0.930655 0.000000 1.000000
1.000000 0.000000 1.000000
1.000000 0.000000 1.000000
1.000000 0.000000 1.000000
0.000000 0.018787 1.000000
0.147699 0.008541 1.000000
0.336740 0.000000 1.000000
0.525781 0.000000 1.000000
0.714823 0.000000 1.000000
0.903864 0.000000 1.000000
1.000000 0.000000 1.000000
1.000000 0.000000 1.000000
1.000000 0.000000 1.000000
0.000000 0.189322 1.000000
0.090985 0.179817 1.000000
0.280027 0.169524 1.000000
0.469068 0.159232 1.000000
0.658109 0.148939 1.000000
0.847151 0.138647 1.000000
1.000000 0.128354 1.000000
1.000000 0.118062 1.000000
1.000000 0.119507 1.000000
0.000000 0.359857 1.000000
0.034272 0.351092 1.000000
0.223313 0.340800 1.000000
0.412355 0.330507 1.000000
0.601396 0.320215 1.000000
0.790438 0.309923 1.000000
0.979479 0.299630 1.000000
1.000000 0.289338 1.000000
1.000000 0.290042 1.000000
0.000000 0.530391 1.000000
0.000000 0.522368 1.000000
0.166600 0.512075 1.000000
0.355641 0.501783 1.000000
0.544683 0.491491 1.000000
0.733724 0.481198 1.000000
0.922766 0.470906 1.000000
1.000000 0.460613 1.000000
1.000000 0.460577 1.000000
0.000000 0.700926 1.000000
0.000000 0.693643 1.000000
0.109887 0.683351 1.000000
0.298928 0.673059 1.000000
0.487969 0.662766 1.000000
0.677011 0.652474 1.000000
0.866052 0.642181 0.997229
1.000000 0.631889 0.982997
1.000000 0.631112 0.978280
0.000000 0.871461 1.000000
0.000000 0.864919 1.000000
0.053173 0.854627 1.000000
0.242215 0.844334 0.992047
0.431256 0.834042 0.977815
0.620298 0.823749 0.963583
0.809339 0.813457 0.949351
0.998380 0.803165 0.935119
1.000000 0.801647 0.929661
0.000000 1.000000 0.982375
0.000000 1.000000 0.972634
0.000000 1.000000 0.958402
0.185501 1.000000 0.944170
0.374543 1.000000 0.929937
0.563584 0.995025 0.915705
0.752626 0.984733 0.901473
0.941667 0.974440 0.887241
1.000000 0.972181 0.881043
0.000000 1.000000 0.966099
0.000000 1.000000 0.957747
0.000000 1.000000 0.944163
0.163075 1.000000 0.930579
0.352765 1.000000 0.916995
0.542455 1.000000 0.903411
0.732144 1.000000 0.889827
0.921834 1.000000 0.876243
1.000000 1.000000 0.869952
0.000000 0.000000 1.000000
0.168579 0.000000 1.000000
0.358249 0.000000 1.000000
0.547920 0.000000 1.000000
0.737591 0.000000 1.000000
0.927262 0.000000 1.000000
1.000000 0.000000 1.000000
1.000000 0.000000 1.000000
1.000000 0.000000 1.000000
0.000000 0.017359 1.000000
0.144097 0.007170 1.000000
0.333120 0.000000 1.000000
0.522143 0.000000 1.000000
0.711165 0.000000 1.000000
0.900188 0.000000 1.000000
1.000000 0.000000 1.000000
1.000000 0.000000 1.000000
1.000000 0.000000 1.000000
0.000000 0.187831 1.000000
0.087321 0.178382 1.000000
0.276344 0.168071 1.000000
0.465366 0.157760 1.000000
0.654389 0.147449 1.000000
0.843412 0.137138 1.000000
1.000000 0.126827 1.000000
1.000000 0.116516 1.000000
1.000000 0.117867 1.000000
0.000000 0.358303 1.000000
0.030545 0.349595 1.000000
0.219568 0.339284 1.000000
0.408590 0.328973 1.000000
0.597613 0.318662 1.000000
0.786636 0.308351 1.000000
0.975658 0.298039 1.000000
1.000000 0.287728 1.000000
1.000000 0.288339 1.000000
0.000000 0.528775 1.000000
0.000000 0.520808 1.000000
0.162791 0.510497 1.000000
0.351814 0.500186 1.000000
0.540837 0.489874 1.000000
0.729859 0.479563 1.000000
0.918882 0.469252 1.000000
1.000000 0.458941 1.000000
1.000000 0.458811 1.000000
0.000000 0.699247 1.000000
0.000000 0.692021 1.000000
0.106015 0.681709 1.000000
0.295038 0.671398 1.000000
0.484061 0.661087 1.000000
0.673083 0.650776 1.000000
0.862106 0.640465 1.000000
1.000000 0.630154 1.000000
1.000000 0.629283 1.000000
0.000000 0.869719 1.000000
0.000000 0.863233 1.000000
0.049239 0.852922 1.000000
0.238262 0.842611 1.000000
0.427284 0.832300 1.000000
0.616307 0.821989 1.000000
0.805330 0.811678 1.000000
0.994352 0.801367 1.000000
1.000000 0.799755 1.000000
0.000000 1.000000 1.000000
0.000000 1.000000 1.000000
0.000000 1.000000 1.000000
0.181485 1.000000 1.000000
0.370508 1.000000 1.000000
0.559531 0.993201 1.000000
0.748554 0.982890 1.000000
0.937576 0.972579 1.000000
1.000000 0.970227 1.000000
0.000000 1.000000 1.000000
0.000000 1.000000 1.000000
0.000000 1.000000 1.000000
0.159217 1.000000 1.000000
0.348887 1.000000 1.000000
0.538558 1.000000 1.000000
0.728229 1.000000 1.000000
0.917900 1.000000 1.000000
1.000000 1.000000 1.000000
0.000000 0.000000 1.000000
0.167464 0.000000 1.000000
0.357135 0.000000 1.000000
0.546806 0.000000 1.000000
0.736477 0.000000 1.000000
0.926148 0.000000 1.000000
1.000000 0.000000 1.000000
1.000000 0.000000 1.000000
1.000000 0.000000 1.000000
0.000000 0.018180 1.000000
0.142763 0.008065 1.000000
0.331785 0.000000 1.000000
0.520808 0.000000 1.000000
0.709831 0.000000 1.000000
0.898854 0.000000 1.000000
1.000000 0.000000 1.000000
1.000000 0.000000 1.000000
1.000000 0.000000 1.000000
0.000000 0.188652 1.000000
0.085986 0.179278 1.000000
0.275009 0.168967 1.000000
0.464032 0.158655 1.000000
0.653055 0.148344 1.000000
0.842077 0.138033 1.000000
1.000000 0.127722 1.000000
1.000000 0.117411 1.000000
1.000000 0.118688 1.000000
0.000000 0.359124 1.000000
0.029210 0.350490 1.000000
0.218233 0.340179 1.000000
0.407256 0.329868 1.000000
0.596278 0.319557 1.000000
0.785301 0.309246 1.000000
0.974324 0.298935 1.000000
1.000000 0.288624 1.000000
1.000000 0.289160 1.000000
0.000000 0.529596 1.000000
0.000000 0.521703 1.000000
0.161457 0.511392 1.000000
0.350479 0.501081 1.000000
0.539502 0.490770 1.000000
0.728525 0.480459 1.000000
0.917548 0.470147 1.000000
1.000000 0.459836 1.000000
1.000000 0.459632 1.000000
0.000000 0.700068 1.000000
0.000000 0.692916 1.000000
0.104680 0.682605 1.000000
0.293703 0.672294 1.000000
0.482726 0.661982 1.000000
0.671749 0.651671 1.000000
0.860771 0.641360 1.000000
1.000000 0.631049 1.000000
1.000000 0.630104 1.000000
0.000000 0.870540 1.000000
0.000000 0.864129 1.000000
0.047904 0.853817 1.000000
0.236927 0.843506 1.000000
0.425950 0.833195 1.000000
0.614972 0.822884 1.000000
0.803995 0.812573 1.000000
0.993018 0.802262 1.000000
1.000000 0.800576 1.000000
0.000000 1.000000 1.000000
0.000000 1.000000 1.000000
0.000000 1.000000 1.000000
0.180151 1.000000 1.000000
0.369173 1.000000 1.000000
0.558196 0.994097 1.000000
0.747219 0.983786 1.000000
0.936242 0.973475 1.000000
1.000000 0.971048 1.000000
0.000000 1.000000 1.000000
0.000000 1.000000 1.000000
0.000000 1.000000 1.000000
0.158102 1.000000 1.000000
0.347773 1.000000 1.000000
0.537444 1.000000 1.000000
0.727115 1.000000 1.000000
0.916786 1.000000 1.000000
1.000000 1.000000 1.000000
