assets/luts/neon.cube
# Neon — Studio filter "neon"
# Generated by scripts/generate-filter-luts.mjs — do not edit by hand.
LUT_3D_SIZE 5
DOMAIN_MIN 0.0 0.0 0.0
DOMAIN_MAX 1.0 1.0 1.0
0.015238 0.000000 0.081126
0.394617 0.000000 0.053958
0.773996 0.000000 0.026790
1.000000 0.000000 0.000000
1.000000 0.000000 0.000000
0.000000 0.210743 0.019516
0.314378 0.190496 0.000000
0.692461 0.169911 0.000000
1.000000 0.149327 0.000000
1.000000 0.140928 0.000000
0.000000 0.551812 0.000000
0.200951 0.533048 0.000000
0.579034 0.512463 0.000000
0.957117 0.491878 0.000000
1.000000 0.481998 0.000000
0.000000 0.892882 0.000000
0.087525 0.875599 0.000000
0.465608 0.855014 0.000000
0.843690 0.834429 0.000000
1.000000 0.823067 0.000000
0.000000 1.000000 0.000000
0.006416 1.000000 0.000000
0.385796 1.000000 0.000000
0.765175 1.000000 0.000000
1.000000 1.000000 0.000000
0.004228 0.000000 0.483700
0.383607 0.000000 0.456532
0.762986 0.000000 0.429364
1.000000 0.000000 0.402196
1.000000 0.000000 0.388547
0.000000 0.203602 0.421500
0.302928 0.183506 0.393524
0.681010 0.162921 0.365059
1.000000 0.142336 0.336595
1.000000 0.133788 0.320168
0.000000 0.544672 0.324263
0.189501 0.526057 0.297768
0.567584 0.505472 0.269304
0.945667 0.484887 0.240840
1.000000 0.474858 0.222931
0.000000 0.885742 0.227025
0.076074 0.868608 0.202013
0.454157 0.848023 0.173548
0.832240 0.827438 0.145084
1.000000 0.815927 0.125694
0.000000 1.000000 0.161251
0.000000 1.000000 0.139016
0.374785 1.000000 0.111848
0.754165 1.000000 0.084680
1.000000 1.000000 0.065104
0.000000 0.000000 0.886273
0.372597 0.000000 0.859105
0.751976 0.000000 0.831938
1.000000 0.000000 0.804770
1.000000 0.000000 0.790971
0.000000 0.196462 0.823483
0.291477 0.176515 0.795657
0.669560 0.155930 0.767193
1.000000 0.135345 0.738729
1.000000 0.126648 0.722152
0.000000 0.537532 0.726246
0.178050 0.519066 0.699902
0.556133 0.498481 0.671437
0.934216 0.477896 0.642973
1.000000 0.467717 0.624914
0.000000 0.878601 0.629009
0.064624 0.861617 0.604146
0.442707 0.841033 0.575682
0.820789 0.820448 0.547218
1.000000 0.808787 0.527677
0.000000 1.000000 0.563675
0.000000 1.000000 0.541589
0.363775 1.000000 0.514421
0.743154 1.000000 0.487254
1.000000 1.000000 0.467528
0.000000 0.000000 1.000000
0.361586 0.000000 1.000000
0.740966 0.000000 1.000000
1.000000 0.000000 1.000000
1.000000 0.000000 1.000000
0.000000 0.189322 1.000000
0.280027 0.169524 1.000000
0.658109 0.148939 1.000000
1.000000 0.128354 1.000000
1.000000 0.119507 1.000000
0.000000 0.530391 1.000000
0.166600 0.512075 1.000000
0.544683 0.491491 1.000000
0.922766 0.470906 1.000000
1.000000 0.460577 1.000000
0.000000 0.871461 1.000000
0.053173 0.854627 1.000000
0.431256 0.834042 0.977815
0.809339 0.813457 0.949351
1.000000 0.801647 0.929661
0.000000 1.000000 0.966099
0.000000 1.000000 0.944163
0.352765 1.000000 0.916995
0.732144 1.000000 0.889827
1.000000 1.000000 0.869952
0.000000 0.000000 1.000000
0.357135 0.000000 1.000000
0.736477 0.000000 1.000000
1.000000 0.000000 1.000000
1.000000 0.000000 1.000000
0.000000 0.188652 1.000000
0.275009 0.168967 1.000000
0.653055 0.148344 1.000000
1.000000 0.127722 1.000000
1.000000 0.118688 1.000000
0.000000 0.529596 1.000000
0.161457 0.511392 1.000000
0.539502 0.490770 1.000000
0.917548 0.470147 1.000000
1.000000 0.459632 1.000000
0.000000 0.870540 1.000000
0.047904 0.853817 1.000000
0.425950 0.833195 1.000000
0.803995 0.812573 1.000000
1.000000 0.800576 1.000000
0.000000 1.000000 1.000000
0.000000 1.000000 1.000000
0.347773 1.000000 1.000000
0.727115 1.000000 1.000000
1.000000 1.000000 1.000000
