assets/luts/noirblue.cube
# Noir Blue — Studio filter "noirblue"
# Generated by scripts/generate-filter-luts.mjs — do not edit by hand.
LUT_3D_SIZE 9
DOMAIN_MIN 0.0 0.0 0.0
DOMAIN_MAX 1.0 1.0 1.0
0.000000 0.020000 0.120000
0.054999 0.031464 0.130440
0.124054 0.045857 0.143549
0.202480 0.062204 0.158436
0.285591 0.079528 0.174213
0.368702 0.096852 0.189990
0.447128 0.113199 0.204877
0.516183 0.127592 0.217986
0.571182 0.139056 0.228426
0.039254 0.101895 0.155122
0.094252 0.113359 0.165562
0.163307 0.127752 0.178670
0.241733 0.144099 0.193558
0.324845 0.161423 0.209335
0.407956 0.178747 0.225111
0.486382 0.195094 0.239999
0.555437 0.209487 0.253107
0.610436 0.220951 0.263548
0.088540 0.204721 0.199220
0.143538 0.216184 0.209660
0.212593 0.230578 0.222768
0.291019 0.246925 0.237656
0.374131 0.264249 0.253433
0.457242 0.281572 0.269209
0.535668 0.297919 0.284097
0.604723 0.312313 0.297205
0.659722 0.323777 0.307646
0.144514 0.321500 0.249302
0.199512 0.332964 0.259742
0.268567 0.347357 0.272851
0.346993 0.363704 0.287738
0.430105 0.381028 0.303515
0.513216 0.398351 0.319292
0.591642 0.414698 0.334179
0.660697 0.429092 0.347287
0.715696 0.440556 0.357728
0.203832 0.445256 0.302376
0.258831 0.456720 0.312816
0.327886 0.471113 0.325925
0.406312 0.487460 0.340812
0.489423 0.504784 0.356589
0.572534 0.522108 0.372366
0.650960 0.538455 0.387253
0.720015 0.552848 0.400362
0.775014 0.564312 0.410802
0.263150 0.569012 0.355450
0.318149 0.580476 0.365891
0.387204 0.594870 0.378999
0.465630 0.611217 0.393886
0.548741 0.628540 0.409663
0.631853 0.645864 0.425440
0.710279 0.662211 0.440327
0.779334 0.676604 0.453436
0.834332 0.688068 0.463876
0.319124 0.685791 0.405532
0.374123 0.697255 0.415973
0.443178 0.711649 0.429081
0.521604 0.727996 0.443969
0.604715 0.745319 0.459745
0.687827 0.762643 0.475522
0.766253 0.778990 0.490410
0.835308 0.793384 0.503518
0.890306 0.804847 0.513958
0.368410 0.788617 0.449630
0.423409 0.800081 0.460071
0.492464 0.814474 0.473179
0.570890 0.830821 0.488067
0.654001 0.848145 0.503843
0.737113 0.865469 0.519620
0.815539 0.881816 0.534508
0.884594 0.896209 0.547616
0.939592 0.907673 0.558056
0.407664 0.870512 0.484752
0.462663 0.881976 0.495192
0.531718 0.896369 0.508301
0.610144 0.912716 0.523188
0.693255 0.930040 0.538965
0.776366 0.947364 0.554742
0.854792 0.963711 0.569629
0.923847 0.978104 0.582738
0.978846 0.989568 0.593178
0.003963 0.023893 0.166876
0.058961 0.035357 0.177316
0.128016 0.049751 0.190424
0.206442 0.066098 0.205312
0.289554 0.083421 0.221089
0.372665 0.100745 0.236865
0.451091 0.117092 0.251753
0.520146 0.131485 0.264861
0.575145 0.142949 0.275302
0.043216 0.105788 0.201997
0.098215 0.117252 0.212438
0.167270 0.131646 0.225546
0.245696 0.147993 0.240433
0.328807 0.165316 0.256210
0.411919 0.182640 0.271987
0.490345 0.198987 0.286874
0.559400 0.213380 0.299983
0.614398 0.224844 0.310423
0.092502 0.208614 0.246095
0.147501 0.220078 0.256535
0.216556 0.234471 0.269644
0.294982 0.250818 0.284531
0.378093 0.268142 0.300308
0.461205 0.285465 0.316085
0.539631 0.301812 0.330972
0.608686 0.316206 0.344081
0.663684 0.327670 0.354521
0.148476 0.325393 0.296177
0.203475 0.336857 0.306618
0.272530 0.351250 0.319726
0.350956 0.367597 0.334614
0.434067 0.384921 0.350390
0.517179 0.402245 0.366167
0.595605 0.418592 0.381055
0.664660 0.432985 0.394163
0.719658 0.444449 0.404603
0.207795 0.449149 0.349252
0.262793 0.460613 0.359692
0.331848 0.475007 0.372800
0.410274 0.491354 0.387688
0.493386 0.508677 0.403465
0.576497 0.526001 0.419241
0.654923 0.542348 0.434129
0.723978 0.556741 0.447237
0.778977 0.568205 0.457678
0.267113 0.572905 0.402326
0.322112 0.584369 0.412766
0.391167 0.598763 0.425875
0.469593 0.615110 0.440762
0.552704 0.632433 0.456539
0.635815 0.649757 0.472316
0.714241 0.666104 0.487203
0.783296 0.680498 0.500312
0.838295 0.691961 0.510752
0.323087 0.689685 0.452408
0.378086 0.701148 0.462848
0.447141 0.715542 0.475957
0.525567 0.731889 0.490844
0.608678 0.749213 0.506621
0.691790 0.766536 0.522398
0.770216 0.782883 0.537285
0.839271 0.797277 0.550394
0.894269 0.808741 0.560834
0.372373 0.792510 0.496506
0.427372 0.803974 0.506946
0.496427 0.818368 0.520055
0.574853 0.834715 0.534942
0.657964 0.852038 0.550719
0.741076 0.869362 0.566496
0.819502 0.885709 0.581383
0.888557 0.900102 0.594492
0.943555 0.911566 0.604932
0.411627 0.874405 0.531628
0.466625 0.885869 0.542068
0.535680 0.900263 0.555176
0.614106 0.916610 0.570064
0.697218 0.933933 0.585841
0.780329 0.951257 0.601617
0.858755 0.967604 0.616505
0.927810 0.981997 0.629613
0.982809 0.993461 0.640054
0.008938 0.028781 0.225732
0.063937 0.040245 0.236172
0.132992 0.054639 0.249280
0.211418 0.070986 0.264168
0.294529 0.088309 0.279945
0.377641 0.105633 0.295721
0.456067 0.121980 0.310609
0.525122 0.136374 0.323717
0.580120 0.147837 0.334158
0.048192 0.110676 0.260853
0.103190 0.122140 0.271294
0.172245 0.136534 0.284402
0.250671 0.152881 0.299289
0.333783 0.170204 0.315066
0.416894 0.187528 0.330843
0.495320 0.203875 0.345731
0.564375 0.218269 0.358839
0.619374 0.229732 0.369279
0.097478 0.213502 0.304951
0.152476 0.224966 0.315391
0.221531 0.239359 0.328500
0.299957 0.255706 0.343387
0.383069 0.273030 0.359164
0.466180 0.290353 0.374941
0.544606 0.306700 0.389828
0.613661 0.321094 0.402937
0.668660 0.332558 0.413377
0.153452 0.330281 0.355033
0.208450 0.341745 0.365474
0.277505 0.356139 0.378582
0.355931 0.372486 0.393470
0.439043 0.389809 0.409246
0.522154 0.407133 0.425023
0.600580 0.423480 0.439911
0.669635 0.437873 0.453019
0.724634 0.449337 0.463459
0.212770 0.454037 0.408108
0.267769 0.465501 0.418548
0.336824 0.479895 0.431656
0.415250 0.496242 0.446544
0.498361 0.513565 0.462321
0.581473 0.530889 0.478097
0.659899 0.547236 0.492985
0.728954 0.561630 0.506093
0.783952 0.573093 0.516534
0.272088 0.577793 0.461182
0.327087 0.589257 0.471622
0.396142 0.603651 0.484731
0.474568 0.619998 0.499618
0.557679 0.637321 0.515395
0.640791 0.654645 0.531172
0.719217 0.670992 0.546059
0.788272 0.685386 0.559168
0.843270 0.696849 0.569608
0.328063 0.694573 0.511264
0.383061 0.706037 0.521704
0.452116 0.720430 0.534813
0.530542 0.736777 0.549700
0.613654 0.754101 0.565477
0.696765 0.771424 0.581254
0.775191 0.787771 0.596141
0.844246 0.802165 0.609250
0.899245 0.813629 0.619690
0.377349 0.797398 0.555362
0.432347 0.808862 0.565802
0.501402 0.823256 0.578911
0.579828 0.839603 0.593798
0.662940 0.856926 0.609575
0.746051 0.874250 0.625352
0.824477 0.890597 0.640239
0.893532 0.904991 0.653348
0.948531 0.916454 0.663788
0.416602 0.879293 0.590484
0.471601 0.890757 0.600924
0.540656 0.905151 0.614032
0.619082 0.921498 0.628920
0.702193 0.938821 0.644697
0.785305 0.956145 0.660473
0.863731 0.972492 0.675361
0.932786 0.986886 0.688469
0.987784 0.998349 0.698910
0.014589 0.034333 0.292575
0.069587 0.045797 0.303015
0.138642 0.060190 0.316123
0.217068 0.076537 0.331011
0.300180 0.093861 0.346788
0.383291 0.111184 0.362564
0.461717 0.127531 0.377452
0.530772 0.141925 0.390560
0.585771 0.153389 0.401001
0.053842 0.116228 0.327696
0.108841 0.127692 0.338136
0.177896 0.142085 0.351245
0.256322 0.158432 0.366132
0.339433 0.175756 0.381909
0.422545 0.193079 0.397686
0.500971 0.209426 0.412573
0.570026 0.223820 0.425682
0.625024 0.235284 0.436122
0.103128 0.219053 0.371794
0.158127 0.230517 0.382234
0.227182 0.244911 0.395343
0.305608 0.261258 0.410230
0.388719 0.278581 0.426007
0.471831 0.295905 0.441784
0.550257 0.312252 0.456671
0.619312 0.326646 0.469780
0.674310 0.338109 0.480220
0.159102 0.335833 0.421876
0.214101 0.347296 0.432317
0.283156 0.361690 0.445425
0.361582 0.378037 0.460312
0.444693 0.395361 0.476089
0.527805 0.412684 0.491866
0.606231 0.429031 0.506754
0.675286 0.443425 0.519862
0.730284 0.454889 0.530302
0.218421 0.459589 0.474951
0.273419 0.471053 0.485391
0.342474 0.485446 0.498499
0.420900 0.501793 0.513387
0.504012 0.519117 0.529164
0.587123 0.536440 0.544940
0.665549 0.552787 0.559828
0.734604 0.567181 0.572936
0.789603 0.578645 0.583377
0.277739 0.583345 0.528025
0.332738 0.594809 0.538465
0.401793 0.609202 0.551574
0.480219 0.625549 0.566461
0.563330 0.642873 0.582238
0.646442 0.660197 0.598015
0.724867 0.676543 0.612902
0.793922 0.690937 0.626011
0.848921 0.702401 0.636451
0.333713 0.700124 0.578107
0.388712 0.711588 0.588547
0.457767 0.725982 0.601656
0.536193 0.742329 0.616543
0.619304 0.759652 0.632320
0.702416 0.776976 0.648097
0.780842 0.793323 0.662984
0.849897 0.807716 0.676093
0.904895 0.819180 0.686533
0.382999 0.802950 0.622205
0.437998 0.814414 0.632645
0.507053 0.828807 0.645754
0.585479 0.845154 0.660641
0.668590 0.862478 0.676418
0.751702 0.879801 0.692195
0.830128 0.896148 0.707082
0.899183 0.910542 0.720191
0.954181 0.922006 0.730631
0.422253 0.884845 0.657327
0.477251 0.896309 0.667767
0.546306 0.910702 0.680875
0.624732 0.927049 0.695763
0.707844 0.944373 0.711540
0.790955 0.961696 0.727316
0.869381 0.978043 0.742204
0.938436 0.992437 0.755312
0.993435 1.000000 0.765753
0.020577 0.040216 0.363411
0.075576 0.051680 0.373851
0.144631 0.066073 0.386960
0.223057 0.082420 0.401847
0.306168 0.099744 0.417624
0.389279 0.117068 0.433401
0.467705 0.133415 0.448288
0.536760 0.147808 0.461397
0.591759 0.159272 0.471837
0.059831 0.122111 0.398533
0.114829 0.133575 0.408973
0.183884 0.147968 0.422081
0.262310 0.164315 0.436969
0.345422 0.181639 0.452746
0.428533 0.198963 0.468522
0.506959 0.215310 0.483410
0.576014 0.229703 0.496518
0.631013 0.241167 0.506959
0.109117 0.224937 0.442631
0.164115 0.236400 0.453071
0.233170 0.250794 0.466179
0.311596 0.267141 0.481067
0.394708 0.284465 0.496844
0.477819 0.301788 0.512620
0.556245 0.318135 0.527508
0.625300 0.332529 0.540616
0.680299 0.343993 0.551057
0.165091 0.341716 0.492713
0.220089 0.353180 0.503153
0.289144 0.367573 0.516262
0.367570 0.383920 0.531149
0.450682 0.401244 0.546926
0.533793 0.418567 0.562703
0.612219 0.434914 0.577590
0.681274 0.449308 0.590698
0.736273 0.460772 0.601139
0.224409 0.465472 0.545787
0.279408 0.476936 0.556227
0.348463 0.491329 0.569336
0.426889 0.507676 0.584223
0.510000 0.525000 0.600000
0.593111 0.542324 0.615777
0.671537 0.558671 0.630664
0.740592 0.573064 0.643773
0.795591 0.584528 0.654213
0.283727 0.589228 0.598861
0.338726 0.600692 0.609302
0.407781 0.615086 0.622410
0.486207 0.631433 0.637297
0.569318 0.648756 0.653074
0.652430 0.666080 0.668851
0.730856 0.682427 0.683738
0.799911 0.696820 0.696847
0.854909 0.708284 0.707287
0.339701 0.706007 0.648943
0.394700 0.717471 0.659384
0.463755 0.731865 0.672492
0.542181 0.748212 0.687380
0.625292 0.765535 0.703156
0.708404 0.782859 0.718933
0.786830 0.799206 0.733821
0.855885 0.813600 0.746929
0.910883 0.825063 0.757369
0.388987 0.808833 0.693041
0.443986 0.820297 0.703482
0.513041 0.834690 0.716590
0.591467 0.851037 0.731478
0.674578 0.868361 0.747254
0.757690 0.885685 0.763031
0.836116 0.902032 0.777919
0.905171 0.916425 0.791027
0.960169 0.927889 0.801467
0.428241 0.890728 0.728163
0.483240 0.902192 0.738603
0.552295 0.916585 0.751712
0.630721 0.932932 0.766599
0.713832 0.950256 0.782376
0.796943 0.967580 0.798153
0.875369 0.983927 0.813040
0.944424 0.998320 0.826149
0.999423 1.000000 0.836589
0.026565 0.046099 0.434247
0.081564 0.057563 0.444688
0.150619 0.071957 0.457796
0.229045 0.088304 0.472684
0.312156 0.105627 0.488460
0.395268 0.122951 0.504237
0.473694 0.139298 0.519125
0.542749 0.153691 0.532233
0.597747 0.165155 0.542673
0.065819 0.127994 0.469369
0.120817 0.139458 0.479809
0.189872 0.153852 0.492918
0.268298 0.170199 0.507805
0.351410 0.187522 0.523582
0.434521 0.204846 0.539359
0.512947 0.221193 0.554246
0.582002 0.235586 0.567355
0.637001 0.247050 0.577795
0.115105 0.230820 0.513467
0.170103 0.242284 0.523907
0.239158 0.256677 0.537016
0.317584 0.273024 0.551903
0.400696 0.290348 0.567680
0.483807 0.307671 0.583457
0.562233 0.324018 0.598344
0.631288 0.338412 0.611453
0.686287 0.349876 0.621893
0.171079 0.347599 0.563549
0.226078 0.359063 0.573989
0.295133 0.373457 0.587098
0.373558 0.389803 0.601985
0.456670 0.407127 0.617762
0.539781 0.424451 0.633539
0.618207 0.440798 0.648426
0.687262 0.455191 0.661535
0.742261 0.466655 0.671975
0.230397 0.471355 0.616623
0.285396 0.482819 0.627064
0.354451 0.497213 0.640172
0.432877 0.513560 0.655060
0.515988 0.530883 0.670836
0.599100 0.548207 0.686613
0.677526 0.564554 0.701501
0.746581 0.578947 0.714609
0.801579 0.590411 0.725049
0.289716 0.595111 0.669698
0.344714 0.606575 0.680138
0.413769 0.620969 0.693246
0.492195 0.637316 0.708134
0.575307 0.654639 0.723911
0.658418 0.671963 0.739688
0.736844 0.688310 0.754575
0.805899 0.702704 0.767683
0.860898 0.714167 0.778124
0.345690 0.711891 0.719780
0.400688 0.723354 0.730220
0.469743 0.737748 0.743329
0.548169 0.754095 0.758216
0.631281 0.771419 0.773993
0.714392 0.788742 0.789770
0.792818 0.805089 0.804657
0.861873 0.819483 0.817766
0.916872 0.830947 0.828206
0.394976 0.814716 0.763878
0.449974 0.826180 0.774318
0.519029 0.840574 0.787427
0.597455 0.856921 0.802314
0.680567 0.874244 0.818091
0.763678 0.891568 0.833868
0.842104 0.907915 0.848755
0.911159 0.922308 0.861864
0.966158 0.933772 0.872304
0.434229 0.896611 0.798999
0.489228 0.908075 0.809440
0.558283 0.922469 0.822548
0.636709 0.938816 0.837436
0.719820 0.956139 0.853212
0.802932 0.973463 0.868989
0.881358 0.989810 0.883877
0.950413 1.000000 0.896985
1.000000 1.000000 0.907425
0.032216 0.051651 0.501090
0.087214 0.063114 0.511531
0.156269 0.077508 0.524639
0.234695 0.093855 0.539527
0.317807 0.111179 0.555303
0.400918 0.128502 0.571080
0.479344 0.144849 0.585968
0.548399 0.159243 0.599076
0.603398 0.170707 0.609516
0.071469 0.133546 0.536212
0.126468 0.145009 0.546652
0.195523 0.159403 0.559761
0.273949 0.175750 0.574648
0.357060 0.193074 0.590425
0.440172 0.210397 0.606202
0.518598 0.226744 0.621089
0.587653 0.241138 0.634198
0.642651 0.252602 0.644638
0.120755 0.236371 0.580310
0.175754 0.247835 0.590750
0.244809 0.262229 0.603859
0.323235 0.278576 0.618746
0.406346 0.295899 0.634523
0.489458 0.313223 0.650300
0.567884 0.329570 0.665187
0.636939 0.343963 0.678296
0.691937 0.355427 0.688736
0.176730 0.353151 0.630392
0.231728 0.364614 0.640832
0.300783 0.379008 0.653941
0.379209 0.395355 0.668828
0.462321 0.412679 0.684605
0.545432 0.430002 0.700382
0.623858 0.446349 0.715269
0.692913 0.460743 0.728378
0.747912 0.472207 0.738818
0.236048 0.476907 0.683466
0.291046 0.488370 0.693907
0.360101 0.502764 0.707015
0.438527 0.519111 0.721903
0.521639 0.536435 0.737679
0.604750 0.553758 0.753456
0.683176 0.570105 0.768344
0.752231 0.584499 0.781452
0.807230 0.595963 0.791892
0.295366 0.600663 0.736541
0.350365 0.612127 0.746981
0.419420 0.626520 0.760089
0.497846 0.642867 0.774977
0.580957 0.660191 0.790754
0.664069 0.677514 0.806530
0.742495 0.693861 0.821418
0.811550 0.708255 0.834526
0.866548 0.719719 0.844967
0.351340 0.717442 0.786623
0.406339 0.728906 0.797063
0.475394 0.743300 0.810172
0.553820 0.759647 0.825059
0.636931 0.776970 0.840836
0.720043 0.794294 0.856613
0.798469 0.810641 0.871500
0.867524 0.825034 0.884609
0.922522 0.836498 0.895049
0.400626 0.820268 0.830721
0.455625 0.831731 0.841161
0.524680 0.846125 0.854269
0.603106 0.862472 0.869157
0.686217 0.879796 0.884934
0.769329 0.897119 0.900711
0.847755 0.913466 0.915598
0.916810 0.927860 0.928706
0.971808 0.939324 0.939147
0.439880 0.902163 0.865842
0.494878 0.913626 0.876283
0.563933 0.928020 0.889391
0.642359 0.944367 0.904279
0.725471 0.961691 0.920055
0.808582 0.979014 0.935832
0.887008 0.995361 0.950720
0.956063 1.000000 0.963828
1.000000 1.000000 0.974268
0.037191 0.056539 0.559946
0.092190 0.068003 0.570387
0.161245 0.082396 0.583495
0.239671 0.098743 0.598383
0.322782 0.116067 0.614159
0.405894 0.133390 0.629936
0.484320 0.149737 0.644824
0.553375 0.164131 0.657932
0.608373 0.175595 0.668372
0.076445 0.138434 0.595068
0.131443 0.149898 0.605508
0.200498 0.164291 0.618617
0.278924 0.180638 0.633504
0.362036 0.197962 0.649281
0.445147 0.215285 0.665058
0.523573 0.231632 0.679945
0.592628 0.246026 0.693054
0.647627 0.257490 0.703494
0.125731 0.241259 0.639166
0.180729 0.252723 0.649606
0.249784 0.267117 0.662715
0.328210 0.283464 0.677602
0.411322 0.300787 0.693379
0.494433 0.318111 0.709156
0.572859 0.334458 0.724043
0.641914 0.348852 0.737152
0.696913 0.360315 0.747592
0.181705 0.358039 0.689248
0.236704 0.369502 0.699688
0.305759 0.383896 0.712797
0.384185 0.400243 0.727684
0.467296 0.417567 0.743461
0.550407 0.434890 0.759238
0.628833 0.451237 0.774125
0.697888 0.465631 0.787234
0.752887 0.477095 0.797674
0.241023 0.481795 0.742322
0.296022 0.493259 0.752763
0.365077 0.507652 0.765871
0.443503 0.523999 0.780759
0.526614 0.541323 0.796535
0.609726 0.558646 0.812312
0.688152 0.574993 0.827200
0.757207 0.589387 0.840308
0.812205 0.600851 0.850748
0.300342 0.605551 0.795397
0.355340 0.617015 0.805837
0.424395 0.631408 0.818945
0.502821 0.647755 0.833833
0.585933 0.665079 0.849610
0.669044 0.682403 0.865386
0.747470 0.698750 0.880274
0.816525 0.713143 0.893382
0.871524 0.724607 0.903823
0.356316 0.722330 0.845479
0.411314 0.733794 0.855919
0.480369 0.748188 0.869028
0.558795 0.764535 0.883915
0.641907 0.781858 0.899692
0.725018 0.799182 0.915469
0.803444 0.815529 0.930356
0.872499 0.829922 0.943465
0.927498 0.841386 0.953905
0.405602 0.825156 0.889577
0.460600 0.836620 0.900017
0.529655 0.851013 0.913126
0.608081 0.867360 0.928013
0.691193 0.884684 0.943790
0.774304 0.902007 0.959567
0.852730 0.918354 0.974454
0.921785 0.932748 0.987563
0.976784 0.944212 0.998003
0.444855 0.907051 0.924698
0.499854 0.918515 0.935139
0.568909 0.932908 0.948247
0.647335 0.949255 0.963135
0.730446 0.966579 0.978911
0.813558 0.983902 0.994688
0.891984 1.000000 1.000000
0.961039 1.000000 1.000000
1.000000 1.000000 1.000000
0.041154 0.060432 0.606822
0.096153 0.071896 0.617262
0.165208 0.086289 0.630371
0.243634 0.102636 0.645258
0.326745 0.119960 0.661035
0.409856 0.137284 0.676812
0.488282 0.153631 0.691699
0.557337 0.168024 0.704808
0.612336 0.179488 0.715248
0.080408 0.142327 0.641944
0.135406 0.153791 0.652384
0.204461 0.168184 0.665492
0.282887 0.184531 0.680380
0.365999 0.201855 0.696157
0.449110 0.219179 0.711933
0.527536 0.235526 0.726821
0.596591 0.249919 0.739929
0.651590 0.261383 0.750370
0.129694 0.245153 0.686042
0.184692 0.256616 0.696482
0.253747 0.271010 0.709590
0.332173 0.287357 0.724478
0.415285 0.304681 0.740255
0.498396 0.322004 0.756031
0.576822 0.338351 0.770919
0.645877 0.352745 0.784027
0.700876 0.364209 0.794468
0.185668 0.361932 0.736124
0.240666 0.373396 0.746564
0.309721 0.387789 0.759673
0.388147 0.404136 0.774560
0.471259 0.421460 0.790337
0.554370 0.438783 0.806114
0.632796 0.455130 0.821001
0.701851 0.469524 0.834109
0.756850 0.480988 0.844550
0.244986 0.485688 0.789198
0.299985 0.497152 0.799638
0.369040 0.511545 0.812747
0.447466 0.527892 0.827634
0.530577 0.545216 0.843411
0.613688 0.562540 0.859188
0.692114 0.578887 0.874075
0.761169 0.593280 0.887184
0.816168 0.604744 0.897624
0.304304 0.609444 0.842272
0.359303 0.620908 0.852713
0.428358 0.635302 0.865821
0.506784 0.651649 0.880708
0.589895 0.668972 0.896485
0.673007 0.686296 0.912262
0.751433 0.702643 0.927149
0.820488 0.717036 0.940258
0.875486 0.728500 0.950698
0.360278 0.726223 0.892354
0.415277 0.737687 0.902795
0.484332 0.752081 0.915903
0.562758 0.768428 0.930791
0.645869 0.785751 0.946567
0.728981 0.803075 0.962344
0.807407 0.819422 0.977232
0.876462 0.833816 0.990340
0.931460 0.845279 1.000000
0.409564 0.829049 0.936452
0.464563 0.840513 0.946893
0.533618 0.854906 0.960001
0.612044 0.871253 0.974889
0.695155 0.888577 0.990665
0.778267 0.905901 1.000000
0.856693 0.922248 1.000000
0.925748 0.936641 1.000000
0.980746 0.948105 1.000000
0.448818 0.910944 0.971574
0.503817 0.922408 0.982014
0.572872 0.936801 0.995123
0.651298 0.953148 1.000000
0.734409 0.970472 1.000000
0.817520 0.987796 1.000000
0.895946 1.000000 1.000000
0.965001 1.000000 1.000000
1.000000 1.000000 1.000000
