assets/luts/noir.cube
# Noir — Studio filter "noir"
# Generated by scripts/generate-filter-luts.mjs — do not edit by hand.
LUT_3D_SIZE 17
DOMAIN_MIN 0.0 0.0 0.0
DOMAIN_MAX 1.0 1.0 1.0
0.000000 0.000000 0.000000
0.000000 0.000000 0.000000
0.011113 0.011113 0.011113
0.025104 0.025104 0.025104
0.039697 0.039697 0.039697
0.054761 0.054761 0.054761
0.070164 0.070164 0.070164
0.085775 0.085775 0.085775
0.101462 0.101462 0.101462
0.117094 0.117094 0.117094
0.132539 0.132539 0.132539
0.147665 0.147665 0.147665
0.162341 0.162341 0.162341
0.176435 0.176435 0.176435
0.189816 0.189816 0.189816
0.202353 0.202353 0.202353
0.213912 0.213912 0.213912
0.027150 0.027150 0.027150
0.039540 0.039540 0.039540
0.052797 0.052797 0.052797
0.066787 0.066787 0.066787
0.081380 0.081380 0.081380
0.096444 0.096444 0.096444
0.111847 0.111847 0.111847
0.127458 0.127458 0.127458
0.143145 0.143145 0.143145
0.158777 0.158777 0.158777
0.174222 0.174222 0.174222
0.189348 0.189348 0.189348
0.204024 0.204024 0.204024
0.218119 0.218119 0.218119
0.231500 0.231500 0.231500
0.244036 0.244036 0.244036
0.255595 0.255595 0.255595
0.071745 0.071745 0.071745
0.084136 0.084136 0.084136
0.097392 0.097392 0.097392
0.111382 0.111382 0.111382
0.125975 0.125975 0.125975
0.141039 0.141039 0.141039
0.156442 0.156442 0.156442
0.172053 0.172053 0.172053
0.187741 0.187741 0.187741
0.203372 0.203372 0.203372
0.218817 0.218817 0.218817
0.233943 0.233943 0.233943
0.248619 0.248619 0.248619
0.262714 0.262714 0.262714
0.276095 0.276095 0.276095
0.288631 0.288631 0.288631
0.300191 0.300191 0.300191
0.118810 0.118810 0.118810
0.131200 0.131200 0.131200
0.144457 0.144457 0.144457
0.158447 0.158447 0.158447
0.173040 0.173040 0.173040
0.188104 0.188104 0.188104
0.203507 0.203507 0.203507
0.219118 0.219118 0.219118
0.234805 0.234805 0.234805
0.250437 0.250437 0.250437
0.265882 0.265882 0.265882
0.281008 0.281008 0.281008
0.295684 0.295684 0.295684
0.309779 0.309779 0.309779
0.323160 0.323160 0.323160
0.335696 0.335696 0.335696
0.347255 0.347255 0.347255
0.167901 0.167901 0.167901
0.180292 0.180292 0.180292
0.193548 0.193548 0.193548
0.207539 0.207539 0.207539
0.222132 0.222132 0.222132
0.237196 0.237196 0.237196
0.252599 0.252599 0.252599
0.268210 0.268210 0.268210
0.283897 0.283897 0.283897
0.299529 0.299529 0.299529
0.314974 0.314974 0.314974
0.330100 0.330100 0.330100
0.344776 0.344776 0.344776
0.358870 0.358870 0.358870
0.372251 0.372251 0.372251
0.384787 0.384787 0.384787
0.396347 0.396347 0.396347
0.218577 0.218577 0.218577
0.230968 0.230968 0.230968
0.244224 0.244224 0.244224
0.258215 0.258215 0.258215
0.272808 0.272808 0.272808
0.287872 0.287872 0.287872
0.303275 0.303275 0.303275
0.318886 0.318886 0.318886
0.334573 0.334573 0.334573
0.350205 0.350205 0.350205
0.365650 0.365650 0.365650
0.380776 0.380776 0.380776
0.395452 0.395452 0.395452
0.409546 0.409546 0.409546
0.422927 0.422927 0.422927
0.435463 0.435463 0.435463
0.447023 0.447023 0.447023
0.270395 0.270395 0.270395
0.282785 0.282785 0.282785
0.296042 0.296042 0.296042
0.310032 0.310032 0.310032
0.324625 0.324625 0.324625
0.339689 0.339689 0.339689
0.355092 0.355092 0.355092
0.370703 0.370703 0.370703
0.386390 0.386390 0.386390
0.402022 0.402022 0.402022
0.417467 0.417467 0.417467
0.432593 0.432593 0.432593
0.447269 0.447269 0.447269
0.461364 0.461364 0.461364
0.474745 0.474745 0.474745
0.487281 0.487281 0.487281
0.498841 0.498841 0.498841
0.322911 0.322911 0.322911
0.335302 0.335302 0.335302
0.348558 0.348558 0.348558
0.362549 0.362549 0.362549
0.377142 0.377142 0.377142
0.392205 0.392205 0.392205
0.407609 0.407609 0.407609
0.423220 0.423220 0.423220
0.438907 0.438907 0.438907
0.454539 0.454539 0.454539
0.469983 0.469983 0.469983
0.485110 0.485110 0.485110
0.499786 0.499786 0.499786
0.513880 0.513880 0.513880
0.527261 0.527261 0.527261
0.539797 0.539797 0.539797
0.551357 0.551357 0.551357
0.375684 0.375684 0.375684
0.388074 0.388074 0.388074
0.401331 0.401331 0.401331
0.415321 0.415321 0.415321
0.429914 0.429914 0.429914
0.444978 0.444978 0.444978
0.460381 0.460381 0.460381
0.475992 0.475992 0.475992
0.491680 0.491680 0.491680
0.507311 0.507311 0.507311
0.522756 0.522756 0.522756
0.537882 0.537882 0.537882
0.552558 0.552558 0.552558
0.566653 0.566653 0.566653
0.580034 0.580034 0.580034
0.592570 0.592570 0.592570
0.604130 0.604130 0.604130
0.428270 0.428270 0.428270
0.440661 0.440661 0.440661
0.453917 0.453917 0.453917
0.467908 0.467908 0.467908
0.482501 0.482501 0.482501
0.497564 0.497564 0.497564
0.512968 0.512968 0.512968
0.528579 0.528579 0.528579
0.544266 0.544266 0.544266
0.559898 0.559898 0.559898
0.575342 0.575342 0.575342
0.590469 0.590469 0.590469
0.605145 0.605145 0.605145
0.619239 0.619239 0.619239
0.632620 0.632620 0.632620
0.645156 0.645156 0.645156
0.656716 0.656716 0.656716
0.480227 0.480227 0.480227
0.492618 0.492618 0.492618
0.505874 0.505874 0.505874
0.519865 0.519865 0.519865
0.534458 0.534458 0.534458
0.549522 0.549522 0.549522
0.564925 0.564925 0.564925
0.580536 0.580536 0.580536
0.596223 0.596223 0.596223
0.611855 0.611855 0.611855
0.627300 0.627300 0.627300
0.642426 0.642426 0.642426
0.657102 0.657102 0.657102
0.671196 0.671196 0.671196
0.684577 0.684577 0.684577
0.697113 0.697113 0.697113
0.708673 0.708673 0.708673
0.531113 0.531113 0.531113
0.543504 0.543504 0.543504
0.556760 0.556760 0.556760
0.570750 0.570750 0.570750
0.585343 0.585343 0.585343
0.600407 0.600407 0.600407
0.615811 0.615811 0.615811
0.631421 0.631421 0.631421
0.647109 0.647109 0.647109
0.662740 0.662740 0.662740
0.678185 0.678185 0.678185
0.693311 0.693311 0.693311
0.707988 0.707988 0.707988
0.722082 0.722082 0.722082
0.735463 0.735463 0.735463
0.747999 0.747999 0.747999
0.759559 0.759559 0.759559
0.580484 0.580484 0.580484
0.592875 0.592875 0.592875
0.606131 0.606131 0.606131
0.620122 0.620122 0.620122
0.634715 0.634715 0.634715
0.649779 0.649779 0.649779
0.665182 0.665182 0.665182
0.680793 0.680793 0.680793
0.696480 0.696480 0.696480
0.712112 0.712112 0.712112
0.727556 0.727556 0.727556
0.742683 0.742683 0.742683
0.757359 0.757359 0.757359
0.771453 0.771453 0.771453
0.784834 0.784834 0.784834
0.797370 0.797370 0.797370
0.808930 0.808930 0.808930
0.627898 0.627898 0.627898
0.640289 0.640289 0.640289
0.653545 0.653545 0.653545
0.667536 0.667536 0.667536
0.682129 0.682129 0.682129
0.697193 0.697193 0.697193
0.712596 0.712596 0.712596
0.728207 0.728207 0.728207
0.743894 0.743894 0.743894
0.759526 0.759526 0.759526
0.774971 0.774971 0.774971
0.790097 0.790097 0.790097
0.804773 0.804773 0.804773
0.818867 0.818867 0.818867
0.832248 0.832248 0.832248
0.844785 0.844785 0.844785
0.856344 0.856344 0.856344
0.672913 0.672913 0.672913
0.685304 0.685304 0.685304
0.698560 0.698560 0.698560
0.712551 0.712551 0.712551
0.727144 0.727144 0.727144
0.742207 0.742207 0.742207
0.757611 0.757611 0.757611
0.773222 0.773222 0.773222
0.788909 0.788909 0.788909
0.804541 0.804541 0.804541
0.819985 0.819985 0.819985
0.835112 0.835112 0.835112
0.849788 0.849788 0.849788
0.863882 0.863882 0.863882
0.877263 0.877263 0.877263
0.889799 0.889799 0.889799
0.901359 0.901359 0.901359
0.715085 0.715085 0.715085
0.727476 0.727476 0.727476
0.740732 0.740732 0.740732
0.754723 0.754723 0.754723
0.769316 0.769316 0.769316
0.784380 0.784380 0.784380
0.799783 0.799783 0.799783
0.815394 0.815394 0.815394
0.831081 0.831081 0.831081
0.846713 0.846713 0.846713
0.862158 0.862158 0.862158
0.877284 0.877284 0.877284
0.891960 0.891960 0.891960
0.906054 0.906054 0.906054
0.919435 0.919435 0.919435
0.931972 0.931972 0.931972
0.943531 0.943531 0.943531
0.753973 0.753973 0.753973
0.766364 0.766364 0.766364
0.779620 0.779620 0.779620
0.793610 0.793610 0.793610
0.808203 0.808203 0.808203
0.823267 0.823267 0.823267
0.838670 0.838670 0.838670
0.854281 0.854281 0.854281
0.869969 0.869969 0.869969
0.885600 0.885600 0.885600
0.901045 0.901045 0.901045
0.916171 0.916171 0.916171
0.930848 0.930848 0.930848
0.944942 0.944942 0.944942
0.958323 0.958323 0.958323
0.970859 0.970859 0.970859
0.982419 0.982419 0.982419
0.000000 0.000000 0.000000
0.002065 0.002065 0.002065
0.015321 0.015321 0.015321
0.029312 0.029312 0.029312
0.043905 0.043905 0.043905
0.058969 0.058969 0.058969
0.074372 0.074372 0.074372
0.089983 0.089983 0.089983
0.105670 0.105670 0.105670
0.121302 0.121302 0.121302
0.136747 0.136747 0.136747
0.151873 0.151873 0.151873
0.166549 0.166549 0.166549
0.180643 0.180643 0.180643
0.194024 0.194024 0.194024
0.206561 0.206561 0.206561
0.218120 0.218120 0.218120
0.031357 0.031357 0.031357
0.043748 0.043748 0.043748
0.057005 0.057005 0.057005
0.070995 0.070995 0.070995
0.085588 0.085588 0.085588
0.100652 0.100652 0.100652
0.116055 0.116055 0.116055
0.131666 0.131666 0.131666
0.147353 0.147353 0.147353
0.162985 0.162985 0.162985
0.178430 0.178430 0.178430
0.193556 0.193556 0.193556
0.208232 0.208232 0.208232
0.222326 0.222326 0.222326
0.235708 0.235708 0.235708
0.248244 0.248244 0.248244
0.259803 0.259803 0.259803
0.075953 0.075953 0.075953
0.088343 0.088343 0.088343
0.101600 0.101600 0.101600
0.115590 0.115590 0.115590
0.130183 0.130183 0.130183
0.145247 0.145247 0.145247
0.160650 0.160650 0.160650
0.176261 0.176261 0.176261
0.191949 0.191949 0.191949
0.207580 0.207580 0.207580
0.223025 0.223025 0.223025
0.238151 0.238151 0.238151
0.252827 0.252827 0.252827
0.266922 0.266922 0.266922
0.280303 0.280303 0.280303
0.292839 0.292839 0.292839
0.304399 0.304399 0.304399
0.123018 0.123018 0.123018
0.135408 0.135408 0.135408
0.148665 0.148665 0.148665
0.162655 0.162655 0.162655
0.177248 0.177248 0.177248
0.192312 0.192312 0.192312
0.207715 0.207715 0.207715
0.223326 0.223326 0.223326
0.239013 0.239013 0.239013
0.254645 0.254645 0.254645
0.270090 0.270090 0.270090
0.285216 0.285216 0.285216
0.299892 0.299892 0.299892
0.313987 0.313987 0.313987
0.327368 0.327368 0.327368
0.339904 0.339904 0.339904
0.351463 0.351463 0.351463
0.172109 0.172109 0.172109
0.184500 0.184500 0.184500
0.197756 0.197756 0.197756
0.211747 0.211747 0.211747
0.226340 0.226340 0.226340
0.241404 0.241404 0.241404
0.256807 0.256807 0.256807
0.272418 0.272418 0.272418
0.288105 0.288105 0.288105
0.303737 0.303737 0.303737
0.319182 0.319182 0.319182
0.334308 0.334308 0.334308
0.348984 0.348984 0.348984
0.363078 0.363078 0.363078
0.376459 0.376459 0.376459
0.388995 0.388995 0.388995
0.400555 0.400555 0.400555
0.222785 0.222785 0.222785
0.235176 0.235176 0.235176
0.248432 0.248432 0.248432
0.262423 0.262423 0.262423
0.277016 0.277016 0.277016
0.292080 0.292080 0.292080
0.307483 0.307483 0.307483
0.323094 0.323094 0.323094
0.338781 0.338781 0.338781
0.354413 0.354413 0.354413
0.369858 0.369858 0.369858
0.384984 0.384984 0.384984
0.399660 0.399660 0.399660
0.413754 0.413754 0.413754
0.427135 0.427135 0.427135
0.439671 0.439671 0.439671
0.451231 0.451231 0.451231
0.274603 0.274603 0.274603
0.286993 0.286993 0.286993
0.300250 0.300250 0.300250
0.314240 0.314240 0.314240
0.328833 0.328833 0.328833
0.343897 0.343897 0.343897
0.359300 0.359300 0.359300
0.374911 0.374911 0.374911
0.390598 0.390598 0.390598
0.406230 0.406230 0.406230
0.421675 0.421675 0.421675
0.436801 0.436801 0.436801
0.451477 0.451477 0.451477
0.465572 0.465572 0.465572
0.478953 0.478953 0.478953
0.491489 0.491489 0.491489
0.503048 0.503048 0.503048
0.327119 0.327119 0.327119
0.339510 0.339510 0.339510
0.352766 0.352766 0.352766
0.366757 0.366757 0.366757
0.381350 0.381350 0.381350
0.396413 0.396413 0.396413
0.411817 0.411817 0.411817
0.427428 0.427428 0.427428
0.443115 0.443115 0.443115
0.458747 0.458747 0.458747
0.474191 0.474191 0.474191
0.489318 0.489318 0.489318
0.503994 0.503994 0.503994
0.518088 0.518088 0.518088
0.531469 0.531469 0.531469
0.544005 0.544005 0.544005
0.555565 0.555565 0.555565
0.379892 0.379892 0.379892
0.392282 0.392282 0.392282
0.405539 0.405539 0.405539
0.419529 0.419529 0.419529
0.434122 0.434122 0.434122
0.449186 0.449186 0.449186
0.464589 0.464589 0.464589
0.480200 0.480200 0.480200
0.495887 0.495887 0.495887
0.511519 0.511519 0.511519
0.526964 0.526964 0.526964
0.542090 0.542090 0.542090
0.556766 0.556766 0.556766
0.570861 0.570861 0.570861
0.584242 0.584242 0.584242
0.596778 0.596778 0.596778
0.608338 0.608338 0.608338
0.432478 0.432478 0.432478
0.444869 0.444869 0.444869
0.458125 0.458125 0.458125
0.472116 0.472116 0.472116
0.486708 0.486708 0.486708
0.501772 0.501772 0.501772
0.517176 0.517176 0.517176
0.532787 0.532787 0.532787
0.548474 0.548474 0.548474
0.564106 0.564106 0.564106
0.579550 0.579550 0.579550
0.594677 0.594677 0.594677
0.609353 0.609353 0.609353
0.623447 0.623447 0.623447
0.636828 0.636828 0.636828
0.649364 0.649364 0.649364
0.660924 0.660924 0.660924
0.484435 0.484435 0.484435
0.496826 0.496826 0.496826
0.510082 0.510082 0.510082
0.524073 0.524073 0.524073
0.538666 0.538666 0.538666
0.553730 0.553730 0.553730
0.569133 0.569133 0.569133
0.584744 0.584744 0.584744
0.600431 0.600431 0.600431
0.616063 0.616063 0.616063
0.631508 0.631508 0.631508
0.646634 0.646634 0.646634
0.661310 0.661310 0.661310
0.675404 0.675404 0.675404
0.688785 0.688785 0.688785
0.701321 0.701321 0.701321
0.712881 0.712881 0.712881
0.535321 0.535321 0.535321
0.547712 0.547712 0.547712
0.560968 0.560968 0.560968
0.574958 0.574958 0.574958
0.589551 0.589551 0.589551
0.604615 0.604615 0.604615
0.620018 0.620018 0.620018
0.635629 0.635629 0.635629
0.651317 0.651317 0.651317
0.666948 0.666948 0.666948
0.682393 0.682393 0.682393
0.697519 0.697519 0.697519
0.712195 0.712195 0.712195
0.726290 0.726290 0.726290
0.739671 0.739671 0.739671
0.752207 0.752207 0.752207
0.763767 0.763767 0.763767
0.584692 0.584692 0.584692
0.597083 0.597083 0.597083
0.610339 0.610339 0.610339
0.624330 0.624330 0.624330
0.638923 0.638923 0.638923
0.653986 0.653986 0.653986
0.669390 0.669390 0.669390
0.685001 0.685001 0.685001
0.700688 0.700688 0.700688
0.716320 0.716320 0.716320
0.731764 0.731764 0.731764
0.746891 0.746891 0.746891
0.761567 0.761567 0.761567
0.775661 0.775661 0.775661
0.789042 0.789042 0.789042
0.801578 0.801578 0.801578
0.813138 0.813138 0.813138
0.632106 0.632106 0.632106
0.644497 0.644497 0.644497
0.657753 0.657753 0.657753
0.671744 0.671744 0.671744
0.686337 0.686337 0.686337
0.701401 0.701401 0.701401
0.716804 0.716804 0.716804
0.732415 0.732415 0.732415
0.748102 0.748102 0.748102
0.763734 0.763734 0.763734
0.779179 0.779179 0.779179
0.794305 0.794305 0.794305
0.808981 0.808981 0.808981
0.823075 0.823075 0.823075
0.836456 0.836456 0.836456
0.848993 0.848993 0.848993
0.860552 0.860552 0.860552
0.677121 0.677121 0.677121
0.689512 0.689512 0.689512
0.702768 0.702768 0.702768
0.716759 0.716759 0.716759
0.731351 0.731351 0.731351
0.746415 0.746415 0.746415
0.761819 0.761819 0.761819
0.777430 0.777430 0.777430
0.793117 0.793117 0.793117
0.808749 0.808749 0.808749
0.824193 0.824193 0.824193
0.839320 0.839320 0.839320
0.853996 0.853996 0.853996
0.868090 0.868090 0.868090
0.881471 0.881471 0.881471
0.894007 0.894007 0.894007
0.905567 0.905567 0.905567
0.719293 0.719293 0.719293
0.731684 0.731684 0.731684
0.744940 0.744940 0.744940
0.758931 0.758931 0.758931
0.773524 0.773524 0.773524
0.788588 0.788588 0.788588
0.803991 0.803991 0.803991
0.819602 0.819602 0.819602
0.835289 0.835289 0.835289
0.850921 0.850921 0.850921
0.866366 0.866366 0.866366
0.881492 0.881492 0.881492
0.896168 0.896168 0.896168
0.910262 0.910262 0.910262
0.923643 0.923643 0.923643
0.936180 0.936180 0.936180
0.947739 0.947739 0.947739
0.758181 0.758181 0.758181
0.770571 0.770571 0.770571
0.783828 0.783828 0.783828
0.797818 0.797818 0.797818
0.812411 0.812411 0.812411
0.827475 0.827475 0.827475
0.842878 0.842878 0.842878
0.858489 0.858489 0.858489
0.874177 0.874177 0.874177
0.889808 0.889808 0.889808
0.905253 0.905253 0.905253
0.920379 0.920379 0.920379
0.935055 0.935055 0.935055
0.949150 0.949150 0.949150
0.962531 0.962531 0.962531
0.975067 0.975067 0.975067
0.986627 0.986627 0.986627
0.000000 0.000000 0.000000
0.006567 0.006567 0.006567
0.019823 0.019823 0.019823
0.033814 0.033814 0.033814
0.048407 0.048407 0.048407
0.063471 0.063471 0.063471
0.078874 0.078874 0.078874
0.094485 0.094485 0.094485
0.110172 0.110172 0.110172
0.125804 0.125804 0.125804
0.141249 0.141249 0.141249
0.156375 0.156375 0.156375
0.171051 0.171051 0.171051
0.185145 0.185145 0.185145
0.198526 0.198526 0.198526
0.211062 0.211062 0.211062
0.222622 0.222622 0.222622
0.035859 0.035859 0.035859
0.048250 0.048250 0.048250
0.061506 0.061506 0.061506
0.075497 0.075497 0.075497
0.090090 0.090090 0.090090
0.105154 0.105154 0.105154
0.120557 0.120557 0.120557
0.136168 0.136168 0.136168
0.151855 0.151855 0.151855
0.167487 0.167487 0.167487
0.182932 0.182932 0.182932
0.198058 0.198058 0.198058
0.212734 0.212734 0.212734
0.226828 0.226828 0.226828
0.240209 0.240209 0.240209
0.252746 0.252746 0.252746
0.264305 0.264305 0.264305
0.080455 0.080455 0.080455
0.092845 0.092845 0.092845
0.106102 0.106102 0.106102
0.120092 0.120092 0.120092
0.134685 0.134685 0.134685
0.149749 0.149749 0.149749
0.165152 0.165152 0.165152
0.180763 0.180763 0.180763
0.196451 0.196451 0.196451
0.212082 0.212082 0.212082
0.227527 0.227527 0.227527
0.242653 0.242653 0.242653
0.257329 0.257329 0.257329
0.271424 0.271424 0.271424
0.284805 0.284805 0.284805
0.297341 0.297341 0.297341
0.308901 0.308901 0.308901
0.127519 0.127519 0.127519
0.139910 0.139910 0.139910
0.153167 0.153167 0.153167
0.167157 0.167157 0.167157
0.181750 0.181750 0.181750
0.196814 0.196814 0.196814
0.212217 0.212217 0.212217
0.227828 0.227828 0.227828
0.243515 0.243515 0.243515
0.259147 0.259147 0.259147
0.274592 0.274592 0.274592
0.289718 0.289718 0.289718
0.304394 0.304394 0.304394
0.318489 0.318489 0.318489
0.331870 0.331870 0.331870
0.344406 0.344406 0.344406
0.355965 0.355965 0.355965
0.176611 0.176611 0.176611
0.189002 0.189002 0.189002
0.202258 0.202258 0.202258
0.216249 0.216249 0.216249
0.230842 0.230842 0.230842
0.245906 0.245906 0.245906
0.261309 0.261309 0.261309
0.276920 0.276920 0.276920
0.292607 0.292607 0.292607
0.308239 0.308239 0.308239
0.323684 0.323684 0.323684
0.338810 0.338810 0.338810
0.353486 0.353486 0.353486
0.367580 0.367580 0.367580
0.380961 0.380961 0.380961
0.393497 0.393497 0.393497
0.405057 0.405057 0.405057
0.227287 0.227287 0.227287
0.239678 0.239678 0.239678
0.252934 0.252934 0.252934
0.266925 0.266925 0.266925
0.281518 0.281518 0.281518
0.296581 0.296581 0.296581
0.311985 0.311985 0.311985
0.327596 0.327596 0.327596
0.343283 0.343283 0.343283
0.358915 0.358915 0.358915
0.374359 0.374359 0.374359
0.389486 0.389486 0.389486
0.404162 0.404162 0.404162
0.418256 0.418256 0.418256
0.431637 0.431637 0.431637
0.444173 0.444173 0.444173
0.455733 0.455733 0.455733
0.279105 0.279105 0.279105
0.291495 0.291495 0.291495
0.304752 0.304752 0.304752
0.318742 0.318742 0.318742
0.333335 0.333335 0.333335
0.348399 0.348399 0.348399
0.363802 0.363802 0.363802
0.379413 0.379413 0.379413
0.395100 0.395100 0.395100
0.410732 0.410732 0.410732
0.426177 0.426177 0.426177
0.441303 0.441303 0.441303
0.455979 0.455979 0.455979
0.470074 0.470074 0.470074
0.483455 0.483455 0.483455
0.495991 0.495991 0.495991
0.507550 0.507550 0.507550
0.331621 0.331621 0.331621
0.344012 0.344012 0.344012
0.357268 0.357268 0.357268
0.371258 0.371258 0.371258
0.385851 0.385851 0.385851
0.400915 0.400915 0.400915
0.416319 0.416319 0.416319
0.431930 0.431930 0.431930
0.447617 0.447617 0.447617
0.463249 0.463249 0.463249
0.478693 0.478693 0.478693
0.493820 0.493820 0.493820
0.508496 0.508496 0.508496
0.522590 0.522590 0.522590
0.535971 0.535971 0.535971
0.548507 0.548507 0.548507
0.560067 0.560067 0.560067
0.384394 0.384394 0.384394
0.396784 0.396784 0.396784
0.410041 0.410041 0.410041
0.424031 0.424031 0.424031
0.438624 0.438624 0.438624
0.453688 0.453688 0.453688
0.469091 0.469091 0.469091
0.484702 0.484702 0.484702
0.500389 0.500389 0.500389
0.516021 0.516021 0.516021
0.531466 0.531466 0.531466
0.546592 0.546592 0.546592
0.561268 0.561268 0.561268
0.575363 0.575363 0.575363
0.588744 0.588744 0.588744
0.601280 0.601280 0.601280
0.612839 0.612839 0.612839
0.436980 0.436980 0.436980
0.449371 0.449371 0.449371
0.462627 0.462627 0.462627
0.476617 0.476617 0.476617
0.491210 0.491210 0.491210
0.506274 0.506274 0.506274
0.521678 0.521678 0.521678
0.537289 0.537289 0.537289
0.552976 0.552976 0.552976
0.568607 0.568607 0.568607
0.584052 0.584052 0.584052
0.599178 0.599178 0.599178
0.613855 0.613855 0.613855
0.627949 0.627949 0.627949
0.641330 0.641330 0.641330
0.653866 0.653866 0.653866
0.665426 0.665426 0.665426
0.488937 0.488937 0.488937
0.501328 0.501328 0.501328
0.514584 0.514584 0.514584
0.528575 0.528575 0.528575
0.543168 0.543168 0.543168
0.558232 0.558232 0.558232
0.573635 0.573635 0.573635
0.589246 0.589246 0.589246
0.604933 0.604933 0.604933
0.620565 0.620565 0.620565
0.636010 0.636010 0.636010
0.651136 0.651136 0.651136
0.665812 0.665812 0.665812
0.679906 0.679906 0.679906
0.693287 0.693287 0.693287
0.705823 0.705823 0.705823
0.717383 0.717383 0.717383
0.539823 0.539823 0.539823
0.552213 0.552213 0.552213
0.565470 0.565470 0.565470
0.579460 0.579460 0.579460
0.594053 0.594053 0.594053
0.609117 0.609117 0.609117
0.624520 0.624520 0.624520
0.640131 0.640131 0.640131
0.655819 0.655819 0.655819
0.671450 0.671450 0.671450
0.686895 0.686895 0.686895
0.702021 0.702021 0.702021
0.716697 0.716697 0.716697
0.730792 0.730792 0.730792
0.744173 0.744173 0.744173
0.756709 0.756709 0.756709
0.768269 0.768269 0.768269
0.589194 0.589194 0.589194
0.601585 0.601585 0.601585
0.614841 0.614841 0.614841
0.628832 0.628832 0.628832
0.643424 0.643424 0.643424
0.658488 0.658488 0.658488
0.673892 0.673892 0.673892
0.689503 0.689503 0.689503
0.705190 0.705190 0.705190
0.720822 0.720822 0.720822
0.736266 0.736266 0.736266
0.751393 0.751393 0.751393
0.766069 0.766069 0.766069
0.780163 0.780163 0.780163
0.793544 0.793544 0.793544
0.806080 0.806080 0.806080
0.817640 0.817640 0.817640
0.636608 0.636608 0.636608
0.648999 0.648999 0.648999
0.662255 0.662255 0.662255
0.676246 0.676246 0.676246
0.690839 0.690839 0.690839
0.705903 0.705903 0.705903
0.721306 0.721306 0.721306
0.736917 0.736917 0.736917
0.752604 0.752604 0.752604
0.768236 0.768236 0.768236
0.783681 0.783681 0.783681
0.798807 0.798807 0.798807
0.813483 0.813483 0.813483
0.827577 0.827577 0.827577
0.840958 0.840958 0.840958
0.853494 0.853494 0.853494
0.865054 0.865054 0.865054
0.681623 0.681623 0.681623
0.694014 0.694014 0.694014
0.707270 0.707270 0.707270
0.721260 0.721260 0.721260
0.735853 0.735853 0.735853
0.750917 0.750917 0.750917
0.766321 0.766321 0.766321
0.781932 0.781932 0.781932
0.797619 0.797619 0.797619
0.813250 0.813250 0.813250
0.828695 0.828695 0.828695
0.843821 0.843821 0.843821
0.858498 0.858498 0.858498
0.872592 0.872592 0.872592
0.885973 0.885973 0.885973
0.898509 0.898509 0.898509
0.910069 0.910069 0.910069
0.723795 0.723795 0.723795
0.736186 0.736186 0.736186
0.749442 0.749442 0.749442
0.763433 0.763433 0.763433
0.778026 0.778026 0.778026
0.793090 0.793090 0.793090
0.808493 0.808493 0.808493
0.824104 0.824104 0.824104
0.839791 0.839791 0.839791
0.855423 0.855423 0.855423
0.870868 0.870868 0.870868
0.885994 0.885994 0.885994
0.900670 0.900670 0.900670
0.914764 0.914764 0.914764
0.928145 0.928145 0.928145
0.940681 0.940681 0.940681
0.952241 0.952241 0.952241
0.762683 0.762683 0.762683
0.775073 0.775073 0.775073
0.788330 0.788330 0.788330
0.802320 0.802320 0.802320
0.816913 0.816913 0.816913
0.831977 0.831977 0.831977
0.847380 0.847380 0.847380
0.862991 0.862991 0.862991
0.878679 0.878679 0.878679
0.894310 0.894310 0.894310
0.909755 0.909755 0.909755
0.924881 0.924881 0.924881
0.939557 0.939557 0.939557
0.953652 0.953652 0.953652
0.967033 0.967033 0.967033
0.979569 0.979569 0.979569
0.991129 0.991129 0.991129
0.000000 0.000000 0.000000
0.011318 0.011318 0.011318
0.024575 0.024575 0.024575
0.038565 0.038565 0.038565
0.053158 0.053158 0.053158
0.068222 0.068222 0.068222
0.083625 0.083625 0.083625
0.099236 0.099236 0.099236
0.114923 0.114923 0.114923
0.130555 0.130555 0.130555
0.146000 0.146000 0.146000
0.161126 0.161126 0.161126
0.175802 0.175802 0.175802
0.189897 0.189897 0.189897
0.203278 0.203278 0.203278
