assets/luts/noir.cube
# Noir — Studio filter "noir"
# Generated by scripts/generate-filter-luts.mjs — do not edit by hand.
LUT_3D_SIZE 5
DOMAIN_MIN 0.0 0.0 0.0
DOMAIN_MAX 1.0 1.0 1.0
0.000000 0.000000 0.000000
0.039697 0.039697 0.039697
0.101462 0.101462 0.101462
0.162341 0.162341 0.162341
0.213912 0.213912 0.213912
0.167901 0.167901 0.167901
0.222132 0.222132 0.222132
0.283897 0.283897 0.283897
0.344776 0.344776 0.344776
0.396347 0.396347 0.396347
0.375684 0.375684 0.375684
0.429914 0.429914 0.429914
0.491680 0.491680 0.491680
0.552558 0.552558 0.552558
0.604130 0.604130 0.604130
0.580484 0.580484 0.580484
0.634715 0.634715 0.634715
0.696480 0.696480 0.696480
0.757359 0.757359 0.757359
0.808930 0.808930 0.808930
0.753973 0.753973 0.753973
0.808203 0.808203 0.808203
0.869969 0.869969 0.869969
0.930848 0.930848 0.930848
0.982419 0.982419 0.982419
0.003883 0.003883 0.003883
0.058114 0.058114 0.058114
0.119879 0.119879 0.119879
0.180758 0.180758 0.180758
0.232329 0.232329 0.232329
0.186318 0.186318 0.186318
0.240549 0.240549 0.240549
0.302314 0.302314 0.302314
0.363193 0.363193 0.363193
0.414764 0.414764 0.414764
0.394101 0.394101 0.394101
0.448331 0.448331 0.448331
0.510097 0.510097 0.510097
0.570975 0.570975 0.570975
0.622547 0.622547 0.622547
0.598901 0.598901 0.598901
0.653132 0.653132 0.653132
0.714897 0.714897 0.714897
0.775776 0.775776 0.775776
0.827347 0.827347 0.827347
0.772390 0.772390 0.772390
0.826620 0.826620 0.826620
0.888386 0.888386 0.888386
0.949264 0.949264 0.949264
1.000000 1.000000 1.000000
0.024859 0.024859 0.024859
0.079090 0.079090 0.079090
0.140855 0.140855 0.140855
0.201734 0.201734 0.201734
0.253305 0.253305 0.253305
0.207294 0.207294 0.207294
0.261525 0.261525 0.261525
0.323290 0.323290 0.323290
0.384169 0.384169 0.384169
0.435740 0.435740 0.435740
0.415076 0.415076 0.415076
0.469307 0.469307 0.469307
0.531072 0.531072 0.531072
0.591951 0.591951 0.591951
0.643522 0.643522 0.643522
0.619877 0.619877 0.619877
0.674107 0.674107 0.674107
0.735873 0.735873 0.735873
0.796752 0.796752 0.796752
0.848323 0.848323 0.848323
0.793366 0.793366 0.793366
0.847596 0.847596 0.847596
0.909361 0.909361 0.909361
0.970240 0.970240 0.970240
1.000000 1.000000 1.000000
0.045534 0.045534 0.045534
0.099764 0.099764 0.099764
0.161530 0.161530 0.161530
0.222409 0.222409 0.222409
0.273980 0.273980 0.273980
0.227969 0.227969 0.227969
0.282199 0.282199 0.282199
0.343965 0.343965 0.343965
0.404843 0.404843 0.404843
0.456415 0.456415 0.456415
0.435751 0.435751 0.435751
0.489982 0.489982 0.489982
0.551747 0.551747 0.551747
0.612626 0.612626 0.612626
0.664197 0.664197 0.664197
0.640552 0.640552 0.640552
0.694782 0.694782 0.694782
0.756547 0.756547 0.756547
0.817426 0.817426 0.817426
0.868997 0.868997 0.868997
0.814040 0.814040 0.814040
0.868271 0.868271 0.868271
0.930036 0.930036 0.930036
0.990915 0.990915 0.990915
1.000000 1.000000 1.000000
0.063048 0.063048 0.063048
0.117278 0.117278 0.117278
0.179044 0.179044 0.179044
0.239922 0.239922 0.239922
0.291494 0.291494 0.291494
0.245483 0.245483 0.245483
0.299713 0.299713 0.299713
0.361478 0.361478 0.361478
0.422357 0.422357 0.422357
0.473928 0.473928 0.473928
0.453265 0.453265 0.453265
0.507496 0.507496 0.507496
0.569261 0.569261 0.569261
0.630140 0.630140 0.630140
0.681711 0.681711 0.681711
0.658065 0.658065 0.658065
0.712296 0.712296 0.712296
0.774061 0.774061 0.774061
0.834940 0.834940 0.834940
0.886511 0.886511 0.886511
0.831554 0.831554 0.831554
0.885785 0.885785 0.885785
0.947550 0.947550 0.947550
1.000000 1.000000 1.000000
1.000000 1.000000 1.000000
