assets/luts/noir.cube
# Noir — Studio filter "noir"
# Generated by scripts/generate-filter-luts.mjs — do not edit by hand.
LUT_3D_SIZE 9
DOMAIN_MIN 0.0 0.0 0.0
DOMAIN_MAX 1.0 1.0 1.0
0.000000 0.000000 0.000000
0.011113 0.011113 0.011113
0.039697 0.039697 0.039697
0.070164 0.070164 0.070164
0.101462 0.101462 0.101462
0.132539 0.132539 0.132539
0.162341 0.162341 0.162341
0.189816 0.189816 0.189816
0.213912 0.213912 0.213912
0.071745 0.071745 0.071745
0.097392 0.097392 0.097392
0.125975 0.125975 0.125975
0.156442 0.156442 0.156442
0.187741 0.187741 0.187741
0.218817 0.218817 0.218817
0.248619 0.248619 0.248619
0.276095 0.276095 0.276095
0.300191 0.300191 0.300191
0.167901 0.167901 0.167901
0.193548 0.193548 0.193548
0.222132 0.222132 0.222132
0.252599 0.252599 0.252599
0.283897 0.283897 0.283897
0.314974 0.314974 0.314974
0.344776 0.344776 0.344776
0.372251 0.372251 0.372251
0.396347 0.396347 0.396347
0.270395 0.270395 0.270395
0.296042 0.296042 0.296042
0.324625 0.324625 0.324625
0.355092 0.355092 0.355092
0.386390 0.386390 0.386390
0.417467 0.417467 0.417467
0.447269 0.447269 0.447269
0.474745 0.474745 0.474745
0.498841 0.498841 0.498841
0.375684 0.375684 0.375684
0.401331 0.401331 0.401331
0.429914 0.429914 0.429914
0.460381 0.460381 0.460381
0.491680 0.491680 0.491680
0.522756 0.522756 0.522756
0.552558 0.552558 0.552558
0.580034 0.580034 0.580034
0.604130 0.604130 0.604130
0.480227 0.480227 0.480227
0.505874 0.505874 0.505874
0.534458 0.534458 0.534458
0.564925 0.564925 0.564925
0.596223 0.596223 0.596223
0.627300 0.627300 0.627300
0.657102 0.657102 0.657102
0.684577 0.684577 0.684577
0.708673 0.708673 0.708673
0.580484 0.580484 0.580484
0.606131 0.606131 0.606131
0.634715 0.634715 0.634715
0.665182 0.665182 0.665182
0.696480 0.696480 0.696480
0.727556 0.727556 0.727556
0.757359 0.757359 0.757359
0.784834 0.784834 0.784834
0.808930 0.808930 0.808930
0.672913 0.672913 0.672913
0.698560 0.698560 0.698560
0.727144 0.727144 0.727144
0.757611 0.757611 0.757611
0.788909 0.788909 0.788909
0.819985 0.819985 0.819985
0.849788 0.849788 0.849788
0.877263 0.877263 0.877263
0.901359 0.901359 0.901359
0.753973 0.753973 0.753973
0.779620 0.779620 0.779620
0.808203 0.808203 0.808203
0.838670 0.838670 0.838670
0.869969 0.869969 0.869969
0.901045 0.901045 0.901045
0.930848 0.930848 0.930848
0.958323 0.958323 0.958323
0.982419 0.982419 0.982419
0.000000 0.000000 0.000000
0.019823 0.019823 0.019823
0.048407 0.048407 0.048407
0.078874 0.078874 0.078874
0.110172 0.110172 0.110172
0.141249 0.141249 0.141249
0.171051 0.171051 0.171051
0.198526 0.198526 0.198526
0.222622 0.222622 0.222622
0.080455 0.080455 0.080455
0.106102 0.106102 0.106102
0.134685 0.134685 0.134685
0.165152 0.165152 0.165152
0.196451 0.196451 0.196451
0.227527 0.227527 0.227527
0.257329 0.257329 0.257329
0.284805 0.284805 0.284805
0.308901 0.308901 0.308901
0.176611 0.176611 0.176611
0.202258 0.202258 0.202258
0.230842 0.230842 0.230842
0.261309 0.261309 0.261309
0.292607 0.292607 0.292607
0.323684 0.323684 0.323684
0.353486 0.353486 0.353486
0.380961 0.380961 0.380961
0.405057 0.405057 0.405057
0.279105 0.279105 0.279105
0.304752 0.304752 0.304752
0.333335 0.333335 0.333335
0.363802 0.363802 0.363802
0.395100 0.395100 0.395100
0.426177 0.426177 0.426177
0.455979 0.455979 0.455979
0.483455 0.483455 0.483455
0.507550 0.507550 0.507550
0.384394 0.384394 0.384394
0.410041 0.410041 0.410041
0.438624 0.438624 0.438624
0.469091 0.469091 0.469091
0.500389 0.500389 0.500389
0.531466 0.531466 0.531466
0.561268 0.561268 0.561268
0.588744 0.588744 0.588744
0.612839 0.612839 0.612839
0.488937 0.488937 0.488937
0.514584 0.514584 0.514584
0.543168 0.543168 0.543168
0.573635 0.573635 0.573635
0.604933 0.604933 0.604933
0.636010 0.636010 0.636010
0.665812 0.665812 0.665812
0.693287 0.693287 0.693287
0.717383 0.717383 0.717383
0.589194 0.589194 0.589194
0.614841 0.614841 0.614841
0.643424 0.643424 0.643424
0.673892 0.673892 0.673892
0.705190 0.705190 0.705190
0.736266 0.736266 0.736266
0.766069 0.766069 0.766069
0.793544 0.793544 0.793544
0.817640 0.817640 0.817640
0.681623 0.681623 0.681623
0.707270 0.707270 0.707270
0.735853 0.735853 0.735853
0.766321 0.766321 0.766321
0.797619 0.797619 0.797619
0.828695 0.828695 0.828695
0.858498 0.858498 0.858498
0.885973 0.885973 0.885973
0.910069 0.910069 0.910069
0.762683 0.762683 0.762683
0.788330 0.788330 0.788330
0.816913 0.816913 0.816913
0.847380 0.847380 0.847380
0.878679 0.878679 0.878679
0.909755 0.909755 0.909755
0.939557 0.939557 0.939557
0.967033 0.967033 0.967033
0.991129 0.991129 0.991129
0.003883 0.003883 0.003883
0.029530 0.029530 0.029530
0.058114 0.058114 0.058114
0.088581 0.088581 0.088581
0.119879 0.119879 0.119879
0.150956 0.150956 0.150956
0.180758 0.180758 0.180758
0.208233 0.208233 0.208233
0.232329 0.232329 0.232329
0.090162 0.090162 0.090162
0.115809 0.115809 0.115809
0.144392 0.144392 0.144392
0.174859 0.174859 0.174859
0.206158 0.206158 0.206158
0.237234 0.237234 0.237234
0.267036 0.267036 0.267036
0.294512 0.294512 0.294512
0.318608 0.318608 0.318608
0.186318 0.186318 0.186318
0.211965 0.211965 0.211965
0.240549 0.240549 0.240549
0.271016 0.271016 0.271016
0.302314 0.302314 0.302314
0.333391 0.333391 0.333391
0.363193 0.363193 0.363193
0.390668 0.390668 0.390668
0.414764 0.414764 0.414764
0.288812 0.288812 0.288812
0.314459 0.314459 0.314459
0.343042 0.343042 0.343042
0.373509 0.373509 0.373509
0.404807 0.404807 0.404807
0.435884 0.435884 0.435884
0.465686 0.465686 0.465686
0.493162 0.493162 0.493162
0.517257 0.517257 0.517257
0.394101 0.394101 0.394101
0.419748 0.419748 0.419748
0.448331 0.448331 0.448331
0.478798 0.478798 0.478798
0.510097 0.510097 0.510097
0.541173 0.541173 0.541173
0.570975 0.570975 0.570975
0.598451 0.598451 0.598451
0.622547 0.622547 0.622547
0.498644 0.498644 0.498644
0.524291 0.524291 0.524291
0.552875 0.552875 0.552875
0.583342 0.583342 0.583342
0.614640 0.614640 0.614640
0.645717 0.645717 0.645717
0.675519 0.675519 0.675519
0.702994 0.702994 0.702994
0.727090 0.727090 0.727090
0.598901 0.598901 0.598901
0.624548 0.624548 0.624548
0.653132 0.653132 0.653132
0.683599 0.683599 0.683599
0.714897 0.714897 0.714897
0.745973 0.745973 0.745973
0.775776 0.775776 0.775776
0.803251 0.803251 0.803251
0.827347 0.827347 0.827347
0.691330 0.691330 0.691330
0.716977 0.716977 0.716977
0.745560 0.745560 0.745560
0.776028 0.776028 0.776028
0.807326 0.807326 0.807326
0.838402 0.838402 0.838402
0.868205 0.868205 0.868205
0.895680 0.895680 0.895680
0.919776 0.919776 0.919776
0.772390 0.772390 0.772390
0.798037 0.798037 0.798037
0.826620 0.826620 0.826620
0.857087 0.857087 0.857087
0.888386 0.888386 0.888386
0.919462 0.919462 0.919462
0.949264 0.949264 0.949264
0.976740 0.976740 0.976740
1.000000 1.000000 1.000000
0.014230 0.014230 0.014230
0.039877 0.039877 0.039877
0.068461 0.068461 0.068461
0.098928 0.098928 0.098928
0.130226 0.130226 0.130226
0.161303 0.161303 0.161303
0.191105 0.191105 0.191105
0.218580 0.218580 0.218580
0.242676 0.242676 0.242676
0.100509 0.100509 0.100509
0.126156 0.126156 0.126156
0.154739 0.154739 0.154739
0.185206 0.185206 0.185206
0.216504 0.216504 0.216504
0.247581 0.247581 0.247581
0.277383 0.277383 0.277383
0.304859 0.304859 0.304859
0.328954 0.328954 0.328954
0.196665 0.196665 0.196665
0.222312 0.222312 0.222312
0.250896 0.250896 0.250896
0.281363 0.281363 0.281363
0.312661 0.312661 0.312661
0.343737 0.343737 0.343737
0.373540 0.373540 0.373540
0.401015 0.401015 0.401015
0.425111 0.425111 0.425111
0.299158 0.299158 0.299158
0.324805 0.324805 0.324805
0.353389 0.353389 0.353389
0.383856 0.383856 0.383856
0.415154 0.415154 0.415154
0.446231 0.446231 0.446231
0.476033 0.476033 0.476033
0.503508 0.503508 0.503508
0.527604 0.527604 0.527604
0.404447 0.404447 0.404447
0.430095 0.430095 0.430095
0.458678 0.458678 0.458678
0.489145 0.489145 0.489145
0.520443 0.520443 0.520443
0.551520 0.551520 0.551520
0.581322 0.581322 0.581322
0.608798 0.608798 0.608798
0.632893 0.632893 0.632893
0.508991 0.508991 0.508991
0.534638 0.534638 0.534638
0.563222 0.563222 0.563222
0.593689 0.593689 0.593689
0.624987 0.624987 0.624987
0.656063 0.656063 0.656063
0.685866 0.685866 0.685866
0.713341 0.713341 0.713341
0.737437 0.737437 0.737437
0.609248 0.609248 0.609248
0.634895 0.634895 0.634895
0.663478 0.663478 0.663478
0.693945 0.693945 0.693945
0.725244 0.725244 0.725244
0.756320 0.756320 0.756320
0.786123 0.786123 0.786123
0.813598 0.813598 0.813598
0.837694 0.837694 0.837694
0.701677 0.701677 0.701677
0.727324 0.727324 0.727324
0.755907 0.755907 0.755907
0.786374 0.786374 0.786374
0.817673 0.817673 0.817673
0.848749 0.848749 0.848749
0.878551 0.878551 0.878551
0.906027 0.906027 0.906027
0.930123 0.930123 0.930123
0.782737 0.782737 0.782737
0.808384 0.808384 0.808384
0.836967 0.836967 0.836967
0.867434 0.867434 0.867434
0.898732 0.898732 0.898732
0.929809 0.929809 0.929809
0.959611 0.959611 0.959611
0.987087 0.987087 0.987087
1.000000 1.000000 1.000000
0.024859 0.024859 0.024859
0.050506 0.050506 0.050506
0.079090 0.079090 0.079090
0.109557 0.109557 0.109557
0.140855 0.140855 0.140855
0.171932 0.171932 0.171932
0.201734 0.201734 0.201734
0.229209 0.229209 0.229209
0.253305 0.253305 0.253305
0.111138 0.111138 0.111138
0.136785 0.136785 0.136785
0.165368 0.165368 0.165368
0.195835 0.195835 0.195835
0.227133 0.227133 0.227133
0.258210 0.258210 0.258210
0.288012 0.288012 0.288012
0.315488 0.315488 0.315488
0.339583 0.339583 0.339583
0.207294 0.207294 0.207294
0.232941 0.232941 0.232941
0.261525 0.261525 0.261525
0.291992 0.291992 0.291992
0.323290 0.323290 0.323290
0.354366 0.354366 0.354366
0.384169 0.384169 0.384169
0.411644 0.411644 0.411644
0.435740 0.435740 0.435740
0.309787 0.309787 0.309787
0.335435 0.335435 0.335435
0.364018 0.364018 0.364018
0.394485 0.394485 0.394485
0.425783 0.425783 0.425783
0.456860 0.456860 0.456860
0.486662 0.486662 0.486662
0.514137 0.514137 0.514137
0.538233 0.538233 0.538233
0.415076 0.415076 0.415076
0.440724 0.440724 0.440724
0.469307 0.469307 0.469307
0.499774 0.499774 0.499774
0.531072 0.531072 0.531072
0.562149 0.562149 0.562149
0.591951 0.591951 0.591951
0.619427 0.619427 0.619427
0.643522 0.643522 0.643522
0.519620 0.519620 0.519620
0.545267 0.545267 0.545267
0.573851 0.573851 0.573851
0.604318 0.604318 0.604318
0.635616 0.635616 0.635616
0.666692 0.666692 0.666692
0.696495 0.696495 0.696495
0.723970 0.723970 0.723970
0.748066 0.748066 0.748066
0.619877 0.619877 0.619877
0.645524 0.645524 0.645524
0.674107 0.674107 0.674107
0.704574 0.704574 0.704574
0.735873 0.735873 0.735873
0.766949 0.766949 0.766949
0.796752 0.796752 0.796752
0.824227 0.824227 0.824227
0.848323 0.848323 0.848323
0.712306 0.712306 0.712306
0.737953 0.737953 0.737953
0.766536 0.766536 0.766536
0.797003 0.797003 0.797003
0.828302 0.828302 0.828302
0.859378 0.859378 0.859378
0.889180 0.889180 0.889180
0.916656 0.916656 0.916656
0.940752 0.940752 0.940752
0.793366 0.793366 0.793366
0.819013 0.819013 0.819013
0.847596 0.847596 0.847596
0.878063 0.878063 0.878063
0.909361 0.909361 0.909361
0.940438 0.940438 0.940438
0.970240 0.970240 0.970240
0.997716 0.997716 0.997716
1.000000 1.000000 1.000000
0.035413 0.035413 0.035413
0.061060 0.061060 0.061060
0.089643 0.089643 0.089643
0.120111 0.120111 0.120111
0.151409 0.151409 0.151409
0.182485 0.182485 0.182485
0.212288 0.212288 0.212288
0.239763 0.239763 0.239763
0.263859 0.263859 0.263859
0.121691 0.121691 0.121691
0.147338 0.147338 0.147338
0.175922 0.175922 0.175922
0.206389 0.206389 0.206389
0.237687 0.237687 0.237687
0.268764 0.268764 0.268764
0.298566 0.298566 0.298566
0.326041 0.326041 0.326041
0.350137 0.350137 0.350137
0.217848 0.217848 0.217848
0.243495 0.243495 0.243495
0.272078 0.272078 0.272078
0.302545 0.302545 0.302545
0.333844 0.333844 0.333844
0.364920 0.364920 0.364920
0.394722 0.394722 0.394722
0.422198 0.422198 0.422198
0.446294 0.446294 0.446294
0.320341 0.320341 0.320341
0.345988 0.345988 0.345988
0.374572 0.374572 0.374572
0.405039 0.405039 0.405039
0.436337 0.436337 0.436337
0.467414 0.467414 0.467414
0.497216 0.497216 0.497216
0.524691 0.524691 0.524691
0.548787 0.548787 0.548787
0.425630 0.425630 0.425630
0.451277 0.451277 0.451277
0.479861 0.479861 0.479861
0.510328 0.510328 0.510328
0.541626 0.541626 0.541626
0.572703 0.572703 0.572703
0.602505 0.602505 0.602505
0.629980 0.629980 0.629980
0.654076 0.654076 0.654076
0.530174 0.530174 0.530174
0.555821 0.555821 0.555821
0.584404 0.584404 0.584404
0.614871 0.614871 0.614871
0.646170 0.646170 0.646170
0.677246 0.677246 0.677246
0.707048 0.707048 0.707048
0.734524 0.734524 0.734524
0.758620 0.758620 0.758620
0.630431 0.630431 0.630431
0.656078 0.656078 0.656078
0.684661 0.684661 0.684661
0.715128 0.715128 0.715128
0.746426 0.746426 0.746426
0.777503 0.777503 0.777503
0.807305 0.807305 0.807305
0.834781 0.834781 0.834781
0.858876 0.858876 0.858876
0.722860 0.722860 0.722860
0.748507 0.748507 0.748507
0.777090 0.777090 0.777090
0.807557 0.807557 0.807557
0.838855 0.838855 0.838855
0.869932 0.869932 0.869932
0.899734 0.899734 0.899734
0.927210 0.927210 0.927210
0.951305 0.951305 0.951305
0.803919 0.803919 0.803919
0.829566 0.829566 0.829566
0.858150 0.858150 0.858150
0.888617 0.888617 0.888617
0.919915 0.919915 0.919915
0.950992 0.950992 0.950992
0.980794 0.980794 0.980794
1.000000 1.000000 1.000000
1.000000 1.000000 1.000000
0.045534 0.045534 0.045534
0.071181 0.071181 0.071181
0.099764 0.099764 0.099764
0.130232 0.130232 0.130232
0.161530 0.161530 0.161530
0.192606 0.192606 0.192606
0.222409 0.222409 0.222409
0.249884 0.249884 0.249884
0.273980 0.273980 0.273980
0.131812 0.131812 0.131812
0.157459 0.157459 0.157459
0.186043 0.186043 0.186043
0.216510 0.216510 0.216510
0.247808 0.247808 0.247808
0.278885 0.278885 0.278885
0.308687 0.308687 0.308687
0.336162 0.336162 0.336162
0.360258 0.360258 0.360258
0.227969 0.227969 0.227969
0.253616 0.253616 0.253616
0.282199 0.282199 0.282199
0.312666 0.312666 0.312666
0.343965 0.343965 0.343965
0.375041 0.375041 0.375041
0.404843 0.404843 0.404843
0.432319 0.432319 0.432319
0.456415 0.456415 0.456415
0.330462 0.330462 0.330462
0.356109 0.356109 0.356109
0.384693 0.384693 0.384693
0.415160 0.415160 0.415160
0.446458 0.446458 0.446458
0.477535 0.477535 0.477535
0.507337 0.507337 0.507337
0.534812 0.534812 0.534812
0.558908 0.558908 0.558908
0.435751 0.435751 0.435751
0.461398 0.461398 0.461398
0.489982 0.489982 0.489982
0.520449 0.520449 0.520449
0.551747 0.551747 0.551747
0.582824 0.582824 0.582824
0.612626 0.612626 0.612626
0.640101 0.640101 0.640101
0.664197 0.664197 0.664197
0.540295 0.540295 0.540295
0.565942 0.565942 0.565942
0.594525 0.594525 0.594525
0.624992 0.624992 0.624992
0.656291 0.656291 0.656291
0.687367 0.687367 0.687367
0.717169 0.717169 0.717169
0.744645 0.744645 0.744645
0.768741 0.768741 0.768741
0.640552 0.640552 0.640552
0.666199 0.666199 0.666199
0.694782 0.694782 0.694782
0.725249 0.725249 0.725249
0.756547 0.756547 0.756547
0.787624 0.787624 0.787624
0.817426 0.817426 0.817426
0.844902 0.844902 0.844902
0.868997 0.868997 0.868997
0.732981 0.732981 0.732981
0.758628 0.758628 0.758628
0.787211 0.787211 0.787211
0.817678 0.817678 0.817678
0.848976 0.848976 0.848976
0.880053 0.880053 0.880053
0.909855 0.909855 0.909855
0.937331 0.937331 0.937331
0.961426 0.961426 0.961426
0.814040 0.814040 0.814040
0.839687 0.839687 0.839687
0.868271 0.868271 0.868271
0.898738 0.898738 0.898738
0.930036 0.930036 0.930036
0.961113 0.961113 0.961113
0.990915 0.990915 0.990915
1.000000 1.000000 1.000000
1.000000 1.000000 1.000000
0.054865 0.054865 0.054865
0.080512 0.080512 0.080512
0.109095 0.109095 0.109095
0.139562 0.139562 0.139562
0.170860 0.170860 0.170860
0.201937 0.201937 0.201937
0.231739 0.231739 0.231739
0.259215 0.259215 0.259215
0.283311 0.283311 0.283311
0.141143 0.141143 0.141143
0.166790 0.166790 0.166790
0.195374 0.195374 0.195374
0.225841 0.225841 0.225841
0.257139 0.257139 0.257139
0.288215 0.288215 0.288215
0.318018 0.318018 0.318018
0.345493 0.345493 0.345493
0.369589 0.369589 0.369589
0.237300 0.237300 0.237300
0.262947 0.262947 0.262947
0.291530 0.291530 0.291530
0.321997 0.321997 0.321997
0.353295 0.353295 0.353295
0.384372 0.384372 0.384372
0.414174 0.414174 0.414174
0.441650 0.441650 0.441650
0.465745 0.465745 0.465745
0.339793 0.339793 0.339793
0.365440 0.365440 0.365440
0.394023 0.394023 0.394023
0.424491 0.424491 0.424491
0.455789 0.455789 0.455789
0.486865 0.486865 0.486865
0.516668 0.516668 0.516668
0.544143 0.544143 0.544143
0.568239 0.568239 0.568239
0.445082 0.445082 0.445082
0.470729 0.470729 0.470729
0.499313 0.499313 0.499313
0.529780 0.529780 0.529780
0.561078 0.561078 0.561078
0.592154 0.592154 0.592154
0.621957 0.621957 0.621957
0.649432 0.649432 0.649432
0.673528 0.673528 0.673528
0.549626 0.549626 0.549626
0.575273 0.575273 0.575273
0.603856 0.603856 0.603856
0.634323 0.634323 0.634323
0.665621 0.665621 0.665621
0.696698 0.696698 0.696698
0.726500 0.726500 0.726500
0.753976 0.753976 0.753976
0.778071 0.778071 0.778071
0.649882 0.649882 0.649882
0.675529 0.675529 0.675529
0.704113 0.704113 0.704113
0.734580 0.734580 0.734580
0.765878 0.765878 0.765878
0.796955 0.796955 0.796955
0.826757 0.826757 0.826757
0.854232 0.854232 0.854232
0.878328 0.878328 0.878328
0.742311 0.742311 0.742311
0.767958 0.767958 0.767958
0.796542 0.796542 0.796542
0.827009 0.827009 0.827009
0.858307 0.858307 0.858307
0.889384 0.889384 0.889384
0.919186 0.919186 0.919186
0.946661 0.946661 0.946661
0.970757 0.970757 0.970757
0.823371 0.823371 0.823371
0.849018 0.849018 0.849018
0.877602 0.877602 0.877602
0.908069 0.908069 0.908069
0.939367 0.939367 0.939367
0.970443 0.970443 0.970443
1.000000 1.000000 1.000000
1.000000 1.000000 1.000000
1.000000 1.000000 1.000000
0.063048 0.063048 0.063048
0.088695 0.088695 0.088695
0.117278 0.117278 0.117278
0.147745 0.147745 0.147745
0.179044 0.179044 0.179044
0.210120 0.210120 0.210120
0.239922 0.239922 0.239922
0.267398 0.267398 0.267398
0.291494 0.291494 0.291494
0.149326 0.149326 0.149326
0.174973 0.174973 0.174973
0.203557 0.203557 0.203557
0.234024 0.234024 0.234024
0.265322 0.265322 0.265322
0.296399 0.296399 0.296399
0.326201 0.326201 0.326201
0.353676 0.353676 0.353676
0.377772 0.377772 0.377772
0.245483 0.245483 0.245483
0.271130 0.271130 0.271130
0.299713 0.299713 0.299713
0.330180 0.330180 0.330180
0.361478 0.361478 0.361478
0.392555 0.392555 0.392555
0.422357 0.422357 0.422357
0.449833 0.449833 0.449833
0.473928 0.473928 0.473928
0.347976 0.347976 0.347976
0.373623 0.373623 0.373623
0.402207 0.402207 0.402207
0.432674 0.432674 0.432674
0.463972 0.463972 0.463972
0.495048 0.495048 0.495048
0.524851 0.524851 0.524851
0.552326 0.552326 0.552326
0.576422 0.576422 0.576422
0.453265 0.453265 0.453265
0.478912 0.478912 0.478912
0.507496 0.507496 0.507496
0.537963 0.537963 0.537963
0.569261 0.569261 0.569261
0.600337 0.600337 0.600337
0.630140 0.630140 0.630140
0.657615 0.657615 0.657615
0.681711 0.681711 0.681711
0.557809 0.557809 0.557809
0.583456 0.583456 0.583456
0.612039 0.612039 0.612039
0.642506 0.642506 0.642506
0.673804 0.673804 0.673804
0.704881 0.704881 0.704881
0.734683 0.734683 0.734683
0.762159 0.762159 0.762159
0.786254 0.786254 0.786254
0.658065 0.658065 0.658065
0.683713 0.683713 0.683713
0.712296 0.712296 0.712296
0.742763 0.742763 0.742763
0.774061 0.774061 0.774061
0.805138 0.805138 0.805138
0.834940 0.834940 0.834940
0.862415 0.862415 0.862415
0.886511 0.886511 0.886511
0.750494 0.750494 0.750494
0.776141 0.776141 0.776141
0.804725 0.804725 0.804725
0.835192 0.835192 0.835192
0.866490 0.866490 0.866490
0.897567 0.897567 0.897567
0.927369 0.927369 0.927369
0.954844 0.954844 0.954844
0.978940 0.978940 0.978940
0.831554 0.831554 0.831554
0.857201 0.857201 0.857201
0.885785 0.885785 0.885785
0.916252 0.916252 0.916252
0.947550 0.947550 0.947550
0.978627 0.978627 0.978627
1.000000 1.000000 1.000000
1.000000 1.000000 1.000000
1.000000 1.000000 1.000000
