assets/luts/noirblue.cube
# Noir Blue — Studio filter "noirblue"
# Generated by scripts/generate-filter-luts.mjs — do not edit by hand.
LUT_3D_SIZE 5
DOMAIN_MIN 0.0 0.0 0.0
DOMAIN_MAX 1.0 1.0 1.0
0.000000 0.020000 0.120000
0.124054 0.045857 0.143549
0.285591 0.079528 0.174213
0.447128 0.113199 0.204877
0.571182 0.139056 0.228426
0.088540 0.204721 0.199220
0.212593 0.230578 0.222768
0.374131 0.264249 0.253433
0.535668 0.297919 0.284097
0.659722 0.323777 0.307646
0.203832 0.445256 0.302376
0.327886 0.471113 0.325925
0.489423 0.504784 0.356589
0.650960 0.538455 0.387253
0.775014 0.564312 0.410802
0.319124 0.685791 0.405532
0.443178 0.711649 0.429081
0.604715 0.745319 0.459745
0.766253 0.778990 0.490410
0.890306 0.804847 0.513958
0.407664 0.870512 0.484752
0.531718 0.896369 0.508301
0.693255 0.930040 0.538965
0.854792 0.963711 0.569629
0.978846 0.989568 0.593178
0.008938 0.028781 0.225732
0.132992 0.054639 0.249280
0.294529 0.088309 0.279945
0.456067 0.121980 0.310609
0.580120 0.147837 0.334158
0.097478 0.213502 0.304951
0.221531 0.239359 0.328500
0.383069 0.273030 0.359164
0.544606 0.306700 0.389828
0.668660 0.332558 0.413377
0.212770 0.454037 0.408108
0.336824 0.479895 0.431656
0.498361 0.513565 0.462321
0.659899 0.547236 0.492985
0.783952 0.573093 0.516534
0.328063 0.694573 0.511264
0.452116 0.720430 0.534813
0.613654 0.754101 0.565477
0.775191 0.787771 0.596141
0.899245 0.813629 0.619690
0.416602 0.879293 0.590484
0.540656 0.905151 0.614032
0.702193 0.938821 0.644697
0.863731 0.972492 0.675361
0.987784 0.998349 0.698910
0.020577 0.040216 0.363411
0.144631 0.066073 0.386960
0.306168 0.099744 0.417624
0.467705 0.133415 0.448288
0.591759 0.159272 0.471837
0.109117 0.224937 0.442631
0.233170 0.250794 0.466179
0.394708 0.284465 0.496844
0.556245 0.318135 0.527508
0.680299 0.343993 0.551057
0.224409 0.465472 0.545787
0.348463 0.491329 0.569336
0.510000 0.525000 0.600000
0.671537 0.558671 0.630664
0.795591 0.584528 0.654213
0.339701 0.706007 0.648943
0.463755 0.731865 0.672492
0.625292 0.765535 0.703156
0.786830 0.799206 0.733821
0.910883 0.825063 0.757369
0.428241 0.890728 0.728163
0.552295 0.916585 0.751712
0.713832 0.950256 0.782376
0.875369 0.983927 0.813040
0.999423 1.000000 0.836589
0.032216 0.051651 0.501090
0.156269 0.077508 0.524639
0.317807 0.111179 0.555303
0.479344 0.144849 0.585968
0.603398 0.170707 0.609516
0.120755 0.236371 0.580310
0.244809 0.262229 0.603859
0.406346 0.295899 0.634523
0.567884 0.329570 0.665187
0.691937 0.355427 0.688736
0.236048 0.476907 0.683466
0.360101 0.502764 0.707015
0.521639 0.536435 0.737679
0.683176 0.570105 0.768344
0.807230 0.595963 0.791892
0.351340 0.717442 0.786623
0.475394 0.743300 0.810172
0.636931 0.776970 0.840836
0.798469 0.810641 0.871500
0.922522 0.836498 0.895049
0.439880 0.902163 0.865842
0.563933 0.928020 0.889391
0.725471 0.961691 0.920055
0.887008 0.995361 0.950720
1.000000 1.000000 0.974268
0.041154 0.060432 0.606822
0.165208 0.086289 0.630371
0.326745 0.119960 0.661035
0.488282 0.153631 0.691699
0.612336 0.179488 0.715248
0.129694 0.245153 0.686042
0.253747 0.271010 0.709590
0.415285 0.304681 0.740255
0.576822 0.338351 0.770919
0.700876 0.364209 0.794468
0.244986 0.485688 0.789198
0.369040 0.511545 0.812747
0.530577 0.545216 0.843411
0.692114 0.578887 0.874075
0.816168 0.604744 0.897624
0.360278 0.726223 0.892354
0.484332 0.752081 0.915903
0.645869 0.785751 0.946567
0.807407 0.819422 0.977232
0.931460 0.845279 1.000000
0.448818 0.910944 0.971574
0.572872 0.936801 0.995123
0.734409 0.970472 1.000000
0.895946 1.000000 1.000000
1.000000 1.000000 1.000000
