assets/luts/noirblue.cube
# Noir Blue — Studio filter "noirblue"
# Generated by scripts/generate-filter-luts.mjs — do not edit by hand.
LUT_3D_SIZE 17
DOMAIN_MIN 0.0 0.0 0.0
DOMAIN_MAX 1.0 1.0 1.0
0.000000 0.020000 0.120000
0.025449 0.025305 0.124831
0.054999 0.031464 0.130440
0.088062 0.038355 0.136717
0.124054 0.045857 0.143549
0.162388 0.053848 0.150826
0.202480 0.062204 0.158436
0.243742 0.070805 0.166269
0.285591 0.079528 0.174213
0.327440 0.088251 0.182157
0.368702 0.096852 0.189990
0.408794 0.105208 0.197600
0.447128 0.113199 0.204877
0.483120 0.120701 0.211709
0.516183 0.127592 0.217986
0.545733 0.133751 0.223595
0.571182 0.139056 0.228426
0.018164 0.057895 0.136252
0.043613 0.063200 0.141083
0.073162 0.069359 0.146692
0.106226 0.076251 0.152968
0.142217 0.083753 0.159801
0.180552 0.091743 0.167077
0.220643 0.100100 0.174688
0.261906 0.108700 0.182521
0.303755 0.117423 0.190465
0.345603 0.126146 0.198409
0.386866 0.134747 0.206242
0.426958 0.143103 0.213852
0.465292 0.151094 0.221129
0.501284 0.158596 0.227961
0.534347 0.165487 0.234238
0.563896 0.171647 0.239847
0.589346 0.176951 0.244678
0.039254 0.101895 0.155122
0.064703 0.107200 0.159953
0.094252 0.113359 0.165562
0.127315 0.120250 0.171838
0.163307 0.127752 0.178670
0.201642 0.135743 0.185947
0.241733 0.144099 0.193558
0.282996 0.152700 0.201391
0.324845 0.161423 0.209335
0.366693 0.170146 0.217279
0.407956 0.178747 0.225111
0.448048 0.187103 0.232722
0.486382 0.195094 0.239999
0.522374 0.202596 0.246831
0.555437 0.209487 0.253107
0.584986 0.215646 0.258717
0.610436 0.220951 0.263548
0.062852 0.151128 0.176236
0.088301 0.156432 0.181067
0.117850 0.162591 0.186676
0.150913 0.169483 0.192952
0.186905 0.176985 0.199784
0.225240 0.184975 0.207061
0.265331 0.193332 0.214672
0.306594 0.201933 0.222505
0.348443 0.210656 0.230449
0.390291 0.219378 0.238393
0.431554 0.227979 0.246225
0.471645 0.236336 0.253836
0.509980 0.244326 0.261113
0.545972 0.251828 0.267945
0.579035 0.258720 0.274221
0.608584 0.264879 0.279831
0.634034 0.270184 0.284662
0.088540 0.204721 0.199220
0.113989 0.210025 0.204051
0.143538 0.216184 0.209660
0.176601 0.223076 0.215936
0.212593 0.230578 0.222768
0.250928 0.238568 0.230045
0.291019 0.246925 0.237656
0.332282 0.255526 0.245489
0.374131 0.264249 0.253433
0.415979 0.272971 0.261377
0.457242 0.281572 0.269209
0.497333 0.289929 0.276820
0.535668 0.297919 0.284097
0.571660 0.305421 0.290929
0.604723 0.312313 0.297205
0.634272 0.318472 0.302815
0.659722 0.323777 0.307646
0.115900 0.261802 0.223700
0.141349 0.267107 0.228531
0.170898 0.273266 0.234140
0.203961 0.280157 0.240416
0.239953 0.287660 0.247248
0.278288 0.295650 0.254525
0.318379 0.304006 0.262136
0.359642 0.312607 0.269969
0.401491 0.321330 0.277913
0.443339 0.330053 0.285857
0.484602 0.338654 0.293689
0.524694 0.347010 0.301300
0.563028 0.355001 0.308577
0.599020 0.362503 0.315409
0.632083 0.369394 0.321685
0.661632 0.375553 0.327295
0.687082 0.380858 0.332126
0.144514 0.321500 0.249302
0.169963 0.326804 0.254133
0.199512 0.332964 0.259742
0.232576 0.339855 0.266018
0.268567 0.347357 0.272851
0.306902 0.355348 0.280127
0.346993 0.363704 0.287738
0.388256 0.372305 0.295571
0.430105 0.381028 0.303515
0.471953 0.389751 0.311459
0.513216 0.398351 0.319292
0.553308 0.406708 0.326902
0.591642 0.414698 0.334179
0.627634 0.422200 0.341011
0.660697 0.429092 0.347287
0.690246 0.435251 0.352897
0.715696 0.440556 0.357728
0.173964 0.382942 0.275652
0.199413 0.388246 0.280483
0.228962 0.394406 0.286092
0.262026 0.401297 0.292368
0.298017 0.408799 0.299201
0.336352 0.416790 0.306478
0.376443 0.425146 0.314088
0.417706 0.433747 0.321921
0.459555 0.442470 0.329865
0.501403 0.451193 0.337809
0.542666 0.459793 0.345642
0.582758 0.468150 0.353252
0.621092 0.476140 0.360529
0.657084 0.483642 0.367361
0.690147 0.490534 0.373638
0.719696 0.496693 0.379247
0.745146 0.501998 0.384078
0.203832 0.445256 0.302376
0.229281 0.450561 0.307207
0.258831 0.456720 0.312816
0.291894 0.463611 0.319093
0.327886 0.471113 0.325925
0.366220 0.479104 0.333202
0.406312 0.487460 0.340812
0.447574 0.496061 0.348645
0.489423 0.504784 0.356589
0.531272 0.513507 0.364533
0.572534 0.522108 0.372366
0.612626 0.530464 0.379976
0.650960 0.538455 0.387253
0.686952 0.545957 0.394085
0.720015 0.552848 0.400362
0.749565 0.559007 0.405971
0.775014 0.564312 0.410802
0.233700 0.507570 0.329100
0.259150 0.512875 0.333931
0.288699 0.519034 0.339540
0.321762 0.525926 0.345817
0.357754 0.533428 0.352649
0.396088 0.541418 0.359926
0.436180 0.549775 0.367536
0.477443 0.558375 0.375369
0.519291 0.567098 0.383313
0.561140 0.575821 0.391257
0.602403 0.584422 0.399090
0.642494 0.592778 0.406700
0.680829 0.600769 0.413977
0.716820 0.608271 0.420810
0.749884 0.615162 0.427086
0.779433 0.621322 0.432695
0.804882 0.626626 0.437526
0.263150 0.569012 0.355450
0.288600 0.574317 0.360281
0.318149 0.580476 0.365891
0.351212 0.587368 0.372167
0.387204 0.594870 0.378999
0.425538 0.602860 0.386276
0.465630 0.611217 0.393886
0.506893 0.619817 0.401719
0.548741 0.628540 0.409663
0.590590 0.637263 0.417607
0.631853 0.645864 0.425440
0.671944 0.654220 0.433051
0.710279 0.662211 0.440327
0.746270 0.669713 0.447160
0.779334 0.676604 0.453436
0.808883 0.682764 0.459045
0.834332 0.688068 0.463876
0.291764 0.628710 0.381052
0.317214 0.634015 0.385883
0.346763 0.640174 0.391493
0.379826 0.647065 0.397769
0.415818 0.654567 0.404601
0.454152 0.662558 0.411878
0.494244 0.670914 0.419489
0.535507 0.679515 0.427321
0.577355 0.688238 0.435265
0.619204 0.696961 0.443209
0.660467 0.705562 0.451042
0.700558 0.713918 0.458653
0.738893 0.721908 0.465930
0.774885 0.729411 0.472762
0.807948 0.736302 0.479038
0.837497 0.742461 0.484647
0.862946 0.747766 0.489478
0.319124 0.685791 0.405532
0.344574 0.691096 0.410363
0.374123 0.697255 0.415973
0.407186 0.704147 0.422249
0.443178 0.711649 0.429081
0.481513 0.719639 0.436358
0.521604 0.727996 0.443969
0.562867 0.736597 0.451801
0.604715 0.745319 0.459745
0.646564 0.754042 0.467689
0.687827 0.762643 0.475522
0.727918 0.771000 0.483133
0.766253 0.778990 0.490410
0.802245 0.786492 0.497242
0.835308 0.793384 0.503518
0.864857 0.799543 0.509127
0.890306 0.804847 0.513958
0.344812 0.739384 0.428516
0.370262 0.744689 0.433347
0.399811 0.750848 0.438957
0.432874 0.757740 0.445233
0.468866 0.765242 0.452065
0.507201 0.773232 0.459342
0.547292 0.781589 0.466953
0.588555 0.790190 0.474785
0.630403 0.798912 0.482729
0.672252 0.807635 0.490673
0.713515 0.816236 0.498506
0.753606 0.824593 0.506117
0.791941 0.832583 0.513394
0.827933 0.840085 0.520226
0.860996 0.846977 0.526502
0.890545 0.853136 0.532111
0.915994 0.858440 0.536942
0.368410 0.788617 0.449630
0.393860 0.793922 0.454461
0.423409 0.800081 0.460071
0.456472 0.806972 0.466347
0.492464 0.814474 0.473179
0.530798 0.822465 0.480456
0.570890 0.830821 0.488067
0.612153 0.839422 0.495899
0.654001 0.848145 0.503843
0.695850 0.856868 0.511787
0.737113 0.865469 0.519620
0.777204 0.873825 0.527231
0.815539 0.881816 0.534508
0.851531 0.889318 0.541340
0.884594 0.896209 0.547616
0.914143 0.902368 0.553225
0.939592 0.907673 0.558056
0.389500 0.832617 0.468500
0.414950 0.837921 0.473331
0.444499 0.844081 0.478940
0.477562 0.850972 0.485217
0.513554 0.858474 0.492049
0.551888 0.866465 0.499326
0.591980 0.874821 0.506936
0.633243 0.883422 0.514769
0.675091 0.892145 0.522713
0.716940 0.900868 0.530657
0.758203 0.909468 0.538490
0.798294 0.917825 0.546101
0.836629 0.925815 0.553377
0.872620 0.933317 0.560210
0.905684 0.940209 0.566486
0.935233 0.946368 0.572095
0.960682 0.951673 0.576926
0.407664 0.870512 0.484752
0.433113 0.875817 0.489583
0.462663 0.881976 0.495192
0.495726 0.888867 0.501469
0.531718 0.896369 0.508301
0.570052 0.904360 0.515578
0.610144 0.912716 0.523188
0.651406 0.921317 0.531021
0.693255 0.930040 0.538965
0.735104 0.938763 0.546909
0.776366 0.947364 0.554742
0.816458 0.955720 0.562352
0.854792 0.963711 0.569629
0.890784 0.971213 0.576461
0.923847 0.978104 0.582738
0.953397 0.984263 0.588347
0.978846 0.989568 0.593178
0.001834 0.021801 0.141691
0.027283 0.027106 0.146522
0.056832 0.033265 0.152131
0.089896 0.040157 0.158407
0.125887 0.047659 0.165239
0.164222 0.055649 0.172516
0.204313 0.064006 0.180127
0.245576 0.072607 0.187960
0.287425 0.081329 0.195904
0.329273 0.090052 0.203848
0.370536 0.098653 0.211681
0.410628 0.107010 0.219291
0.448962 0.115000 0.226568
0.484954 0.122502 0.233400
0.518017 0.129394 0.239676
0.547566 0.135553 0.245286
0.573016 0.140857 0.250117
0.019997 0.059697 0.157942
0.045447 0.065001 0.162773
0.074996 0.071160 0.168383
0.108059 0.078052 0.174659
0.144051 0.085554 0.181491
0.182385 0.093544 0.188768
0.222477 0.101901 0.196379
0.263740 0.110502 0.204211
0.305588 0.119225 0.212155
0.347437 0.127947 0.220099
0.388700 0.136548 0.227932
0.428791 0.144905 0.235543
0.467126 0.152895 0.242820
0.503118 0.160397 0.249652
0.536181 0.167289 0.255928
0.565730 0.173448 0.261537
0.591179 0.178753 0.266368
0.041087 0.103696 0.176812
0.066537 0.109001 0.181643
0.096086 0.115160 0.187253
0.129149 0.122052 0.193529
0.165141 0.129554 0.200361
0.203475 0.137544 0.207638
0.243567 0.145901 0.215248
0.284830 0.154502 0.223081
0.326678 0.163224 0.231025
0.368527 0.171947 0.238969
0.409790 0.180548 0.246802
0.449881 0.188905 0.254413
0.488216 0.196895 0.261690
0.524207 0.204397 0.268522
0.557271 0.211289 0.274798
0.586820 0.217448 0.280407
0.612269 0.222752 0.285238
0.064685 0.152929 0.197926
0.090135 0.158234 0.202757
0.119684 0.164393 0.208366
0.152747 0.171284 0.214643
0.188739 0.178786 0.221475
0.227073 0.186777 0.228752
0.267165 0.195133 0.236362
0.308428 0.203734 0.244195
0.350276 0.212457 0.252139
0.392125 0.221180 0.260083
0.433388 0.229781 0.267916
0.473479 0.238137 0.275527
0.511814 0.246128 0.282803
0.547805 0.253630 0.289636
0.580869 0.260521 0.295912
0.610418 0.266680 0.301521
0.635867 0.271985 0.306352
0.090373 0.206522 0.220910
0.115823 0.211827 0.225741
0.145372 0.217986 0.231350
0.178435 0.224877 0.237627
0.214427 0.232380 0.244459
0.252761 0.240370 0.251736
0.292853 0.248726 0.259346
0.334116 0.257327 0.267179
0.375964 0.266050 0.275123
0.417813 0.274773 0.283067
0.459076 0.283374 0.290900
0.499167 0.291730 0.298511
0.537502 0.299721 0.305787
0.573493 0.307223 0.312620
0.606557 0.314114 0.318896
0.636106 0.320273 0.324505
0.661555 0.325578 0.329336
0.117733 0.263604 0.245390
0.143183 0.268908 0.250221
0.172732 0.275067 0.255831
0.205795 0.281959 0.262107
0.241787 0.289461 0.268939
0.280121 0.297451 0.276216
0.320213 0.305808 0.283826
0.361476 0.314409 0.291659
0.403324 0.323132 0.299603
0.445173 0.331854 0.307547
0.486436 0.340455 0.315380
0.526527 0.348812 0.322991
0.564862 0.356802 0.330268
0.600853 0.364304 0.337100
0.633917 0.371196 0.343376
0.663466 0.377355 0.348985
0.688915 0.382660 0.353816
0.146347 0.323301 0.270992
0.171797 0.328606 0.275823
0.201346 0.334765 0.281433
0.234409 0.341657 0.287709
0.270401 0.349159 0.294541
0.308735 0.357149 0.301818
0.348827 0.365506 0.309429
0.390090 0.374107 0.317261
0.431938 0.382829 0.325205
0.473787 0.391552 0.333149
0.515050 0.400153 0.340982
0.555141 0.408510 0.348593
0.593476 0.416500 0.355870
0.629467 0.424002 0.362702
0.662531 0.430894 0.368978
0.692080 0.437053 0.374587
0.717529 0.442357 0.379418
0.175797 0.384743 0.297343
0.201247 0.390048 0.302174
0.230796 0.396207 0.307783
0.263859 0.403099 0.314059
0.299851 0.410601 0.320891
0.338186 0.418591 0.328168
0.378277 0.426948 0.335779
0.419540 0.435549 0.343612
0.461388 0.444271 0.351556
0.503237 0.452994 0.359500
0.544500 0.461595 0.367332
0.584591 0.469952 0.374943
0.622926 0.477942 0.382220
0.658918 0.485444 0.389052
0.691981 0.492336 0.395328
0.721530 0.498495 0.400938
0.746979 0.503799 0.405769
0.205666 0.447057 0.324067
0.231115 0.452362 0.328898
0.260664 0.458521 0.334507
0.293728 0.465413 0.340783
0.329719 0.472915 0.347615
0.368054 0.480905 0.354892
0.408145 0.489262 0.362503
0.449408 0.497863 0.370336
0.491257 0.506585 0.378280
0.533105 0.515308 0.386224
0.574368 0.523909 0.394057
0.614460 0.532266 0.401667
0.652794 0.540256 0.408944
0.688786 0.547758 0.415776
0.721849 0.554650 0.422052
0.751398 0.560809 0.427662
0.776848 0.566113 0.432493
0.235534 0.509372 0.350791
0.260983 0.514676 0.355622
0.290532 0.520835 0.361231
0.323596 0.527727 0.367507
0.359587 0.535229 0.374340
0.397922 0.543219 0.381617
0.438013 0.551576 0.389227
0.479276 0.560177 0.397060
0.521125 0.568900 0.405004
0.562973 0.577622 0.412948
0.604236 0.586223 0.420781
0.644328 0.594580 0.428391
0.682662 0.602570 0.435668
0.718654 0.610072 0.442500
0.751717 0.616964 0.448777
0.781266 0.623123 0.454386
0.806716 0.628428 0.459217
0.264984 0.570814 0.377141
0.290433 0.576118 0.381972
0.319983 0.582277 0.387581
0.353046 0.589169 0.393858
0.389038 0.596671 0.400690
0.427372 0.604661 0.407967
0.467463 0.613018 0.415577
0.508726 0.621619 0.423410
0.550575 0.630342 0.431354
0.592424 0.639064 0.439298
0.633686 0.647665 0.447131
0.673778 0.656022 0.454741
0.712112 0.664012 0.462018
0.748104 0.671514 0.468850
0.781167 0.678406 0.475127
0.810717 0.684565 0.480736
0.836166 0.689870 0.485567
0.293598 0.630511 0.402743
0.319047 0.635816 0.407574
0.348597 0.641975 0.413183
0.381660 0.648867 0.419460
0.417652 0.656369 0.426292
0.455986 0.664359 0.433569
0.496078 0.672716 0.441179
0.537340 0.681317 0.449012
0.579189 0.690039 0.456956
0.621038 0.698762 0.464900
0.662300 0.707363 0.472733
0.702392 0.715720 0.480343
0.740726 0.723710 0.487620
0.776718 0.731212 0.494452
0.809781 0.738104 0.500729
0.839331 0.744263 0.506338
0.864780 0.749567 0.511169
0.320958 0.687593 0.427223
0.346408 0.692898 0.432054
0.375957 0.699057 0.437663
0.409020 0.705948 0.443940
0.445012 0.713450 0.450772
0.483346 0.721441 0.458049
0.523438 0.729797 0.465659
0.564701 0.738398 0.473492
0.606549 0.747121 0.481436
0.648398 0.755844 0.489380
0.689661 0.764444 0.497213
0.729752 0.772801 0.504823
0.768087 0.780791 0.512100
0.804078 0.788293 0.518933
0.837142 0.795185 0.525209
0.866691 0.801344 0.530818
0.892140 0.806649 0.535649
0.346646 0.741186 0.450207
0.372096 0.746491 0.455038
0.401645 0.752650 0.460647
0.434708 0.759541 0.466924
0.470700 0.767043 0.473756
0.509034 0.775034 0.481033
0.549126 0.783390 0.488643
0.590389 0.791991 0.496476
0.632237 0.800714 0.504420
0.674086 0.809437 0.512364
0.715349 0.818038 0.520197
0.755440 0.826394 0.527807
0.793775 0.834384 0.535084
0.829766 0.841887 0.541917
0.862830 0.848778 0.548193
0.892379 0.854937 0.553802
0.917828 0.860242 0.558633
0.370244 0.790418 0.471321
0.395693 0.795723 0.476152
0.425243 0.801882 0.481761
0.458306 0.808774 0.488038
0.494298 0.816276 0.494870
0.532632 0.824266 0.502147
0.572724 0.832623 0.509757
0.613986 0.841224 0.517590
0.655835 0.849946 0.525534
0.697684 0.858669 0.533478
0.738947 0.867270 0.541311
0.779038 0.875627 0.548921
0.817372 0.883617 0.556198
0.853364 0.891119 0.563030
0.886427 0.898011 0.569307
0.915977 0.904170 0.574916
0.941426 0.909474 0.579747
0.391334 0.834418 0.490191
0.416783 0.839723 0.495022
0.446332 0.845882 0.500631
0.479396 0.852774 0.506907
0.515387 0.860276 0.513740
0.553722 0.868266 0.521017
0.593813 0.876623 0.528627
0.635076 0.885224 0.536460
0.676925 0.893946 0.544404
0.718773 0.902669 0.552348
0.760036 0.911270 0.560181
0.800128 0.919627 0.567791
0.838462 0.927617 0.575068
0.874454 0.935119 0.581900
0.907517 0.942011 0.588177
0.937067 0.948170 0.593786
0.962516 0.953474 0.598617
0.409498 0.872313 0.506443
0.434947 0.877618 0.511274
0.464496 0.883777 0.516883
0.497560 0.890669 0.523159
0.533551 0.898171 0.529991
0.571886 0.906161 0.537268
0.611977 0.914518 0.544879
0.653240 0.923119 0.552712
0.695089 0.931841 0.560656
0.736937 0.940564 0.568600
0.778200 0.949165 0.576433
0.818292 0.957522 0.584043
0.856626 0.965512 0.591320
0.892618 0.973014 0.598152
0.925681 0.979906 0.604428
0.955230 0.986065 0.610038
0.980680 0.991369 0.614869
0.003963 0.023893 0.166876
0.029412 0.029198 0.171707
0.058961 0.035357 0.177316
0.092025 0.042249 0.183592
0.128016 0.049751 0.190424
0.166351 0.057741 0.197701
0.206442 0.066098 0.205312
0.247705 0.074698 0.213145
0.289554 0.083421 0.221089
0.331402 0.092144 0.229033
0.372665 0.100745 0.236865
0.412757 0.109101 0.244476
0.451091 0.117092 0.251753
0.487083 0.124594 0.258585
0.520146 0.131485 0.264861
0.549695 0.137645 0.270471
0.575145 0.142949 0.275302
0.022126 0.061788 0.183127
0.047576 0.067093 0.187958
0.077125 0.073252 0.193568
0.110188 0.080144 0.199844
0.146180 0.087646 0.206676
0.184514 0.095636 0.213953
0.224606 0.103993 0.221564
0.265869 0.112593 0.229396
0.307717 0.121316 0.237340
0.349566 0.130039 0.245284
0.390829 0.138640 0.253117
0.430920 0.146996 0.260728
0.469255 0.154987 0.268005
0.505247 0.162489 0.274837
0.538310 0.169380 0.281113
0.567859 0.175540 0.286722
0.593308 0.180844 0.291553
0.043216 0.105788 0.201997
0.068666 0.111093 0.206828
0.098215 0.117252 0.212438
0.131278 0.124144 0.218714
0.167270 0.131646 0.225546
0.205604 0.139636 0.232823
0.245696 0.147993 0.240433
0.286959 0.156593 0.248266
0.328807 0.165316 0.256210
0.370656 0.174039 0.264154
0.411919 0.182640 0.271987
0.452010 0.190996 0.279598
0.490345 0.198987 0.286874
0.526336 0.206489 0.293707
0.559400 0.213380 0.299983
0.588949 0.219540 0.305592
0.614398 0.224844 0.310423
0.066814 0.155021 0.223111
0.092264 0.160325 0.227942
0.121813 0.166484 0.233551
0.154876 0.173376 0.239828
0.190868 0.180878 0.246660
0.229202 0.188869 0.253937
0.269294 0.197225 0.261547
0.310557 0.205826 0.269380
0.352405 0.214549 0.277324
0.394254 0.223272 0.285268
0.435517 0.231872 0.293101
0.475608 0.240229 0.300711
0.513943 0.248219 0.307988
0.549934 0.255721 0.314821
0.582998 0.262613 0.321097
0.612547 0.268772 0.326706
0.637996 0.274077 0.331537
0.092502 0.208614 0.246095
0.117952 0.213918 0.250926
0.147501 0.220078 0.256535
0.180564 0.226969 0.262812
0.216556 0.234471 0.269644
0.254890 0.242462 0.276921
0.294982 0.250818 0.284531
0.336245 0.259419 0.292364
0.378093 0.268142 0.300308
0.419942 0.276865 0.308252
0.461205 0.285465 0.316085
0.501296 0.293822 0.323696
0.539631 0.301812 0.330972
0.575622 0.309314 0.337805
0.608686 0.316206 0.344081
0.638235 0.322365 0.349690
0.663684 0.327670 0.354521
0.119862 0.265695 0.270575
0.145312 0.271000 0.275406
0.174861 0.277159 0.281016
0.207924 0.284051 0.287292
0.243916 0.291553 0.294124
0.282250 0.299543 0.301401
0.322342 0.307900 0.309011
0.363605 0.316500 0.316844
0.405453 0.325223 0.324788
0.447302 0.333946 0.332732
0.488565 0.342547 0.340565
0.528656 0.350903 0.348176
0.566991 0.358894 0.355452
0.602982 0.366396 0.362285
0.636046 0.373287 0.368561
0.665595 0.379447 0.374170
0.691044 0.384751 0.379001
0.148476 0.325393 0.296177
0.173926 0.330698 0.301008
0.203475 0.336857 0.306618
0.236538 0.343748 0.312894
0.272530 0.351250 0.319726
0.310864 0.359241 0.327003
0.350956 0.367597 0.334614
0.392219 0.376198 0.342446
0.434067 0.384921 0.350390
0.475916 0.393644 0.358334
0.517179 0.402245 0.366167
0.557270 0.410601 0.373778
0.595605 0.418592 0.381055
0.631597 0.426094 0.387887
0.664660 0.432985 0.394163
0.694209 0.439144 0.399772
0.719658 0.444449 0.404603
0.177927 0.386835 0.322527
0.203376 0.392140 0.327358
0.232925 0.398299 0.332968
0.265988 0.405190 0.339244
0.301980 0.412693 0.346076
0.340315 0.420683 0.353353
0.380406 0.429039 0.360964
0.421669 0.437640 0.368796
0.463518 0.446363 0.376740
0.505366 0.455086 0.384684
0.546629 0.463687 0.392517
0.586720 0.472043 0.400128
0.625055 0.480034 0.407405
0.661047 0.487536 0.414237
0.694110 0.494427 0.420513
0.723659 0.500586 0.426123
0.749109 0.505891 0.430953
0.207795 0.449149 0.349252
0.233244 0.454454 0.354083
0.262793 0.460613 0.359692
0.295857 0.467505 0.365968
0.331848 0.475007 0.372800
0.370183 0.482997 0.380077
0.410274 0.491354 0.387688
0.451537 0.499954 0.395521
0.493386 0.508677 0.403465
0.535234 0.517400 0.411409
0.576497 0.526001 0.419241
0.616589 0.534357 0.426852
0.654923 0.542348 0.434129
0.690915 0.549850 0.440961
0.723978 0.556741 0.447237
0.753527 0.562901 0.452847
0.778977 0.568205 0.457678
0.237663 0.511463 0.375976
0.263112 0.516768 0.380807
0.292661 0.522927 0.386416
0.325725 0.529819 0.392692
0.361716 0.537321 0.399525
0.400051 0.545311 0.406801
0.440142 0.553668 0.414412
0.481405 0.562268 0.422245
0.523254 0.570991 0.430189
0.565102 0.579714 0.438133
0.606365 0.588315 0.445966
0.646457 0.596671 0.453576
0.684791 0.604662 0.460853
0.720783 0.612164 0.467685
0.753846 0.619055 0.473962
0.783395 0.625215 0.479571
0.808845 0.630519 0.484402
0.267113 0.572905 0.402326
0.292562 0.578210 0.407157
0.322112 0.584369 0.412766
0.355175 0.591261 0.419042
0.391167 0.598763 0.425875
0.429501 0.606753 0.433152
0.469593 0.615110 0.440762
0.510855 0.623710 0.448595
0.552704 0.632433 0.456539
0.594553 0.641156 0.464483
0.635815 0.649757 0.472316
0.675907 0.658113 0.479926
0.714241 0.666104 0.487203
0.750233 0.673606 0.494035
0.783296 0.680498 0.500312
0.812846 0.686657 0.505921
0.838295 0.691961 0.510752
0.295727 0.632603 0.427928
0.321176 0.637908 0.432759
0.350726 0.644067 0.438368
0.383789 0.650959 0.444645
0.419781 0.658461 0.451477
0.458115 0.666451 0.458754
0.498207 0.674808 0.466364
0.539470 0.683408 0.474197
0.581318 0.692131 0.482141
0.623167 0.700854 0.490085
0.664430 0.709455 0.497918
0.704521 0.717811 0.505528
0.742855 0.725802 0.512805
0.778847 0.733304 0.519637
0.811911 0.740195 0.525914
0.841460 0.746354 0.531523
0.866909 0.751659 0.536354
0.323087 0.689685 0.452408
0.348537 0.694989 0.457239
0.378086 0.701148 0.462848
0.411149 0.708040 0.469125
0.447141 0.715542 0.475957
0.485475 0.723532 0.483234
0.525567 0.731889 0.490844
0.566830 0.740490 0.498677
0.608678 0.749213 0.506621
0.650527 0.757935 0.514565
0.691790 0.766536 0.522398
0.731881 0.774893 0.530008
0.770216 0.782883 0.537285
0.806207 0.790385 0.544118
0.839271 0.797277 0.550394
0.868820 0.803436 0.556003
0.894269 0.808741 0.560834
0.348775 0.743278 0.475392
0.374225 0.748582 0.480223
0.403774 0.754741 0.485832
0.436837 0.761633 0.492109
0.472829 0.769135 0.498941
0.511163 0.777125 0.506218
0.551255 0.785482 0.513828
0.592518 0.794083 0.521661
0.634366 0.802806 0.529605
0.676215 0.811528 0.537549
0.717478 0.820129 0.545382
0.757569 0.828486 0.552992
0.795904 0.836476 0.560269
0.831895 0.843978 0.567102
0.864959 0.850870 0.573378
0.894508 0.857029 0.578987
0.919957 0.862334 0.583818
0.372373 0.792510 0.496506
0.397822 0.797815 0.501337
0.427372 0.803974 0.506946
0.460435 0.810866 0.513223
0.496427 0.818368 0.520055
0.534761 0.826358 0.527332
0.574853 0.834715 0.534942
0.616116 0.843315 0.542775
0.657964 0.852038 0.550719
0.699813 0.860761 0.558663
0.741076 0.869362 0.566496
0.781167 0.877718 0.574106
0.819502 0.885709 0.581383
0.855493 0.893211 0.588215
0.888557 0.900102 0.594492
0.918106 0.906262 0.600101
0.943555 0.911566 0.604932
0.393463 0.836510 0.515376
0.418912 0.841815 0.520207
0.448462 0.847974 0.525816
0.481525 0.854865 0.532092
0.517517 0.862368 0.538925
0.555851 0.870358 0.546202
0.595942 0.878714 0.553812
0.637205 0.887315 0.561645
0.679054 0.896038 0.569589
0.720903 0.904761 0.577533
0.762165 0.913362 0.585366
0.802257 0.921718 0.592976
0.840591 0.929709 0.600253
0.876583 0.937211 0.607085
0.909646 0.944102 0.613362
0.939196 0.950261 0.618971
0.964645 0.955566 0.623802
0.411627 0.874405 0.531628
0.437076 0.879710 0.536459
0.466625 0.885869 0.542068
0.499689 0.892761 0.548344
0.535680 0.900263 0.555176
0.574015 0.908253 0.562453
0.614106 0.916610 0.570064
0.655369 0.925210 0.577897
0.697218 0.933933 0.585841
0.739066 0.942656 0.593785
0.780329 0.951257 0.601617
0.820421 0.959613 0.609228
0.858755 0.967604 0.616505
0.894747 0.975106 0.623337
0.927810 0.981997 0.629613
0.957359 0.988157 0.635223
0.982809 0.993461 0.640054
0.006345 0.026234 0.195056
0.031794 0.031538 0.199887
0.061343 0.037697 0.205496
0.094407 0.044589 0.211772
0.130399 0.052091 0.218604
0.168733 0.060081 0.225881
0.208824 0.068438 0.233492
0.250087 0.077039 0.241325
0.291936 0.085762 0.249269
0.333784 0.094484 0.257213
0.375047 0.103085 0.265046
0.415139 0.111442 0.272656
0.453473 0.119432 0.279933
0.489465 0.126934 0.286765
0.522528 0.133826 0.293041
