assets/luts/platinum.cube
# Platinum — Studio filter "platinum"
# Generated by scripts/generate-filter-luts.mjs — do not edit by hand.
LUT_3D_SIZE 5
DOMAIN_MIN 0.0 0.0 0.0
DOMAIN_MAX 1.0 1.0 1.0
0.163000 0.163000 0.163000
0.204138 0.204138 0.204138
0.245276 0.245276 0.245276
0.286414 0.286414 0.286414
0.327552 0.327552 0.327552
0.301391 0.301391 0.301391
0.342529 0.342529 0.342529
0.383667 0.383667 0.383667
0.424805 0.424805 0.424805
0.465944 0.465944 0.465944
0.439782 0.439782 0.439782
0.480920 0.480920 0.480920
0.522059 0.522059 0.522059
0.563197 0.563197 0.563197
0.604335 0.604335 0.604335
0.578174 0.578174 0.578174
0.619312 0.619312 0.619312
0.660450 0.660450 0.660450
0.701588 0.701588 0.701588
0.742726 0.742726 0.742726
0.716565 0.716565 0.716565
0.757703 0.757703 0.757703
0.798841 0.798841 0.798841
0.839979 0.839979 0.839979
0.881117 0.881117 0.881117
0.176971 0.176971 0.176971
0.218109 0.218109 0.218109
0.259247 0.259247 0.259247
0.300385 0.300385 0.300385
0.341523 0.341523 0.341523
0.315362 0.315362 0.315362
0.356500 0.356500 0.356500
0.397638 0.397638 0.397638
0.438776 0.438776 0.438776
0.479914 0.479914 0.479914
0.453753 0.453753 0.453753
0.494891 0.494891 0.494891
0.536029 0.536029 0.536029
0.577167 0.577167 0.577167
0.618306 0.618306 0.618306
0.592144 0.592144 0.592144
0.633282 0.633282 0.633282
0.674421 0.674421 0.674421
0.715559 0.715559 0.715559
0.756697 0.756697 0.756697
0.730536 0.730536 0.730536
0.771674 0.771674 0.771674
0.812812 0.812812 0.812812
0.853950 0.853950 0.853950
0.895088 0.895088 0.895088
0.190941 0.190941 0.190941
0.232080 0.232080 0.232080
0.273218 0.273218 0.273218
0.314356 0.314356 0.314356
0.355494 0.355494 0.355494
0.329333 0.329333 0.329333
0.370471 0.370471 0.370471
0.411609 0.411609 0.411609
0.452747 0.452747 0.452747
0.493885 0.493885 0.493885
0.467724 0.467724 0.467724
0.508862 0.508862 0.508862
0.550000 0.550000 0.550000
0.591138 0.591138 0.591138
0.632276 0.632276 0.632276
0.606115 0.606115 0.606115
0.647253 0.647253 0.647253
0.688391 0.688391 0.688391
0.729529 0.729529 0.729529
0.770667 0.770667 0.770667
0.744506 0.744506 0.744506
0.785644 0.785644 0.785644
0.826782 0.826782 0.826782
0.867920 0.867920 0.867920
0.909059 0.909059 0.909059
0.204912 0.204912 0.204912
0.246050 0.246050 0.246050
0.287188 0.287188 0.287188
0.328326 0.328326 0.328326
0.369465 0.369465 0.369465
0.343303 0.343303 0.343303
0.384441 0.384441 0.384441
0.425580 0.425580 0.425580
0.466718 0.466718 0.466718
0.507856 0.507856 0.507856
0.481694 0.481694 0.481694
0.522833 0.522833 0.522833
0.563971 0.563971 0.563971
0.605109 0.605109 0.605109
0.646247 0.646247 0.646247
0.620086 0.620086 0.620086
0.661224 0.661224 0.661224
0.702362 0.702362 0.702362
0.743500 0.743500 0.743500
0.784638 0.784638 0.784638
0.758477 0.758477 0.758477
0.799615 0.799615 0.799615
0.840753 0.840753 0.840753
0.881891 0.881891 0.881891
0.923029 0.923029 0.923029
0.218883 0.218883 0.218883
0.260021 0.260021 0.260021
0.301159 0.301159 0.301159
0.342297 0.342297 0.342297
0.383435 0.383435 0.383435
0.357274 0.357274 0.357274
0.398412 0.398412 0.398412
0.439550 0.439550 0.439550
0.480688 0.480688 0.480688
0.521826 0.521826 0.521826
0.495665 0.495665 0.495665
0.536803 0.536803 0.536803
0.577941 0.577941 0.577941
0.619080 0.619080 0.619080
0.660218 0.660218 0.660218
0.634056 0.634056 0.634056
0.675195 0.675195 0.675195
0.716333 0.716333 0.716333
0.757471 0.757471 0.757471
0.798609 0.798609 0.798609
0.772448 0.772448 0.772448
0.813586 0.813586 0.813586
0.854724 0.854724 0.854724
0.895862 0.895862 0.895862
0.937000 0.937000 0.937000
