assets/luts/platinum.cube
# Platinum — Studio filter "platinum"
# Generated by scripts/generate-filter-luts.mjs — do not edit by hand.
LUT_3D_SIZE 9
DOMAIN_MIN 0.0 0.0 0.0
DOMAIN_MAX 1.0 1.0 1.0
0.163000 0.163000 0.163000
0.183569 0.183569 0.183569
0.204138 0.204138 0.204138
0.224707 0.224707 0.224707
0.245276 0.245276 0.245276
0.265845 0.265845 0.265845
0.286414 0.286414 0.286414
0.306983 0.306983 0.306983
0.327552 0.327552 0.327552
0.232196 0.232196 0.232196
0.252765 0.252765 0.252765
0.273334 0.273334 0.273334
0.293903 0.293903 0.293903
0.314472 0.314472 0.314472
0.335041 0.335041 0.335041
0.355610 0.355610 0.355610
0.376179 0.376179 0.376179
0.396748 0.396748 0.396748
0.301391 0.301391 0.301391
0.321960 0.321960 0.321960
0.342529 0.342529 0.342529
0.363098 0.363098 0.363098
0.383667 0.383667 0.383667
0.404236 0.404236 0.404236
0.424805 0.424805 0.424805
0.445375 0.445375 0.445375
0.465944 0.465944 0.465944
0.370587 0.370587 0.370587
0.391156 0.391156 0.391156
0.411725 0.411725 0.411725
0.432294 0.432294 0.432294
0.452863 0.452863 0.452863
0.473432 0.473432 0.473432
0.494001 0.494001 0.494001
0.514570 0.514570 0.514570
0.535139 0.535139 0.535139
0.439782 0.439782 0.439782
0.460351 0.460351 0.460351
0.480920 0.480920 0.480920
0.501490 0.501490 0.501490
0.522059 0.522059 0.522059
0.542628 0.542628 0.542628
0.563197 0.563197 0.563197
0.583766 0.583766 0.583766
0.604335 0.604335 0.604335
0.508978 0.508978 0.508978
0.529547 0.529547 0.529547
0.550116 0.550116 0.550116
0.570685 0.570685 0.570685
0.591254 0.591254 0.591254
0.611823 0.611823 0.611823
0.632392 0.632392 0.632392
0.652961 0.652961 0.652961
0.673530 0.673530 0.673530
0.578174 0.578174 0.578174
0.598743 0.598743 0.598743
0.619312 0.619312 0.619312
0.639881 0.639881 0.639881
0.660450 0.660450 0.660450
0.681019 0.681019 0.681019
0.701588 0.701588 0.701588
0.722157 0.722157 0.722157
0.742726 0.742726 0.742726
0.647369 0.647369 0.647369
0.667938 0.667938 0.667938
0.688507 0.688507 0.688507
0.709076 0.709076 0.709076
0.729645 0.729645 0.729645
0.750214 0.750214 0.750214
0.770783 0.770783 0.770783
0.791353 0.791353 0.791353
0.811922 0.811922 0.811922
0.716565 0.716565 0.716565
0.737134 0.737134 0.737134
0.757703 0.757703 0.757703
0.778272 0.778272 0.778272
0.798841 0.798841 0.798841
0.819410 0.819410 0.819410
0.839979 0.839979 0.839979
0.860548 0.860548 0.860548
0.881117 0.881117 0.881117
0.169985 0.169985 0.169985
0.190554 0.190554 0.190554
0.211123 0.211123 0.211123
0.231692 0.231692 0.231692
0.252262 0.252262 0.252262
0.272831 0.272831 0.272831
0.293400 0.293400 0.293400
0.313969 0.313969 0.313969
0.334538 0.334538 0.334538
0.239181 0.239181 0.239181
0.259750 0.259750 0.259750
0.280319 0.280319 0.280319
0.300888 0.300888 0.300888
0.321457 0.321457 0.321457
0.342026 0.342026 0.342026
0.362595 0.362595 0.362595
0.383164 0.383164 0.383164
0.403733 0.403733 0.403733
0.308377 0.308377 0.308377
0.328946 0.328946 0.328946
0.349515 0.349515 0.349515
0.370084 0.370084 0.370084
0.390653 0.390653 0.390653
0.411222 0.411222 0.411222
0.431791 0.431791 0.431791
0.452360 0.452360 0.452360
0.472929 0.472929 0.472929
0.377572 0.377572 0.377572
0.398141 0.398141 0.398141
0.418710 0.418710 0.418710
0.439279 0.439279 0.439279
0.459848 0.459848 0.459848
0.480417 0.480417 0.480417
0.500986 0.500986 0.500986
0.521556 0.521556 0.521556
0.542125 0.542125 0.542125
0.446768 0.446768 0.446768
0.467337 0.467337 0.467337
0.487906 0.487906 0.487906
0.508475 0.508475 0.508475
0.529044 0.529044 0.529044
0.549613 0.549613 0.549613
0.570182 0.570182 0.570182
0.590751 0.590751 0.590751
0.611320 0.611320 0.611320
0.515963 0.515963 0.515963
0.536532 0.536532 0.536532
0.557101 0.557101 0.557101
0.577670 0.577670 0.577670
0.598240 0.598240 0.598240
0.618809 0.618809 0.618809
0.639378 0.639378 0.639378
0.659947 0.659947 0.659947
0.680516 0.680516 0.680516
0.585159 0.585159 0.585159
0.605728 0.605728 0.605728
0.626297 0.626297 0.626297
0.646866 0.646866 0.646866
0.667435 0.667435 0.667435
0.688004 0.688004 0.688004
0.708573 0.708573 0.708573
0.729142 0.729142 0.729142
0.749711 0.749711 0.749711
0.654355 0.654355 0.654355
0.674924 0.674924 0.674924
0.695493 0.695493 0.695493
0.716062 0.716062 0.716062
0.736631 0.736631 0.736631
0.757200 0.757200 0.757200
0.777769 0.777769 0.777769
0.798338 0.798338 0.798338
0.818907 0.818907 0.818907
0.723550 0.723550 0.723550
0.744119 0.744119 0.744119
0.764688 0.764688 0.764688
0.785257 0.785257 0.785257
0.805826 0.805826 0.805826
0.826395 0.826395 0.826395
0.846964 0.846964 0.846964
0.867533 0.867533 0.867533
0.888103 0.888103 0.888103
0.176971 0.176971 0.176971
0.197540 0.197540 0.197540
0.218109 0.218109 0.218109
0.238678 0.238678 0.238678
0.259247 0.259247 0.259247
0.279816 0.279816 0.279816
0.300385 0.300385 0.300385
0.320954 0.320954 0.320954
0.341523 0.341523 0.341523
0.246166 0.246166 0.246166
0.266735 0.266735 0.266735
0.287304 0.287304 0.287304
0.307873 0.307873 0.307873
0.328442 0.328442 0.328442
0.349012 0.349012 0.349012
0.369581 0.369581 0.369581
0.390150 0.390150 0.390150
0.410719 0.410719 0.410719
0.315362 0.315362 0.315362
0.335931 0.335931 0.335931
0.356500 0.356500 0.356500
0.377069 0.377069 0.377069
0.397638 0.397638 0.397638
0.418207 0.418207 0.418207
0.438776 0.438776 0.438776
0.459345 0.459345 0.459345
0.479914 0.479914 0.479914
0.384557 0.384557 0.384557
0.405127 0.405127 0.405127
0.425696 0.425696 0.425696
0.446265 0.446265 0.446265
0.466834 0.466834 0.466834
0.487403 0.487403 0.487403
0.507972 0.507972 0.507972
0.528541 0.528541 0.528541
0.549110 0.549110 0.549110
0.453753 0.453753 0.453753
0.474322 0.474322 0.474322
0.494891 0.494891 0.494891
0.515460 0.515460 0.515460
0.536029 0.536029 0.536029
0.556598 0.556598 0.556598
0.577167 0.577167 0.577167
0.597736 0.597736 0.597736
0.618306 0.618306 0.618306
0.522949 0.522949 0.522949
0.543518 0.543518 0.543518
0.564087 0.564087 0.564087
0.584656 0.584656 0.584656
0.605225 0.605225 0.605225
0.625794 0.625794 0.625794
0.646363 0.646363 0.646363
0.666932 0.666932 0.666932
0.687501 0.687501 0.687501
0.592144 0.592144 0.592144
0.612713 0.612713 0.612713
0.633282 0.633282 0.633282
0.653851 0.653851 0.653851
0.674421 0.674421 0.674421
0.694990 0.694990 0.694990
0.715559 0.715559 0.715559
0.736128 0.736128 0.736128
0.756697 0.756697 0.756697
0.661340 0.661340 0.661340
0.681909 0.681909 0.681909
0.702478 0.702478 0.702478
0.723047 0.723047 0.723047
0.743616 0.743616 0.743616
0.764185 0.764185 0.764185
0.784754 0.784754 0.784754
0.805323 0.805323 0.805323
0.825892 0.825892 0.825892
0.730536 0.730536 0.730536
0.751105 0.751105 0.751105
0.771674 0.771674 0.771674
0.792243 0.792243 0.792243
0.812812 0.812812 0.812812
0.833381 0.833381 0.833381
0.853950 0.853950 0.853950
0.874519 0.874519 0.874519
0.895088 0.895088 0.895088
0.183956 0.183956 0.183956
0.204525 0.204525 0.204525
0.225094 0.225094 0.225094
0.245663 0.245663 0.245663
0.266232 0.266232 0.266232
0.286801 0.286801 0.286801
0.307370 0.307370 0.307370
0.327939 0.327939 0.327939
0.348508 0.348508 0.348508
0.253152 0.253152 0.253152
0.273721 0.273721 0.273721
0.294290 0.294290 0.294290
0.314859 0.314859 0.314859
0.335428 0.335428 0.335428
0.355997 0.355997 0.355997
0.376566 0.376566 0.376566
0.397135 0.397135 0.397135
0.417704 0.417704 0.417704
0.322347 0.322347 0.322347
0.342916 0.342916 0.342916
0.363485 0.363485 0.363485
0.384054 0.384054 0.384054
0.404623 0.404623 0.404623
0.425193 0.425193 0.425193
0.445762 0.445762 0.445762
0.466331 0.466331 0.466331
0.486900 0.486900 0.486900
0.391543 0.391543 0.391543
0.412112 0.412112 0.412112
0.432681 0.432681 0.432681
0.453250 0.453250 0.453250
0.473819 0.473819 0.473819
0.494388 0.494388 0.494388
0.514957 0.514957 0.514957
0.535526 0.535526 0.535526
0.556095 0.556095 0.556095
0.460738 0.460738 0.460738
0.481307 0.481307 0.481307
0.501877 0.501877 0.501877
0.522446 0.522446 0.522446
0.543015 0.543015 0.543015
0.563584 0.563584 0.563584
0.584153 0.584153 0.584153
0.604722 0.604722 0.604722
0.625291 0.625291 0.625291
0.529934 0.529934 0.529934
0.550503 0.550503 0.550503
0.571072 0.571072 0.571072
0.591641 0.591641 0.591641
0.612210 0.612210 0.612210
0.632779 0.632779 0.632779
0.653348 0.653348 0.653348
0.673917 0.673917 0.673917
0.694486 0.694486 0.694486
0.599130 0.599130 0.599130
0.619699 0.619699 0.619699
0.640268 0.640268 0.640268
0.660837 0.660837 0.660837
0.681406 0.681406 0.681406
0.701975 0.701975 0.701975
0.722544 0.722544 0.722544
0.743113 0.743113 0.743113
0.763682 0.763682 0.763682
0.668325 0.668325 0.668325
0.688894 0.688894 0.688894
0.709463 0.709463 0.709463
0.730032 0.730032 0.730032
0.750601 0.750601 0.750601
0.771170 0.771170 0.771170
0.791740 0.791740 0.791740
0.812309 0.812309 0.812309
0.832878 0.832878 0.832878
0.737521 0.737521 0.737521
0.758090 0.758090 0.758090
0.778659 0.778659 0.778659
0.799228 0.799228 0.799228
0.819797 0.819797 0.819797
0.840366 0.840366 0.840366
0.860935 0.860935 0.860935
0.881504 0.881504 0.881504
0.902073 0.902073 0.902073
0.190941 0.190941 0.190941
0.211510 0.211510 0.211510
0.232080 0.232080 0.232080
0.252649 0.252649 0.252649
0.273218 0.273218 0.273218
0.293787 0.293787 0.293787
0.314356 0.314356 0.314356
0.334925 0.334925 0.334925
0.355494 0.355494 0.355494
0.260137 0.260137 0.260137
0.280706 0.280706 0.280706
0.301275 0.301275 0.301275
0.321844 0.321844 0.321844
0.342413 0.342413 0.342413
0.362982 0.362982 0.362982
0.383551 0.383551 0.383551
0.404120 0.404120 0.404120
0.424689 0.424689 0.424689
0.329333 0.329333 0.329333
0.349902 0.349902 0.349902
0.370471 0.370471 0.370471
0.391040 0.391040 0.391040
0.411609 0.411609 0.411609
0.432178 0.432178 0.432178
0.452747 0.452747 0.452747
0.473316 0.473316 0.473316
0.493885 0.493885 0.493885
0.398528 0.398528 0.398528
0.419097 0.419097 0.419097
0.439666 0.439666 0.439666
0.460235 0.460235 0.460235
0.480804 0.480804 0.480804
0.501373 0.501373 0.501373
0.521942 0.521942 0.521942
0.542512 0.542512 0.542512
0.563081 0.563081 0.563081
0.467724 0.467724 0.467724
0.488293 0.488293 0.488293
0.508862 0.508862 0.508862
0.529431 0.529431 0.529431
0.550000 0.550000 0.550000
0.570569 0.570569 0.570569
0.591138 0.591138 0.591138
0.611707 0.611707 0.611707
0.632276 0.632276 0.632276
0.536919 0.536919 0.536919
0.557488 0.557488 0.557488
0.578058 0.578058 0.578058
0.598627 0.598627 0.598627
0.619196 0.619196 0.619196
0.639765 0.639765 0.639765
0.660334 0.660334 0.660334
0.680903 0.680903 0.680903
0.701472 0.701472 0.701472
0.606115 0.606115 0.606115
0.626684 0.626684 0.626684
0.647253 0.647253 0.647253
0.667822 0.667822 0.667822
0.688391 0.688391 0.688391
0.708960 0.708960 0.708960
0.729529 0.729529 0.729529
0.750098 0.750098 0.750098
0.770667 0.770667 0.770667
0.675311 0.675311 0.675311
0.695880 0.695880 0.695880
0.716449 0.716449 0.716449
0.737018 0.737018 0.737018
0.757587 0.757587 0.757587
0.778156 0.778156 0.778156
0.798725 0.798725 0.798725
0.819294 0.819294 0.819294
0.839863 0.839863 0.839863
0.744506 0.744506 0.744506
0.765075 0.765075 0.765075
0.785644 0.785644 0.785644
0.806213 0.806213 0.806213
0.826782 0.826782 0.826782
0.847351 0.847351 0.847351
0.867920 0.867920 0.867920
0.888490 0.888490 0.888490
0.909059 0.909059 0.909059
0.197927 0.197927 0.197927
0.218496 0.218496 0.218496
0.239065 0.239065 0.239065
0.259634 0.259634 0.259634
0.280203 0.280203 0.280203
0.300772 0.300772 0.300772
0.321341 0.321341 0.321341
0.341910 0.341910 0.341910
0.362479 0.362479 0.362479
0.267122 0.267122 0.267122
0.287691 0.287691 0.287691
0.308260 0.308260 0.308260
0.328829 0.328829 0.328829
0.349399 0.349399 0.349399
0.369968 0.369968 0.369968
0.390537 0.390537 0.390537
0.411106 0.411106 0.411106
0.431675 0.431675 0.431675
0.336318 0.336318 0.336318
0.356887 0.356887 0.356887
0.377456 0.377456 0.377456
0.398025 0.398025 0.398025
0.418594 0.418594 0.418594
0.439163 0.439163 0.439163
0.459732 0.459732 0.459732
0.480301 0.480301 0.480301
0.500870 0.500870 0.500870
0.405514 0.405514 0.405514
0.426083 0.426083 0.426083
0.446652 0.446652 0.446652
0.467221 0.467221 0.467221
0.487790 0.487790 0.487790
0.508359 0.508359 0.508359
0.528928 0.528928 0.528928
0.549497 0.549497 0.549497
0.570066 0.570066 0.570066
0.474709 0.474709 0.474709
0.495278 0.495278 0.495278
0.515847 0.515847 0.515847
0.536416 0.536416 0.536416
0.556985 0.556985 0.556985
0.577554 0.577554 0.577554
0.598123 0.598123 0.598123
0.618692 0.618692 0.618692
0.639262 0.639262 0.639262
0.543905 0.543905 0.543905
0.564474 0.564474 0.564474
0.585043 0.585043 0.585043
0.605612 0.605612 0.605612
0.626181 0.626181 0.626181
0.646750 0.646750 0.646750
0.667319 0.667319 0.667319
0.687888 0.687888 0.687888
0.708457 0.708457 0.708457
0.613100 0.613100 0.613100
0.633669 0.633669 0.633669
0.654238 0.654238 0.654238
0.674808 0.674808 0.674808
0.695377 0.695377 0.695377
0.715946 0.715946 0.715946
0.736515 0.736515 0.736515
0.757084 0.757084 0.757084
0.777653 0.777653 0.777653
0.682296 0.682296 0.682296
0.702865 0.702865 0.702865
0.723434 0.723434 0.723434
0.744003 0.744003 0.744003
0.764572 0.764572 0.764572
0.785141 0.785141 0.785141
0.805710 0.805710 0.805710
0.826279 0.826279 0.826279
0.846848 0.846848 0.846848
0.751492 0.751492 0.751492
0.772061 0.772061 0.772061
0.792630 0.792630 0.792630
0.813199 0.813199 0.813199
0.833768 0.833768 0.833768
0.854337 0.854337 0.854337
0.874906 0.874906 0.874906
0.895475 0.895475 0.895475
0.916044 0.916044 0.916044
0.204912 0.204912 0.204912
0.225481 0.225481 0.225481
0.246050 0.246050 0.246050
0.266619 0.266619 0.266619
0.287188 0.287188 0.287188
0.307757 0.307757 0.307757
0.328326 0.328326 0.328326
0.348895 0.348895 0.348895
0.369465 0.369465 0.369465
0.274108 0.274108 0.274108
0.294677 0.294677 0.294677
0.315246 0.315246 0.315246
0.335815 0.335815 0.335815
0.356384 0.356384 0.356384
0.376953 0.376953 0.376953
0.397522 0.397522 0.397522
0.418091 0.418091 0.418091
0.438660 0.438660 0.438660
0.343303 0.343303 0.343303
0.363872 0.363872 0.363872
0.384441 0.384441 0.384441
0.405010 0.405010 0.405010
0.425580 0.425580 0.425580
0.446149 0.446149 0.446149
0.466718 0.466718 0.466718
0.487287 0.487287 0.487287
0.507856 0.507856 0.507856
0.412499 0.412499 0.412499
0.433068 0.433068 0.433068
0.453637 0.453637 0.453637
0.474206 0.474206 0.474206
0.494775 0.494775 0.494775
0.515344 0.515344 0.515344
0.535913 0.535913 0.535913
0.556482 0.556482 0.556482
0.577051 0.577051 0.577051
0.481694 0.481694 0.481694
0.502264 0.502264 0.502264
0.522833 0.522833 0.522833
0.543402 0.543402 0.543402
0.563971 0.563971 0.563971
0.584540 0.584540 0.584540
0.605109 0.605109 0.605109
0.625678 0.625678 0.625678
0.646247 0.646247 0.646247
0.550890 0.550890 0.550890
0.571459 0.571459 0.571459
0.592028 0.592028 0.592028
0.612597 0.612597 0.612597
0.633166 0.633166 0.633166
0.653735 0.653735 0.653735
0.674304 0.674304 0.674304
0.694873 0.694873 0.694873
0.715442 0.715442 0.715442
0.620086 0.620086 0.620086
0.640655 0.640655 0.640655
0.661224 0.661224 0.661224
0.681793 0.681793 0.681793
0.702362 0.702362 0.702362
0.722931 0.722931 0.722931
0.743500 0.743500 0.743500
0.764069 0.764069 0.764069
0.784638 0.784638 0.784638
0.689281 0.689281 0.689281
0.709850 0.709850 0.709850
0.730419 0.730419 0.730419
0.750988 0.750988 0.750988
0.771558 0.771558 0.771558
0.792127 0.792127 0.792127
0.812696 0.812696 0.812696
0.833265 0.833265 0.833265
0.853834 0.853834 0.853834
0.758477 0.758477 0.758477
0.779046 0.779046 0.779046
0.799615 0.799615 0.799615
0.820184 0.820184 0.820184
0.840753 0.840753 0.840753
0.861322 0.861322 0.861322
0.881891 0.881891 0.881891
0.902460 0.902460 0.902460
0.923029 0.923029 0.923029
0.211897 0.211897 0.211897
0.232467 0.232467 0.232467
0.253036 0.253036 0.253036
0.273605 0.273605 0.273605
0.294174 0.294174 0.294174
0.314743 0.314743 0.314743
0.335312 0.335312 0.335312
0.355881 0.355881 0.355881
0.376450 0.376450 0.376450
0.281093 0.281093 0.281093
0.301662 0.301662 0.301662
0.322231 0.322231 0.322231
0.342800 0.342800 0.342800
0.363369 0.363369 0.363369
0.383938 0.383938 0.383938
0.404507 0.404507 0.404507
0.425076 0.425076 0.425076
0.445645 0.445645 0.445645
0.350289 0.350289 0.350289
0.370858 0.370858 0.370858
0.391427 0.391427 0.391427
0.411996 0.411996 0.411996
0.432565 0.432565 0.432565
0.453134 0.453134 0.453134
0.473703 0.473703 0.473703
0.494272 0.494272 0.494272
0.514841 0.514841 0.514841
0.419484 0.419484 0.419484
0.440053 0.440053 0.440053
0.460622 0.460622 0.460622
0.481191 0.481191 0.481191
0.501760 0.501760 0.501760
0.522330 0.522330 0.522330
0.542899 0.542899 0.542899
0.563468 0.563468 0.563468
0.584037 0.584037 0.584037
0.488680 0.488680 0.488680
0.509249 0.509249 0.509249
0.529818 0.529818 0.529818
0.550387 0.550387 0.550387
0.570956 0.570956 0.570956
0.591525 0.591525 0.591525
0.612094 0.612094 0.612094
0.632663 0.632663 0.632663
0.653232 0.653232 0.653232
0.557875 0.557875 0.557875
0.578445 0.578445 0.578445
0.599014 0.599014 0.599014
0.619583 0.619583 0.619583
0.640152 0.640152 0.640152
0.660721 0.660721 0.660721
0.681290 0.681290 0.681290
0.701859 0.701859 0.701859
0.722428 0.722428 0.722428
0.627071 0.627071 0.627071
0.647640 0.647640 0.647640
0.668209 0.668209 0.668209
0.688778 0.688778 0.688778
0.709347 0.709347 0.709347
0.729916 0.729916 0.729916
0.750485 0.750485 0.750485
0.771054 0.771054 0.771054
0.791623 0.791623 0.791623
0.696267 0.696267 0.696267
0.716836 0.716836 0.716836
0.737405 0.737405 0.737405
0.757974 0.757974 0.757974
0.778543 0.778543 0.778543
0.799112 0.799112 0.799112
0.819681 0.819681 0.819681
0.840250 0.840250 0.840250
0.860819 0.860819 0.860819
0.765462 0.765462 0.765462
0.786031 0.786031 0.786031
0.806600 0.806600 0.806600
0.827169 0.827169 0.827169
0.847738 0.847738 0.847738
0.868308 0.868308 0.868308
0.888877 0.888877 0.888877
0.909446 0.909446 0.909446
0.930015 0.930015 0.930015
0.218883 0.218883 0.218883
0.239452 0.239452 0.239452
0.260021 0.260021 0.260021
0.280590 0.280590 0.280590
0.301159 0.301159 0.301159
0.321728 0.321728 0.321728
0.342297 0.342297 0.342297
0.362866 0.362866 0.362866
0.383435 0.383435 0.383435
0.288078 0.288078 0.288078
0.308647 0.308647 0.308647
0.329217 0.329217 0.329217
0.349786 0.349786 0.349786
0.370355 0.370355 0.370355
0.390924 0.390924 0.390924
0.411493 0.411493 0.411493
0.432062 0.432062 0.432062
0.452631 0.452631 0.452631
0.357274 0.357274 0.357274
0.377843 0.377843 0.377843
0.398412 0.398412 0.398412
0.418981 0.418981 0.418981
0.439550 0.439550 0.439550
0.460119 0.460119 0.460119
0.480688 0.480688 0.480688
0.501257 0.501257 0.501257
0.521826 0.521826 0.521826
0.426470 0.426470 0.426470
0.447039 0.447039 0.447039
0.467608 0.467608 0.467608
0.488177 0.488177 0.488177
0.508746 0.508746 0.508746
0.529315 0.529315 0.529315
0.549884 0.549884 0.549884
0.570453 0.570453 0.570453
0.591022 0.591022 0.591022
0.495665 0.495665 0.495665
0.516234 0.516234 0.516234
0.536803 0.536803 0.536803
0.557372 0.557372 0.557372
0.577941 0.577941 0.577941
0.598510 0.598510 0.598510
0.619080 0.619080 0.619080
0.639649 0.639649 0.639649
0.660218 0.660218 0.660218
0.564861 0.564861 0.564861
0.585430 0.585430 0.585430
0.605999 0.605999 0.605999
0.626568 0.626568 0.626568
0.647137 0.647137 0.647137
0.667706 0.667706 0.667706
0.688275 0.688275 0.688275
0.708844 0.708844 0.708844
0.729413 0.729413 0.729413
0.634056 0.634056 0.634056
0.654625 0.654625 0.654625
0.675195 0.675195 0.675195
0.695764 0.695764 0.695764
0.716333 0.716333 0.716333
0.736902 0.736902 0.736902
0.757471 0.757471 0.757471
0.778040 0.778040 0.778040
0.798609 0.798609 0.798609
0.703252 0.703252 0.703252
0.723821 0.723821 0.723821
0.744390 0.744390 0.744390
0.764959 0.764959 0.764959
0.785528 0.785528 0.785528
0.806097 0.806097 0.806097
0.826666 0.826666 0.826666
0.847235 0.847235 0.847235
0.867804 0.867804 0.867804
0.772448 0.772448 0.772448
0.793017 0.793017 0.793017
0.813586 0.813586 0.813586
0.834155 0.834155 0.834155
0.854724 0.854724 0.854724
0.875293 0.875293 0.875293
0.895862 0.895862 0.895862
0.916431 0.916431 0.916431
0.937000 0.937000 0.937000
