assets/luts/platinum.cube
# Platinum — Studio filter "platinum"
# Generated by scripts/generate-filter-luts.mjs — do not edit by hand.
LUT_3D_SIZE 17
DOMAIN_MIN 0.0 0.0 0.0
DOMAIN_MAX 1.0 1.0 1.0
0.163000 0.163000 0.163000
0.173285 0.173285 0.173285
0.183569 0.183569 0.183569
0.193854 0.193854 0.193854
0.204138 0.204138 0.204138
0.214423 0.214423 0.214423
0.224707 0.224707 0.224707
0.234992 0.234992 0.234992
0.245276 0.245276 0.245276
0.255561 0.255561 0.255561
0.265845 0.265845 0.265845
0.276130 0.276130 0.276130
0.286414 0.286414 0.286414
0.296699 0.296699 0.296699
0.306983 0.306983 0.306983
0.317268 0.317268 0.317268
0.327552 0.327552 0.327552
0.197598 0.197598 0.197598
0.207882 0.207882 0.207882
0.218167 0.218167 0.218167
0.228451 0.228451 0.228451
0.238736 0.238736 0.238736
0.249020 0.249020 0.249020
0.259305 0.259305 0.259305
0.269589 0.269589 0.269589
0.279874 0.279874 0.279874
0.290159 0.290159 0.290159
0.300443 0.300443 0.300443
0.310728 0.310728 0.310728
0.321012 0.321012 0.321012
0.331297 0.331297 0.331297
0.341581 0.341581 0.341581
0.351866 0.351866 0.351866
0.362150 0.362150 0.362150
0.232196 0.232196 0.232196
0.242480 0.242480 0.242480
0.252765 0.252765 0.252765
0.263049 0.263049 0.263049
0.273334 0.273334 0.273334
0.283618 0.283618 0.283618
0.293903 0.293903 0.293903
0.304187 0.304187 0.304187
0.314472 0.314472 0.314472
0.324756 0.324756 0.324756
0.335041 0.335041 0.335041
0.345325 0.345325 0.345325
0.355610 0.355610 0.355610
0.365894 0.365894 0.365894
0.376179 0.376179 0.376179
0.386463 0.386463 0.386463
0.396748 0.396748 0.396748
0.266793 0.266793 0.266793
0.277078 0.277078 0.277078
0.287362 0.287362 0.287362
0.297647 0.297647 0.297647
0.307932 0.307932 0.307932
0.318216 0.318216 0.318216
0.328501 0.328501 0.328501
0.338785 0.338785 0.338785
0.349070 0.349070 0.349070
0.359354 0.359354 0.359354
0.369639 0.369639 0.369639
0.379923 0.379923 0.379923
0.390208 0.390208 0.390208
0.400492 0.400492 0.400492
0.410777 0.410777 0.410777
0.421061 0.421061 0.421061
0.431346 0.431346 0.431346
0.301391 0.301391 0.301391
0.311676 0.311676 0.311676
0.321960 0.321960 0.321960
0.332245 0.332245 0.332245
0.342529 0.342529 0.342529
0.352814 0.352814 0.352814
0.363098 0.363098 0.363098
0.373383 0.373383 0.373383
0.383667 0.383667 0.383667
0.393952 0.393952 0.393952
0.404236 0.404236 0.404236
0.414521 0.414521 0.414521
0.424805 0.424805 0.424805
0.435090 0.435090 0.435090
0.445375 0.445375 0.445375
0.455659 0.455659 0.455659
0.465944 0.465944 0.465944
0.335989 0.335989 0.335989
0.346274 0.346274 0.346274
0.356558 0.356558 0.356558
0.366843 0.366843 0.366843
0.377127 0.377127 0.377127
0.387412 0.387412 0.387412
0.397696 0.397696 0.397696
0.407981 0.407981 0.407981
0.418265 0.418265 0.418265
0.428550 0.428550 0.428550
0.438834 0.438834 0.438834
0.449119 0.449119 0.449119
0.459403 0.459403 0.459403
0.469688 0.469688 0.469688
0.479972 0.479972 0.479972
0.490257 0.490257 0.490257
0.500541 0.500541 0.500541
0.370587 0.370587 0.370587
0.380871 0.380871 0.380871
0.391156 0.391156 0.391156
0.401440 0.401440 0.401440
0.411725 0.411725 0.411725
0.422009 0.422009 0.422009
0.432294 0.432294 0.432294
0.442578 0.442578 0.442578
0.452863 0.452863 0.452863
0.463148 0.463148 0.463148
0.473432 0.473432 0.473432
0.483717 0.483717 0.483717
0.494001 0.494001 0.494001
0.504286 0.504286 0.504286
0.514570 0.514570 0.514570
0.524855 0.524855 0.524855
0.535139 0.535139 0.535139
0.405185 0.405185 0.405185
0.415469 0.415469 0.415469
0.425754 0.425754 0.425754
0.436038 0.436038 0.436038
0.446323 0.446323 0.446323
0.456607 0.456607 0.456607
0.466892 0.466892 0.466892
0.477176 0.477176 0.477176
0.487461 0.487461 0.487461
0.497745 0.497745 0.497745
0.508030 0.508030 0.508030
0.518314 0.518314 0.518314
0.528599 0.528599 0.528599
0.538883 0.538883 0.538883
0.549168 0.549168 0.549168
0.559452 0.559452 0.559452
0.569737 0.569737 0.569737
0.439782 0.439782 0.439782
0.450067 0.450067 0.450067
0.460351 0.460351 0.460351
0.470636 0.470636 0.470636
0.480920 0.480920 0.480920
0.491205 0.491205 0.491205
0.501490 0.501490 0.501490
0.511774 0.511774 0.511774
0.522059 0.522059 0.522059
0.532343 0.532343 0.532343
0.542628 0.542628 0.542628
0.552912 0.552912 0.552912
0.563197 0.563197 0.563197
0.573481 0.573481 0.573481
0.583766 0.583766 0.583766
0.594050 0.594050 0.594050
0.604335 0.604335 0.604335
0.474380 0.474380 0.474380
0.484665 0.484665 0.484665
0.494949 0.494949 0.494949
0.505234 0.505234 0.505234
0.515518 0.515518 0.515518
0.525803 0.525803 0.525803
0.536087 0.536087 0.536087
0.546372 0.546372 0.546372
0.556656 0.556656 0.556656
0.566941 0.566941 0.566941
0.577225 0.577225 0.577225
0.587510 0.587510 0.587510
0.597795 0.597795 0.597795
0.608079 0.608079 0.608079
0.618364 0.618364 0.618364
0.628648 0.628648 0.628648
0.638933 0.638933 0.638933
0.508978 0.508978 0.508978
0.519263 0.519263 0.519263
0.529547 0.529547 0.529547
0.539832 0.539832 0.539832
0.550116 0.550116 0.550116
0.560401 0.560401 0.560401
0.570685 0.570685 0.570685
0.580970 0.580970 0.580970
0.591254 0.591254 0.591254
0.601539 0.601539 0.601539
0.611823 0.611823 0.611823
0.622108 0.622108 0.622108
0.632392 0.632392 0.632392
0.642677 0.642677 0.642677
0.652961 0.652961 0.652961
0.663246 0.663246 0.663246
0.673530 0.673530 0.673530
0.543576 0.543576 0.543576
0.553860 0.553860 0.553860
0.564145 0.564145 0.564145
0.574429 0.574429 0.574429
0.584714 0.584714 0.584714
0.594998 0.594998 0.594998
0.605283 0.605283 0.605283
0.615567 0.615567 0.615567
0.625852 0.625852 0.625852
0.636137 0.636137 0.636137
0.646421 0.646421 0.646421
0.656706 0.656706 0.656706
0.666990 0.666990 0.666990
0.677275 0.677275 0.677275
0.687559 0.687559 0.687559
0.697844 0.697844 0.697844
0.708128 0.708128 0.708128
0.578174 0.578174 0.578174
0.588458 0.588458 0.588458
0.598743 0.598743 0.598743
0.609027 0.609027 0.609027
0.619312 0.619312 0.619312
0.629596 0.629596 0.629596
0.639881 0.639881 0.639881
0.650165 0.650165 0.650165
0.660450 0.660450 0.660450
0.670734 0.670734 0.670734
0.681019 0.681019 0.681019
0.691303 0.691303 0.691303
0.701588 0.701588 0.701588
0.711872 0.711872 0.711872
0.722157 0.722157 0.722157
0.732441 0.732441 0.732441
0.742726 0.742726 0.742726
0.612771 0.612771 0.612771
0.623056 0.623056 0.623056
0.633340 0.633340 0.633340
0.643625 0.643625 0.643625
0.653909 0.653909 0.653909
0.664194 0.664194 0.664194
0.674479 0.674479 0.674479
0.684763 0.684763 0.684763
0.695048 0.695048 0.695048
0.705332 0.705332 0.705332
0.715617 0.715617 0.715617
0.725901 0.725901 0.725901
0.736186 0.736186 0.736186
0.746470 0.746470 0.746470
0.756755 0.756755 0.756755
0.767039 0.767039 0.767039
0.777324 0.777324 0.777324
0.647369 0.647369 0.647369
0.657654 0.657654 0.657654
0.667938 0.667938 0.667938
0.678223 0.678223 0.678223
0.688507 0.688507 0.688507
0.698792 0.698792 0.698792
0.709076 0.709076 0.709076
0.719361 0.719361 0.719361
0.729645 0.729645 0.729645
0.739930 0.739930 0.739930
0.750214 0.750214 0.750214
0.760499 0.760499 0.760499
0.770783 0.770783 0.770783
0.781068 0.781068 0.781068
0.791353 0.791353 0.791353
0.801637 0.801637 0.801637
0.811922 0.811922 0.811922
0.681967 0.681967 0.681967
0.692252 0.692252 0.692252
0.702536 0.702536 0.702536
0.712821 0.712821 0.712821
0.723105 0.723105 0.723105
0.733390 0.733390 0.733390
0.743674 0.743674 0.743674
0.753959 0.753959 0.753959
0.764243 0.764243 0.764243
0.774528 0.774528 0.774528
0.784812 0.784812 0.784812
0.795097 0.795097 0.795097
0.805381 0.805381 0.805381
0.815666 0.815666 0.815666
0.825950 0.825950 0.825950
0.836235 0.836235 0.836235
0.846519 0.846519 0.846519
0.716565 0.716565 0.716565
0.726849 0.726849 0.726849
0.737134 0.737134 0.737134
0.747418 0.747418 0.747418
0.757703 0.757703 0.757703
0.767987 0.767987 0.767987
0.778272 0.778272 0.778272
0.788556 0.788556 0.788556
0.798841 0.798841 0.798841
0.809126 0.809126 0.809126
0.819410 0.819410 0.819410
0.829695 0.829695 0.829695
0.839979 0.839979 0.839979
0.850264 0.850264 0.850264
0.860548 0.860548 0.860548
0.870833 0.870833 0.870833
0.881117 0.881117 0.881117
0.166493 0.166493 0.166493
0.176777 0.176777 0.176777
0.187062 0.187062 0.187062
0.197346 0.197346 0.197346
0.207631 0.207631 0.207631
0.217915 0.217915 0.217915
0.228200 0.228200 0.228200
0.238484 0.238484 0.238484
0.248769 0.248769 0.248769
0.259053 0.259053 0.259053
0.269338 0.269338 0.269338
0.279622 0.279622 0.279622
0.289907 0.289907 0.289907
0.300192 0.300192 0.300192
0.310476 0.310476 0.310476
0.320761 0.320761 0.320761
0.331045 0.331045 0.331045
0.201090 0.201090 0.201090
0.211375 0.211375 0.211375
0.221660 0.221660 0.221660
0.231944 0.231944 0.231944
0.242229 0.242229 0.242229
0.252513 0.252513 0.252513
0.262798 0.262798 0.262798
0.273082 0.273082 0.273082
0.283367 0.283367 0.283367
0.293651 0.293651 0.293651
0.303936 0.303936 0.303936
0.314220 0.314220 0.314220
0.324505 0.324505 0.324505
0.334789 0.334789 0.334789
0.345074 0.345074 0.345074
0.355358 0.355358 0.355358
0.365643 0.365643 0.365643
0.235688 0.235688 0.235688
0.245973 0.245973 0.245973
0.256257 0.256257 0.256257
0.266542 0.266542 0.266542
0.276826 0.276826 0.276826
0.287111 0.287111 0.287111
0.297395 0.297395 0.297395
0.307680 0.307680 0.307680
0.317964 0.317964 0.317964
0.328249 0.328249 0.328249
0.338534 0.338534 0.338534
0.348818 0.348818 0.348818
0.359103 0.359103 0.359103
0.369387 0.369387 0.369387
0.379672 0.379672 0.379672
0.389956 0.389956 0.389956
0.400241 0.400241 0.400241
0.270286 0.270286 0.270286
0.280571 0.280571 0.280571
0.290855 0.290855 0.290855
0.301140 0.301140 0.301140
0.311424 0.311424 0.311424
0.321709 0.321709 0.321709
0.331993 0.331993 0.331993
0.342278 0.342278 0.342278
0.352562 0.352562 0.352562
0.362847 0.362847 0.362847
0.373131 0.373131 0.373131
0.383416 0.383416 0.383416
0.393700 0.393700 0.393700
0.403985 0.403985 0.403985
0.414269 0.414269 0.414269
0.424554 0.424554 0.424554
0.434838 0.434838 0.434838
0.304884 0.304884 0.304884
0.315168 0.315168 0.315168
0.325453 0.325453 0.325453
0.335737 0.335737 0.335737
0.346022 0.346022 0.346022
0.356307 0.356307 0.356307
0.366591 0.366591 0.366591
0.376876 0.376876 0.376876
0.387160 0.387160 0.387160
0.397445 0.397445 0.397445
0.407729 0.407729 0.407729
0.418014 0.418014 0.418014
0.428298 0.428298 0.428298
0.438583 0.438583 0.438583
0.448867 0.448867 0.448867
0.459152 0.459152 0.459152
0.469436 0.469436 0.469436
0.339482 0.339482 0.339482
0.349766 0.349766 0.349766
0.360051 0.360051 0.360051
0.370335 0.370335 0.370335
0.380620 0.380620 0.380620
0.390904 0.390904 0.390904
0.401189 0.401189 0.401189
0.411473 0.411473 0.411473
0.421758 0.421758 0.421758
0.432042 0.432042 0.432042
0.442327 0.442327 0.442327
0.452611 0.452611 0.452611
0.462896 0.462896 0.462896
0.473181 0.473181 0.473181
0.483465 0.483465 0.483465
0.493750 0.493750 0.493750
0.504034 0.504034 0.504034
0.374079 0.374079 0.374079
0.384364 0.384364 0.384364
0.394649 0.394649 0.394649
0.404933 0.404933 0.404933
0.415218 0.415218 0.415218
0.425502 0.425502 0.425502
0.435787 0.435787 0.435787
0.446071 0.446071 0.446071
0.456356 0.456356 0.456356
0.466640 0.466640 0.466640
0.476925 0.476925 0.476925
0.487209 0.487209 0.487209
0.497494 0.497494 0.497494
0.507778 0.507778 0.507778
0.518063 0.518063 0.518063
0.528347 0.528347 0.528347
0.538632 0.538632 0.538632
0.408677 0.408677 0.408677
0.418962 0.418962 0.418962
0.429246 0.429246 0.429246
0.439531 0.439531 0.439531
0.449815 0.449815 0.449815
0.460100 0.460100 0.460100
0.470384 0.470384 0.470384
0.480669 0.480669 0.480669
0.490953 0.490953 0.490953
0.501238 0.501238 0.501238
0.511523 0.511523 0.511523
0.521807 0.521807 0.521807
0.532092 0.532092 0.532092
0.542376 0.542376 0.542376
0.552661 0.552661 0.552661
0.562945 0.562945 0.562945
0.573230 0.573230 0.573230
0.443275 0.443275 0.443275
0.453560 0.453560 0.453560
0.463844 0.463844 0.463844
0.474129 0.474129 0.474129
0.484413 0.484413 0.484413
0.494698 0.494698 0.494698
0.504982 0.504982 0.504982
0.515267 0.515267 0.515267
0.525551 0.525551 0.525551
0.535836 0.535836 0.535836
0.546120 0.546120 0.546120
0.556405 0.556405 0.556405
0.566689 0.566689 0.566689
0.576974 0.576974 0.576974
0.587258 0.587258 0.587258
0.597543 0.597543 0.597543
0.607827 0.607827 0.607827
0.477873 0.477873 0.477873
0.488157 0.488157 0.488157
0.498442 0.498442 0.498442
0.508726 0.508726 0.508726
0.519011 0.519011 0.519011
0.529296 0.529296 0.529296
0.539580 0.539580 0.539580
0.549865 0.549865 0.549865
0.560149 0.560149 0.560149
0.570434 0.570434 0.570434
0.580718 0.580718 0.580718
0.591003 0.591003 0.591003
0.601287 0.601287 0.601287
0.611572 0.611572 0.611572
0.621856 0.621856 0.621856
0.632141 0.632141 0.632141
0.642425 0.642425 0.642425
0.512471 0.512471 0.512471
0.522755 0.522755 0.522755
0.533040 0.533040 0.533040
0.543324 0.543324 0.543324
0.553609 0.553609 0.553609
0.563893 0.563893 0.563893
0.574178 0.574178 0.574178
0.584462 0.584462 0.584462
0.594747 0.594747 0.594747
0.605031 0.605031 0.605031
0.615316 0.615316 0.615316
0.625600 0.625600 0.625600
0.635885 0.635885 0.635885
0.646169 0.646169 0.646169
0.656454 0.656454 0.656454
0.666739 0.666739 0.666739
0.677023 0.677023 0.677023
0.547068 0.547068 0.547068
0.557353 0.557353 0.557353
0.567638 0.567638 0.567638
0.577922 0.577922 0.577922
0.588207 0.588207 0.588207
0.598491 0.598491 0.598491
0.608776 0.608776 0.608776
0.619060 0.619060 0.619060
0.629345 0.629345 0.629345
0.639629 0.639629 0.639629
0.649914 0.649914 0.649914
0.660198 0.660198 0.660198
0.670483 0.670483 0.670483
0.680767 0.680767 0.680767
0.691052 0.691052 0.691052
0.701336 0.701336 0.701336
0.711621 0.711621 0.711621
0.581666 0.581666 0.581666
0.591951 0.591951 0.591951
0.602235 0.602235 0.602235
0.612520 0.612520 0.612520
0.622804 0.622804 0.622804
0.633089 0.633089 0.633089
0.643373 0.643373 0.643373
0.653658 0.653658 0.653658
0.663942 0.663942 0.663942
0.674227 0.674227 0.674227
0.684512 0.684512 0.684512
0.694796 0.694796 0.694796
0.705081 0.705081 0.705081
0.715365 0.715365 0.715365
0.725650 0.725650 0.725650
0.735934 0.735934 0.735934
0.746219 0.746219 0.746219
0.616264 0.616264 0.616264
0.626549 0.626549 0.626549
0.636833 0.636833 0.636833
0.647118 0.647118 0.647118
0.657402 0.657402 0.657402
0.667687 0.667687 0.667687
0.677971 0.677971 0.677971
0.688256 0.688256 0.688256
0.698540 0.698540 0.698540
0.708825 0.708825 0.708825
0.719109 0.719109 0.719109
0.729394 0.729394 0.729394
0.739678 0.739678 0.739678
0.749963 0.749963 0.749963
0.760247 0.760247 0.760247
0.770532 0.770532 0.770532
0.780816 0.780816 0.780816
0.650862 0.650862 0.650862
0.661146 0.661146 0.661146
0.671431 0.671431 0.671431
0.681715 0.681715 0.681715
0.692000 0.692000 0.692000
0.702285 0.702285 0.702285
0.712569 0.712569 0.712569
0.722854 0.722854 0.722854
0.733138 0.733138 0.733138
0.743423 0.743423 0.743423
0.753707 0.753707 0.753707
0.763992 0.763992 0.763992
0.774276 0.774276 0.774276
0.784561 0.784561 0.784561
0.794845 0.794845 0.794845
0.805130 0.805130 0.805130
0.815414 0.815414 0.815414
0.685460 0.685460 0.685460
0.695744 0.695744 0.695744
0.706029 0.706029 0.706029
0.716313 0.716313 0.716313
0.726598 0.726598 0.726598
0.736882 0.736882 0.736882
0.747167 0.747167 0.747167
0.757451 0.757451 0.757451
0.767736 0.767736 0.767736
0.778020 0.778020 0.778020
0.788305 0.788305 0.788305
0.798589 0.798589 0.798589
0.808874 0.808874 0.808874
0.819159 0.819159 0.819159
0.829443 0.829443 0.829443
0.839728 0.839728 0.839728
0.850012 0.850012 0.850012
0.720057 0.720057 0.720057
0.730342 0.730342 0.730342
0.740627 0.740627 0.740627
0.750911 0.750911 0.750911
0.761196 0.761196 0.761196
0.771480 0.771480 0.771480
0.781765 0.781765 0.781765
0.792049 0.792049 0.792049
0.802334 0.802334 0.802334
0.812618 0.812618 0.812618
0.822903 0.822903 0.822903
0.833187 0.833187 0.833187
0.843472 0.843472 0.843472
0.853756 0.853756 0.853756
0.864041 0.864041 0.864041
0.874325 0.874325 0.874325
0.884610 0.884610 0.884610
0.169985 0.169985 0.169985
0.180270 0.180270 0.180270
0.190554 0.190554 0.190554
0.200839 0.200839 0.200839
0.211123 0.211123 0.211123
0.221408 0.221408 0.221408
0.231692 0.231692 0.231692
0.241977 0.241977 0.241977
0.252262 0.252262 0.252262
0.262546 0.262546 0.262546
0.272831 0.272831 0.272831
0.283115 0.283115 0.283115
0.293400 0.293400 0.293400
0.303684 0.303684 0.303684
0.313969 0.313969 0.313969
0.324253 0.324253 0.324253
0.334538 0.334538 0.334538
0.204583 0.204583 0.204583
0.214868 0.214868 0.214868
0.225152 0.225152 0.225152
0.235437 0.235437 0.235437
0.245721 0.245721 0.245721
0.256006 0.256006 0.256006
0.266290 0.266290 0.266290
0.276575 0.276575 0.276575
0.286859 0.286859 0.286859
0.297144 0.297144 0.297144
0.307428 0.307428 0.307428
0.317713 0.317713 0.317713
0.327997 0.327997 0.327997
0.338282 0.338282 0.338282
0.348567 0.348567 0.348567
0.358851 0.358851 0.358851
0.369136 0.369136 0.369136
0.239181 0.239181 0.239181
0.249465 0.249465 0.249465
0.259750 0.259750 0.259750
0.270035 0.270035 0.270035
0.280319 0.280319 0.280319
0.290604 0.290604 0.290604
0.300888 0.300888 0.300888
0.311173 0.311173 0.311173
0.321457 0.321457 0.321457
0.331742 0.331742 0.331742
0.342026 0.342026 0.342026
0.352311 0.352311 0.352311
0.362595 0.362595 0.362595
0.372880 0.372880 0.372880
0.383164 0.383164 0.383164
0.393449 0.393449 0.393449
0.403733 0.403733 0.403733
0.273779 0.273779 0.273779
0.284063 0.284063 0.284063
0.294348 0.294348 0.294348
0.304632 0.304632 0.304632
0.314917 0.314917 0.314917
0.325201 0.325201 0.325201
0.335486 0.335486 0.335486
0.345770 0.345770 0.345770
0.356055 0.356055 0.356055
0.366339 0.366339 0.366339
0.376624 0.376624 0.376624
0.386909 0.386909 0.386909
0.397193 0.397193 0.397193
0.407478 0.407478 0.407478
0.417762 0.417762 0.417762
0.428047 0.428047 0.428047
0.438331 0.438331 0.438331
0.308377 0.308377 0.308377
0.318661 0.318661 0.318661
0.328946 0.328946 0.328946
0.339230 0.339230 0.339230
0.349515 0.349515 0.349515
0.359799 0.359799 0.359799
0.370084 0.370084 0.370084
0.380368 0.380368 0.380368
0.390653 0.390653 0.390653
0.400937 0.400937 0.400937
0.411222 0.411222 0.411222
0.421506 0.421506 0.421506
0.431791 0.431791 0.431791
0.442075 0.442075 0.442075
0.452360 0.452360 0.452360
0.462644 0.462644 0.462644
0.472929 0.472929 0.472929
0.342974 0.342974 0.342974
0.353259 0.353259 0.353259
0.363543 0.363543 0.363543
0.373828 0.373828 0.373828
0.384112 0.384112 0.384112
0.394397 0.394397 0.394397
0.404681 0.404681 0.404681
0.414966 0.414966 0.414966
0.425251 0.425251 0.425251
0.435535 0.435535 0.435535
0.445820 0.445820 0.445820
0.456104 0.456104 0.456104
0.466389 0.466389 0.466389
0.476673 0.476673 0.476673
0.486958 0.486958 0.486958
0.497242 0.497242 0.497242
0.507527 0.507527 0.507527
0.377572 0.377572 0.377572
0.387857 0.387857 0.387857
0.398141 0.398141 0.398141
0.408426 0.408426 0.408426
0.418710 0.418710 0.418710
0.428995 0.428995 0.428995
0.439279 0.439279 0.439279
0.449564 0.449564 0.449564
0.459848 0.459848 0.459848
0.470133 0.470133 0.470133
0.480417 0.480417 0.480417
0.490702 0.490702 0.490702
0.500986 0.500986 0.500986
0.511271 0.511271 0.511271
0.521556 0.521556 0.521556
0.531840 0.531840 0.531840
0.542125 0.542125 0.542125
0.412170 0.412170 0.412170
0.422454 0.422454 0.422454
0.432739 0.432739 0.432739
0.443024 0.443024 0.443024
0.453308 0.453308 0.453308
0.463593 0.463593 0.463593
0.473877 0.473877 0.473877
0.484162 0.484162 0.484162
0.494446 0.494446 0.494446
0.504731 0.504731 0.504731
0.515015 0.515015 0.515015
0.525300 0.525300 0.525300
0.535584 0.535584 0.535584
0.545869 0.545869 0.545869
0.556153 0.556153 0.556153
0.566438 0.566438 0.566438
0.576722 0.576722 0.576722
0.446768 0.446768 0.446768
0.457052 0.457052 0.457052
0.467337 0.467337 0.467337
0.477621 0.477621 0.477621
0.487906 0.487906 0.487906
0.498190 0.498190 0.498190
0.508475 0.508475 0.508475
0.518759 0.518759 0.518759
0.529044 0.529044 0.529044
0.539328 0.539328 0.539328
0.549613 0.549613 0.549613
0.559898 0.559898 0.559898
0.570182 0.570182 0.570182
0.580467 0.580467 0.580467
0.590751 0.590751 0.590751
0.601036 0.601036 0.601036
0.611320 0.611320 0.611320
0.481366 0.481366 0.481366
0.491650 0.491650 0.491650
0.501935 0.501935 0.501935
0.512219 0.512219 0.512219
0.522504 0.522504 0.522504
0.532788 0.532788 0.532788
0.543073 0.543073 0.543073
0.553357 0.553357 0.553357
0.563642 0.563642 0.563642
0.573926 0.573926 0.573926
0.584211 0.584211 0.584211
0.594495 0.594495 0.594495
0.604780 0.604780 0.604780
0.615064 0.615064 0.615064
0.625349 0.625349 0.625349
0.635633 0.635633 0.635633
0.645918 0.645918 0.645918
0.515963 0.515963 0.515963
0.526248 0.526248 0.526248
0.536532 0.536532 0.536532
0.546817 0.546817 0.546817
0.557101 0.557101 0.557101
0.567386 0.567386 0.567386
0.577670 0.577670 0.577670
0.587955 0.587955 0.587955
0.598240 0.598240 0.598240
0.608524 0.608524 0.608524
0.618809 0.618809 0.618809
0.629093 0.629093 0.629093
0.639378 0.639378 0.639378
0.649662 0.649662 0.649662
0.659947 0.659947 0.659947
0.670231 0.670231 0.670231
0.680516 0.680516 0.680516
0.550561 0.550561 0.550561
0.560846 0.560846 0.560846
0.571130 0.571130 0.571130
0.581415 0.581415 0.581415
0.591699 0.591699 0.591699
0.601984 0.601984 0.601984
0.612268 0.612268 0.612268
0.622553 0.622553 0.622553
0.632837 0.632837 0.632837
0.643122 0.643122 0.643122
0.653406 0.653406 0.653406
0.663691 0.663691 0.663691
0.673975 0.673975 0.673975
0.684260 0.684260 0.684260
0.694544 0.694544 0.694544
0.704829 0.704829 0.704829
0.715114 0.715114 0.715114
0.585159 0.585159 0.585159
0.595443 0.595443 0.595443
0.605728 0.605728 0.605728
0.616013 0.616013 0.616013
0.626297 0.626297 0.626297
0.636582 0.636582 0.636582
0.646866 0.646866 0.646866
0.657151 0.657151 0.657151
0.667435 0.667435 0.667435
0.677720 0.677720 0.677720
0.688004 0.688004 0.688004
0.698289 0.698289 0.698289
0.708573 0.708573 0.708573
0.718858 0.718858 0.718858
0.729142 0.729142 0.729142
0.739427 0.739427 0.739427
0.749711 0.749711 0.749711
0.619757 0.619757 0.619757
0.630041 0.630041 0.630041
0.640326 0.640326 0.640326
0.650610 0.650610 0.650610
0.660895 0.660895 0.660895
0.671179 0.671179 0.671179
0.681464 0.681464 0.681464
0.691748 0.691748 0.691748
0.702033 0.702033 0.702033
0.712317 0.712317 0.712317
0.722602 0.722602 0.722602
0.732887 0.732887 0.732887
0.743171 0.743171 0.743171
0.753456 0.753456 0.753456
0.763740 0.763740 0.763740
0.774025 0.774025 0.774025
0.784309 0.784309 0.784309
0.654355 0.654355 0.654355
0.664639 0.664639 0.664639
0.674924 0.674924 0.674924
0.685208 0.685208 0.685208
0.695493 0.695493 0.695493
0.705777 0.705777 0.705777
0.716062 0.716062 0.716062
0.726346 0.726346 0.726346
0.736631 0.736631 0.736631
0.746915 0.746915 0.746915
0.757200 0.757200 0.757200
0.767484 0.767484 0.767484
0.777769 0.777769 0.777769
0.788053 0.788053 0.788053
0.798338 0.798338 0.798338
0.808622 0.808622 0.808622
0.818907 0.818907 0.818907
0.688952 0.688952 0.688952
0.699237 0.699237 0.699237
0.709521 0.709521 0.709521
0.719806 0.719806 0.719806
0.730090 0.730090 0.730090
0.740375 0.740375 0.740375
0.750660 0.750660 0.750660
0.760944 0.760944 0.760944
0.771229 0.771229 0.771229
0.781513 0.781513 0.781513
0.791798 0.791798 0.791798
0.802082 0.802082 0.802082
0.812367 0.812367 0.812367
0.822651 0.822651 0.822651
0.832936 0.832936 0.832936
0.843220 0.843220 0.843220
0.853505 0.853505 0.853505
0.723550 0.723550 0.723550
0.733835 0.733835 0.733835
0.744119 0.744119 0.744119
0.754404 0.754404 0.754404
0.764688 0.764688 0.764688
0.774973 0.774973 0.774973
0.785257 0.785257 0.785257
0.795542 0.795542 0.795542
0.805826 0.805826 0.805826
0.816111 0.816111 0.816111
0.826395 0.826395 0.826395
0.836680 0.836680 0.836680
0.846964 0.846964 0.846964
0.857249 0.857249 0.857249
0.867533 0.867533 0.867533
0.877818 0.877818 0.877818
0.888103 0.888103 0.888103
0.173478 0.173478 0.173478
0.183763 0.183763 0.183763
0.194047 0.194047 0.194047
0.204332 0.204332 0.204332
0.214616 0.214616 0.214616
0.224901 0.224901 0.224901
0.235185 0.235185 0.235185
0.245470 0.245470 0.245470
0.255754 0.255754 0.255754
0.266039 0.266039 0.266039
0.276323 0.276323 0.276323
0.286608 0.286608 0.286608
0.296892 0.296892 0.296892
0.307177 0.307177 0.307177
0.317461 0.317461 0.317461
