assets/luts/portra.cube
# Portra — Studio filter "portra"
# Generated by scripts/generate-filter-luts.mjs — do not edit by hand.
LUT_3D_SIZE 5
DOMAIN_MIN 0.0 0.0 0.0
DOMAIN_MAX 1.0 1.0 1.0
0.091600 0.081200 0.093800
0.317927 0.088340 0.099353
0.526837 0.094931 0.104479
0.729643 0.101329 0.109456
0.928583 0.107605 0.114337
0.116509 0.324142 0.112482
0.342836 0.331282 0.118035
0.551747 0.337872 0.123161
0.754552 0.344271 0.128138
0.953492 0.350547 0.133019
0.139502 0.548389 0.129726
0.365828 0.555529 0.135280
0.574739 0.562120 0.140406
0.777545 0.568518 0.145382
0.976485 0.574794 0.150264
0.161823 0.766083 0.146467
0.388149 0.773223 0.152020
0.597060 0.779814 0.157146
0.799865 0.786212 0.162123
0.998805 0.792488 0.167004
0.183718 0.979628 0.162888
0.410044 0.986768 0.168442
0.618955 0.993359 0.173568
0.821761 0.999757 0.178544
1.000000 1.000000 0.183425
0.094115 0.083625 0.314608
0.320441 0.090765 0.320161
0.529352 0.097356 0.325287
0.732157 0.103754 0.330264
0.931097 0.110030 0.335145
0.119024 0.326567 0.333290
0.345350 0.333707 0.338843
0.554261 0.340297 0.343969
0.757067 0.346695 0.348946
0.956007 0.352971 0.353827
0.142017 0.550814 0.350534
0.368343 0.557954 0.356088
0.577254 0.564545 0.361214
0.780059 0.570943 0.366190
0.978999 0.577219 0.371072
0.164337 0.768508 0.367275
0.390664 0.775648 0.372828
0.599574 0.782239 0.377954
0.802380 0.788637 0.382931
1.000000 0.794913 0.387812
0.186232 0.982053 0.383696
0.412559 0.989193 0.389250
0.621470 0.995783 0.394376
0.824275 1.000000 0.399352
1.000000 1.000000 0.404233
0.096436 0.085863 0.518425
0.322762 0.093003 0.523978
0.531673 0.099594 0.529104
0.734479 0.105992 0.534080
0.933419 0.112268 0.538962
0.121345 0.328805 0.537107
0.347672 0.335945 0.542660
0.556582 0.342535 0.547786
0.759388 0.348934 0.552762
0.958328 0.355210 0.557644
0.144338 0.553052 0.554351
0.370664 0.560192 0.559905
0.579575 0.566783 0.565031
0.782380 0.573181 0.570007
0.981321 0.579457 0.574888
0.166658 0.770746 0.571092
0.392985 0.777886 0.576645
0.601895 0.784477 0.581771
0.804701 0.790875 0.586747
1.000000 0.797151 0.591629
0.188553 0.984291 0.587513
0.414880 0.991431 0.593066
0.623791 0.998022 0.598193
0.826596 1.000000 0.603169
1.000000 1.000000 0.608050
0.098689 0.088036 0.716285
0.325016 0.095176 0.721839
0.533926 0.101767 0.726965
0.736732 0.108165 0.731941
0.935672 0.114441 0.736822
0.123598 0.330978 0.734967
0.349925 0.338118 0.740521
0.558836 0.344708 0.745647
0.761641 0.351106 0.750623
0.960581 0.357382 0.755504
0.146591 0.555225 0.752212
0.372917 0.562365 0.757765
0.581828 0.568956 0.762891
0.784634 0.575354 0.767867
0.983574 0.581630 0.772749
0.168912 0.772919 0.768952
0.395238 0.780059 0.774506
0.604149 0.786650 0.779632
0.806954 0.793048 0.784608
1.000000 0.799324 0.789489
0.190807 0.986464 0.785374
0.417133 0.993604 0.790927
0.626044 1.000000 0.796053
0.828850 1.000000 0.801029
1.000000 1.000000 0.805911
0.100899 0.090167 0.910375
0.327226 0.097307 0.915928
0.536137 0.103898 0.921054
0.738942 0.110296 0.926030
0.937882 0.116572 0.930912
0.125809 0.333109 0.929057
0.352135 0.340249 0.934610
0.561046 0.346840 0.939736
0.763852 0.353238 0.944712
0.962792 0.359514 0.949594
0.148801 0.557356 0.946301
0.375128 0.564496 0.951854
0.584038 0.571087 0.956980
0.786844 0.577485 0.961957
0.985784 0.583761 0.966838
0.171122 0.775050 0.963041
0.397448 0.782190 0.968595
0.606359 0.788781 0.973721
0.809165 0.795179 0.978697
1.000000 0.801455 0.983579
0.193017 0.988595 0.979463
0.419344 0.995735 0.985016
0.628254 1.000000 0.990142
0.831060 1.000000 0.995119
1.000000 1.000000 1.000000
