assets/luts/portra.cube
# Portra — Studio filter "portra"
# Generated by scripts/generate-filter-luts.mjs — do not edit by hand.
LUT_3D_SIZE 9
DOMAIN_MIN 0.0 0.0 0.0
DOMAIN_MAX 1.0 1.0 1.0
0.091600 0.081200 0.093800
0.209291 0.084913 0.096688
0.317927 0.088340 0.099353
0.423387 0.091667 0.101941
0.526837 0.094931 0.104479
0.628818 0.098148 0.106982
0.729643 0.101329 0.109456
0.829516 0.104480 0.111906
0.928583 0.107605 0.114337
0.104553 0.207531 0.103515
0.222244 0.211244 0.106403
0.330880 0.214672 0.109068
0.436340 0.217999 0.111656
0.539790 0.221262 0.114194
0.641771 0.224479 0.116697
0.742596 0.227660 0.119171
0.842469 0.230811 0.121621
0.941536 0.233936 0.124052
0.116509 0.324142 0.112482
0.234201 0.327855 0.115370
0.342836 0.331282 0.118035
0.448296 0.334609 0.120623
0.551747 0.337872 0.123161
0.653727 0.341090 0.125664
0.754552 0.344271 0.128138
0.854426 0.347421 0.130588
0.953492 0.350547 0.133019
0.128116 0.437344 0.121187
0.245808 0.441057 0.124075
0.354443 0.444484 0.126741
0.459903 0.447811 0.129328
0.563353 0.451075 0.131867
0.665334 0.454292 0.134369
0.766159 0.457473 0.136843
0.866033 0.460624 0.139294
0.965099 0.463749 0.141724
0.139502 0.548389 0.129726
0.257193 0.552102 0.132614
0.365828 0.555529 0.135280
0.471289 0.558856 0.137868
0.574739 0.562120 0.140406
0.676720 0.565337 0.142908
0.777545 0.568518 0.145382
0.877418 0.571669 0.147833
0.976485 0.574794 0.150264
0.150726 0.657856 0.138144
0.268417 0.661569 0.141032
0.377052 0.664997 0.143698
0.482513 0.668324 0.146285
0.585963 0.671587 0.148824
0.687944 0.674804 0.151326
0.788769 0.677985 0.153800
0.888642 0.681136 0.156251
0.987709 0.684261 0.158682
0.161823 0.766083 0.146467
0.279514 0.769796 0.149355
0.388149 0.773223 0.152020
0.493609 0.776550 0.154608
0.597060 0.779814 0.157146
0.699041 0.783031 0.159649
0.799865 0.786212 0.162123
0.899739 0.789363 0.164573
0.998805 0.792488 0.167004
0.172815 0.873289 0.154711
0.290506 0.877002 0.157599
0.399141 0.880429 0.160264
0.504602 0.883756 0.162852
0.608052 0.887019 0.165390
0.710033 0.890237 0.167893
0.810857 0.893418 0.170367
0.910731 0.896568 0.172817
1.000000 0.899694 0.175248
0.183718 0.979628 0.162888
0.301409 0.983341 0.165776
0.410044 0.986768 0.168442
0.515505 0.990095 0.171029
0.618955 0.993359 0.173568
0.720936 0.996576 0.176070
0.821761 0.999757 0.178544
0.921634 1.000000 0.180995
1.000000 1.000000 0.183425
0.092908 0.082461 0.208622
0.210599 0.086174 0.211510
0.319234 0.089601 0.214175
0.424695 0.092928 0.216763
0.528145 0.096192 0.219301
0.630126 0.099409 0.221804
0.730950 0.102590 0.224277
0.830824 0.105741 0.226728
0.929890 0.108866 0.229159
0.105861 0.208792 0.218337
0.223552 0.212505 0.221224
0.332187 0.215932 0.223890
0.437648 0.219260 0.226478
0.541098 0.222523 0.229016
0.643079 0.225740 0.231518
0.743904 0.228921 0.233992
0.843777 0.232072 0.236443
0.942844 0.235197 0.238874
0.117817 0.325403 0.227304
0.235508 0.329116 0.230192
0.344143 0.332543 0.232857
0.449604 0.335870 0.235445
0.553054 0.339133 0.237983
0.655035 0.342351 0.240486
0.755860 0.345531 0.242959
0.855733 0.348682 0.245410
0.954800 0.351808 0.247841
0.129424 0.438605 0.236009
0.247115 0.442318 0.238897
0.355750 0.445745 0.241562
0.461211 0.449072 0.244150
0.564661 0.452336 0.246688
0.666642 0.455553 0.249191
0.767467 0.458734 0.251665
0.867340 0.461885 0.254115
0.966407 0.465010 0.256546
0.140810 0.549650 0.244548
0.258501 0.553363 0.247436
0.367136 0.556790 0.250102
0.472596 0.560117 0.252689
0.576047 0.563381 0.255228
0.678028 0.566598 0.257730
0.778852 0.569779 0.260204
0.878726 0.572930 0.262655
0.977792 0.576055 0.265085
0.152033 0.659117 0.252966
0.269725 0.662830 0.255854
0.378360 0.666257 0.258520
0.483820 0.669585 0.261107
0.587271 0.672848 0.263646
0.689251 0.676065 0.266148
0.790076 0.679246 0.268622
0.889950 0.682397 0.271072
0.989016 0.685522 0.273503
0.163130 0.767344 0.261289
0.280822 0.771057 0.264176
0.389457 0.774484 0.266842
0.494917 0.777811 0.269430
0.598367 0.781075 0.271968
0.700348 0.784292 0.274470
0.801173 0.787473 0.276944
0.901047 0.790624 0.279395
1.000000 0.793749 0.281826
0.174122 0.874550 0.269533
0.291814 0.878263 0.272420
0.400449 0.881690 0.275086
0.505909 0.885017 0.277674
0.609359 0.888280 0.280212
0.711340 0.891498 0.282714
0.812165 0.894678 0.285188
0.912039 0.897829 0.287639
1.000000 0.900955 0.290070
0.185025 0.980889 0.277710
0.302717 0.984602 0.280598
0.411352 0.988029 0.283263
0.516812 0.991356 0.285851
0.620263 0.994620 0.288390
0.722243 0.997837 0.290892
0.823068 1.000000 0.293366
0.922942 1.000000 0.295816
1.000000 1.000000 0.298247
0.094115 0.083625 0.314608
0.211806 0.087338 0.317496
0.320441 0.090765 0.320161
0.425902 0.094092 0.322749
0.529352 0.097356 0.325287
0.631333 0.100573 0.327790
0.732157 0.103754 0.330264
0.832031 0.106904 0.332714
0.931097 0.110030 0.335145
0.107068 0.209956 0.324323
0.224759 0.213669 0.327211
0.333394 0.217096 0.329876
0.438855 0.220423 0.332464
0.542305 0.223687 0.335002
0.644286 0.226904 0.337505
0.745111 0.230085 0.339978
0.844984 0.233236 0.342429
0.944051 0.236361 0.344860
0.119024 0.326567 0.333290
0.236715 0.330279 0.336178
0.345350 0.333707 0.338843
0.450811 0.337034 0.341431
0.554261 0.340297 0.343969
0.656242 0.343515 0.346472
0.757067 0.346695 0.348946
0.856940 0.349846 0.351396
0.956007 0.352971 0.353827
0.130631 0.439769 0.341995
0.248322 0.443482 0.344883
0.356957 0.446909 0.347549
0.462418 0.450236 0.350136
0.565868 0.453500 0.352675
0.667849 0.456717 0.355177
0.768674 0.459898 0.357651
0.868547 0.463049 0.360101
0.967614 0.466174 0.362532
0.142017 0.550814 0.350534
0.259708 0.554527 0.353422
0.368343 0.557954 0.356088
0.473803 0.561281 0.358675
0.577254 0.564545 0.361214
0.679235 0.567762 0.363716
0.780059 0.570943 0.366190
0.879933 0.574093 0.368641
0.978999 0.577219 0.371072
0.153240 0.660281 0.358952
0.270932 0.663994 0.361840
0.379567 0.667421 0.364506
0.485027 0.670748 0.367093
0.588478 0.674012 0.369632
0.690458 0.677229 0.372134
0.791283 0.680410 0.374608
0.891157 0.683561 0.377059
0.990223 0.686686 0.379489
0.164337 0.768508 0.367275
0.282029 0.772221 0.370163
0.390664 0.775648 0.372828
0.496124 0.778975 0.375416
0.599574 0.782239 0.377954
0.701555 0.785456 0.380457
0.802380 0.788637 0.382931
0.902254 0.791788 0.385381
1.000000 0.794913 0.387812
0.175329 0.875714 0.375519
0.293021 0.879426 0.378407
0.401656 0.882854 0.381072
0.507116 0.886181 0.383660
0.610566 0.889444 0.386198
0.712547 0.892662 0.388701
0.813372 0.895842 0.391175
0.913246 0.898993 0.393625
1.000000 0.902118 0.396056
0.186232 0.982053 0.383696
0.303924 0.985766 0.386584
0.412559 0.989193 0.389250
0.518019 0.992520 0.391837
0.621470 0.995783 0.394376
0.723450 0.999001 0.396878
0.824275 1.000000 0.399352
0.924149 1.000000 0.401803
1.000000 1.000000 0.404233
0.095286 0.084755 0.417497
0.212978 0.088468 0.420385
0.321613 0.091895 0.423050
0.427073 0.095222 0.425638
0.530524 0.098485 0.428176
0.632504 0.101703 0.430679
0.733329 0.104883 0.433153
0.833203 0.108034 0.435603
0.932269 0.111160 0.438034
0.108239 0.211086 0.427212
0.225931 0.214799 0.430099
0.334566 0.218226 0.432765
0.440026 0.221553 0.435353
0.543477 0.224817 0.437891
0.645457 0.228034 0.440393
0.746282 0.231215 0.442867
0.846156 0.234366 0.445318
0.945222 0.237491 0.447749
0.120196 0.327696 0.436179
0.237887 0.331409 0.439067
0.346522 0.334836 0.441732
0.451983 0.338164 0.444320
0.555433 0.341427 0.446858
0.657414 0.344644 0.449361
0.758239 0.347825 0.451835
0.858112 0.350976 0.454285
0.957179 0.354101 0.456716
0.131803 0.440899 0.444884
0.249494 0.444612 0.447772
0.358129 0.448039 0.450437
0.463590 0.451366 0.453025
0.567040 0.454630 0.455564
0.669021 0.457847 0.458066
0.769845 0.461028 0.460540
0.869719 0.464179 0.462990
0.968785 0.467304 0.465421
0.143188 0.551944 0.453423
0.260880 0.555657 0.456311
0.369515 0.559084 0.458977
0.474975 0.562411 0.461564
0.578425 0.565674 0.464103
0.680406 0.568892 0.466605
0.781231 0.572073 0.469079
0.881105 0.575223 0.471530
0.980171 0.578349 0.473960
0.154412 0.661411 0.461841
0.272104 0.665124 0.464729
0.380739 0.668551 0.467395
0.486199 0.671878 0.469982
0.589649 0.675142 0.472521
0.691630 0.678359 0.475023
0.792455 0.681540 0.477497
0.892329 0.684691 0.479948
0.991395 0.687816 0.482378
0.165509 0.769638 0.470164
0.283200 0.773351 0.473052
0.391835 0.776778 0.475717
0.497296 0.780105 0.478305
0.600746 0.783369 0.480843
0.702727 0.786586 0.483346
0.803552 0.789767 0.485820
0.903425 0.792917 0.488270
1.000000 0.796043 0.490701
0.176501 0.876843 0.478408
0.294192 0.880556 0.481296
0.402827 0.883983 0.483961
0.508288 0.887311 0.486549
0.611738 0.890574 0.489087
0.713719 0.893791 0.491590
0.814544 0.896972 0.494064
0.914417 0.900123 0.496514
1.000000 0.903248 0.498945
0.187404 0.983183 0.486585
0.305096 0.986895 0.489473
0.413731 0.990323 0.492139
0.519191 0.993650 0.494726
0.622641 0.996913 0.497265
0.724622 1.000000 0.499767
0.825447 1.000000 0.502241
0.925321 1.000000 0.504692
1.000000 1.000000 0.507122
0.096436 0.085863 0.518425
0.214127 0.089576 0.521313
0.322762 0.093003 0.523978
0.428223 0.096330 0.526566
0.531673 0.099594 0.529104
0.633654 0.102811 0.531606
0.734479 0.105992 0.534080
0.834352 0.109143 0.536531
0.933419 0.112268 0.538962
0.109389 0.212194 0.528139
0.227080 0.215907 0.531027
0.335715 0.219335 0.533693
0.441176 0.222662 0.536281
0.544626 0.225925 0.538819
0.646607 0.229143 0.541321
0.747432 0.232323 0.543795
0.847305 0.235474 0.546246
0.946372 0.238599 0.548677
0.121345 0.328805 0.537107
0.239037 0.332518 0.539995
0.347672 0.335945 0.542660
0.453132 0.339272 0.545248
0.556582 0.342535 0.547786
0.658563 0.345753 0.550289
0.759388 0.348934 0.552762
0.859262 0.352084 0.555213
0.958328 0.355210 0.557644
0.132952 0.442007 0.545812
0.250643 0.445720 0.548700
0.359278 0.449147 0.551365
0.464739 0.452474 0.553953
0.568189 0.455738 0.556491
0.670170 0.458955 0.558994
0.770995 0.462136 0.561468
0.870868 0.465287 0.563918
0.969935 0.468412 0.566349
0.144338 0.553052 0.554351
0.262029 0.556765 0.557239
0.370664 0.560192 0.559905
0.476125 0.563519 0.562492
0.579575 0.566783 0.565031
0.681556 0.570000 0.567533
0.782380 0.573181 0.570007
0.882254 0.576332 0.572457
0.981321 0.579457 0.574888
0.155562 0.662520 0.562769
0.273253 0.666232 0.565657
0.381888 0.669660 0.568322
0.487349 0.672987 0.570910
0.590799 0.676250 0.573449
0.692780 0.679468 0.575951
0.793604 0.682648 0.578425
0.893478 0.685799 0.580875
0.992544 0.688924 0.583306
0.166658 0.770746 0.571092
0.284350 0.774459 0.573979
0.392985 0.777886 0.576645
0.498445 0.781213 0.579233
0.601895 0.784477 0.581771
0.703876 0.787694 0.584273
0.804701 0.790875 0.586747
0.904575 0.794026 0.589198
1.000000 0.797151 0.591629
0.177650 0.877952 0.579336
0.295342 0.881665 0.582223
0.403977 0.885092 0.584889
0.509437 0.888419 0.587477
0.612888 0.891682 0.590015
0.714868 0.894900 0.592517
0.815693 0.898081 0.594991
0.915567 0.901231 0.597442
1.000000 0.904357 0.599873
0.188553 0.984291 0.587513
0.306245 0.988004 0.590401
0.414880 0.991431 0.593066
0.520340 0.994758 0.595654
0.623791 0.998022 0.598193
0.725771 1.000000 0.600695
0.826596 1.000000 0.603169
0.926470 1.000000 0.605619
1.000000 1.000000 0.608050
0.097569 0.086956 0.617919
0.215260 0.090669 0.620807
0.323895 0.094096 0.623472
0.429356 0.097423 0.626060
0.532806 0.100686 0.628598
0.634787 0.103904 0.631101
0.735612 0.107084 0.633575
0.835485 0.110235 0.636025
0.934552 0.113361 0.638456
0.110522 0.213287 0.627634
0.228213 0.217000 0.630521
0.336848 0.220427 0.633187
0.442309 0.223754 0.635775
0.545759 0.227018 0.638313
0.647740 0.230235 0.640815
0.748565 0.233416 0.643289
0.848438 0.236567 0.645740
0.947505 0.239692 0.648171
0.122478 0.329897 0.636601
0.240170 0.333610 0.639489
0.348805 0.337037 0.642154
0.454265 0.340364 0.644742
0.557715 0.343628 0.647280
0.659696 0.346845 0.649783
0.760521 0.350026 0.652257
0.860395 0.353177 0.654707
0.959461 0.356302 0.657138
0.134085 0.443100 0.645306
0.251776 0.446813 0.648194
0.360412 0.450240 0.650859
0.465872 0.453567 0.653447
0.569322 0.456831 0.655986
0.671303 0.460048 0.658488
0.772128 0.463229 0.660962
0.872001 0.466379 0.663412
0.971068 0.469505 0.665843
0.145471 0.554145 0.653845
0.263162 0.557858 0.656733
0.371797 0.561285 0.659399
0.477258 0.564612 0.661986
0.580708 0.567875 0.664525
0.682689 0.571093 0.667027
0.783514 0.574273 0.669501
0.883387 0.577424 0.671952
0.982454 0.580550 0.674382
0.156695 0.663612 0.662263
0.274386 0.667325 0.665151
0.383021 0.670752 0.667817
0.488482 0.674079 0.670404
0.591932 0.677343 0.672943
0.693913 0.680560 0.675445
0.794737 0.683741 0.677919
0.894611 0.686892 0.680370
0.993678 0.690017 0.682800
0.167791 0.771839 0.670586
0.285483 0.775552 0.673474
0.394118 0.778979 0.676139
0.499578 0.782306 0.678727
0.603029 0.785570 0.681265
0.705009 0.788787 0.683768
0.805834 0.791968 0.686242
0.905708 0.795118 0.688692
1.000000 0.798244 0.691123
0.178783 0.879044 0.678830
0.296475 0.882757 0.681718
0.405110 0.886184 0.684383
0.510570 0.889511 0.686971
0.614021 0.892775 0.689509
0.716001 0.895992 0.692012
0.816826 0.899173 0.694486
0.916700 0.902324 0.696936
1.000000 0.905449 0.699367
0.189687 0.985383 0.687007
0.307378 0.989096 0.689895
0.416013 0.992524 0.692561
0.521473 0.995851 0.695148
0.624924 0.999114 0.697687
0.726905 1.000000 0.700189
0.827729 1.000000 0.702663
0.927603 1.000000 0.705114
1.000000 1.000000 0.707544
0.098689 0.088036 0.716285
0.216380 0.091749 0.719173
0.325016 0.095176 0.721839
0.430476 0.098503 0.724426
0.533926 0.101767 0.726965
0.635907 0.104984 0.729467
0.736732 0.108165 0.731941
0.836605 0.111315 0.734392
0.935672 0.114441 0.736822
0.111642 0.214367 0.726000
0.229334 0.218080 0.728888
0.337969 0.221507 0.731553
0.443429 0.224834 0.734141
0.546879 0.228098 0.736680
0.648860 0.231315 0.739182
0.749685 0.234496 0.741656
0.849559 0.237647 0.744106
0.948625 0.240772 0.746537
0.123598 0.330978 0.734967
0.241290 0.334690 0.737855
0.349925 0.338118 0.740521
0.455385 0.341445 0.743108
0.558836 0.344708 0.745647
0.660816 0.347926 0.748149
0.761641 0.351106 0.750623
0.861515 0.354257 0.753074
0.960581 0.357382 0.755504
0.135205 0.444180 0.743672
0.252897 0.447893 0.746560
0.361532 0.451320 0.749226
0.466992 0.454647 0.751814
0.570442 0.457911 0.754352
0.672423 0.461128 0.756854
0.773248 0.464309 0.759328
0.873122 0.467460 0.761779
0.972188 0.470585 0.764210
0.146591 0.555225 0.752212
0.264282 0.558938 0.755100
0.372917 0.562365 0.757765
0.478378 0.565692 0.760353
0.581828 0.568956 0.762891
0.683809 0.572173 0.765394
0.784634 0.575354 0.767867
0.884507 0.578504 0.770318
0.983574 0.581630 0.772749
0.157815 0.664692 0.760630
0.275506 0.668405 0.763517
0.384141 0.671832 0.766183
0.489602 0.675159 0.768771
0.593052 0.678423 0.771309
0.695033 0.681640 0.773811
0.795858 0.684821 0.776285
0.895731 0.687972 0.778736
0.994798 0.691097 0.781167
0.168912 0.772919 0.768952
0.286603 0.776632 0.771840
0.395238 0.780059 0.774506
0.500699 0.783386 0.777093
0.604149 0.786650 0.779632
0.706130 0.789867 0.782134
0.806954 0.793048 0.784608
0.906828 0.796199 0.787059
1.000000 0.799324 0.789489
0.179904 0.880125 0.777196
0.297595 0.883837 0.780084
0.406230 0.887265 0.782750
0.511691 0.890592 0.785337
0.615141 0.893855 0.787876
0.717122 0.897073 0.790378
0.817946 0.900253 0.792852
0.917820 0.903404 0.795303
1.000000 0.906529 0.797733
0.190807 0.986464 0.785374
0.308498 0.990177 0.788261
0.417133 0.993604 0.790927
0.522594 0.996931 0.793515
0.626044 1.000000 0.796053
0.728025 1.000000 0.798555
0.828850 1.000000 0.801029
0.928723 1.000000 0.803480
1.000000 1.000000 0.805911
0.099799 0.089106 0.813724
0.217490 0.092819 0.816611
0.326125 0.096246 0.819277
0.431586 0.099573 0.821865
0.535036 0.102837 0.824403
0.637017 0.106054 0.826905
0.737842 0.109235 0.829379
0.837715 0.112385 0.831830
0.936782 0.115511 0.834261
0.112752 0.215437 0.823438
0.230443 0.219150 0.826326
0.339078 0.222577 0.828992
0.444539 0.225904 0.831580
0.547989 0.229168 0.834118
0.649970 0.232385 0.836620
0.750795 0.235566 0.839094
0.850668 0.238717 0.841545
0.949735 0.241842 0.843976
0.124708 0.332048 0.832406
0.242399 0.335760 0.835293
0.351035 0.339188 0.837959
0.456495 0.342515 0.840547
0.559945 0.345778 0.843085
0.661926 0.348996 0.845587
0.762751 0.352176 0.848061
0.862624 0.355327 0.850512
0.961691 0.358452 0.852943
0.136315 0.445250 0.841111
0.254006 0.448963 0.843999
0.362641 0.452390 0.846664
0.468102 0.455717 0.849252
0.571552 0.458981 0.851790
0.673533 0.462198 0.854293
0.774358 0.465379 0.856767
0.874231 0.468530 0.859217
0.973298 0.471655 0.861648
0.147701 0.556295 0.849650
0.265392 0.560008 0.852538
0.374027 0.563435 0.855203
0.479488 0.566762 0.857791
0.582938 0.570026 0.860330
0.684919 0.573243 0.862832
0.785743 0.576424 0.865306
0.885617 0.579574 0.867756
0.984683 0.582700 0.870187
0.158925 0.665762 0.858068
0.276616 0.669475 0.860956
0.385251 0.672902 0.863621
0.490711 0.676229 0.866209
0.594162 0.679493 0.868748
0.696143 0.682710 0.871250
0.796967 0.685891 0.873724
0.896841 0.689042 0.876174
0.995907 0.692167 0.878605
0.170021 0.773989 0.866391
0.287713 0.777702 0.869278
0.396348 0.781129 0.871944
0.501808 0.784456 0.874532
0.605258 0.787720 0.877070
0.707239 0.790937 0.879572
0.808064 0.794118 0.882046
0.907938 0.797269 0.884497
1.000000 0.800394 0.886928
0.181013 0.881195 0.874635
0.298705 0.884907 0.877522
0.407340 0.888335 0.880188
0.512800 0.891662 0.882776
0.616250 0.894925 0.885314
0.718231 0.898143 0.887816
0.819056 0.901323 0.890290
0.918930 0.904474 0.892741
1.000000 0.907599 0.895172
0.191916 0.987534 0.882812
0.309608 0.991247 0.885700
0.418243 0.994674 0.888365
0.523703 0.998001 0.890953
0.627154 1.000000 0.893491
0.729134 1.000000 0.895994
0.829959 1.000000 0.898468
0.929833 1.000000 0.900918
1.000000 1.000000 0.903349
0.100899 0.090167 0.910375
0.218591 0.093880 0.913262
0.327226 0.097307 0.915928
0.432686 0.100634 0.918516
0.536137 0.103898 0.921054
0.638117 0.107115 0.923556
0.738942 0.110296 0.926030
0.838816 0.113447 0.928481
0.937882 0.116572 0.930912
0.113852 0.216499 0.920089
0.231544 0.220212 0.922977
0.340179 0.223639 0.925643
0.445639 0.226966 0.928230
0.549090 0.230229 0.930769
0.651070 0.233447 0.933271
0.751895 0.236628 0.935745
0.851769 0.239778 0.938196
0.950835 0.242904 0.940626
0.125809 0.333109 0.929057
0.243500 0.336822 0.931944
0.352135 0.340249 0.934610
0.457596 0.343576 0.937198
0.561046 0.346840 0.939736
0.663027 0.350057 0.942238
0.763852 0.353238 0.944712
0.863725 0.356389 0.947163
0.962792 0.359514 0.949594
0.137416 0.446311 0.937762
0.255107 0.450024 0.940650
0.363742 0.453452 0.943315
0.469203 0.456779 0.945903
0.572653 0.460042 0.948441
0.674634 0.463259 0.950943
0.775458 0.466440 0.953417
0.875332 0.469591 0.955868
0.974398 0.472716 0.958299
0.148801 0.557356 0.946301
0.266493 0.561069 0.949189
0.375128 0.564496 0.951854
0.480588 0.567823 0.954442
0.584038 0.571087 0.956980
0.686019 0.574304 0.959483
0.786844 0.577485 0.961957
0.886718 0.580636 0.964407
0.985784 0.583761 0.966838
0.160025 0.666824 0.954719
0.277717 0.670537 0.957607
0.386352 0.673964 0.960272
0.491812 0.677291 0.962860
0.595262 0.680554 0.965398
0.697243 0.683772 0.967901
0.798068 0.686953 0.970375
0.897942 0.690103 0.972825
0.997008 0.693229 0.975256
0.171122 0.775050 0.963041
0.288813 0.778763 0.965929
0.397448 0.782190 0.968595
0.502909 0.785517 0.971183
0.606359 0.788781 0.973721
0.708340 0.791998 0.976223
0.809165 0.795179 0.978697
0.909038 0.798330 0.981148
1.000000 0.801455 0.983579
0.182114 0.882256 0.971285
0.299805 0.885969 0.974173
0.408440 0.889396 0.976839
0.513901 0.892723 0.979427
0.617351 0.895987 0.981965
0.719332 0.899204 0.984467
0.820157 0.902385 0.986941
0.920030 0.905536 0.989392
1.000000 0.908661 0.991823
0.193017 0.988595 0.979463
0.310709 0.992308 0.982351
0.419344 0.995735 0.985016
0.524804 0.999062 0.987604
0.628254 1.000000 0.990142
0.730235 1.000000 0.992645
0.831060 1.000000 0.995119
0.930934 1.000000 0.997569
1.000000 1.000000 1.000000
