assets/luts/portra.cube
# Portra — Studio filter "portra"
# Generated by scripts/generate-filter-luts.mjs — do not edit by hand.
LUT_3D_SIZE 17
DOMAIN_MIN 0.0 0.0 0.0
DOMAIN_MAX 1.0 1.0 1.0
0.091600 0.081200 0.093800
0.152800 0.083131 0.095302
0.209291 0.084913 0.096688
0.264132 0.086643 0.098033
0.317927 0.088340 0.099353
0.370957 0.090013 0.100655
0.423387 0.091667 0.101941
0.475322 0.093306 0.103215
0.526837 0.094931 0.104479
0.577988 0.096544 0.105735
0.628818 0.098148 0.106982
0.679360 0.099743 0.108222
0.729643 0.101329 0.109456
0.779688 0.102908 0.110684
0.829516 0.104480 0.111906
0.879143 0.106045 0.113124
0.928583 0.107605 0.114337
0.098336 0.146893 0.098852
0.159536 0.148824 0.100353
0.216027 0.150606 0.101740
0.270867 0.152336 0.103085
0.324662 0.154033 0.104405
0.377693 0.155706 0.105706
0.430123 0.157360 0.106993
0.482058 0.158999 0.108267
0.533573 0.160624 0.109531
0.584724 0.162238 0.110786
0.635554 0.163841 0.112034
0.686096 0.165436 0.113274
0.736379 0.167022 0.114507
0.786424 0.168601 0.115735
0.836252 0.170173 0.116958
0.885879 0.171738 0.118176
0.935319 0.173298 0.119389
0.104553 0.207531 0.103515
0.165753 0.209462 0.105016
0.222244 0.211244 0.106403
0.277085 0.212974 0.107748
0.330880 0.214672 0.109068
0.383910 0.216345 0.110369
0.436340 0.217999 0.111656
0.488275 0.219637 0.112930
0.539790 0.221262 0.114194
0.590941 0.222876 0.115449
0.641771 0.224479 0.116697
0.692313 0.226074 0.117937
0.742596 0.227660 0.119171
0.792642 0.229239 0.120398
0.842469 0.230811 0.121621
0.892096 0.232377 0.122839
0.941536 0.233936 0.124052
0.110589 0.266398 0.108042
0.171789 0.268328 0.109543
0.228280 0.270110 0.110929
0.283120 0.271841 0.112275
0.336915 0.273538 0.113595
0.389946 0.275211 0.114896
0.442376 0.276865 0.116183
0.494311 0.278503 0.117457
0.545826 0.280128 0.118721
0.596977 0.281742 0.119976
0.647807 0.283346 0.121223
0.698349 0.284940 0.122463
0.748632 0.286526 0.123697
0.798677 0.288105 0.124925
0.848505 0.289677 0.126148
0.898132 0.291243 0.127366
0.947572 0.292803 0.128579
0.116509 0.324142 0.112482
0.177710 0.326072 0.113984
0.234201 0.327855 0.115370
0.289041 0.329585 0.116715
0.342836 0.331282 0.118035
0.395867 0.332955 0.119337
0.448296 0.334609 0.120623
0.500231 0.336247 0.121897
0.551747 0.337872 0.123161
0.602898 0.339486 0.124417
0.653727 0.341090 0.125664
0.704270 0.342684 0.126904
0.754552 0.344271 0.128138
0.804598 0.345849 0.129366
0.854426 0.347421 0.130588
0.904053 0.348987 0.131806
0.953492 0.350547 0.133019
0.122346 0.381066 0.116859
0.183546 0.382996 0.118361
0.240037 0.384778 0.119747
0.294877 0.386509 0.121093
0.348672 0.388206 0.122413
0.401703 0.389879 0.123714
0.454133 0.391533 0.125001
0.506068 0.393171 0.126275
0.557583 0.394796 0.127539
0.608734 0.396410 0.128794
0.659564 0.398014 0.130041
0.710106 0.399608 0.131281
0.760389 0.401194 0.132515
0.810434 0.402773 0.133743
0.860262 0.404345 0.134966
0.909889 0.405911 0.136183
0.959329 0.407470 0.137397
0.128116 0.437344 0.121187
0.189317 0.439275 0.122689
0.245808 0.441057 0.124075
0.300648 0.442787 0.125421
0.354443 0.444484 0.126741
0.407474 0.446157 0.128042
0.459903 0.447811 0.129328
0.511838 0.449450 0.130603
0.563353 0.451075 0.131867
0.614505 0.452689 0.133122
0.665334 0.454292 0.134369
0.715877 0.455887 0.135609
0.766159 0.457473 0.136843
0.816205 0.459052 0.138071
0.866033 0.460624 0.139294
0.915659 0.462189 0.140511
0.965099 0.463749 0.141724
0.133832 0.493092 0.125474
0.195033 0.495023 0.126976
0.251524 0.496805 0.128362
0.306364 0.498535 0.129708
0.360159 0.500232 0.131028
0.413189 0.501905 0.132329
0.465619 0.503559 0.133615
0.517554 0.505197 0.134890
0.569069 0.506823 0.136154
0.620220 0.508436 0.137409
0.671050 0.510040 0.138656
0.721592 0.511634 0.139896
0.771875 0.513221 0.141130
0.821921 0.514800 0.142358
0.871749 0.516372 0.143580
0.921375 0.517937 0.144798
0.970815 0.519497 0.146011
0.139502 0.548389 0.129726
0.200702 0.550320 0.131228
0.257193 0.552102 0.132614
0.312034 0.553832 0.133960
0.365828 0.555529 0.135280
0.418859 0.557202 0.136581
0.471289 0.558856 0.137868
0.523224 0.560495 0.139142
0.574739 0.562120 0.140406
0.625890 0.563733 0.141661
0.676720 0.565337 0.142908
0.727262 0.566932 0.144148
0.777545 0.568518 0.145382
0.827590 0.570097 0.146610
0.877418 0.571669 0.147833
0.927045 0.573234 0.149050
0.976485 0.574794 0.150264
0.145132 0.603295 0.133949
0.206332 0.605226 0.135450
0.262823 0.607008 0.136836
0.317663 0.608738 0.138182
0.371458 0.610435 0.139502
0.424489 0.612108 0.140803
0.476918 0.613762 0.142090
0.528853 0.615401 0.143364
0.580369 0.617026 0.144628
0.631520 0.618640 0.145883
0.682350 0.620243 0.147130
0.732892 0.621838 0.148371
0.783174 0.623424 0.149604
0.833220 0.625003 0.150832
0.883048 0.626575 0.152055
0.932675 0.628140 0.153273
0.982114 0.629700 0.154486
0.150726 0.657856 0.138144
0.211926 0.659787 0.139646
0.268417 0.661569 0.141032
0.323257 0.663299 0.142378
0.377052 0.664997 0.143698
0.430083 0.666670 0.144999
0.482513 0.668324 0.146285
0.534448 0.669962 0.147560
0.585963 0.671587 0.148824
0.637114 0.673201 0.150079
0.687944 0.674804 0.151326
0.738486 0.676399 0.152566
0.788769 0.677985 0.153800
0.838814 0.679564 0.155028
0.888642 0.681136 0.156251
0.938269 0.682702 0.157468
0.987709 0.684261 0.158682
0.156288 0.712109 0.142316
0.217489 0.714040 0.143818
0.273980 0.715822 0.145204
0.328820 0.717552 0.146550
0.382615 0.719249 0.147870
0.435646 0.720922 0.149171
0.488075 0.722576 0.150457
0.540010 0.724215 0.151732
0.591526 0.725840 0.152996
0.642677 0.727454 0.154251
0.693506 0.729057 0.155498
0.744049 0.730652 0.156738
0.794331 0.732238 0.157972
0.844377 0.733817 0.159200
0.894205 0.735389 0.160423
0.943832 0.736954 0.161640
0.993271 0.738514 0.162854
0.161823 0.766083 0.146467
0.223023 0.768014 0.147969
0.279514 0.769796 0.149355
0.334354 0.771526 0.150700
0.388149 0.773223 0.152020
0.441180 0.774896 0.153322
0.493609 0.776550 0.154608
0.545544 0.778189 0.155882
0.597060 0.779814 0.157146
0.648211 0.781428 0.158401
0.699041 0.783031 0.159649
0.749583 0.784626 0.160889
0.799865 0.786212 0.162123
0.849911 0.787791 0.163351
0.899739 0.789363 0.164573
0.949366 0.790928 0.165791
0.998805 0.792488 0.167004
0.167331 0.819803 0.150598
0.228531 0.821733 0.152100
0.285022 0.823516 0.153486
0.339862 0.825246 0.154831
0.393657 0.826943 0.156151
0.446688 0.828616 0.157453
0.499117 0.830270 0.158739
0.551052 0.831908 0.160013
0.602568 0.833533 0.161277
0.653719 0.835147 0.162532
0.704549 0.836751 0.163780
0.755091 0.838345 0.165020
0.805373 0.839932 0.166254
0.855419 0.841510 0.167482
0.905247 0.843082 0.168704
0.954874 0.844648 0.169922
1.000000 0.846208 0.171135
0.172815 0.873289 0.154711
0.234015 0.875219 0.156213
0.290506 0.877002 0.157599
0.345346 0.878732 0.158944
0.399141 0.880429 0.160264
0.452172 0.882102 0.161566
0.504602 0.883756 0.162852
0.556537 0.885394 0.164126
0.608052 0.887019 0.165390
0.659203 0.888633 0.166646
0.710033 0.890237 0.167893
0.760575 0.891831 0.169133
0.810857 0.893418 0.170367
0.860903 0.894996 0.171595
0.910731 0.896568 0.172817
0.960358 0.898134 0.174035
1.000000 0.899694 0.175248
0.178276 0.926559 0.158807
0.239477 0.928489 0.160309
0.295968 0.930272 0.161695
0.350808 0.932002 0.163041
0.404603 0.933699 0.164361
0.457634 0.935372 0.165662
0.510063 0.937026 0.166948
0.561998 0.938664 0.168223
0.613514 0.940289 0.169487
0.664665 0.941903 0.170742
0.715494 0.943507 0.171989
0.766037 0.945101 0.173229
0.816319 0.946687 0.174463
0.866365 0.948266 0.175691
0.916193 0.949838 0.176914
0.965820 0.951404 0.178131
1.000000 0.952964 0.179345
0.183718 0.979628 0.162888
0.244918 0.981559 0.164390
0.301409 0.983341 0.165776
0.356249 0.985071 0.167122
0.410044 0.986768 0.168442
0.463075 0.988441 0.169743
0.515505 0.990095 0.171029
0.567440 0.991733 0.172304
0.618955 0.993359 0.173568
0.670106 0.994972 0.174823
0.720936 0.996576 0.176070
0.771478 0.998170 0.177310
0.821761 0.999757 0.178544
0.871806 1.000000 0.179772
0.921634 1.000000 0.180995
0.971261 1.000000 0.182212
1.000000 1.000000 0.183425
0.092280 0.081856 0.153508
0.153480 0.083786 0.155010
0.209971 0.085569 0.156396
0.264812 0.087299 0.157742
0.318606 0.088996 0.159062
0.371637 0.090669 0.160363
0.424067 0.092323 0.161649
0.476002 0.093961 0.162924
0.527517 0.095586 0.164188
0.578668 0.097200 0.165443
0.629498 0.098804 0.166690
0.680040 0.100398 0.167930
0.730323 0.101984 0.169164
0.780368 0.103563 0.170392
0.830196 0.105135 0.171614
0.879823 0.106701 0.172832
0.929263 0.108261 0.174045
0.099016 0.147549 0.158560
0.160216 0.149480 0.160062
0.216707 0.151262 0.161448
0.271547 0.152992 0.162793
0.325342 0.154689 0.164113
0.378373 0.156362 0.165415
0.430803 0.158016 0.166701
0.482738 0.159655 0.167975
0.534253 0.161280 0.169239
0.585404 0.162893 0.170494
0.636234 0.164497 0.171742
0.686776 0.166091 0.172982
0.737058 0.167678 0.174216
0.787104 0.169257 0.175444
0.836932 0.170829 0.176666
0.886559 0.172394 0.177884
0.935999 0.173954 0.179097
0.105233 0.208187 0.163223
0.166433 0.210118 0.164725
0.222924 0.211900 0.166111
0.277765 0.213630 0.167456
0.331560 0.215327 0.168776
0.384590 0.217000 0.170078
0.437020 0.218654 0.171364
0.488955 0.220293 0.172638
0.540470 0.221918 0.173902
0.591621 0.223532 0.175157
0.642451 0.225135 0.176405
0.692993 0.226730 0.177645
0.743276 0.228316 0.178879
0.793321 0.229895 0.180107
0.843149 0.231467 0.181329
0.892776 0.233032 0.182547
0.942216 0.234592 0.183760
0.111269 0.267053 0.167750
0.172469 0.268984 0.169251
0.228960 0.270766 0.170637
0.283800 0.272496 0.171983
0.337595 0.274193 0.173303
0.390626 0.275866 0.174604
0.443056 0.277520 0.175891
0.494991 0.279159 0.177165
0.546506 0.280784 0.178429
0.597657 0.282398 0.179684
0.648487 0.284001 0.180931
0.699029 0.285596 0.182172
0.749312 0.287182 0.183405
0.799357 0.288761 0.184633
0.849185 0.290333 0.185856
0.898812 0.291898 0.187074
0.948252 0.293458 0.188287
0.117189 0.324797 0.172190
0.178390 0.326728 0.173692
0.234881 0.328510 0.175078
0.289721 0.330240 0.176424
0.343516 0.331937 0.177744
0.396547 0.333610 0.179045
0.448976 0.335265 0.180331
0.500911 0.336903 0.181606
0.552427 0.338528 0.182870
0.603578 0.340142 0.184125
0.654407 0.341745 0.185372
0.704950 0.343340 0.186612
0.755232 0.344926 0.187846
0.805278 0.346505 0.189074
0.855106 0.348077 0.190297
0.904733 0.349643 0.191514
0.954172 0.351202 0.192727
0.123026 0.381721 0.176568
0.184226 0.383652 0.178069
0.240717 0.385434 0.179455
0.295557 0.387164 0.180801
0.349352 0.388861 0.182121
0.402383 0.390534 0.183422
0.454813 0.392188 0.184709
0.506748 0.393827 0.185983
0.558263 0.395452 0.187247
0.609414 0.397066 0.188502
0.660244 0.398669 0.189749
0.710786 0.400264 0.190989
0.761069 0.401850 0.192223
0.811114 0.403429 0.193451
0.860942 0.405001 0.194674
0.910569 0.406566 0.195892
0.960009 0.408126 0.197105
0.128796 0.438000 0.180895
0.189997 0.439931 0.182397
0.246488 0.441713 0.183783
0.301328 0.443443 0.185129
0.355123 0.445140 0.186449
0.408153 0.446813 0.187750
0.460583 0.448467 0.189036
0.512518 0.450105 0.190311
0.564033 0.451731 0.191575
0.615185 0.453344 0.192830
0.666014 0.454948 0.194077
0.716557 0.456542 0.195317
0.766839 0.458129 0.196551
0.816885 0.459708 0.197779
0.866713 0.461280 0.199002
0.916339 0.462845 0.200219
0.965779 0.464405 0.201432
0.134512 0.493748 0.185182
0.195713 0.495678 0.186684
0.252204 0.497460 0.188070
0.307044 0.499191 0.189416
0.360839 0.500888 0.190736
0.413869 0.502561 0.192037
0.466299 0.504215 0.193323
0.518234 0.505853 0.194598
0.569749 0.507478 0.195862
0.620900 0.509092 0.197117
0.671730 0.510696 0.198364
0.722272 0.512290 0.199604
0.772555 0.513876 0.200838
0.822601 0.515455 0.202066
0.872429 0.517027 0.203289
0.922055 0.518593 0.204506
0.971495 0.520153 0.205719
0.140182 0.549045 0.189435
0.201382 0.550975 0.190936
0.257873 0.552758 0.192322
0.312714 0.554488 0.193668
0.366508 0.556185 0.194988
0.419539 0.557858 0.196289
0.471969 0.559512 0.197576
0.523904 0.561150 0.198850
0.575419 0.562775 0.200114
0.626570 0.564389 0.201369
0.677400 0.565993 0.202616
0.727942 0.567587 0.203857
0.778225 0.569174 0.205090
0.828270 0.570752 0.206318
0.878098 0.572324 0.207541
0.927725 0.573890 0.208759
0.977165 0.575450 0.209972
0.145812 0.603951 0.193657
0.207012 0.605882 0.195158
0.263503 0.607664 0.196545
0.318343 0.609394 0.197890
0.372138 0.611091 0.199210
0.425169 0.612764 0.200511
0.477598 0.614418 0.201798
0.529533 0.616056 0.203072
0.581049 0.617682 0.204336
0.632200 0.619295 0.205591
0.683030 0.620899 0.206839
0.733572 0.622493 0.208079
0.783854 0.624080 0.209313
0.833900 0.625659 0.210541
0.883728 0.627231 0.211763
0.933355 0.628796 0.212981
0.982794 0.630356 0.214194
0.151406 0.658512 0.197853
0.212606 0.660443 0.199354
0.269097 0.662225 0.200740
0.323937 0.663955 0.202086
0.377732 0.665652 0.203406
0.430763 0.667325 0.204707
0.483193 0.668979 0.205994
0.535128 0.670618 0.207268
0.586643 0.672243 0.208532
0.637794 0.673857 0.209787
0.688624 0.675460 0.211034
0.739166 0.677055 0.212274
0.789449 0.678641 0.213508
0.839494 0.680220 0.214736
0.889322 0.681792 0.215959
0.938949 0.683357 0.217177
0.988389 0.684917 0.218390
0.156968 0.712765 0.202025
0.218169 0.714696 0.203526
0.274660 0.716478 0.204912
0.329500 0.718208 0.206258
0.383295 0.719905 0.207578
0.436326 0.721578 0.208879
0.488755 0.723232 0.210166
0.540690 0.724870 0.211440
0.592206 0.726496 0.212704
0.643357 0.728109 0.213959
0.694186 0.729713 0.215206
0.744729 0.731307 0.216446
0.795011 0.732894 0.217680
0.845057 0.734473 0.218908
0.894885 0.736045 0.220131
0.944512 0.737610 0.221349
0.993951 0.739170 0.222562
0.162503 0.766739 0.206175
0.223703 0.768670 0.207677
0.280194 0.770452 0.209063
0.335034 0.772182 0.210408
0.388829 0.773879 0.211728
0.441860 0.775552 0.213030
0.494289 0.777206 0.214316
0.546224 0.778844 0.215590
0.597740 0.780470 0.216855
0.648891 0.782083 0.218110
0.699721 0.783687 0.219357
0.750263 0.785281 0.220597
0.800545 0.786868 0.221831
0.850591 0.788446 0.223059
0.900419 0.790018 0.224281
0.950046 0.791584 0.225499
0.999485 0.793144 0.226712
0.168011 0.820458 0.210306
0.229211 0.822389 0.211808
0.285702 0.824171 0.213194
0.340542 0.825901 0.214539
0.394337 0.827599 0.215859
0.447368 0.829272 0.217161
0.499797 0.830926 0.218447
0.551732 0.832564 0.219721
0.603248 0.834189 0.220986
0.654399 0.835803 0.222241
0.705229 0.837406 0.223488
0.755771 0.839001 0.224728
0.806053 0.840587 0.225962
0.856099 0.842166 0.227190
0.905927 0.843738 0.228412
0.955554 0.845304 0.229630
1.000000 0.846863 0.230843
0.173495 0.873944 0.214419
0.234695 0.875875 0.215921
0.291186 0.877657 0.217307
0.346026 0.879387 0.218653
0.399821 0.881084 0.219972
0.452852 0.882757 0.221274
0.505281 0.884412 0.222560
0.557216 0.886050 0.223835
0.608732 0.887675 0.225099
0.659883 0.889289 0.226354
0.710713 0.890892 0.227601
0.761255 0.892487 0.228841
0.811537 0.894073 0.230075
0.861583 0.895652 0.231303
0.911411 0.897224 0.232525
0.961038 0.898790 0.233743
1.000000 0.900349 0.234956
0.178956 0.927214 0.218515
0.240157 0.929145 0.220017
0.296648 0.930927 0.221403
0.351488 0.932657 0.222749
0.405283 0.934354 0.224069
0.458314 0.936027 0.225370
0.510743 0.937681 0.226657
0.562678 0.939320 0.227931
0.614194 0.940945 0.229195
0.665345 0.942559 0.230450
0.716174 0.944162 0.231697
0.766717 0.945757 0.232937
0.816999 0.947343 0.234171
0.867045 0.948922 0.235399
0.916873 0.950494 0.236622
0.966500 0.952060 0.237840
1.000000 0.953619 0.239053
0.184398 0.980284 0.222596
0.245598 0.982214 0.224098
0.302089 0.983996 0.225484
0.356929 0.985727 0.226830
0.410724 0.987424 0.228150
0.463755 0.989097 0.229451
0.516185 0.990751 0.230738
0.568120 0.992389 0.232012
0.619635 0.994014 0.233276
0.670786 0.995628 0.234531
0.721616 0.997232 0.235778
0.772158 0.998826 0.237018
0.822441 1.000000 0.238252
0.872486 1.000000 0.239480
0.922314 1.000000 0.240703
0.971941 1.000000 0.241921
1.000000 1.000000 0.243134
0.092908 0.082461 0.208622
0.154108 0.084392 0.210123
0.210599 0.086174 0.211510
0.265439 0.087904 0.212855
0.319234 0.089601 0.214175
0.372265 0.091274 0.215476
0.424695 0.092928 0.216763
0.476630 0.094566 0.218037
0.528145 0.096192 0.219301
0.579296 0.097805 0.220556
0.630126 0.099409 0.221804
0.680668 0.101003 0.223044
0.730950 0.102590 0.224277
0.780996 0.104169 0.225505
0.830824 0.105741 0.226728
0.880451 0.107306 0.227946
0.929890 0.108866 0.229159
0.099643 0.148154 0.213674
0.160844 0.150085 0.215175
0.217335 0.151867 0.216561
0.272175 0.153597 0.217907
0.325970 0.155294 0.219227
0.379001 0.156967 0.220528
0.431430 0.158621 0.221815
0.483365 0.160260 0.223089
0.534880 0.161885 0.224353
0.586032 0.163499 0.225608
0.636861 0.165102 0.226855
0.687404 0.166697 0.228095
0.737686 0.168283 0.229329
0.787732 0.169862 0.230557
0.837560 0.171434 0.231780
0.887186 0.172999 0.232998
0.936626 0.174559 0.234211
0.105861 0.208792 0.218337
0.167061 0.210723 0.219838
0.223552 0.212505 0.221224
0.278392 0.214235 0.222570
0.332187 0.215932 0.223890
0.385218 0.217605 0.225191
0.437648 0.219260 0.226478
0.489583 0.220898 0.227752
0.541098 0.222523 0.229016
0.592249 0.224137 0.230271
0.643079 0.225740 0.231518
0.693621 0.227335 0.232758
0.743904 0.228921 0.233992
0.793949 0.230500 0.235220
0.843777 0.232072 0.236443
0.893404 0.233638 0.237661
0.942844 0.235197 0.238874
0.111896 0.267659 0.222863
0.173097 0.269589 0.224365
0.229588 0.271371 0.225751
0.284428 0.273101 0.227097
0.338223 0.274799 0.228417
0.391254 0.276472 0.229718
0.443683 0.278126 0.231004
0.495618 0.279764 0.232279
0.547134 0.281389 0.233543
0.598285 0.283003 0.234798
0.649114 0.284607 0.236045
0.699657 0.286201 0.237285
0.749939 0.287787 0.238519
0.799985 0.289366 0.239747
0.849813 0.290938 0.240970
0.899440 0.292504 0.242187
0.948879 0.294063 0.243400
0.117817 0.325403 0.227304
0.179017 0.327333 0.228805
0.235508 0.329116 0.230192
0.290349 0.330846 0.231537
0.344143 0.332543 0.232857
0.397174 0.334216 0.234158
0.449604 0.335870 0.235445
0.501539 0.337508 0.236719
0.553054 0.339133 0.237983
0.604205 0.340747 0.239238
0.655035 0.342351 0.240486
0.705577 0.343945 0.241726
0.755860 0.345531 0.242959
0.805905 0.347110 0.244187
0.855733 0.348682 0.245410
0.905360 0.350248 0.246628
0.954800 0.351808 0.247841
0.123653 0.382326 0.231681
0.184854 0.384257 0.233183
0.241345 0.386039 0.234569
0.296185 0.387769 0.235915
0.349980 0.389467 0.237235
0.403011 0.391140 0.238536
0.455440 0.392794 0.239822
0.507375 0.394432 0.241097
0.558891 0.396057 0.242361
0.610042 0.397671 0.243616
0.660871 0.399275 0.244863
0.711414 0.400869 0.246103
0.761696 0.402455 0.247337
0.811742 0.404034 0.248565
0.861570 0.405606 0.249788
0.911197 0.407172 0.251005
0.960636 0.408731 0.252218
0.129424 0.438605 0.236009
0.190624 0.440536 0.237511
0.247115 0.442318 0.238897
0.301955 0.444048 0.240242
0.355750 0.445745 0.241562
0.408781 0.447418 0.242864
0.461211 0.449072 0.244150
0.513146 0.450711 0.245424
0.564661 0.452336 0.246688
0.615812 0.453950 0.247943
0.666642 0.455553 0.249191
0.717184 0.457148 0.250431
0.767467 0.458734 0.251665
0.817512 0.460313 0.252893
0.867340 0.461885 0.254115
0.916967 0.463450 0.255333
0.966407 0.465010 0.256546
0.135140 0.494353 0.240296
0.196340 0.496284 0.241798
0.252831 0.498066 0.243184
0.307671 0.499796 0.244529
0.361466 0.501493 0.245849
0.414497 0.503166 0.247150
0.466927 0.504820 0.248437
0.518862 0.506458 0.249711
0.570377 0.508084 0.250975
0.621528 0.509697 0.252230
0.672358 0.511301 0.253478
0.722900 0.512895 0.254718
0.773183 0.514482 0.255952
0.823228 0.516060 0.257180
0.873056 0.517632 0.258402
0.922683 0.519198 0.259620
0.972123 0.520758 0.260833
0.140810 0.549650 0.244548
0.202010 0.551581 0.246050
0.258501 0.553363 0.247436
0.313341 0.555093 0.248782
0.367136 0.556790 0.250102
0.420167 0.558463 0.251403
0.472596 0.560117 0.252689
0.524531 0.561756 0.253964
0.576047 0.563381 0.255228
0.627198 0.564994 0.256483
0.678028 0.566598 0.257730
0.728570 0.568192 0.258970
0.778852 0.569779 0.260204
0.828898 0.571358 0.261432
0.878726 0.572930 0.262655
0.928353 0.574495 0.263872
0.977792 0.576055 0.265085
0.146439 0.604556 0.248770
0.207640 0.606487 0.250272
0.264131 0.608269 0.251658
0.318971 0.609999 0.253004
0.372766 0.611696 0.254324
0.425796 0.613369 0.255625
0.478226 0.615023 0.256912
0.530161 0.616662 0.258186
0.581676 0.618287 0.259450
0.632827 0.619901 0.260705
0.683657 0.621504 0.261952
0.734199 0.623099 0.263192
0.784482 0.624685 0.264426
0.834528 0.626264 0.265654
0.884356 0.627836 0.266877
0.933982 0.629401 0.268094
0.983422 0.630961 0.269308
0.152033 0.659117 0.252966
0.213234 0.661048 0.254468
0.269725 0.662830 0.255854
0.324565 0.664560 0.257200
0.378360 0.666257 0.258520
0.431391 0.667930 0.259821
0.483820 0.669585 0.261107
0.535755 0.671223 0.262382
0.587271 0.672848 0.263646
0.638422 0.674462 0.264901
0.689251 0.676065 0.266148
0.739794 0.677660 0.267388
0.790076 0.679246 0.268622
0.840122 0.680825 0.269850
0.889950 0.682397 0.271072
0.939577 0.683963 0.272290
0.989016 0.685522 0.273503
0.157596 0.713370 0.257138
0.218797 0.715301 0.258640
0.275288 0.717083 0.260026
0.330128 0.718813 0.261372
0.383923 0.720510 0.262692
0.436953 0.722183 0.263993
0.489383 0.723837 0.265279
0.541318 0.725476 0.266554
0.592833 0.727101 0.267818
0.643984 0.728715 0.269073
0.694814 0.730318 0.270320
0.745356 0.731913 0.271560
0.795639 0.733499 0.272794
0.845685 0.735078 0.274022
0.895513 0.736650 0.275244
0.945139 0.738215 0.276462
0.994579 0.739775 0.277675
0.163130 0.767344 0.261289
0.224331 0.769275 0.262790
0.280822 0.771057 0.264176
0.335662 0.772787 0.265522
0.389457 0.774484 0.266842
0.442487 0.776157 0.268143
0.494917 0.777811 0.269430
0.546852 0.779450 0.270704
0.598367 0.781075 0.271968
0.649518 0.782689 0.273223
0.700348 0.784292 0.274470
0.750890 0.785887 0.275711
0.801173 0.787473 0.276944
0.851219 0.789052 0.278172
0.901047 0.790624 0.279395
0.950673 0.792189 0.280613
1.000000 0.793749 0.281826
0.168638 0.821064 0.265420
0.229839 0.822994 0.266921
0.286330 0.824777 0.268307
0.341170 0.826507 0.269653
0.394965 0.828204 0.270973
0.447995 0.829877 0.272274
0.500425 0.831531 0.273561
0.552360 0.833169 0.274835
0.603875 0.834794 0.276099
0.655026 0.836408 0.277354
0.705856 0.838012 0.278601
0.756398 0.839606 0.279842
0.806681 0.841192 0.281075
0.856727 0.842771 0.282303
0.906555 0.844343 0.283526
0.956181 0.845909 0.284744
1.000000 0.847469 0.285957
0.174122 0.874550 0.269533
0.235323 0.876480 0.271034
0.291814 0.878263 0.272420
0.346654 0.879993 0.273766
0.400449 0.881690 0.275086
0.453479 0.883363 0.276387
0.505909 0.885017 0.277674
0.557844 0.886655 0.278948
0.609359 0.888280 0.280212
0.660510 0.889894 0.281467
0.711340 0.891498 0.282714
0.761883 0.893092 0.283955
0.812165 0.894678 0.285188
0.862211 0.896257 0.286416
0.912039 0.897829 0.287639
0.961665 0.899395 0.288857
1.000000 0.900955 0.290070
0.179584 0.927820 0.273629
0.240784 0.929750 0.275131
0.297276 0.931532 0.276517
0.352116 0.933263 0.277863
0.405911 0.934960 0.279182
0.458941 0.936633 0.280484
0.511371 0.938287 0.281770
0.563306 0.939925 0.283045
0.614821 0.941550 0.284309
0.665972 0.943164 0.285564
0.716802 0.944768 0.286811
0.767344 0.946362 0.288051
0.817627 0.947948 0.289285
0.867673 0.949527 0.290513
0.917501 0.951099 0.291735
0.967127 0.952665 0.292953
1.000000 0.954225 0.294166
0.185025 0.980889 0.277710
0.246226 0.982819 0.279212
0.302717 0.984602 0.280598
0.357557 0.986332 0.281943
0.411352 0.988029 0.283263
0.464383 0.989702 0.284565
0.516812 0.991356 0.285851
0.568747 0.992994 0.287125
0.620263 0.994620 0.288390
0.671414 0.996233 0.289645
0.722243 0.997837 0.290892
0.772786 0.999431 0.292132
0.823068 1.000000 0.293366
0.873114 1.000000 0.294594
0.922942 1.000000 0.295816
0.972569 1.000000 0.297034
1.000000 1.000000 0.298247
0.093517 0.083048 0.262125
0.154717 0.084979 0.263626
0.211208 0.086761 0.265013
0.266049 0.088491 0.266358
0.319843 0.090189 0.267678
0.372874 0.091862 0.268979
0.425304 0.093516 0.270266
0.477239 0.095154 0.271540
0.528754 0.096779 0.272804
0.579905 0.098393 0.274059
0.630735 0.099996 0.275307
0.681277 0.101591 0.276547
0.731560 0.103177 0.277780
0.781605 0.104756 0.279008
0.831433 0.106328 0.280231
