assets/luts/punch.cube
# Punch — Studio filter "punch"
# Generated by scripts/generate-filter-luts.mjs — do not edit by hand.
LUT_3D_SIZE 9
DOMAIN_MIN 0.0 0.0 0.0
DOMAIN_MAX 1.0 1.0 1.0
0.000000 0.000000 0.000000
0.034736 0.000000 0.000000
0.209692 0.000000 0.000000
0.404901 0.000000 0.000000
0.610236 0.000000 0.000000
0.815571 0.000000 0.000000
1.000000 0.000000 0.000000
1.000000 0.000000 0.000000
1.000000 0.000000 0.000000
0.000000 0.030731 0.000000
0.029036 0.029036 0.000000
0.203993 0.020503 0.000000
0.399202 0.010982 0.000000
0.604537 0.000967 0.000000
0.809871 0.000000 0.000000
1.000000 0.000000 0.000000
1.000000 0.000000 0.000000
1.000000 0.000000 0.000000
0.000000 0.185514 0.000000
0.000329 0.183819 0.000000
0.175286 0.175286 0.000000
0.370495 0.165765 0.000000
0.575830 0.155750 0.000000
0.781164 0.145734 0.000000
0.976373 0.136213 0.000000
1.000000 0.127680 0.000000
1.000000 0.125986 0.000000
0.000000 0.358214 0.000000
0.000000 0.356519 0.000000
0.143256 0.347986 0.000000
0.338465 0.338465 0.000000
0.543800 0.328450 0.000000
0.749134 0.318434 0.000000
0.944343 0.308913 0.000000
1.000000 0.300380 0.000000
1.000000 0.298686 0.000000
0.000000 0.539872 0.000000
0.000000 0.538178 0.000000
0.109564 0.529644 0.000000
0.304773 0.520123 0.000000
0.510108 0.510108 0.000000
0.715443 0.500093 0.000000
0.910652 0.490572 0.000000
1.000000 0.482038 0.000000
1.000000 0.480344 0.000000
0.000000 0.721530 0.000000
0.000000 0.719836 0.000000
0.075873 0.711303 0.000000
0.271082 0.701782 0.000000
0.476416 0.691766 0.000000
0.681751 0.681751 0.000000
0.876960 0.672230 0.000000
1.000000 0.663697 0.000000
1.000000 0.662002 0.000000
0.000000 0.894230 0.000000
0.000000 0.892536 0.000000
0.043843 0.884003 0.000000
0.239052 0.874482 0.000000
0.444386 0.864466 0.000000
0.649721 0.854451 0.000000
0.844930 0.844930 0.000000
1.000000 0.836397 0.000000
1.000000 0.834702 0.000000
0.000000 1.000000 0.000000
0.000000 1.000000 0.000000
0.015136 1.000000 0.000000
0.210345 1.000000 0.000000
0.415679 1.000000 0.000000
0.621014 1.000000 0.000000
0.816223 0.999713 0.000000
0.991180 0.991180 0.000000
1.000000 0.989485 0.000000
0.000000 1.000000 0.000000
0.000000 1.000000 0.000000
0.009436 1.000000 0.000000
0.204645 1.000000 0.000000
0.409980 1.000000 0.000000
0.615315 1.000000 0.000000
0.810524 1.000000 0.000000
0.985480 1.000000 0.000000
1.000000 1.000000 0.000000
0.000000 0.000000 0.035855
0.034160 0.000000 0.034160
0.209117 0.000000 0.025627
0.404326 0.000000 0.016106
0.609661 0.000000 0.006091
0.814996 0.000000 0.000000
1.000000 0.000000 0.000000
1.000000 0.000000 0.000000
1.000000 0.000000 0.000000
0.000000 0.030155 0.030155
0.028461 0.028461 0.028461
0.203418 0.019928 0.019928
0.398626 0.010406 0.010406
0.603961 0.000391 0.000391
0.809296 0.000000 0.000000
1.000000 0.000000 0.000000
1.000000 0.000000 0.000000
1.000000 0.000000 0.000000
0.000000 0.184938 0.001448
0.000000 0.183244 0.000000
0.174710 0.174710 0.000000
0.369919 0.165189 0.000000
0.575254 0.155174 0.000000
0.780589 0.145159 0.000000
0.975798 0.135638 0.000000
1.000000 0.127104 0.000000
1.000000 0.125410 0.000000
0.000000 0.357638 0.000000
0.000000 0.355944 0.000000
0.142680 0.347410 0.000000
0.337889 0.337889 0.000000
0.543224 0.327874 0.000000
0.748559 0.317859 0.000000
0.943768 0.308338 0.000000
1.000000 0.299804 0.000000
1.000000 0.298110 0.000000
0.000000 0.539297 0.000000
0.000000 0.537602 0.000000
0.108989 0.529069 0.000000
0.304198 0.519548 0.000000
0.509533 0.509533 0.000000
0.714868 0.499518 0.000000
0.910076 0.489996 0.000000
1.000000 0.481463 0.000000
1.000000 0.479769 0.000000
0.000000 0.720955 0.000000
0.000000 0.719261 0.000000
0.075297 0.710727 0.000000
0.270506 0.701206 0.000000
0.475841 0.691191 0.000000
0.681176 0.681176 0.000000
0.876385 0.671655 0.000000
1.000000 0.663121 0.000000
1.000000 0.661427 0.000000
0.000000 0.893655 0.000000
0.000000 0.891961 0.000000
0.043267 0.883427 0.000000
0.238476 0.873906 0.000000
0.443811 0.863891 0.000000
0.649146 0.853876 0.000000
0.844355 0.844355 0.000000
1.000000 0.835821 0.000000
1.000000 0.834127 0.000000
0.000000 1.000000 0.000000
0.000000 1.000000 0.000000
0.014560 1.000000 0.000000
0.209769 1.000000 0.000000
0.415104 1.000000 0.000000
0.620439 1.000000 0.000000
0.815648 0.999138 0.000000
0.990604 0.990604 0.000000
1.000000 0.988910 0.000000
0.000000 1.000000 0.000000
0.000000 1.000000 0.000000
0.008861 1.000000 0.000000
0.204070 1.000000 0.000000
0.409405 1.000000 0.000000
0.614740 1.000000 0.000000
0.809948 1.000000 0.000000
0.984905 1.000000 0.000000
1.000000 1.000000 0.000000
0.000000 0.000000 0.216447
0.031262 0.000000 0.214752
0.206219 0.000000 0.206219
0.401428 0.000000 0.196698
0.606763 0.000000 0.186683
0.812098 0.000000 0.176668
1.000000 0.000000 0.167146
1.000000 0.000000 0.158613
1.000000 0.000000 0.156919
0.000000 0.027257 0.210747
0.025563 0.025563 0.209053
0.200520 0.017030 0.200520
0.395728 0.007508 0.190998
0.601063 0.000000 0.180983
0.806398 0.000000 0.170968
1.000000 0.000000 0.161447
1.000000 0.000000 0.152913
1.000000 0.000000 0.151219
0.000000 0.182040 0.182040
0.000000 0.180346 0.180346
0.171812 0.171812 0.171812
0.367021 0.162291 0.162291
0.572356 0.152276 0.152276
0.777691 0.142261 0.142261
0.972900 0.132740 0.132740
1.000000 0.124206 0.124206
1.000000 0.122512 0.122512
0.000000 0.354740 0.150010
0.000000 0.353046 0.148316
0.139782 0.344512 0.139782
0.334991 0.334991 0.130261
0.540326 0.324976 0.120246
0.745661 0.314961 0.110231
0.940870 0.305440 0.100710
1.000000 0.296906 0.092176
1.000000 0.295212 0.090482
0.000000 0.536399 0.116319
0.000000 0.534704 0.114624
0.106091 0.526171 0.106091
0.301300 0.516650 0.096570
0.506635 0.506635 0.086555
0.711970 0.496620 0.076540
0.907178 0.487098 0.067018
1.000000 0.478565 0.058485
1.000000 0.476871 0.056791
0.000000 0.718057 0.082627
0.000000 0.716363 0.080933
0.072399 0.707829 0.072399
0.267608 0.698308 0.062878
0.472943 0.688293 0.052863
0.678278 0.678278 0.042848
0.873487 0.668757 0.033327
1.000000 0.660223 0.024793
1.000000 0.658529 0.023099
0.000000 0.890757 0.050597
0.000000 0.889063 0.048903
0.040369 0.880529 0.040369
0.235578 0.871008 0.030848
0.440913 0.860993 0.020833
0.646248 0.850978 0.010818
0.841457 0.841457 0.001297
1.000000 0.832923 0.000000
1.000000 0.831229 0.000000
0.000000 1.000000 0.021890
0.000000 1.000000 0.020196
0.011662 1.000000 0.011662
0.206871 1.000000 0.002141
0.412206 1.000000 0.000000
0.617541 1.000000 0.000000
0.812750 0.996240 0.000000
0.987706 0.987706 0.000000
1.000000 0.986012 0.000000
0.000000 1.000000 0.016191
0.000000 1.000000 0.014496
0.005963 1.000000 0.005963
0.201172 1.000000 0.000000
0.406507 1.000000 0.000000
0.611842 1.000000 0.000000
0.807050 1.000000 0.000000
0.982007 1.000000 0.000000
1.000000 1.000000 0.000000
0.000000 0.000000 0.417943
0.028029 0.000000 0.416249
0.202986 0.000000 0.407716
0.398194 0.000000 0.398194
0.603529 0.000000 0.388179
0.808864 0.000000 0.378164
1.000000 0.000000 0.368643
1.000000 0.000000 0.360109
1.000000 0.000000 0.358415
0.000000 0.024024 0.412244
0.022329 0.022329 0.410549
0.197286 0.013796 0.402016
0.392495 0.004275 0.392495
0.597830 0.000000 0.382480
0.803165 0.000000 0.372465
0.998373 0.000000 0.362943
1.000000 0.000000 0.354410
1.000000 0.000000 0.352716
0.000000 0.178807 0.383537
0.000000 0.177112 0.381842
0.168579 0.168579 0.373309
0.363788 0.159058 0.363788
0.569123 0.149043 0.353773
0.774458 0.139028 0.343758
0.969666 0.129506 0.334236
1.000000 0.120973 0.325703
1.000000 0.119279 0.324009
0.000000 0.351507 0.351507
0.000000 0.349812 0.349812
0.136549 0.341279 0.341279
0.331758 0.331758 0.331758
0.537093 0.321743 0.321743
0.742428 0.311728 0.311728
0.937636 0.302206 0.302206
1.000000 0.293673 0.293673
1.000000 0.291979 0.291979
0.000000 0.533165 0.317815
0.000000 0.531471 0.316121
0.102858 0.522938 0.307588
0.298066 0.513416 0.298066
0.503401 0.503401 0.288051
0.708736 0.493386 0.278036
0.903945 0.483865 0.268515
1.000000 0.475331 0.259981
1.000000 0.473637 0.258287
0.000000 0.714824 0.284124
0.000000 0.713129 0.282429
0.069166 0.704596 0.273896
0.264375 0.695075 0.264375
0.469710 0.685060 0.254360
0.675045 0.675045 0.244345
0.870253 0.665523 0.234823
1.000000 0.656990 0.226290
1.000000 0.655296 0.224596
0.000000 0.887524 0.252094
0.000000 0.885829 0.250399
0.037136 0.877296 0.241866
0.232345 0.867775 0.232345
0.437680 0.857760 0.222330
0.643015 0.847745 0.212315
0.838223 0.838223 0.202793
1.000000 0.829690 0.194260
1.000000 0.827996 0.192566
0.000000 1.000000 0.223387
0.000000 1.000000 0.221692
0.008429 1.000000 0.213159
0.203638 1.000000 0.203638
0.408973 1.000000 0.193623
0.614308 1.000000 0.183608
0.809516 0.993006 0.174086
0.984473 0.984473 0.165553
1.000000 0.982779 0.163859
0.000000 1.000000 0.217687
0.000000 1.000000 0.215993
0.002730 1.000000 0.207460
0.197938 1.000000 0.197938
0.403273 1.000000 0.187923
0.608608 1.000000 0.177908
0.803817 1.000000 0.168387
0.978773 1.000000 0.159853
1.000000 1.000000 0.158159
0.000000 0.000000 0.629892
0.024628 0.000000 0.628198
0.199584 0.000000 0.619664
0.394793 0.000000 0.610143
0.600128 0.000000 0.600128
0.805463 0.000000 0.590113
1.000000 0.000000 0.580592
1.000000 0.000000 0.572058
1.000000 0.000000 0.570364
0.000000 0.020623 0.624193
0.018928 0.018928 0.622498
0.193885 0.010395 0.613965
0.389094 0.000874 0.604444
0.594429 0.000000 0.594429
0.799763 0.000000 0.584413
0.994972 0.000000 0.574892
1.000000 0.000000 0.566359
1.000000 0.000000 0.564665
0.000000 0.175406 0.595486
0.000000 0.173711 0.593791
0.165178 0.165178 0.585258
0.360387 0.155657 0.575737
0.565722 0.145642 0.565722
0.771056 0.135626 0.555706
0.966265 0.126105 0.546185
1.000000 0.117572 0.537652
1.000000 0.115878 0.535958
0.000000 0.348106 0.563456
0.000000 0.346411 0.561761
0.133148 0.337878 0.553228
0.328357 0.328357 0.543707
0.533692 0.318342 0.533692
0.739026 0.308326 0.523676
0.934235 0.298805 0.514155
1.000000 0.290272 0.505622
1.000000 0.288578 0.503928
0.000000 0.529764 0.529764
0.000000 0.528070 0.528070
0.099456 0.519536 0.519536
0.294665 0.510015 0.510015
0.500000 0.500000 0.500000
0.705335 0.489985 0.489985
0.900544 0.480464 0.480464
1.000000 0.471930 0.471930
1.000000 0.470236 0.470236
0.000000 0.711422 0.496072
0.000000 0.709728 0.494378
0.065765 0.701195 0.485845
0.260974 0.691674 0.476324
0.466308 0.681658 0.466308
0.671643 0.671643 0.456293
0.866852 0.662122 0.446772
1.000000 0.653589 0.438239
1.000000 0.651894 0.436544
0.000000 0.884122 0.464042
0.000000 0.882428 0.462348
0.033735 0.873895 0.453815
0.228944 0.864374 0.444294
0.434278 0.854358 0.434278
0.639613 0.844343 0.424263
0.834822 0.834822 0.414742
1.000000 0.826289 0.406209
1.000000 0.824594 0.404514
0.000000 1.000000 0.435335
0.000000 1.000000 0.433641
0.005028 1.000000 0.425108
0.200237 1.000000 0.415587
0.405571 1.000000 0.405571
0.610906 0.999126 0.395556
0.806115 0.989605 0.386035
0.981072 0.981072 0.377502
1.000000 0.979377 0.375807
0.000000 1.000000 0.429636
0.000000 1.000000 0.427942
0.000000 1.000000 0.419408
0.194537 1.000000 0.409887
0.399872 1.000000 0.399872
0.605207 1.000000 0.389857
0.800416 1.000000 0.380336
0.975372 1.000000 0.371802
1.000000 1.000000 0.370108
0.000000 0.000000 0.841841
0.021227 0.000000 0.840147
0.196183 0.000000 0.831613
0.391392 0.000000 0.822092
0.596727 0.000000 0.812077
0.802062 0.000000 0.802062
0.997270 0.000000 0.792540
1.000000 0.000000 0.784007
1.000000 0.000000 0.782313
0.000000 0.017221 0.836141
0.015527 0.015527 0.834447
0.190484 0.006994 0.825914
0.385692 0.000000 0.816392
0.591027 0.000000 0.806377
0.796362 0.000000 0.796362
0.991571 0.000000 0.786841
1.000000 0.000000 0.778308
1.000000 0.000000 0.776613
0.000000 0.172004 0.807434
0.000000 0.170310 0.805740
0.161777 0.161777 0.797207
0.356985 0.152255 0.787685
0.562320 0.142240 0.777670
0.767655 0.132225 0.767655
0.962864 0.122704 0.758134
1.000000 0.114171 0.749601
1.000000 0.112476 0.747906
0.000000 0.344704 0.775404
0.000000 0.343010 0.773710
0.129747 0.334477 0.765177
0.324955 0.324955 0.755655
0.530290 0.314940 0.745640
0.735625 0.304925 0.735625
0.930834 0.295404 0.726104
1.000000 0.286871 0.717571
1.000000 0.285176 0.715876
0.000000 0.526363 0.741713
0.000000 0.524669 0.740019
0.096055 0.516135 0.731485
0.291264 0.506614 0.721964
0.496599 0.496599 0.711949
0.701934 0.486584 0.701934
0.897142 0.477062 0.692412
1.000000 0.468529 0.683879
1.000000 0.466835 0.682185
0.000000 0.708021 0.708021
0.000000 0.706327 0.706327
0.062364 0.697794 0.697794
0.257572 0.688272 0.688272
0.462907 0.678257 0.678257
0.668242 0.668242 0.668242
0.863451 0.658721 0.658721
1.000000 0.650188 0.650188
1.000000 0.648493 0.648493
0.000000 0.880721 0.675991
0.000000 0.879027 0.674297
0.030334 0.870494 0.665764
0.225542 0.860972 0.656242
0.430877 0.850957 0.646227
0.636212 0.840942 0.636212
0.831421 0.831421 0.626691
1.000000 0.822888 0.618158
1.000000 0.821193 0.616463
0.000000 1.000000 0.647284
0.000000 1.000000 0.645590
0.001627 1.000000 0.637057
0.196835 1.000000 0.627535
0.402170 1.000000 0.617520
0.607505 0.995725 0.607505
0.802714 0.986204 0.597984
0.977671 0.977671 0.589451
1.000000 0.975976 0.587756
0.000000 1.000000 0.641585
0.000000 1.000000 0.639891
0.000000 1.000000 0.631357
0.191136 1.000000 0.621836
0.396471 1.000000 0.611821
0.601806 1.000000 0.601806
0.797014 1.000000 0.592284
0.971971 1.000000 0.583751
1.000000 1.000000 0.582057
0.000000 0.000000 1.000000
0.017993 0.000000 1.000000
0.192950 0.000000 1.000000
0.388158 0.000000 1.000000
0.593493 0.000000 1.000000
0.798828 0.000000 1.000000
0.994037 0.000000 0.994037
1.000000 0.000000 0.985504
1.000000 0.000000 0.983809
0.000000 0.013988 1.000000
0.012294 0.012294 1.000000
0.187250 0.003760 1.000000
0.382459 0.000000 1.000000
0.587794 0.000000 1.000000
0.793129 0.000000 0.997859
0.988338 0.000000 0.988338
1.000000 0.000000 0.979804
1.000000 0.000000 0.978110
0.000000 0.168771 1.000000
0.000000 0.167077 1.000000
0.158543 0.158543 0.998703
0.353752 0.149022 0.989182
0.559087 0.139007 0.979167
0.764422 0.128992 0.969152
0.959631 0.119471 0.959631
1.000000 0.110937 0.951097
1.000000 0.109243 0.949403
0.000000 0.341471 0.976901
0.000000 0.339777 0.975207
0.126513 0.331243 0.966673
0.321722 0.321722 0.957152
0.527057 0.311707 0.947137
0.732392 0.301692 0.937122
0.927601 0.292171 0.927601
1.000000 0.283637 0.919067
1.000000 0.281943 0.917373
0.000000 0.523129 0.943209
0.000000 0.521435 0.941515
0.092822 0.512902 0.932982
0.288030 0.503380 0.923460
0.493365 0.493365 0.913445
0.698700 0.483350 0.903430
0.893909 0.473829 0.893909
1.000000 0.465296 0.885376
1.000000 0.463601 0.883681
0.000000 0.704788 0.909518
0.000000 0.703094 0.907824
0.059130 0.694560 0.899290
0.254339 0.685039 0.889769
0.459674 0.675024 0.879754
0.665009 0.665009 0.869739
0.860218 0.655488 0.860218
1.000000 0.646954 0.851684
1.000000 0.645260 0.849990
0.000000 0.877488 0.877488
0.000000 0.875794 0.875794
0.027100 0.867260 0.867260
0.222309 0.857739 0.857739
0.427644 0.847724 0.847724
0.632979 0.837709 0.837709
0.828187 0.828187 0.828187
1.000000 0.819654 0.819654
1.000000 0.817960 0.817960
0.000000 1.000000 0.848781
0.000000 1.000000 0.847087
0.000000 1.000000 0.838553
0.193602 1.000000 0.829032
0.398937 1.000000 0.819017
0.604272 0.992492 0.809002
0.799480 0.982970 0.799480
0.974437 0.974437 0.790947
1.000000 0.972743 0.789253
0.000000 1.000000 0.843081
0.000000 1.000000 0.841387
0.000000 1.000000 0.832854
0.187902 1.000000 0.823332
0.393237 1.000000 0.813317
0.598572 1.000000 0.803302
0.793781 1.000000 0.793781
0.968738 1.000000 0.785248
1.000000 1.000000 0.783553
0.000000 0.000000 1.000000
0.015095 0.000000 1.000000
0.190052 0.000000 1.000000
0.385260 0.000000 1.000000
0.590595 0.000000 1.000000
0.795930 0.000000 1.000000
0.991139 0.000000 1.000000
1.000000 0.000000 1.000000
1.000000 0.000000 1.000000
0.000000 0.011090 1.000000
0.009396 0.009396 1.000000
0.184352 0.000862 1.000000
0.379561 0.000000 1.000000
0.584896 0.000000 1.000000
0.790231 0.000000 1.000000
0.985440 0.000000 1.000000
1.000000 0.000000 1.000000
1.000000 0.000000 1.000000
0.000000 0.165873 1.000000
0.000000 0.164179 1.000000
0.155645 0.155645 1.000000
0.350854 0.146124 1.000000
0.556189 0.136109 1.000000
0.761524 0.126094 1.000000
0.956733 0.116573 1.000000
1.000000 0.108039 1.000000
1.000000 0.106345 1.000000
0.000000 0.338573 1.000000
0.000000 0.336879 1.000000
0.123615 0.328345 1.000000
0.318824 0.318824 1.000000
0.524159 0.308809 1.000000
0.729494 0.298794 1.000000
0.924703 0.289273 1.000000
1.000000 0.280739 1.000000
1.000000 0.279045 1.000000
0.000000 0.520231 1.000000
0.000000 0.518537 1.000000
0.089924 0.510004 1.000000
0.285132 0.500482 1.000000
0.490467 0.490467 1.000000
0.695802 0.480452 1.000000
0.891011 0.470931 1.000000
1.000000 0.462398 1.000000
1.000000 0.460703 1.000000
0.000000 0.701890 1.000000
0.000000 0.700196 1.000000
0.056232 0.691662 1.000000
0.251441 0.682141 1.000000
0.456776 0.672126 1.000000
0.662111 0.662111 1.000000
0.857320 0.652590 1.000000
1.000000 0.644056 1.000000
1.000000 0.642362 1.000000
0.000000 0.874590 1.000000
0.000000 0.872896 1.000000
0.024202 0.864362 1.000000
0.219411 0.854841 1.000000
0.424746 0.844826 1.000000
0.630081 0.834811 1.000000
0.825290 0.825290 1.000000
1.000000 0.816756 1.000000
1.000000 0.815062 0.998552
0.000000 1.000000 1.000000
0.000000 1.000000 1.000000
0.000000 1.000000 1.000000
0.190704 1.000000 1.000000
0.396039 0.999609 0.999609
0.601374 0.989594 0.989594
0.796582 0.980072 0.980072
0.971539 0.971539 0.971539
1.000000 0.969845 0.969845
0.000000 1.000000 1.000000
0.000000 1.000000 1.000000
0.000000 1.000000 1.000000
0.185004 1.000000 1.000000
0.390339 1.000000 0.993909
0.595674 1.000000 0.983894
0.790883 1.000000 0.974373
0.965840 1.000000 0.965840
1.000000 1.000000 0.964145
0.000000 0.000000 1.000000
0.014520 0.000000 1.000000
0.189476 0.000000 1.000000
0.384685 0.000000 1.000000
0.590020 0.000000 1.000000
0.795355 0.000000 1.000000
0.990564 0.000000 1.000000
1.000000 0.000000 1.000000
1.000000 0.000000 1.000000
0.000000 0.010515 1.000000
0.008820 0.008820 1.000000
0.183777 0.000287 1.000000
0.378986 0.000000 1.000000
0.584321 0.000000 1.000000
0.789655 0.000000 1.000000
0.984864 0.000000 1.000000
1.000000 0.000000 1.000000
1.000000 0.000000 1.000000
0.000000 0.165298 1.000000
0.000000 0.163603 1.000000
0.155070 0.155070 1.000000
0.350279 0.145549 1.000000
0.555614 0.135534 1.000000
0.760948 0.125518 1.000000
0.956157 0.115997 1.000000
1.000000 0.107464 1.000000
1.000000 0.105770 1.000000
0.000000 0.337998 1.000000
0.000000 0.336303 1.000000
0.123040 0.327770 1.000000
0.318249 0.318249 1.000000
0.523584 0.308234 1.000000
0.728918 0.298218 1.000000
0.924127 0.288697 1.000000
1.000000 0.280164 1.000000
1.000000 0.278470 1.000000
0.000000 0.519656 1.000000
0.000000 0.517962 1.000000
0.089348 0.509428 1.000000
0.284557 0.499907 1.000000
0.489892 0.489892 1.000000
0.695227 0.479877 1.000000
0.890436 0.470356 1.000000
1.000000 0.461822 1.000000
1.000000 0.460128 1.000000
0.000000 0.701314 1.000000
0.000000 0.699620 1.000000
0.055657 0.691087 1.000000
0.250866 0.681566 1.000000
0.456200 0.671550 1.000000
0.661535 0.661535 1.000000
0.856744 0.652014 1.000000
1.000000 0.643481 1.000000
1.000000 0.641786 1.000000
0.000000 0.874014 1.000000
0.000000 0.872320 1.000000
0.023627 0.863787 1.000000
0.218836 0.854266 1.000000
0.424170 0.844250 1.000000
0.629505 0.834235 1.000000
0.824714 0.824714 1.000000
0.999671 0.816181 1.000000
1.000000 0.814486 1.000000
0.000000 1.000000 1.000000
0.000000 1.000000 1.000000
0.000000 1.000000 1.000000
0.190129 1.000000 1.000000
0.395463 0.999033 1.000000
0.600798 0.989018 1.000000
0.796007 0.979497 1.000000
0.970964 0.970964 1.000000
1.000000 0.969269 1.000000
0.000000 1.000000 1.000000
0.000000 1.000000 1.000000
0.000000 1.000000 1.000000
0.184429 1.000000 1.000000
0.389764 1.000000 1.000000
0.595099 1.000000 1.000000
0.790308 1.000000 1.000000
0.965264 1.000000 1.000000
1.000000 1.000000 1.000000
