assets/luts/punch.cube
# Punch — Studio filter "punch"
# Generated by scripts/generate-filter-luts.mjs — do not edit by hand.
LUT_3D_SIZE 17
DOMAIN_MIN 0.0 0.0 0.0
DOMAIN_MAX 1.0 1.0 1.0
0.000000 0.000000 0.000000
0.000000 0.000000 0.000000
0.034736 0.000000 0.000000
0.119050 0.000000 0.000000
0.209692 0.000000 0.000000
0.305398 0.000000 0.000000
0.404901 0.000000 0.000000
0.506936 0.000000 0.000000
0.610236 0.000000 0.000000
0.713536 0.000000 0.000000
0.815571 0.000000 0.000000
0.915074 0.000000 0.000000
1.000000 0.000000 0.000000
1.000000 0.000000 0.000000
1.000000 0.000000 0.000000
1.000000 0.000000 0.000000
1.000000 0.000000 0.000000
0.000000 0.000000 0.000000
0.000000 0.000000 0.000000
0.034736 0.000000 0.000000
0.119050 0.000000 0.000000
0.209692 0.000000 0.000000
0.305398 0.000000 0.000000
0.404901 0.000000 0.000000
0.506936 0.000000 0.000000
0.610236 0.000000 0.000000
0.713536 0.000000 0.000000
0.815571 0.000000 0.000000
0.915074 0.000000 0.000000
1.000000 0.000000 0.000000
1.000000 0.000000 0.000000
1.000000 0.000000 0.000000
1.000000 0.000000 0.000000
1.000000 0.000000 0.000000
0.000000 0.030731 0.000000
0.000000 0.030731 0.000000
0.029036 0.029036 0.000000
0.113350 0.024924 0.000000
0.203993 0.020503 0.000000
0.299699 0.015835 0.000000
0.399202 0.010982 0.000000
0.501236 0.006005 0.000000
0.604537 0.000967 0.000000
0.707837 0.000000 0.000000
0.809871 0.000000 0.000000
0.909374 0.000000 0.000000
1.000000 0.000000 0.000000
1.000000 0.000000 0.000000
1.000000 0.000000 0.000000
1.000000 0.000000 0.000000
1.000000 0.000000 0.000000
0.000000 0.105322 0.000000
0.000000 0.105322 0.000000
0.015202 0.103628 0.000000
0.099516 0.099516 0.000000
0.190159 0.095095 0.000000
0.285864 0.090427 0.000000
0.385367 0.085574 0.000000
0.487402 0.080597 0.000000
0.590702 0.075558 0.000000
0.694003 0.070520 0.000000
0.796037 0.065543 0.000000
0.895540 0.060690 0.000000
0.991246 0.056022 0.000000
1.000000 0.051601 0.000000
1.000000 0.047489 0.000000
1.000000 0.045794 0.000000
1.000000 0.045794 0.000000
0.000000 0.185514 0.000000
0.000000 0.185514 0.000000
0.000329 0.183819 0.000000
0.084643 0.179707 0.000000
0.175286 0.175286 0.000000
0.270992 0.170618 0.000000
0.370495 0.165765 0.000000
0.472529 0.160788 0.000000
0.575830 0.155750 0.000000
0.679130 0.150711 0.000000
0.781164 0.145734 0.000000
0.880667 0.140881 0.000000
0.976373 0.136213 0.000000
1.000000 0.131792 0.000000
1.000000 0.127680 0.000000
1.000000 0.125986 0.000000
1.000000 0.125986 0.000000
0.000000 0.270184 0.000000
0.000000 0.270184 0.000000
0.000000 0.268490 0.000000
0.068940 0.264377 0.000000
0.159582 0.259956 0.000000
0.255288 0.255288 0.000000
0.354791 0.250435 0.000000
0.456826 0.245458 0.000000
0.560126 0.240420 0.000000
0.663426 0.235381 0.000000
0.765461 0.230405 0.000000
0.864964 0.225551 0.000000
0.960670 0.220883 0.000000
1.000000 0.216462 0.000000
1.000000 0.212350 0.000000
1.000000 0.210656 0.000000
1.000000 0.210656 0.000000
0.000000 0.358214 0.000000
0.000000 0.358214 0.000000
0.000000 0.356519 0.000000
0.052613 0.352407 0.000000
0.143256 0.347986 0.000000
0.238962 0.343318 0.000000
0.338465 0.338465 0.000000
0.440499 0.333488 0.000000
0.543800 0.328450 0.000000
0.647100 0.323411 0.000000
0.749134 0.318434 0.000000
0.848637 0.313581 0.000000
0.944343 0.308913 0.000000
1.000000 0.304492 0.000000
1.000000 0.300380 0.000000
1.000000 0.298686 0.000000
1.000000 0.298686 0.000000
0.000000 0.448483 0.000000
0.000000 0.448483 0.000000
0.000000 0.446789 0.000000
0.035871 0.442676 0.000000
0.126514 0.438255 0.000000
0.222220 0.433587 0.000000
0.321723 0.428734 0.000000
0.423757 0.423757 0.000000
0.527058 0.418719 0.000000
0.630358 0.413680 0.000000
0.732392 0.408704 0.000000
0.831896 0.403851 0.000000
0.927601 0.399183 0.000000
1.000000 0.394761 0.000000
1.000000 0.390649 0.000000
1.000000 0.388955 0.000000
1.000000 0.388955 0.000000
0.000000 0.539872 0.000000
0.000000 0.539872 0.000000
0.000000 0.538178 0.000000
0.018922 0.534065 0.000000
0.109564 0.529644 0.000000
0.205270 0.524976 0.000000
0.304773 0.520123 0.000000
0.406808 0.515146 0.000000
0.510108 0.510108 0.000000
0.613408 0.505070 0.000000
0.715443 0.500093 0.000000
0.814946 0.495240 0.000000
0.910652 0.490572 0.000000
1.000000 0.486151 0.000000
1.000000 0.482038 0.000000
1.000000 0.480344 0.000000
1.000000 0.480344 0.000000
0.000000 0.631261 0.000000
0.000000 0.631261 0.000000
0.000000 0.629567 0.000000
0.001972 0.625455 0.000000
0.092615 0.621033 0.000000
0.188320 0.616365 0.000000
0.287824 0.611512 0.000000
0.389858 0.606536 0.000000
0.493158 0.601497 0.000000
0.596459 0.596459 0.000000
0.698493 0.591482 0.000000
0.797996 0.586629 0.000000
0.893702 0.581961 0.000000
0.984345 0.577540 0.000000
1.000000 0.573427 0.000000
1.000000 0.571733 0.000000
1.000000 0.571733 0.000000
0.000000 0.721530 0.000000
0.000000 0.721530 0.000000
0.000000 0.719836 0.000000
0.000000 0.715724 0.000000
0.075873 0.711303 0.000000
0.171579 0.706635 0.000000
0.271082 0.701782 0.000000
0.373116 0.696805 0.000000
0.476416 0.691766 0.000000
0.579717 0.686728 0.000000
0.681751 0.681751 0.000000
0.781254 0.676898 0.000000
0.876960 0.672230 0.000000
0.967603 0.667809 0.000000
1.000000 0.663697 0.000000
1.000000 0.662002 0.000000
1.000000 0.662002 0.000000
0.000000 0.809560 0.000000
0.000000 0.809560 0.000000
0.000000 0.807866 0.000000
0.000000 0.803754 0.000000
0.059546 0.799333 0.000000
0.155252 0.794665 0.000000
0.254755 0.789811 0.000000
0.356790 0.784835 0.000000
0.460090 0.779796 0.000000
0.563390 0.774758 0.000000
0.665425 0.769781 0.000000
0.764928 0.764928 0.000000
0.860634 0.760260 0.000000
0.951276 0.755839 0.000000
1.000000 0.751726 0.000000
1.000000 0.750032 0.000000
1.000000 0.750032 0.000000
0.000000 0.894230 0.000000
0.000000 0.894230 0.000000
0.000000 0.892536 0.000000
0.000000 0.888424 0.000000
0.043843 0.884003 0.000000
0.139549 0.879335 0.000000
0.239052 0.874482 0.000000
0.341086 0.869505 0.000000
0.444386 0.864466 0.000000
0.547687 0.859428 0.000000
0.649721 0.854451 0.000000
0.749224 0.849598 0.000000
0.844930 0.844930 0.000000
0.935573 0.840509 0.000000
1.000000 0.836397 0.000000
1.000000 0.834702 0.000000
1.000000 0.834702 0.000000
0.000000 0.974422 0.000000
0.000000 0.974422 0.000000
0.000000 0.972727 0.000000
0.000000 0.968615 0.000000
0.028970 0.964194 0.000000
0.124676 0.959526 0.000000
0.224179 0.954673 0.000000
0.326213 0.949696 0.000000
0.429514 0.944658 0.000000
0.532814 0.939619 0.000000
0.634849 0.934642 0.000000
0.734352 0.929789 0.000000
0.830057 0.925121 0.000000
0.920700 0.920700 0.000000
1.000000 0.916588 0.000000
1.000000 0.914894 0.000000
1.000000 0.914894 0.000000
0.000000 1.000000 0.000000
0.000000 1.000000 0.000000
0.000000 1.000000 0.000000
0.000000 1.000000 0.000000
0.015136 1.000000 0.000000
0.110842 1.000000 0.000000
0.210345 1.000000 0.000000
0.312379 1.000000 0.000000
0.415679 1.000000 0.000000
0.518980 1.000000 0.000000
0.621014 1.000000 0.000000
0.720517 1.000000 0.000000
0.816223 0.999713 0.000000
0.906866 0.995292 0.000000
0.991180 0.991180 0.000000
1.000000 0.989485 0.000000
1.000000 0.989485 0.000000
0.000000 1.000000 0.000000
0.000000 1.000000 0.000000
0.000000 1.000000 0.000000
0.000000 1.000000 0.000000
0.009436 1.000000 0.000000
0.105142 1.000000 0.000000
0.204645 1.000000 0.000000
0.306680 1.000000 0.000000
0.409980 1.000000 0.000000
0.513280 1.000000 0.000000
0.615315 1.000000 0.000000
0.714818 1.000000 0.000000
0.810524 1.000000 0.000000
0.901166 1.000000 0.000000
0.985480 1.000000 0.000000
1.000000 1.000000 0.000000
1.000000 1.000000 0.000000
0.000000 1.000000 0.000000
0.000000 1.000000 0.000000
0.000000 1.000000 0.000000
0.000000 1.000000 0.000000
0.009436 1.000000 0.000000
0.105142 1.000000 0.000000
0.204645 1.000000 0.000000
0.306680 1.000000 0.000000
0.409980 1.000000 0.000000
0.513280 1.000000 0.000000
0.615315 1.000000 0.000000
0.714818 1.000000 0.000000
0.810524 1.000000 0.000000
0.901166 1.000000 0.000000
0.985480 1.000000 0.000000
1.000000 1.000000 0.000000
1.000000 1.000000 0.000000
0.000000 0.000000 0.000000
0.000000 0.000000 0.000000
0.034736 0.000000 0.000000
0.119050 0.000000 0.000000
0.209692 0.000000 0.000000
0.305398 0.000000 0.000000
0.404901 0.000000 0.000000
0.506936 0.000000 0.000000
0.610236 0.000000 0.000000
0.713536 0.000000 0.000000
0.815571 0.000000 0.000000
0.915074 0.000000 0.000000
1.000000 0.000000 0.000000
1.000000 0.000000 0.000000
1.000000 0.000000 0.000000
1.000000 0.000000 0.000000
1.000000 0.000000 0.000000
0.000000 0.000000 0.000000
0.000000 0.000000 0.000000
0.034736 0.000000 0.000000
0.119050 0.000000 0.000000
0.209692 0.000000 0.000000
0.305398 0.000000 0.000000
0.404901 0.000000 0.000000
0.506936 0.000000 0.000000
0.610236 0.000000 0.000000
0.713536 0.000000 0.000000
0.815571 0.000000 0.000000
0.915074 0.000000 0.000000
1.000000 0.000000 0.000000
1.000000 0.000000 0.000000
1.000000 0.000000 0.000000
1.000000 0.000000 0.000000
1.000000 0.000000 0.000000
0.000000 0.030731 0.000000
0.000000 0.030731 0.000000
0.029036 0.029036 0.000000
0.113350 0.024924 0.000000
0.203993 0.020503 0.000000
0.299699 0.015835 0.000000
0.399202 0.010982 0.000000
0.501236 0.006005 0.000000
0.604537 0.000967 0.000000
0.707837 0.000000 0.000000
0.809871 0.000000 0.000000
0.909374 0.000000 0.000000
1.000000 0.000000 0.000000
1.000000 0.000000 0.000000
1.000000 0.000000 0.000000
1.000000 0.000000 0.000000
1.000000 0.000000 0.000000
0.000000 0.105322 0.000000
0.000000 0.105322 0.000000
0.015202 0.103628 0.000000
0.099516 0.099516 0.000000
0.190159 0.095095 0.000000
0.285864 0.090427 0.000000
0.385367 0.085574 0.000000
0.487402 0.080597 0.000000
0.590702 0.075558 0.000000
0.694003 0.070520 0.000000
0.796037 0.065543 0.000000
0.895540 0.060690 0.000000
0.991246 0.056022 0.000000
1.000000 0.051601 0.000000
1.000000 0.047489 0.000000
1.000000 0.045794 0.000000
1.000000 0.045794 0.000000
0.000000 0.185514 0.000000
0.000000 0.185514 0.000000
0.000329 0.183819 0.000000
0.084643 0.179707 0.000000
0.175286 0.175286 0.000000
0.270992 0.170618 0.000000
0.370495 0.165765 0.000000
0.472529 0.160788 0.000000
0.575830 0.155750 0.000000
0.679130 0.150711 0.000000
0.781164 0.145734 0.000000
0.880667 0.140881 0.000000
0.976373 0.136213 0.000000
1.000000 0.131792 0.000000
1.000000 0.127680 0.000000
1.000000 0.125986 0.000000
1.000000 0.125986 0.000000
0.000000 0.270184 0.000000
0.000000 0.270184 0.000000
0.000000 0.268490 0.000000
0.068940 0.264377 0.000000
0.159582 0.259956 0.000000
0.255288 0.255288 0.000000
0.354791 0.250435 0.000000
0.456826 0.245458 0.000000
0.560126 0.240420 0.000000
0.663426 0.235381 0.000000
0.765461 0.230405 0.000000
0.864964 0.225551 0.000000
0.960670 0.220883 0.000000
1.000000 0.216462 0.000000
1.000000 0.212350 0.000000
1.000000 0.210656 0.000000
1.000000 0.210656 0.000000
0.000000 0.358214 0.000000
0.000000 0.358214 0.000000
0.000000 0.356519 0.000000
0.052613 0.352407 0.000000
0.143256 0.347986 0.000000
0.238962 0.343318 0.000000
0.338465 0.338465 0.000000
0.440499 0.333488 0.000000
0.543800 0.328450 0.000000
0.647100 0.323411 0.000000
0.749134 0.318434 0.000000
0.848637 0.313581 0.000000
0.944343 0.308913 0.000000
1.000000 0.304492 0.000000
1.000000 0.300380 0.000000
1.000000 0.298686 0.000000
1.000000 0.298686 0.000000
0.000000 0.448483 0.000000
0.000000 0.448483 0.000000
0.000000 0.446789 0.000000
0.035871 0.442676 0.000000
0.126514 0.438255 0.000000
0.222220 0.433587 0.000000
0.321723 0.428734 0.000000
0.423757 0.423757 0.000000
0.527058 0.418719 0.000000
0.630358 0.413680 0.000000
0.732392 0.408704 0.000000
0.831896 0.403851 0.000000
0.927601 0.399183 0.000000
1.000000 0.394761 0.000000
1.000000 0.390649 0.000000
1.000000 0.388955 0.000000
1.000000 0.388955 0.000000
0.000000 0.539872 0.000000
0.000000 0.539872 0.000000
0.000000 0.538178 0.000000
0.018922 0.534065 0.000000
0.109564 0.529644 0.000000
0.205270 0.524976 0.000000
0.304773 0.520123 0.000000
0.406808 0.515146 0.000000
0.510108 0.510108 0.000000
0.613408 0.505070 0.000000
0.715443 0.500093 0.000000
0.814946 0.495240 0.000000
0.910652 0.490572 0.000000
1.000000 0.486151 0.000000
1.000000 0.482038 0.000000
1.000000 0.480344 0.000000
1.000000 0.480344 0.000000
0.000000 0.631261 0.000000
0.000000 0.631261 0.000000
0.000000 0.629567 0.000000
0.001972 0.625455 0.000000
0.092615 0.621033 0.000000
0.188320 0.616365 0.000000
0.287824 0.611512 0.000000
0.389858 0.606536 0.000000
0.493158 0.601497 0.000000
0.596459 0.596459 0.000000
0.698493 0.591482 0.000000
0.797996 0.586629 0.000000
0.893702 0.581961 0.000000
0.984345 0.577540 0.000000
1.000000 0.573427 0.000000
1.000000 0.571733 0.000000
1.000000 0.571733 0.000000
0.000000 0.721530 0.000000
0.000000 0.721530 0.000000
0.000000 0.719836 0.000000
0.000000 0.715724 0.000000
0.075873 0.711303 0.000000
0.171579 0.706635 0.000000
0.271082 0.701782 0.000000
0.373116 0.696805 0.000000
0.476416 0.691766 0.000000
0.579717 0.686728 0.000000
0.681751 0.681751 0.000000
0.781254 0.676898 0.000000
0.876960 0.672230 0.000000
0.967603 0.667809 0.000000
1.000000 0.663697 0.000000
1.000000 0.662002 0.000000
1.000000 0.662002 0.000000
0.000000 0.809560 0.000000
0.000000 0.809560 0.000000
0.000000 0.807866 0.000000
0.000000 0.803754 0.000000
0.059546 0.799333 0.000000
0.155252 0.794665 0.000000
0.254755 0.789811 0.000000
0.356790 0.784835 0.000000
0.460090 0.779796 0.000000
0.563390 0.774758 0.000000
0.665425 0.769781 0.000000
0.764928 0.764928 0.000000
0.860634 0.760260 0.000000
0.951276 0.755839 0.000000
1.000000 0.751726 0.000000
1.000000 0.750032 0.000000
1.000000 0.750032 0.000000
0.000000 0.894230 0.000000
0.000000 0.894230 0.000000
0.000000 0.892536 0.000000
0.000000 0.888424 0.000000
0.043843 0.884003 0.000000
0.139549 0.879335 0.000000
0.239052 0.874482 0.000000
0.341086 0.869505 0.000000
0.444386 0.864466 0.000000
0.547687 0.859428 0.000000
0.649721 0.854451 0.000000
0.749224 0.849598 0.000000
0.844930 0.844930 0.000000
0.935573 0.840509 0.000000
1.000000 0.836397 0.000000
1.000000 0.834702 0.000000
1.000000 0.834702 0.000000
0.000000 0.974422 0.000000
0.000000 0.974422 0.000000
0.000000 0.972727 0.000000
0.000000 0.968615 0.000000
0.028970 0.964194 0.000000
0.124676 0.959526 0.000000
0.224179 0.954673 0.000000
0.326213 0.949696 0.000000
0.429514 0.944658 0.000000
0.532814 0.939619 0.000000
0.634849 0.934642 0.000000
0.734352 0.929789 0.000000
0.830057 0.925121 0.000000
0.920700 0.920700 0.000000
1.000000 0.916588 0.000000
1.000000 0.914894 0.000000
1.000000 0.914894 0.000000
0.000000 1.000000 0.000000
0.000000 1.000000 0.000000
0.000000 1.000000 0.000000
0.000000 1.000000 0.000000
0.015136 1.000000 0.000000
0.110842 1.000000 0.000000
0.210345 1.000000 0.000000
0.312379 1.000000 0.000000
0.415679 1.000000 0.000000
0.518980 1.000000 0.000000
0.621014 1.000000 0.000000
0.720517 1.000000 0.000000
0.816223 0.999713 0.000000
0.906866 0.995292 0.000000
0.991180 0.991180 0.000000
1.000000 0.989485 0.000000
1.000000 0.989485 0.000000
0.000000 1.000000 0.000000
0.000000 1.000000 0.000000
0.000000 1.000000 0.000000
0.000000 1.000000 0.000000
0.009436 1.000000 0.000000
0.105142 1.000000 0.000000
0.204645 1.000000 0.000000
0.306680 1.000000 0.000000
0.409980 1.000000 0.000000
0.513280 1.000000 0.000000
0.615315 1.000000 0.000000
0.714818 1.000000 0.000000
0.810524 1.000000 0.000000
0.901166 1.000000 0.000000
0.985480 1.000000 0.000000
1.000000 1.000000 0.000000
1.000000 1.000000 0.000000
0.000000 1.000000 0.000000
0.000000 1.000000 0.000000
0.000000 1.000000 0.000000
0.000000 1.000000 0.000000
0.009436 1.000000 0.000000
0.105142 1.000000 0.000000
0.204645 1.000000 0.000000
0.306680 1.000000 0.000000
0.409980 1.000000 0.000000
0.513280 1.000000 0.000000
0.615315 1.000000 0.000000
0.714818 1.000000 0.000000
0.810524 1.000000 0.000000
0.901166 1.000000 0.000000
0.985480 1.000000 0.000000
1.000000 1.000000 0.000000
1.000000 1.000000 0.000000
0.000000 0.000000 0.035855
0.000000 0.000000 0.035855
0.034160 0.000000 0.034160
0.118474 0.000000 0.030048
0.209117 0.000000 0.025627
0.304823 0.000000 0.020959
0.404326 0.000000 0.016106
0.506360 0.000000 0.011129
0.609661 0.000000 0.006091
0.712961 0.000000 0.001052
0.814996 0.000000 0.000000
0.914499 0.000000 0.000000
1.000000 0.000000 0.000000
1.000000 0.000000 0.000000
1.000000 0.000000 0.000000
1.000000 0.000000 0.000000
1.000000 0.000000 0.000000
0.000000 0.000000 0.035855
0.000000 0.000000 0.035855
0.034160 0.000000 0.034160
0.118474 0.000000 0.030048
0.209117 0.000000 0.025627
0.304823 0.000000 0.020959
0.404326 0.000000 0.016106
0.506360 0.000000 0.011129
0.609661 0.000000 0.006091
0.712961 0.000000 0.001052
0.814996 0.000000 0.000000
0.914499 0.000000 0.000000
1.000000 0.000000 0.000000
1.000000 0.000000 0.000000
1.000000 0.000000 0.000000
1.000000 0.000000 0.000000
1.000000 0.000000 0.000000
0.000000 0.030155 0.030155
0.000000 0.030155 0.030155
0.028461 0.028461 0.028461
0.112775 0.024349 0.024349
0.203418 0.019928 0.019928
0.299123 0.015259 0.015259
0.398626 0.010406 0.010406
0.500661 0.005430 0.005430
0.603961 0.000391 0.000391
0.707261 0.000000 0.000000
0.809296 0.000000 0.000000
0.908799 0.000000 0.000000
1.000000 0.000000 0.000000
1.000000 0.000000 0.000000
1.000000 0.000000 0.000000
1.000000 0.000000 0.000000
1.000000 0.000000 0.000000
0.000000 0.104747 0.016321
0.000000 0.104747 0.016321
0.014627 0.103053 0.014627
0.098941 0.098941 0.010514
0.189583 0.094519 0.006093
0.285289 0.089851 0.001425
0.384792 0.084998 0.000000
0.486827 0.080022 0.000000
0.590127 0.074983 0.000000
0.693427 0.069945 0.000000
0.795462 0.064968 0.000000
0.894965 0.060115 0.000000
0.990671 0.055447 0.000000
1.000000 0.051026 0.000000
1.000000 0.046913 0.000000
1.000000 0.045219 0.000000
1.000000 0.045219 0.000000
0.000000 0.184938 0.001448
0.000000 0.184938 0.001448
0.000000 0.183244 0.000000
0.084068 0.179132 0.000000
0.174710 0.174710 0.000000
0.270416 0.170042 0.000000
0.369919 0.165189 0.000000
0.471954 0.160213 0.000000
0.575254 0.155174 0.000000
0.678554 0.150136 0.000000
0.780589 0.145159 0.000000
0.880092 0.140306 0.000000
0.975798 0.135638 0.000000
1.000000 0.131217 0.000000
1.000000 0.127104 0.000000
1.000000 0.125410 0.000000
1.000000 0.125410 0.000000
0.000000 0.269608 0.000000
0.000000 0.269608 0.000000
0.000000 0.267914 0.000000
0.068364 0.263802 0.000000
0.159007 0.259381 0.000000
0.254713 0.254713 0.000000
0.354216 0.249860 0.000000
0.456250 0.244883 0.000000
0.559551 0.239844 0.000000
0.662851 0.234806 0.000000
0.764886 0.229829 0.000000
0.864389 0.224976 0.000000
0.960094 0.220308 0.000000
1.000000 0.215887 0.000000
1.000000 0.211775 0.000000
1.000000 0.210080 0.000000
1.000000 0.210080 0.000000
0.000000 0.357638 0.000000
0.000000 0.357638 0.000000
0.000000 0.355944 0.000000
0.052038 0.351832 0.000000
0.142680 0.347410 0.000000
0.238386 0.342742 0.000000
0.337889 0.337889 0.000000
0.439924 0.332913 0.000000
0.543224 0.327874 0.000000
0.646524 0.322836 0.000000
0.748559 0.317859 0.000000
0.848062 0.313006 0.000000
0.943768 0.308338 0.000000
1.000000 0.303917 0.000000
1.000000 0.299804 0.000000
1.000000 0.298110 0.000000
1.000000 0.298110 0.000000
0.000000 0.447907 0.000000
0.000000 0.447907 0.000000
0.000000 0.446213 0.000000
0.035296 0.442101 0.000000
0.125939 0.437680 0.000000
0.221644 0.433012 0.000000
0.321147 0.428159 0.000000
0.423182 0.423182 0.000000
0.526482 0.418143 0.000000
0.629783 0.413105 0.000000
0.731817 0.408128 0.000000
0.831320 0.403275 0.000000
0.927026 0.398607 0.000000
1.000000 0.394186 0.000000
1.000000 0.390074 0.000000
1.000000 0.388379 0.000000
1.000000 0.388379 0.000000
0.000000 0.539297 0.000000
0.000000 0.539297 0.000000
0.000000 0.537602 0.000000
0.018346 0.533490 0.000000
0.108989 0.529069 0.000000
0.204695 0.524401 0.000000
0.304198 0.519548 0.000000
0.406232 0.514571 0.000000
0.509533 0.509533 0.000000
0.612833 0.504494 0.000000
0.714868 0.499518 0.000000
0.814371 0.494664 0.000000
0.910076 0.489996 0.000000
1.000000 0.485575 0.000000
1.000000 0.481463 0.000000
1.000000 0.479769 0.000000
1.000000 0.479769 0.000000
0.000000 0.630686 0.000000
0.000000 0.630686 0.000000
0.000000 0.628992 0.000000
0.001397 0.624879 0.000000
0.092039 0.620458 0.000000
0.187745 0.615790 0.000000
0.287248 0.610937 0.000000
0.389283 0.605960 0.000000
0.492583 0.600922 0.000000
0.595883 0.595883 0.000000
0.697918 0.590907 0.000000
0.797421 0.586053 0.000000
0.893127 0.581385 0.000000
0.983769 0.576964 0.000000
1.000000 0.572852 0.000000
1.000000 0.571158 0.000000
1.000000 0.571158 0.000000
0.000000 0.720955 0.000000
0.000000 0.720955 0.000000
0.000000 0.719261 0.000000
0.000000 0.715149 0.000000
0.075297 0.710727 0.000000
0.171003 0.706059 0.000000
0.270506 0.701206 0.000000
0.372541 0.696230 0.000000
0.475841 0.691191 0.000000
0.579141 0.686153 0.000000
0.681176 0.681176 0.000000
0.780679 0.676323 0.000000
0.876385 0.671655 0.000000
0.967027 0.667234 0.000000
1.000000 0.663121 0.000000
1.000000 0.661427 0.000000
1.000000 0.661427 0.000000
0.000000 0.808985 0.000000
0.000000 0.808985 0.000000
0.000000 0.807291 0.000000
0.000000 0.803178 0.000000
0.058971 0.798757 0.000000
0.154677 0.794089 0.000000
0.254180 0.789236 0.000000
0.356214 0.784259 0.000000
0.459515 0.779221 0.000000
0.562815 0.774182 0.000000
0.664849 0.769206 0.000000
0.764353 0.764353 0.000000
0.860058 0.759684 0.000000
0.950701 0.755263 0.000000
1.000000 0.751151 0.000000
1.000000 0.749457 0.000000
1.000000 0.749457 0.000000
0.000000 0.893655 0.000000
0.000000 0.893655 0.000000
0.000000 0.891961 0.000000
0.000000 0.887849 0.000000
0.043267 0.883427 0.000000
0.138973 0.878759 0.000000
0.238476 0.873906 0.000000
0.340511 0.868930 0.000000
0.443811 0.863891 0.000000
0.547111 0.858853 0.000000
0.649146 0.853876 0.000000
0.748649 0.849023 0.000000
0.844355 0.844355 0.000000
0.934997 0.839934 0.000000
1.000000 0.835821 0.000000
1.000000 0.834127 0.000000
1.000000 0.834127 0.000000
0.000000 0.973846 0.000000
0.000000 0.973846 0.000000
0.000000 0.972152 0.000000
0.000000 0.968040 0.000000
0.028395 0.963618 0.000000
0.124100 0.958950 0.000000
0.223604 0.954097 0.000000
0.325638 0.949121 0.000000
0.428938 0.944082 0.000000
0.532239 0.939044 0.000000
0.634273 0.934067 0.000000
0.733776 0.929214 0.000000
0.829482 0.924546 0.000000
0.920125 0.920125 0.000000
1.000000 0.916012 0.000000
1.000000 0.914318 0.000000
1.000000 0.914318 0.000000
0.000000 1.000000 0.000000
0.000000 1.000000 0.000000
0.000000 1.000000 0.000000
0.000000 1.000000 0.000000
0.014560 1.000000 0.000000
0.110266 1.000000 0.000000
0.209769 1.000000 0.000000
0.311804 1.000000 0.000000
0.415104 1.000000 0.000000
0.518404 1.000000 0.000000
0.620439 1.000000 0.000000
0.719942 1.000000 0.000000
0.815648 0.999138 0.000000
0.906290 0.994717 0.000000
0.990604 0.990604 0.000000
1.000000 0.988910 0.000000
1.000000 0.988910 0.000000
0.000000 1.000000 0.000000
0.000000 1.000000 0.000000
0.000000 1.000000 0.000000
0.000000 1.000000 0.000000
0.008861 1.000000 0.000000
0.104567 1.000000 0.000000
0.204070 1.000000 0.000000
0.306104 1.000000 0.000000
0.409405 1.000000 0.000000
0.512705 1.000000 0.000000
0.614740 1.000000 0.000000
0.714243 1.000000 0.000000
0.809948 1.000000 0.000000
0.900591 1.000000 0.000000
0.984905 1.000000 0.000000
1.000000 1.000000 0.000000
1.000000 1.000000 0.000000
0.000000 1.000000 0.000000
0.000000 1.000000 0.000000
0.000000 1.000000 0.000000
0.000000 1.000000 0.000000
0.008861 1.000000 0.000000
0.104567 1.000000 0.000000
0.204070 1.000000 0.000000
0.306104 1.000000 0.000000
0.409405 1.000000 0.000000
0.512705 1.000000 0.000000
0.614740 1.000000 0.000000
0.714243 1.000000 0.000000
0.809948 1.000000 0.000000
0.900591 1.000000 0.000000
0.984905 1.000000 0.000000
1.000000 1.000000 0.000000
1.000000 1.000000 0.000000
0.000000 0.000000 0.122884
0.000000 0.000000 0.122884
0.032764 0.000000 0.121190
0.117078 0.000000 0.117078
0.207720 0.000000 0.112657
0.303426 0.000000 0.107989
0.402929 0.000000 0.103135
0.504964 0.000000 0.098159
0.608264 0.000000 0.093120
0.711564 0.000000 0.088082
0.813599 0.000000 0.083105
0.913102 0.000000 0.078252
1.000000 0.000000 0.073584
1.000000 0.000000 0.069163
1.000000 0.000000 0.065051
