assets/luts/punch.cube
# Punch — Studio filter "punch"
# Generated by scripts/generate-filter-luts.mjs — do not edit by hand.
LUT_3D_SIZE 5
DOMAIN_MIN 0.0 0.0 0.0
DOMAIN_MAX 1.0 1.0 1.0
0.000000 0.000000 0.000000
0.209692 0.000000 0.000000
0.610236 0.000000 0.000000
1.000000 0.000000 0.000000
1.000000 0.000000 0.000000
0.000000 0.185514 0.000000
0.175286 0.175286 0.000000
0.575830 0.155750 0.000000
0.976373 0.136213 0.000000
1.000000 0.125986 0.000000
0.000000 0.539872 0.000000
0.109564 0.529644 0.000000
0.510108 0.510108 0.000000
0.910652 0.490572 0.000000
1.000000 0.480344 0.000000
0.000000 0.894230 0.000000
0.043843 0.884003 0.000000
0.444386 0.864466 0.000000
0.844930 0.844930 0.000000
1.000000 0.834702 0.000000
0.000000 1.000000 0.000000
0.009436 1.000000 0.000000
0.409980 1.000000 0.000000
0.810524 1.000000 0.000000
1.000000 1.000000 0.000000
0.000000 0.000000 0.216447
0.206219 0.000000 0.206219
0.606763 0.000000 0.186683
1.000000 0.000000 0.167146
1.000000 0.000000 0.156919
0.000000 0.182040 0.182040
0.171812 0.171812 0.171812
0.572356 0.152276 0.152276
0.972900 0.132740 0.132740
1.000000 0.122512 0.122512
0.000000 0.536399 0.116319
0.106091 0.526171 0.106091
0.506635 0.506635 0.086555
0.907178 0.487098 0.067018
1.000000 0.476871 0.056791
0.000000 0.890757 0.050597
0.040369 0.880529 0.040369
0.440913 0.860993 0.020833
0.841457 0.841457 0.001297
1.000000 0.831229 0.000000
0.000000 1.000000 0.016191
0.005963 1.000000 0.005963
0.406507 1.000000 0.000000
0.807050 1.000000 0.000000
1.000000 1.000000 0.000000
0.000000 0.000000 0.629892
0.199584 0.000000 0.619664
0.600128 0.000000 0.600128
1.000000 0.000000 0.580592
1.000000 0.000000 0.570364
0.000000 0.175406 0.595486
0.165178 0.165178 0.585258
0.565722 0.145642 0.565722
0.966265 0.126105 0.546185
1.000000 0.115878 0.535958
0.000000 0.529764 0.529764
0.099456 0.519536 0.519536
0.500000 0.500000 0.500000
0.900544 0.480464 0.480464
1.000000 0.470236 0.470236
0.000000 0.884122 0.464042
0.033735 0.873895 0.453815
0.434278 0.854358 0.434278
0.834822 0.834822 0.414742
1.000000 0.824594 0.404514
0.000000 1.000000 0.429636
0.000000 1.000000 0.419408
0.399872 1.000000 0.399872
0.800416 1.000000 0.380336
1.000000 1.000000 0.370108
0.000000 0.000000 1.000000
0.192950 0.000000 1.000000
0.593493 0.000000 1.000000
0.994037 0.000000 0.994037
1.000000 0.000000 0.983809
0.000000 0.168771 1.000000
0.158543 0.158543 0.998703
0.559087 0.139007 0.979167
0.959631 0.119471 0.959631
1.000000 0.109243 0.949403
0.000000 0.523129 0.943209
0.092822 0.512902 0.932982
0.493365 0.493365 0.913445
0.893909 0.473829 0.893909
1.000000 0.463601 0.883681
0.000000 0.877488 0.877488
0.027100 0.867260 0.867260
0.427644 0.847724 0.847724
0.828187 0.828187 0.828187
1.000000 0.817960 0.817960
0.000000 1.000000 0.843081
0.000000 1.000000 0.832854
0.393237 1.000000 0.813317
0.793781 1.000000 0.793781
1.000000 1.000000 0.783553
0.000000 0.000000 1.000000
0.189476 0.000000 1.000000
0.590020 0.000000 1.000000
0.990564 0.000000 1.000000
1.000000 0.000000 1.000000
0.000000 0.165298 1.000000
0.155070 0.155070 1.000000
0.555614 0.135534 1.000000
0.956157 0.115997 1.000000
1.000000 0.105770 1.000000
0.000000 0.519656 1.000000
0.089348 0.509428 1.000000
0.489892 0.489892 1.000000
0.890436 0.470356 1.000000
1.000000 0.460128 1.000000
0.000000 0.874014 1.000000
0.023627 0.863787 1.000000
0.424170 0.844250 1.000000
0.824714 0.824714 1.000000
1.000000 0.814486 1.000000
0.000000 1.000000 1.000000
0.000000 1.000000 1.000000
0.389764 1.000000 1.000000
0.790308 1.000000 1.000000
1.000000 1.000000 1.000000
