assets/luts/selenium.cube
# Selenium — Studio filter "selenium"
# Generated by scripts/generate-filter-luts.mjs — do not edit by hand.
LUT_3D_SIZE 9
DOMAIN_MIN 0.0 0.0 0.0
DOMAIN_MAX 1.0 1.0 1.0
0.000000 0.000000 0.000000
0.018931 0.021702 0.026781
0.040314 0.046214 0.057030
0.063332 0.072600 0.089591
0.087166 0.099922 0.123308
0.111000 0.127244 0.157025
0.134018 0.153630 0.189586
0.155401 0.178142 0.219835
0.174332 0.199844 0.246616
0.063686 0.073006 0.090093
0.082618 0.094708 0.116874
0.104001 0.119220 0.147123
0.127018 0.145606 0.179684
0.150852 0.172928 0.213401
0.174687 0.200251 0.247118
0.197704 0.226636 0.279679
0.219087 0.251148 0.309928
0.238018 0.272850 0.336709
0.135620 0.155467 0.191852
0.154551 0.177168 0.218633
0.175934 0.201681 0.248882
0.198951 0.228066 0.281443
0.222786 0.255389 0.315160
0.246620 0.282711 0.348877
0.269638 0.309097 0.381438
0.291020 0.333609 0.411687
0.309952 0.355311 0.438468
0.213051 0.244230 0.301390
0.231983 0.265931 0.328171
0.253366 0.290444 0.358420
0.276383 0.316829 0.390981
0.300217 0.344152 0.424698
0.324052 0.371474 0.458415
0.347069 0.397860 0.490976
0.368452 0.422372 0.521225
0.387383 0.444074 0.548006
0.293232 0.336144 0.414816
0.312163 0.357846 0.441597
0.333546 0.382358 0.471846
0.356564 0.408744 0.504407
0.380398 0.436066 0.538124
0.404232 0.463388 0.571841
0.427250 0.489774 0.604402
0.448633 0.514286 0.634651
0.467564 0.535988 0.661432
0.373413 0.428058 0.528242
0.392344 0.449760 0.555023
0.413727 0.474272 0.585272
0.436744 0.500658 0.617833
0.460579 0.527980 0.651550
0.484413 0.555303 0.685267
0.507430 0.581688 0.717828
0.528813 0.606201 0.748077
0.547745 0.627902 0.774858
0.450844 0.516821 0.637780
0.469776 0.538523 0.664561
0.491158 0.563035 0.694810
0.514176 0.589421 0.727371
0.538010 0.616743 0.761088
0.561845 0.644066 0.794805
0.584862 0.670451 0.827366
0.606245 0.694964 0.857615
0.625176 0.716665 0.884396
0.522778 0.599282 0.739539
0.541709 0.620984 0.766320
0.563092 0.645496 0.796569
0.586109 0.671881 0.829130
0.609944 0.699204 0.862847
0.633778 0.726526 0.896564
0.656795 0.752912 0.929125
0.678178 0.777424 0.959374
0.697110 0.799126 0.986155
0.586464 0.672288 0.829632
0.605395 0.693990 0.856413
0.626778 0.718502 0.886662
0.649796 0.744888 0.919223
0.673630 0.772210 0.952940
0.697464 0.799532 0.986657
0.720482 0.825918 1.000000
0.741865 0.850430 1.000000
0.760796 0.872132 1.000000
0.006429 0.007370 0.009095
0.025361 0.029072 0.035876
0.046743 0.053584 0.066125
0.069761 0.079970 0.098686
0.093595 0.107292 0.132403
0.117430 0.134614 0.166120
0.140447 0.161000 0.198681
0.161830 0.185512 0.228930
0.180761 0.207214 0.255711
0.070116 0.080376 0.099188
0.089047 0.102078 0.125969
0.110430 0.126590 0.156218
0.133447 0.152976 0.188779
0.157282 0.180298 0.222496
0.181116 0.207621 0.256213
0.204133 0.234006 0.288774
0.225516 0.258519 0.319023
0.244448 0.280220 0.345804
0.142049 0.162837 0.200947
0.160980 0.184538 0.227728
0.182363 0.209051 0.257977
0.205381 0.235436 0.290538
0.229215 0.262759 0.324255
0.253049 0.290081 0.357972
0.276067 0.316467 0.390533
0.297450 0.340979 0.420782
0.316381 0.362681 0.447563
0.219481 0.251600 0.310485
0.238412 0.273301 0.337266
0.259795 0.297814 0.367515
0.282812 0.324199 0.400076
0.306647 0.351522 0.433793
0.330481 0.378844 0.467510
0.353498 0.405230 0.500071
0.374881 0.429742 0.530320
0.393813 0.451444 0.557101
0.299661 0.343514 0.423911
0.318593 0.365216 0.450692
0.339975 0.389728 0.480941
0.362993 0.416114 0.513502
0.386827 0.443436 0.547219
0.410662 0.470758 0.580936
0.433679 0.497144 0.613497
0.455062 0.521656 0.643746
0.473993 0.543358 0.670527
0.379842 0.435428 0.537337
0.398773 0.457130 0.564118
0.420156 0.481642 0.594367
0.443173 0.508028 0.626928
0.467008 0.535350 0.660645
0.490842 0.562673 0.694362
0.513860 0.589058 0.726923
0.535242 0.613571 0.757172
0.554174 0.635272 0.783953
0.457273 0.524191 0.646875
0.476205 0.545893 0.673655
0.497588 0.570405 0.703904
0.520605 0.596791 0.736466
0.544439 0.624113 0.770183
0.568274 0.651436 0.803900
0.591291 0.677822 0.836461
0.612674 0.702334 0.866710
0.631605 0.724035 0.893491
0.529207 0.606652 0.748634
0.548138 0.628354 0.775415
0.569521 0.652866 0.805664
0.592538 0.679251 0.838225
0.616373 0.706574 0.871942
0.640207 0.733896 0.905659
0.663225 0.760282 0.938220
0.684607 0.784794 0.968469
0.703539 0.806496 0.995250
0.592893 0.679658 0.838727
0.611825 0.701360 0.865508
0.633207 0.725872 0.895757
0.656225 0.752258 0.928318
0.680059 0.779580 0.962035
0.703894 0.806902 0.995752
0.726911 0.833288 1.000000
0.748294 0.857800 1.000000
0.767225 0.879502 1.000000
0.013691 0.015694 0.019368
0.032622 0.037396 0.046149
0.054005 0.061908 0.076398
0.077022 0.088294 0.108959
0.100857 0.115616 0.142676
0.124691 0.142939 0.176393
0.147709 0.169325 0.208954
0.169092 0.193837 0.239203
0.188023 0.215538 0.265984
0.077377 0.088701 0.109460
0.096309 0.110403 0.136241
0.117692 0.134915 0.166490
0.140709 0.161300 0.199051
0.164543 0.188623 0.232768
0.188378 0.215945 0.266486
0.211395 0.242331 0.299047
0.232778 0.266843 0.329296
0.251709 0.288545 0.356077
0.149311 0.171161 0.211220
0.168242 0.192863 0.238001
0.189625 0.217375 0.268250
0.212642 0.243761 0.300811
0.236477 0.271083 0.334528
0.260311 0.298405 0.368245
0.283328 0.324791 0.400806
0.304711 0.349303 0.431055
0.323643 0.371005 0.457836
0.226742 0.259924 0.320757
0.245674 0.281626 0.347538
0.267057 0.306138 0.377787
0.290074 0.332524 0.410348
0.313908 0.359846 0.444065
0.337743 0.387169 0.477782
0.360760 0.413554 0.510343
0.382143 0.438066 0.540592
0.401074 0.459768 0.567373
0.306923 0.351838 0.434184
0.325854 0.373540 0.460965
0.347237 0.398052 0.491214
0.370254 0.424438 0.523775
0.394089 0.451760 0.557492
0.417923 0.479083 0.591209
0.440941 0.505469 0.623770
0.462324 0.529981 0.654019
0.481255 0.551682 0.680800
0.387104 0.443753 0.547610
0.406035 0.465455 0.574391
0.427418 0.489967 0.604640
0.450435 0.516352 0.637201
0.474270 0.543675 0.670918
0.498104 0.570997 0.704635
0.521121 0.597383 0.737196
0.542504 0.621895 0.767445
0.561436 0.643597 0.794226
0.464535 0.532516 0.657147
0.483466 0.554218 0.683928
0.504849 0.578730 0.714177
0.527867 0.605115 0.746738
0.551701 0.632438 0.780455
0.575536 0.659760 0.814172
0.598553 0.686146 0.846733
0.619936 0.710658 0.876982
0.638867 0.732360 0.903763
0.536469 0.614976 0.758907
0.555400 0.636678 0.785688
0.576783 0.661190 0.815937
0.599800 0.687576 0.848498
0.623635 0.714898 0.882215
0.647469 0.742221 0.915932
0.670486 0.768606 0.948493
0.691869 0.793118 0.978742
0.710801 0.814820 1.000000
0.600155 0.687982 0.849000
0.619086 0.709684 0.875781
0.640469 0.734196 0.906030
0.663486 0.760582 0.938591
0.687321 0.787904 0.972308
0.711155 0.815227 1.000000
0.734173 0.841613 1.000000
0.755556 0.866125 1.000000
0.774487 0.887826 1.000000
0.021508 0.024655 0.030426
0.040439 0.046357 0.057206
0.061822 0.070869 0.087455
0.084839 0.097255 0.120017
0.108674 0.124577 0.153734
0.132508 0.151900 0.187451
0.155525 0.178285 0.220012
0.176908 0.202797 0.250261
0.195840 0.224499 0.277042
0.085194 0.097661 0.120518
0.104125 0.119363 0.147299
0.125508 0.143875 0.177548
0.148526 0.170261 0.210109
0.172360 0.197583 0.243826
0.196194 0.224906 0.277543
0.219212 0.251292 0.310104
0.240595 0.275804 0.340353
0.259526 0.297505 0.367134
0.157128 0.180122 0.222278
0.176059 0.201824 0.249059
0.197442 0.226336 0.279308
0.220459 0.252721 0.311869
0.244294 0.280044 0.345586
0.268128 0.307366 0.379303
0.291145 0.333752 0.411864
0.312528 0.358264 0.442113
0.331460 0.379966 0.468894
0.234559 0.268885 0.331815
0.253490 0.290587 0.358596
0.274873 0.315099 0.388845
0.297891 0.341484 0.421406
0.321725 0.368807 0.455123
0.345560 0.396129 0.488840
0.368577 0.422515 0.521401
0.389960 0.447027 0.551650
0.408891 0.468729 0.578431
0.314740 0.360799 0.445242
0.333671 0.382501 0.472022
0.355054 0.407013 0.502271
0.378071 0.433399 0.534832
0.401906 0.460721 0.568550
0.425740 0.488044 0.602267
0.448757 0.514429 0.634828
0.470140 0.538941 0.665077
0.489072 0.560643 0.691858
0.394920 0.452714 0.558668
0.413852 0.474415 0.585449
0.435235 0.498927 0.615698
0.458252 0.525313 0.648259
0.482086 0.552636 0.681976
0.505921 0.579958 0.715693
0.528938 0.606344 0.748254
0.550321 0.630856 0.778503
0.569252 0.652558 0.805284
0.472352 0.541477 0.668205
0.491283 0.563178 0.694986
0.512666 0.587690 0.725235
0.535683 0.614076 0.757796
0.559518 0.641399 0.791513
0.583352 0.668721 0.825230
0.606370 0.695107 0.857791
0.627753 0.719619 0.888040
0.646684 0.741321 0.914821
0.544285 0.623937 0.769965
0.563217 0.645639 0.796746
0.584600 0.670151 0.826995
0.607617 0.696536 0.859556
0.631451 0.723859 0.893273
0.655286 0.751181 0.926990
0.678303 0.777567 0.959551
0.699686 0.802079 0.989800
0.718617 0.823781 1.000000
0.607972 0.696943 0.860058
0.626903 0.718645 0.886838
0.648286 0.743157 0.917087
0.671303 0.769543 0.949648
0.695138 0.796865 0.983366
0.718972 0.824188 1.000000
0.741989 0.850573 1.000000
0.763372 0.875085 1.000000
0.782304 0.896787 1.000000
0.029602 0.033934 0.041876
0.048533 0.055636 0.068657
0.069916 0.080148 0.098906
0.092934 0.106534 0.131467
0.116768 0.133856 0.165184
0.140602 0.161178 0.198901
0.163620 0.187564 0.231462
0.185003 0.212076 0.261711
0.203934 0.233778 0.288492
0.093288 0.106940 0.131969
0.112220 0.128642 0.158750
0.133603 0.153154 0.188999
0.156620 0.179540 0.221560
0.180454 0.206862 0.255277
0.204289 0.234185 0.288994
0.227306 0.260570 0.321555
0.248689 0.285082 0.351804
0.267620 0.306784 0.378585
0.165222 0.189401 0.233728
0.184153 0.211102 0.260509
0.205536 0.235615 0.290758
0.228553 0.262000 0.323319
0.252388 0.289323 0.357036
0.276222 0.316645 0.390753
0.299240 0.343031 0.423314
0.320622 0.367543 0.453563
0.339554 0.389245 0.480344
0.242653 0.278164 0.343266
0.261585 0.299865 0.370047
0.282968 0.324378 0.400296
0.305985 0.350763 0.432857
0.329819 0.378086 0.466574
0.353654 0.405408 0.500291
0.376671 0.431794 0.532852
0.398054 0.456306 0.563101
0.416985 0.478008 0.589882
0.322834 0.370078 0.456692
0.341765 0.391780 0.483473
0.363148 0.416292 0.513722
0.386166 0.442678 0.546283
0.410000 0.470000 0.580000
0.433834 0.497322 0.613717
0.456852 0.523708 0.646278
0.478235 0.548220 0.676527
0.497166 0.569922 0.703308
0.403015 0.461992 0.570118
0.421946 0.483694 0.596899
0.443329 0.508206 0.627148
0.466346 0.534592 0.659709
0.490181 0.561914 0.693426
0.514015 0.589237 0.727143
0.537032 0.615622 0.759704
0.558415 0.640135 0.789953
0.577347 0.661836 0.816734
0.480446 0.550755 0.679656
0.499378 0.572457 0.706437
0.520760 0.596969 0.736686
0.543778 0.623355 0.769247
0.567612 0.650677 0.802964
0.591447 0.678000 0.836681
0.614464 0.704385 0.869242
0.635847 0.728898 0.899491
0.654778 0.750599 0.926272
0.552380 0.633216 0.781415
0.571311 0.654918 0.808196
0.592694 0.679430 0.838445
0.615711 0.705815 0.871006
0.639546 0.733138 0.904723
0.663380 0.760460 0.938440
0.686397 0.786846 0.971001
0.707780 0.811358 1.000000
0.726712 0.833060 1.000000
0.616066 0.706222 0.871508
0.634997 0.727924 0.898289
0.656380 0.752436 0.928538
0.679398 0.778822 0.961099
0.703232 0.806144 0.994816
0.727066 0.833466 1.000000
0.750084 0.859852 1.000000
0.771467 0.884364 1.000000
0.790398 0.906066 1.000000
0.037696 0.043213 0.053326
0.056628 0.064915 0.080107
0.078011 0.089427 0.110356
0.101028 0.115812 0.142917
0.124862 0.143135 0.176634
0.148697 0.170457 0.210352
0.171714 0.196843 0.242913
0.193097 0.221355 0.273162
0.212028 0.243057 0.299942
0.101383 0.116219 0.143419
0.120314 0.137921 0.170200
0.141697 0.162433 0.200449
0.164714 0.188819 0.233010
0.188549 0.216141 0.266727
0.212383 0.243464 0.300444
0.235400 0.269849 0.333005
0.256783 0.294361 0.363254
0.275715 0.316063 0.390035
0.173316 0.198679 0.245179
0.192247 0.220381 0.271960
0.213630 0.244893 0.302209
0.236648 0.271279 0.334770
0.260482 0.298601 0.368487
0.284317 0.325924 0.402204
0.307334 0.352310 0.434765
0.328717 0.376822 0.465014
0.347648 0.398523 0.491795
0.250748 0.287442 0.354716
0.269679 0.309144 0.381497
0.291062 0.333656 0.411746
0.314079 0.360042 0.444307
0.337914 0.387364 0.478024
0.361748 0.414687 0.511741
0.384765 0.441073 0.544302
0.406148 0.465585 0.574551
0.425080 0.487286 0.601332
0.330928 0.379357 0.468142
0.349860 0.401059 0.494923
0.371243 0.425571 0.525172
0.394260 0.451956 0.557733
0.418094 0.479279 0.591450
0.441929 0.506601 0.625167
0.464946 0.532987 0.657729
0.486329 0.557499 0.687978
0.505260 0.579201 0.714758
0.411109 0.471271 0.581569
0.430040 0.492973 0.608350
0.451423 0.517485 0.638599
0.474440 0.543871 0.671160
0.498275 0.571193 0.704877
0.522109 0.598516 0.738594
0.545127 0.624901 0.771155
0.566510 0.649413 0.801404
0.585441 0.671115 0.828185
0.488540 0.560034 0.691106
0.507472 0.581736 0.717887
0.528855 0.606248 0.748136
0.551872 0.632634 0.780697
0.575706 0.659956 0.814414
0.599541 0.687279 0.848131
0.622558 0.713664 0.880692
0.643941 0.738176 0.910941
0.662872 0.759878 0.937722
0.560474 0.642495 0.792866
0.579405 0.664196 0.819647
0.600788 0.688708 0.849896
0.623806 0.715094 0.882457
0.647640 0.742417 0.916174
0.671474 0.769739 0.949891
0.694492 0.796125 0.982452
0.715875 0.820637 1.000000
0.734806 0.842339 1.000000
0.624160 0.715501 0.882958
0.643092 0.737203 0.909739
0.664475 0.761715 0.939988
0.687492 0.788100 0.972549
0.711326 0.815423 1.000000
0.735161 0.842745 1.000000
0.758178 0.869131 1.000000
0.779561 0.893643 1.000000
0.798492 0.915345 1.000000
0.045513 0.052174 0.064384
0.064444 0.073875 0.091165
0.085827 0.098387 0.121414
0.108845 0.124773 0.153975
0.132679 0.152096 0.187692
0.156514 0.179418 0.221409
0.179531 0.205804 0.253970
0.200914 0.230316 0.284219
0.219845 0.252018 0.311000
0.109199 0.125180 0.154477
0.128131 0.146882 0.181258
0.149514 0.171394 0.211507
0.172531 0.197779 0.244068
0.196365 0.225102 0.277785
0.220200 0.252424 0.311502
0.243217 0.278810 0.344063
0.264600 0.303322 0.374312
0.283531 0.325024 0.401093
0.181133 0.207640 0.256237
0.200064 0.229342 0.283018
0.221447 0.253854 0.313267
0.244464 0.280240 0.345828
0.268299 0.307562 0.379545
0.292133 0.334885 0.413262
0.315151 0.361270 0.445823
0.336534 0.385782 0.476072
0.355465 0.407484 0.502853
0.258564 0.296403 0.365774
0.277496 0.318105 0.392555
0.298879 0.342617 0.422804
0.321896 0.369003 0.455365
0.345730 0.396325 0.489082
0.369565 0.423648 0.522799
0.392582 0.450033 0.555360
0.413965 0.474545 0.585609
0.432896 0.496247 0.612390
0.338745 0.388318 0.479200
0.357676 0.410019 0.505981
0.379059 0.434531 0.536230
0.402077 0.460917 0.568791
0.425911 0.488240 0.602508
0.449746 0.515562 0.636225
0.472763 0.541948 0.668786
0.494146 0.566460 0.699035
0.513077 0.588162 0.725816
0.418926 0.480232 0.592627
0.437857 0.501934 0.619408
0.459240 0.526446 0.649657
0.482257 0.552831 0.682218
0.506092 0.580154 0.715935
0.529926 0.607476 0.749652
0.552943 0.633862 0.782213
0.574326 0.658374 0.812462
0.593258 0.680076 0.839243
0.496357 0.568995 0.702164
0.515289 0.590697 0.728945
0.536672 0.615209 0.759194
0.559689 0.641595 0.791755
0.583523 0.668917 0.825472
0.607358 0.696239 0.859189
0.630375 0.722625 0.891750
0.651758 0.747137 0.921999
0.670689 0.768839 0.948780
0.568291 0.651455 0.803923
0.587222 0.673157 0.830704
0.608605 0.697669 0.860953
0.631622 0.724055 0.893514
0.655457 0.751377 0.927231
0.679291 0.778700 0.960949
0.702308 0.805085 0.993510
0.723691 0.829597 1.000000
0.742623 0.851299 1.000000
0.631977 0.724462 0.894016
0.650908 0.746163 0.920797
0.672291 0.770675 0.951046
0.695309 0.797061 0.983607
0.719143 0.824384 1.000000
0.742978 0.851706 1.000000
0.765995 0.878092 1.000000
0.787378 0.902604 1.000000
0.806309 0.924306 1.000000
0.052775 0.060498 0.074657
0.071706 0.082200 0.101438
0.093089 0.106712 0.131687
0.116106 0.133098 0.164248
0.139941 0.160420 0.197965
0.163775 0.187742 0.231682
0.186793 0.214128 0.264243
0.208175 0.238640 0.294492
0.227107 0.260342 0.321273
0.116461 0.133504 0.164750
0.135393 0.155206 0.191531
0.156775 0.179718 0.221780
0.179793 0.206104 0.254341
0.203627 0.233426 0.288058
0.227462 0.260749 0.321775
0.250479 0.287134 0.354336
0.271862 0.311646 0.384585
0.290793 0.333348 0.411366
0.188395 0.215965 0.266509
0.207326 0.237666 0.293290
0.228709 0.262178 0.323539
0.251726 0.288564 0.356100
0.275561 0.315887 0.389817
0.299395 0.343209 0.423534
0.322412 0.369595 0.456096
0.343795 0.394107 0.486345
0.362727 0.415809 0.513125
0.265826 0.304728 0.376047
0.284758 0.326429 0.402828
0.306140 0.350942 0.433077
0.329158 0.377327 0.465638
0.352992 0.404650 0.499355
0.376827 0.431972 0.533072
0.399844 0.458358 0.565633
0.421227 0.482870 0.595882
0.440158 0.504572 0.622663
0.346007 0.396642 0.489473
0.364938 0.418344 0.516254
0.386321 0.442856 0.546503
0.409338 0.469242 0.579064
0.433173 0.496564 0.612781
0.457007 0.523886 0.646498
0.480025 0.550272 0.679059
0.501407 0.574784 0.709308
0.520339 0.596486 0.736089
0.426187 0.488556 0.602899
0.445119 0.510258 0.629680
0.466502 0.534770 0.659929
0.489519 0.561156 0.692490
0.513353 0.588478 0.726207
0.537188 0.615801 0.759924
0.560205 0.642186 0.792485
0.581588 0.666699 0.822734
0.600519 0.688400 0.849515
0.503619 0.577319 0.712437
0.522550 0.599021 0.739218
0.543933 0.623533 0.769467
0.566951 0.649919 0.802028
0.590785 0.677241 0.835745
0.614619 0.704564 0.869462
0.637637 0.730949 0.902023
0.659020 0.755462 0.932272
0.677951 0.777163 0.959053
0.575552 0.659780 0.814196
0.594484 0.681481 0.840977
0.615867 0.705994 0.871226
0.638884 0.732379 0.903787
0.662718 0.759702 0.937504
0.686553 0.787024 0.971221
0.709570 0.813410 1.000000
0.730953 0.837922 1.000000
0.749884 0.859624 1.000000
0.639239 0.732786 0.904289
0.658170 0.754488 0.931070
0.679553 0.779000 0.961319
0.702570 0.805386 0.993880
0.726405 0.832708 1.000000
0.750239 0.860030 1.000000
0.773257 0.886416 1.000000
0.794639 0.910928 1.000000
0.813571 0.932630 1.000000
0.059204 0.067868 0.083752
0.078135 0.089570 0.110533
0.099518 0.114082 0.140782
0.122536 0.140468 0.173343
0.146370 0.167790 0.207060
0.170204 0.195112 0.240777
0.193222 0.221498 0.273338
0.214605 0.246010 0.303587
0.233536 0.267712 0.330368
0.122890 0.140874 0.173845
0.141822 0.162576 0.200626
0.163205 0.187088 0.230875
0.186222 0.213474 0.263436
0.210056 0.240796 0.297153
0.233891 0.268119 0.330870
0.256908 0.294504 0.363431
0.278291 0.319016 0.393680
0.297222 0.340718 0.420461
0.194824 0.223335 0.275604
0.213755 0.245036 0.302385
0.235138 0.269549 0.332634
0.258155 0.295934 0.365195
0.281990 0.323257 0.398912
0.305824 0.350579 0.432629
0.328842 0.376965 0.465190
0.350224 0.401477 0.495439
0.369156 0.423179 0.522220
0.272255 0.312098 0.385142
0.291187 0.333799 0.411923
0.312570 0.358312 0.442172
0.335587 0.384697 0.474733
0.359421 0.412020 0.508450
0.383256 0.439342 0.542167
0.406273 0.465728 0.574728
0.427656 0.490240 0.604977
0.446587 0.511942 0.631758
0.352436 0.404012 0.498568
0.371367 0.425714 0.525349
0.392750 0.450226 0.555598
0.415768 0.476612 0.588159
0.439602 0.503934 0.621876
0.463436 0.531256 0.655593
0.486454 0.557642 0.688154
0.507837 0.582154 0.718403
0.526768 0.603856 0.745184
0.432617 0.495926 0.611994
0.451548 0.517628 0.638775
0.472931 0.542140 0.669024
0.495948 0.568526 0.701585
0.519783 0.595848 0.735302
0.543617 0.623171 0.769019
0.566634 0.649556 0.801580
0.588017 0.674069 0.831829
0.606949 0.695770 0.858610
0.510048 0.584689 0.721532
0.528980 0.606391 0.748313
0.550362 0.630903 0.778562
0.573380 0.657289 0.811123
0.597214 0.684611 0.844840
0.621049 0.711934 0.878557
0.644066 0.738319 0.911118
0.665449 0.762832 0.941367
0.684380 0.784533 0.968148
0.581982 0.667150 0.823291
0.600913 0.688852 0.850072
0.622296 0.713364 0.880321
0.645313 0.739749 0.912882
0.669148 0.767072 0.946599
0.692982 0.794394 0.980316
0.715999 0.820780 1.000000
0.737382 0.845292 1.000000
0.756314 0.866994 1.000000
0.645668 0.740156 0.913384
0.664599 0.761858 0.940165
0.685982 0.786370 0.970414
0.709000 0.812756 1.000000
0.732834 0.840078 1.000000
0.756668 0.867400 1.000000
0.779686 0.893786 1.000000
0.801069 0.918298 1.000000
0.820000 0.940000 1.000000
