assets/luts/selenium.cube
# Selenium — Studio filter "selenium"
# Generated by scripts/generate-filter-luts.mjs — do not edit by hand.
LUT_3D_SIZE 5
DOMAIN_MIN 0.0 0.0 0.0
DOMAIN_MAX 1.0 1.0 1.0
0.000000 0.000000 0.000000
0.040314 0.046214 0.057030
0.087166 0.099922 0.123308
0.134018 0.153630 0.189586
0.174332 0.199844 0.246616
0.135620 0.155467 0.191852
0.175934 0.201681 0.248882
0.222786 0.255389 0.315160
0.269638 0.309097 0.381438
0.309952 0.355311 0.438468
0.293232 0.336144 0.414816
0.333546 0.382358 0.471846
0.380398 0.436066 0.538124
0.427250 0.489774 0.604402
0.467564 0.535988 0.661432
0.450844 0.516821 0.637780
0.491158 0.563035 0.694810
0.538010 0.616743 0.761088
0.584862 0.670451 0.827366
0.625176 0.716665 0.884396
0.586464 0.672288 0.829632
0.626778 0.718502 0.886662
0.673630 0.772210 0.952940
0.720482 0.825918 1.000000
0.760796 0.872132 1.000000
0.013691 0.015694 0.019368
0.054005 0.061908 0.076398
0.100857 0.115616 0.142676
0.147709 0.169325 0.208954
0.188023 0.215538 0.265984
0.149311 0.171161 0.211220
0.189625 0.217375 0.268250
0.236477 0.271083 0.334528
0.283328 0.324791 0.400806
0.323643 0.371005 0.457836
0.306923 0.351838 0.434184
0.347237 0.398052 0.491214
0.394089 0.451760 0.557492
0.440941 0.505469 0.623770
0.481255 0.551682 0.680800
0.464535 0.532516 0.657147
0.504849 0.578730 0.714177
0.551701 0.632438 0.780455
0.598553 0.686146 0.846733
0.638867 0.732360 0.903763
0.600155 0.687982 0.849000
0.640469 0.734196 0.906030
0.687321 0.787904 0.972308
0.734173 0.841613 1.000000
0.774487 0.887826 1.000000
0.029602 0.033934 0.041876
0.069916 0.080148 0.098906
0.116768 0.133856 0.165184
0.163620 0.187564 0.231462
0.203934 0.233778 0.288492
0.165222 0.189401 0.233728
0.205536 0.235615 0.290758
0.252388 0.289323 0.357036
0.299240 0.343031 0.423314
0.339554 0.389245 0.480344
0.322834 0.370078 0.456692
0.363148 0.416292 0.513722
0.410000 0.470000 0.580000
0.456852 0.523708 0.646278
0.497166 0.569922 0.703308
0.480446 0.550755 0.679656
0.520760 0.596969 0.736686
0.567612 0.650677 0.802964
0.614464 0.704385 0.869242
0.654778 0.750599 0.926272
0.616066 0.706222 0.871508
0.656380 0.752436 0.928538
0.703232 0.806144 0.994816
0.750084 0.859852 1.000000
0.790398 0.906066 1.000000
0.045513 0.052174 0.064384
0.085827 0.098387 0.121414
0.132679 0.152096 0.187692
0.179531 0.205804 0.253970
0.219845 0.252018 0.311000
0.181133 0.207640 0.256237
0.221447 0.253854 0.313267
0.268299 0.307562 0.379545
0.315151 0.361270 0.445823
0.355465 0.407484 0.502853
0.338745 0.388318 0.479200
0.379059 0.434531 0.536230
0.425911 0.488240 0.602508
0.472763 0.541948 0.668786
0.513077 0.588162 0.725816
0.496357 0.568995 0.702164
0.536672 0.615209 0.759194
0.583523 0.668917 0.825472
0.630375 0.722625 0.891750
0.670689 0.768839 0.948780
0.631977 0.724462 0.894016
0.672291 0.770675 0.951046
0.719143 0.824384 1.000000
0.765995 0.878092 1.000000
0.806309 0.924306 1.000000
0.059204 0.067868 0.083752
0.099518 0.114082 0.140782
0.146370 0.167790 0.207060
0.193222 0.221498 0.273338
0.233536 0.267712 0.330368
0.194824 0.223335 0.275604
0.235138 0.269549 0.332634
0.281990 0.323257 0.398912
0.328842 0.376965 0.465190
0.369156 0.423179 0.522220
0.352436 0.404012 0.498568
0.392750 0.450226 0.555598
0.439602 0.503934 0.621876
0.486454 0.557642 0.688154
0.526768 0.603856 0.745184
0.510048 0.584689 0.721532
0.550362 0.630903 0.778562
0.597214 0.684611 0.844840
0.644066 0.738319 0.911118
0.684380 0.784533 0.968148
0.645668 0.740156 0.913384
0.685982 0.786370 0.970414
0.732834 0.840078 1.000000
0.779686 0.893786 1.000000
0.820000 0.940000 1.000000
