assets/luts/selenium.cube
# Selenium — Studio filter "selenium"
# Generated by scripts/generate-filter-luts.mjs — do not edit by hand.
LUT_3D_SIZE 17
DOMAIN_MIN 0.0 0.0 0.0
DOMAIN_MAX 1.0 1.0 1.0
0.000000 0.000000 0.000000
0.009108 0.010441 0.012885
0.018931 0.021702 0.026781
0.029367 0.033665 0.041544
0.040314 0.046214 0.057030
0.051670 0.059231 0.073094
0.063332 0.072600 0.089591
0.075198 0.086202 0.106377
0.087166 0.099922 0.123308
0.099134 0.113642 0.140239
0.111000 0.127244 0.157025
0.122662 0.140613 0.173522
0.134018 0.153630 0.189586
0.144965 0.166179 0.205072
0.155401 0.178142 0.219835
0.165224 0.189403 0.233731
0.174332 0.199844 0.246616
0.030640 0.035124 0.043345
0.039749 0.045565 0.056230
0.049572 0.056826 0.070126
0.060008 0.068790 0.084889
0.070955 0.081338 0.100375
0.082310 0.094356 0.116439
0.093972 0.107724 0.132936
0.105838 0.121327 0.149722
0.117806 0.135046 0.166653
0.129775 0.148766 0.183584
0.141641 0.162369 0.200370
0.153303 0.175737 0.216867
0.164658 0.188754 0.232931
0.175605 0.201303 0.248417
0.186041 0.213267 0.263180
0.195864 0.224527 0.277076
0.204972 0.234968 0.289961
0.063686 0.073006 0.090093
0.072794 0.083447 0.102978
0.082618 0.094708 0.116874
0.093054 0.106671 0.131637
0.104001 0.119220 0.147123
0.115356 0.132237 0.163187
0.127018 0.145606 0.179684
0.138884 0.159209 0.196470
0.150852 0.172928 0.213401
0.162821 0.186648 0.230332
0.174687 0.200251 0.247118
0.186349 0.213619 0.263615
0.197704 0.226636 0.279679
0.208651 0.239185 0.295165
0.219087 0.251148 0.309928
0.228910 0.262409 0.323824
0.238018 0.272850 0.336709
0.098794 0.113252 0.139757
0.107902 0.123693 0.152642
0.117725 0.134953 0.166538
0.128161 0.146917 0.181302
0.139108 0.159466 0.196787
0.150464 0.172483 0.212851
0.162126 0.185851 0.229348
0.173992 0.199454 0.246135
0.185960 0.213174 0.263065
0.197928 0.226893 0.279996
0.209794 0.240496 0.296782
0.221456 0.253865 0.313280
0.232812 0.266882 0.329343
0.243759 0.279431 0.344829
0.254195 0.291394 0.359592
0.264018 0.302655 0.373489
0.273126 0.313096 0.386373
0.135620 0.155467 0.191852
0.144728 0.165908 0.204737
0.154551 0.177168 0.218633
0.164987 0.189132 0.233397
0.175934 0.201681 0.248882
0.187289 0.214698 0.264946
0.198951 0.228066 0.281443
0.210817 0.241669 0.298230
0.222786 0.255389 0.315160
0.234754 0.269108 0.332091
0.246620 0.282711 0.348877
0.258282 0.296079 0.365375
0.269638 0.309097 0.381438
0.280584 0.321645 0.396924
0.291020 0.333609 0.411687
0.300844 0.344870 0.425584
0.309952 0.355311 0.438468
0.173820 0.199257 0.245892
0.182928 0.209698 0.258777
0.192752 0.220959 0.272673
0.203188 0.232922 0.287436
0.214134 0.245471 0.302922
0.225490 0.258488 0.318986
0.237152 0.271857 0.335483
0.249018 0.285459 0.352269
0.260986 0.299179 0.369200
0.272954 0.312899 0.386131
0.284821 0.326502 0.402917
0.296482 0.339870 0.419414
0.307838 0.352887 0.435478
0.318785 0.365436 0.450964
0.329221 0.377399 0.465727
0.339044 0.388660 0.479623
0.348152 0.399101 0.492508
0.213051 0.244230 0.301390
0.222160 0.254671 0.314274
0.231983 0.265931 0.328171
0.242419 0.277895 0.342934
0.253366 0.290444 0.358420
0.264721 0.303461 0.374483
0.276383 0.316829 0.390981
0.288249 0.330432 0.407767
0.300217 0.344152 0.424698
0.312186 0.357871 0.441629
0.324052 0.371474 0.458415
0.335714 0.384843 0.474912
0.347069 0.397860 0.490976
0.358016 0.410408 0.506462
0.368452 0.422372 0.521225
0.378275 0.433633 0.535121
0.387383 0.444074 0.548006
0.252970 0.289990 0.357860
0.262078 0.300431 0.370745
0.271901 0.311692 0.384641
0.282337 0.323655 0.399404
0.293284 0.336204 0.414890
0.304640 0.349221 0.430954
0.316301 0.362589 0.447451
0.328168 0.376192 0.464237
0.340136 0.389912 0.481168
0.352104 0.403632 0.498099
0.363970 0.417234 0.514885
0.375632 0.430603 0.531382
0.386988 0.443620 0.547446
0.397934 0.456169 0.562932
0.408371 0.468132 0.577695
0.418194 0.479393 0.591591
0.427302 0.489834 0.604476
0.293232 0.336144 0.414816
0.302340 0.346585 0.427701
0.312163 0.357846 0.441597
0.322599 0.369809 0.456360
0.333546 0.382358 0.471846
0.344902 0.395375 0.487910
0.356564 0.408744 0.504407
0.368430 0.422346 0.521193
0.380398 0.436066 0.538124
0.392366 0.449786 0.555055
0.404232 0.463388 0.571841
0.415894 0.476757 0.588338
0.427250 0.489774 0.604402
0.438197 0.502323 0.619888
0.448633 0.514286 0.634651
0.458456 0.525547 0.648547
0.467564 0.535988 0.661432
0.333494 0.382298 0.471772
0.342602 0.392739 0.484657
0.352425 0.404000 0.498553
0.362862 0.415963 0.513316
0.373808 0.428512 0.528802
0.385164 0.441529 0.544866
0.396826 0.454898 0.561363
0.408692 0.468500 0.578149
0.420660 0.482220 0.595080
0.432628 0.495940 0.612011
0.444495 0.509543 0.628797
0.456156 0.522911 0.645294
0.467512 0.535928 0.661358
0.478459 0.548477 0.676844
0.488895 0.560440 0.691607
0.498718 0.571701 0.705503
0.507826 0.582142 0.718388
0.373413 0.428058 0.528242
0.382521 0.438499 0.541127
0.392344 0.449760 0.555023
0.402780 0.461724 0.569786
0.413727 0.474272 0.585272
0.425082 0.487289 0.601336
0.436744 0.500658 0.617833
0.448610 0.514261 0.634619
0.460579 0.527980 0.651550
0.472547 0.541700 0.668481
0.484413 0.555303 0.685267
0.496075 0.568671 0.701765
0.507430 0.581688 0.717828
0.518377 0.594237 0.733314
0.528813 0.606201 0.748077
0.538636 0.617461 0.761974
0.547745 0.627902 0.774858
0.412644 0.473031 0.583740
0.421752 0.483472 0.596625
0.431575 0.494733 0.610521
0.442011 0.506696 0.625284
0.452958 0.519245 0.640770
0.464314 0.532262 0.656834
0.475975 0.545630 0.673331
0.487842 0.559233 0.690117
0.499810 0.572953 0.707048
0.511778 0.586673 0.723979
0.523644 0.600275 0.740765
0.535306 0.613644 0.757262
0.546662 0.626661 0.773326
0.557608 0.639210 0.788812
0.568044 0.651173 0.803575
0.577868 0.662434 0.817471
0.586976 0.672875 0.830356
0.450844 0.516821 0.637780
0.459952 0.527262 0.650664
0.469776 0.538523 0.664561
0.480212 0.550487 0.679324
0.491158 0.563035 0.694810
0.502514 0.576053 0.710873
0.514176 0.589421 0.727371
0.526042 0.603024 0.744157
0.538010 0.616743 0.761088
0.549979 0.630463 0.778018
0.561845 0.644066 0.794805
0.573507 0.657434 0.811302
0.584862 0.670451 0.827366
0.595809 0.683000 0.842851
0.606245 0.694964 0.857615
0.616068 0.706224 0.871511
0.625176 0.716665 0.884396
0.487670 0.559036 0.689875
0.496778 0.569477 0.702759
0.506601 0.580738 0.716656
0.517037 0.592701 0.731419
0.527984 0.605250 0.746905
0.539340 0.618267 0.762968
0.551002 0.631636 0.779466
0.562868 0.645239 0.796252
0.574836 0.658958 0.813183
0.586804 0.672678 0.830113
0.598670 0.686281 0.846900
0.610332 0.699649 0.863397
0.621688 0.712666 0.879461
0.632635 0.725215 0.894946
0.643071 0.737179 0.909710
0.652894 0.748439 0.923606
0.662002 0.758880 0.936491
0.522778 0.599282 0.739539
0.531886 0.609723 0.752424
0.541709 0.620984 0.766320
0.552145 0.632947 0.781083
0.563092 0.645496 0.796569
0.574447 0.658513 0.812633
0.586109 0.671881 0.829130
0.597975 0.685484 0.845916
0.609944 0.699204 0.862847
0.621912 0.712923 0.879778
0.633778 0.726526 0.896564
0.645440 0.739895 0.913061
0.656795 0.752912 0.929125
0.667742 0.765461 0.944611
0.678178 0.777424 0.959374
0.688002 0.788685 0.973270
0.697110 0.799126 0.986155
0.555824 0.637164 0.786287
0.564932 0.647605 0.799172
0.574755 0.658865 0.813068
0.585191 0.670829 0.827831
0.596138 0.683378 0.843317
0.607493 0.696395 0.859381
0.619155 0.709763 0.875878
0.631021 0.723366 0.892664
0.642990 0.737086 0.909595
0.654958 0.750805 0.926526
0.666824 0.764408 0.943312
0.678486 0.777776 0.959809
0.689841 0.790794 0.975873
0.700788 0.803342 0.991359
0.711224 0.815306 1.000000
0.721047 0.826567 1.000000
0.730156 0.837008 1.000000
0.586464 0.672288 0.829632
0.595572 0.682729 0.842517
0.605395 0.693990 0.856413
0.615831 0.705953 0.871176
0.626778 0.718502 0.886662
0.638134 0.731519 0.902726
0.649796 0.744888 0.919223
0.661662 0.758490 0.936009
0.673630 0.772210 0.952940
0.685598 0.785930 0.969871
0.697464 0.799532 0.986657
0.709126 0.812901 1.000000
0.720482 0.825918 1.000000
0.731429 0.838467 1.000000
0.741865 0.850430 1.000000
0.751688 0.861691 1.000000
0.760796 0.872132 1.000000
0.003093 0.003546 0.004376
0.012201 0.013987 0.017260
0.022025 0.025248 0.031157
0.032461 0.037211 0.045920
0.043407 0.049760 0.061406
0.054763 0.062777 0.077469
0.066425 0.076145 0.093967
0.078291 0.089748 0.110753
0.090259 0.103468 0.127684
0.102227 0.117188 0.144614
0.114094 0.130790 0.161401
0.125755 0.144159 0.177898
0.137111 0.157176 0.193962
0.148058 0.169725 0.209448
0.158494 0.181688 0.224211
0.168317 0.192949 0.238107
0.177425 0.203390 0.250992
0.033734 0.038670 0.047721
0.042842 0.049111 0.060605
0.052665 0.060372 0.074502
0.063101 0.072335 0.089265
0.074048 0.084884 0.104751
0.085403 0.097901 0.120814
0.097065 0.111270 0.137312
0.108931 0.124873 0.154098
0.120900 0.138592 0.171029
0.132868 0.152312 0.187960
0.144734 0.165915 0.204746
0.156396 0.179283 0.221243
0.167751 0.192300 0.237307
0.178698 0.204849 0.252793
0.189134 0.216812 0.267556
0.198957 0.228073 0.281452
0.208066 0.238514 0.294337
0.066780 0.076552 0.094469
0.075888 0.086993 0.107353
0.085711 0.098254 0.121250
0.096147 0.110217 0.136013
0.107094 0.122766 0.151499
0.118449 0.135783 0.167562
0.130111 0.149152 0.184060
0.141977 0.162754 0.200846
0.153946 0.176474 0.217777
0.165914 0.190194 0.234707
0.177780 0.203797 0.251494
0.189442 0.217165 0.267991
0.200797 0.230182 0.284055
0.211744 0.242731 0.299540
0.222180 0.254694 0.314304
0.232003 0.265955 0.328200
0.241112 0.276396 0.341085
0.101887 0.116797 0.144133
0.110995 0.127239 0.157018
0.120819 0.138499 0.170914
0.131255 0.150463 0.185677
0.142201 0.163011 0.201163
0.153557 0.176029 0.217227
0.165219 0.189397 0.233724
0.177085 0.203000 0.250510
0.189053 0.216719 0.267441
0.201021 0.230439 0.284372
0.212888 0.244042 0.301158
0.224549 0.257410 0.317655
0.235905 0.270428 0.333719
0.246852 0.282976 0.349205
0.257288 0.294940 0.363968
0.267111 0.306200 0.377864
0.276219 0.316641 0.390749
0.138713 0.159012 0.196228
0.147821 0.169454 0.209113
0.157644 0.180714 0.223009
0.168080 0.192678 0.237772
0.179027 0.205226 0.253258
0.190383 0.218244 0.269322
0.202045 0.231612 0.285819
0.213911 0.245215 0.302605
0.225879 0.258934 0.319536
0.237847 0.272654 0.336467
0.249713 0.286257 0.353253
0.261375 0.299625 0.369750
0.272731 0.312643 0.385814
0.283678 0.325191 0.401300
0.294114 0.337155 0.416063
0.303937 0.348415 0.429959
0.313045 0.358856 0.442844
0.176913 0.202803 0.250268
0.186021 0.213244 0.263152
0.195845 0.224505 0.277049
0.206281 0.236468 0.291812
0.217228 0.249017 0.307298
0.228583 0.262034 0.323361
0.240245 0.275403 0.339859
0.252111 0.289005 0.356645
0.264079 0.302725 0.373576
0.276048 0.316445 0.390506
0.287914 0.330047 0.407293
0.299576 0.343416 0.423790
0.310931 0.356433 0.439854
0.321878 0.368982 0.455339
0.332314 0.380945 0.470103
0.342137 0.392206 0.483999
0.351245 0.402647 0.496884
0.216145 0.247775 0.305765
0.225253 0.258217 0.318650
0.235076 0.269477 0.332546
0.245512 0.281441 0.347310
0.256459 0.293989 0.362795
0.267814 0.307007 0.378859
0.279476 0.320375 0.395356
0.291342 0.333978 0.412143
0.303311 0.347697 0.429073
0.315279 0.361417 0.446004
0.327145 0.375020 0.462790
0.338807 0.388388 0.479288
0.350162 0.401406 0.495352
0.361109 0.413954 0.510837
0.371545 0.425918 0.525601
0.381368 0.437178 0.539497
0.390477 0.447619 0.552381
0.256063 0.293536 0.362236
0.265171 0.303977 0.375120
0.274994 0.315238 0.389016
0.285431 0.327201 0.403780
0.296377 0.339750 0.419265
0.307733 0.352767 0.435329
0.319395 0.366135 0.451827
0.331261 0.379738 0.468613
0.343229 0.393458 0.485544
0.355197 0.407177 0.502474
0.367064 0.420780 0.519261
0.378725 0.434149 0.535758
0.390081 0.447166 0.551822
0.401028 0.459715 0.567307
0.411464 0.471678 0.582071
0.421287 0.482939 0.595967
0.430395 0.493380 0.608852
0.296325 0.339690 0.419192
0.305433 0.350131 0.432076
0.315257 0.361392 0.445973
0.325693 0.373355 0.460736
0.336639 0.385904 0.476222
0.347995 0.398921 0.492285
0.359657 0.412289 0.508783
0.371523 0.425892 0.525569
0.383491 0.439612 0.542500
0.395459 0.453332 0.559430
0.407326 0.466934 0.576217
0.418987 0.480303 0.592714
0.430343 0.493320 0.608778
0.441290 0.505869 0.624264
0.451726 0.517832 0.639027
0.461549 0.529093 0.652923
0.470657 0.539534 0.665808
0.336587 0.385844 0.476148
0.345695 0.396285 0.489033
0.355519 0.407546 0.502929
0.365955 0.419509 0.517692
0.376902 0.432058 0.533178
0.388257 0.445075 0.549242
0.399919 0.458444 0.565739
0.411785 0.472046 0.582525
0.423753 0.485766 0.599456
0.435722 0.499486 0.616387
0.447588 0.513088 0.633173
0.459250 0.526457 0.649670
0.470605 0.539474 0.665734
0.481552 0.552023 0.681220
0.491988 0.563986 0.695983
0.501811 0.575247 0.709879
0.510919 0.585688 0.722764
0.376506 0.431604 0.532618
0.385614 0.442045 0.545503
0.395437 0.453306 0.559399
0.405873 0.465269 0.574162
0.416820 0.477818 0.589648
0.428175 0.490835 0.605712
0.439837 0.504204 0.622209
0.451704 0.517806 0.638995
0.463672 0.531526 0.655926
0.475640 0.545246 0.672857
0.487506 0.558849 0.689643
0.499168 0.572217 0.706140
0.510524 0.585234 0.722204
0.521470 0.597783 0.737690
0.531906 0.609746 0.752453
0.541730 0.621007 0.766349
0.550838 0.631448 0.779234
0.415737 0.476577 0.588116
0.424845 0.487018 0.601001
0.434668 0.498278 0.614897
0.445104 0.510242 0.629660
0.456051 0.522791 0.645146
0.467407 0.535808 0.661210
0.479069 0.549176 0.677707
0.490935 0.562779 0.694493
0.502903 0.576499 0.711424
0.514871 0.590218 0.728355
0.526737 0.603821 0.745141
0.538399 0.617189 0.761638
0.549755 0.630207 0.777702
0.560702 0.642755 0.793188
0.571138 0.654719 0.807951
0.580961 0.665980 0.821847
0.590069 0.676421 0.834732
0.453937 0.520367 0.642155
0.463046 0.530808 0.655040
0.472869 0.542069 0.668936
0.483305 0.554032 0.683700
0.494252 0.566581 0.699185
0.505607 0.579598 0.715249
0.517269 0.592967 0.731746
0.529135 0.606569 0.748533
0.541103 0.620289 0.765463
0.553072 0.634009 0.782394
0.564938 0.647612 0.799180
0.576600 0.660980 0.815678
0.587955 0.673997 0.831741
0.598902 0.686546 0.847227
0.609338 0.698509 0.861990
0.619161 0.709770 0.875887
0.628269 0.720211 0.888771
0.490763 0.562582 0.694250
0.499871 0.573023 0.707135
0.509695 0.584284 0.721031
0.520131 0.596247 0.735795
0.531077 0.608796 0.751280
0.542433 0.621813 0.767344
0.554095 0.635182 0.783841
0.565961 0.648784 0.800628
0.577929 0.662504 0.817558
0.589897 0.676224 0.834489
0.601764 0.689827 0.851275
0.613426 0.703195 0.867773
0.624781 0.716212 0.883836
0.635728 0.728761 0.899322
0.646164 0.740724 0.914085
0.655987 0.751985 0.927982
0.665095 0.762426 0.940866
0.525871 0.602828 0.743915
0.534979 0.613269 0.756800
0.544802 0.624529 0.770696
0.555238 0.636493 0.785459
0.566185 0.649041 0.800945
0.577541 0.662059 0.817009
0.589202 0.675427 0.833506
0.601069 0.689030 0.850292
0.613037 0.702750 0.867223
0.625005 0.716469 0.884154
0.636871 0.730072 0.900940
0.648533 0.743440 0.917437
0.659889 0.756458 0.933501
0.670835 0.769006 0.948987
0.681271 0.780970 0.963750
0.691095 0.792230 0.977646
0.700203 0.802672 0.990531
0.558917 0.640709 0.790663
0.568025 0.651150 0.803547
0.577848 0.662411 0.817444
0.588284 0.674375 0.832207
0.599231 0.686923 0.847693
0.610586 0.699941 0.863756
0.622248 0.713309 0.880254
0.634114 0.726912 0.897040
0.646083 0.740631 0.913971
0.658051 0.754351 0.930901
0.669917 0.767954 0.947688
0.681579 0.781322 0.964185
0.692934 0.794339 0.980249
0.703881 0.806888 0.995734
0.714317 0.818852 1.000000
0.724141 0.830112 1.000000
0.733249 0.840553 1.000000
0.589557 0.675834 0.834008
0.598665 0.686275 0.846892
0.608489 0.697536 0.860789
0.618925 0.709499 0.875552
0.629871 0.722048 0.891038
0.641227 0.735065 0.907101
0.652889 0.748433 0.923599
0.664755 0.762036 0.940385
0.676723 0.775756 0.957316
0.688691 0.789476 0.974246
0.700558 0.803078 0.991033
0.712219 0.816447 1.000000
0.723575 0.829464 1.000000
0.734522 0.842013 1.000000
0.744958 0.853976 1.000000
0.754781 0.865237 1.000000
0.763889 0.875678 1.000000
0.006429 0.007370 0.009095
0.015537 0.017811 0.021980
0.025361 0.029072 0.035876
0.035797 0.041035 0.050639
0.046743 0.053584 0.066125
0.058099 0.066601 0.082189
0.069761 0.079970 0.098686
0.081627 0.093572 0.115472
0.093595 0.107292 0.132403
0.105563 0.121012 0.149334
0.117430 0.134614 0.166120
0.129091 0.147983 0.182617
0.140447 0.161000 0.198681
0.151394 0.173549 0.214167
0.161830 0.185512 0.228930
0.171653 0.196773 0.242826
0.180761 0.207214 0.255711
0.037070 0.042494 0.052440
0.046178 0.052936 0.065325
0.056001 0.064196 0.079221
0.066437 0.076160 0.093984
0.077384 0.088708 0.109470
0.088739 0.101726 0.125534
0.100401 0.115094 0.142031
0.112267 0.128697 0.158817
0.124236 0.142416 0.175748
0.136204 0.156136 0.192679
0.148070 0.169739 0.209465
0.159732 0.183107 0.225962
0.171087 0.196125 0.242026
0.182034 0.208673 0.257512
0.192470 0.220637 0.272275
0.202293 0.231897 0.286171
0.211402 0.242338 0.299056
0.070116 0.080376 0.099188
0.079224 0.090817 0.112073
0.089047 0.102078 0.125969
0.099483 0.114041 0.140732
0.110430 0.126590 0.156218
0.121785 0.139607 0.172282
0.133447 0.152976 0.188779
0.145313 0.166579 0.205565
0.157282 0.180298 0.222496
0.169250 0.194018 0.239427
0.181116 0.207621 0.256213
0.192778 0.220989 0.272710
0.204133 0.234006 0.288774
0.215080 0.246555 0.304260
0.225516 0.258519 0.319023
0.235339 0.269779 0.332919
0.244448 0.280220 0.345804
0.105223 0.120622 0.148852
0.114331 0.131063 0.161737
0.124155 0.142323 0.175633
0.134591 0.154287 0.190396
0.145537 0.166836 0.205882
0.156893 0.179853 0.221946
0.168555 0.193221 0.238443
0.180421 0.206824 0.255230
0.192389 0.220544 0.272160
0.204357 0.234263 0.289091
0.216224 0.247866 0.305877
0.227885 0.261235 0.322375
0.239241 0.274252 0.338438
0.250188 0.286801 0.353924
0.260624 0.298764 0.368687
0.270447 0.310025 0.382584
0.279555 0.320466 0.395468
0.142049 0.162837 0.200947
0.151157 0.173278 0.213832
0.160980 0.184538 0.227728
0.171416 0.196502 0.242492
0.182363 0.209051 0.257977
0.193719 0.222068 0.274041
0.205381 0.235436 0.290538
0.217247 0.249039 0.307325
0.229215 0.262759 0.324255
0.241183 0.276478 0.341186
0.253049 0.290081 0.357972
0.264711 0.303450 0.374470
0.276067 0.316467 0.390533
0.287014 0.329016 0.406019
0.297450 0.340979 0.420782
0.307273 0.352240 0.434679
0.316381 0.362681 0.447563
0.180249 0.206627 0.254987
0.189357 0.217068 0.267872
0.199181 0.228329 0.281768
0.209617 0.240292 0.296531
0.220564 0.252841 0.312017
0.231919 0.265858 0.328081
0.243581 0.279227 0.344578
0.255447 0.292830 0.361364
0.267415 0.306549 0.378295
0.279384 0.320269 0.395226
0.291250 0.333872 0.412012
0.302912 0.347240 0.428509
0.314267 0.360257 0.444573
0.325214 0.372806 0.460059
0.335650 0.384769 0.474822
0.345473 0.396030 0.488718
0.354581 0.406471 0.501603
0.219481 0.251600 0.310485
0.228589 0.262041 0.323369
0.238412 0.273301 0.337266
0.248848 0.285265 0.352029
0.259795 0.297814 0.367515
0.271150 0.310831 0.383578
0.282812 0.324199 0.400076
0.294678 0.337802 0.416862
0.306647 0.351522 0.433793
0.318615 0.365241 0.450723
0.330481 0.378844 0.467510
0.342143 0.392213 0.484007
0.353498 0.405230 0.500071
0.364445 0.417779 0.515556
0.374881 0.429742 0.530320
0.384704 0.441003 0.544216
0.393813 0.451444 0.557101
0.259399 0.297360 0.366955
0.268507 0.307801 0.379839
0.278330 0.319062 0.393736
0.288767 0.331025 0.408499
0.299713 0.343574 0.423985
0.311069 0.356591 0.440048
0.322731 0.369959 0.456546
0.334597 0.383562 0.473332
0.346565 0.397282 0.490263
0.358533 0.411002 0.507194
0.370400 0.424604 0.523980
0.382061 0.437973 0.540477
0.393417 0.450990 0.556541
0.404364 0.463539 0.572027
0.414800 0.475502 0.586790
0.424623 0.486763 0.600686
0.433731 0.497204 0.613571
0.299661 0.343514 0.423911
0.308769 0.353955 0.436796
0.318593 0.365216 0.450692
0.329029 0.377179 0.465455
0.339975 0.389728 0.480941
0.351331 0.402745 0.497005
0.362993 0.416114 0.513502
0.374859 0.429716 0.530288
0.386827 0.443436 0.547219
0.398795 0.457156 0.564150
0.410662 0.470758 0.580936
0.422323 0.484127 0.597433
0.433679 0.497144 0.613497
0.444626 0.509693 0.628983
0.455062 0.521656 0.643746
0.464885 0.532917 0.657642
0.473993 0.543358 0.670527
0.339923 0.389668 0.480867
0.349031 0.400109 0.493752
0.358855 0.411370 0.507648
0.369291 0.423333 0.522411
0.380238 0.435882 0.537897
0.391593 0.448899 0.553961
0.403255 0.462268 0.570458
0.415121 0.475870 0.587244
0.427089 0.489590 0.604175
0.439058 0.503310 0.621106
0.450924 0.516913 0.637892
0.462586 0.530281 0.654389
0.473941 0.543298 0.670453
0.484888 0.555847 0.685939
0.495324 0.567810 0.700702
0.505147 0.579071 0.714598
0.514255 0.589512 0.727483
0.379842 0.435428 0.537337
0.388950 0.445869 0.550222
0.398773 0.457130 0.564118
0.409209 0.469094 0.578881
0.420156 0.481642 0.594367
0.431511 0.494660 0.610431
0.443173 0.508028 0.626928
0.455040 0.521631 0.643714
0.467008 0.535350 0.660645
0.478976 0.549070 0.677576
0.490842 0.562673 0.694362
0.502504 0.576041 0.710859
0.513860 0.589058 0.726923
0.524806 0.601607 0.742409
0.535242 0.613571 0.757172
0.545066 0.624831 0.771068
0.554174 0.635272 0.783953
0.419073 0.480401 0.592835
0.428181 0.490842 0.605720
0.438004 0.502103 0.619616
0.448440 0.514066 0.634379
0.459387 0.526615 0.649865
0.470743 0.539632 0.665929
0.482405 0.553000 0.682426
0.494271 0.566603 0.699212
0.506239 0.580323 0.716143
0.518207 0.594043 0.733074
0.530073 0.607645 0.749860
0.541735 0.621014 0.766357
0.553091 0.634031 0.782421
0.564038 0.646580 0.797907
0.574474 0.658543 0.812670
0.584297 0.669804 0.826566
0.593405 0.680245 0.839451
0.457273 0.524191 0.646875
0.466382 0.534633 0.659759
0.476205 0.545893 0.673655
0.486641 0.557857 0.688419
0.497588 0.570405 0.703904
0.508943 0.583423 0.719968
0.520605 0.596791 0.736466
0.532471 0.610394 0.753252
0.544439 0.624113 0.770183
0.556408 0.637833 0.787113
0.568274 0.651436 0.803900
0.579936 0.664804 0.820397
0.591291 0.677822 0.836461
0.602238 0.690370 0.851946
0.612674 0.702334 0.866710
0.622497 0.713594 0.880606
0.631605 0.724035 0.893491
0.494099 0.566406 0.698970
0.503207 0.576847 0.711854
0.513031 0.588108 0.725751
0.523467 0.600072 0.740514
0.534413 0.612620 0.756000
0.545769 0.625638 0.772063
0.557431 0.639006 0.788561
0.569297 0.652609 0.805347
0.581265 0.666328 0.822278
0.593234 0.680048 0.839208
0.605100 0.693651 0.855995
0.616762 0.707019 0.872492
0.628117 0.720036 0.888556
0.639064 0.732585 0.904041
0.649500 0.744549 0.918805
0.659323 0.755809 0.932701
0.668431 0.766250 0.945586
0.529207 0.606652 0.748634
0.538315 0.617093 0.761519
0.548138 0.628354 0.775415
0.558574 0.640317 0.790178
0.569521 0.652866 0.805664
0.580877 0.665883 0.821728
0.592538 0.679251 0.838225
0.604405 0.692854 0.855011
0.616373 0.706574 0.871942
0.628341 0.720294 0.888873
0.640207 0.733896 0.905659
0.651869 0.747265 0.922156
0.663225 0.760282 0.938220
0.674171 0.772831 0.953706
0.684607 0.784794 0.968469
0.694431 0.796055 0.982365
0.703539 0.806496 0.995250
0.562253 0.644534 0.795382
0.571361 0.654975 0.808267
0.581184 0.666235 0.822163
0.591620 0.678199 0.836926
0.602567 0.690748 0.852412
0.613922 0.703765 0.868476
0.625584 0.717133 0.884973
0.637450 0.730736 0.901759
0.649419 0.744456 0.918690
0.661387 0.758175 0.935621
0.673253 0.771778 0.952407
0.684915 0.785147 0.968904
0.696270 0.798164 0.984968
0.707217 0.810712 1.000000
0.717653 0.822676 1.000000
0.727477 0.833937 1.000000
0.736585 0.844378 1.000000
0.592893 0.679658 0.838727
0.602001 0.690099 0.851612
0.611825 0.701360 0.865508
0.622261 0.713323 0.880271
0.633207 0.725872 0.895757
0.644563 0.738889 0.911821
0.656225 0.752258 0.928318
0.668091 0.765860 0.945104
0.680059 0.779580 0.962035
0.692027 0.793300 0.978966
0.703894 0.806902 0.995752
0.715555 0.820271 1.000000
0.726911 0.833288 1.000000
0.737858 0.845837 1.000000
0.748294 0.857800 1.000000
0.758117 0.869061 1.000000
0.767225 0.879502 1.000000
0.009973 0.011433 0.014109
0.019081 0.021874 0.026993
0.028905 0.033135 0.040890
0.039341 0.045098 0.055653
0.050288 0.057647 0.071139
0.061643 0.070664 0.087202
0.073305 0.084032 0.103700
0.085171 0.097635 0.120486
0.097139 0.111355 0.137417
0.109108 0.125075 0.154347
0.120974 0.138677 0.171134
0.132636 0.152046 0.187631
0.143991 0.165063 0.203695
0.154938 0.177612 0.219180
0.165374 0.189575 0.233944
