assets/luts/sepia.cube
# Sepia — Studio filter "sepia"
# Generated by scripts/generate-filter-luts.mjs — do not edit by hand.
LUT_3D_SIZE 9
DOMAIN_MIN 0.0 0.0 0.0
DOMAIN_MAX 1.0 1.0 1.0
0.000000 0.000000 0.000000
0.027243 0.022625 0.016623
0.058013 0.048180 0.035398
0.091136 0.075689 0.055608
0.125434 0.104174 0.076536
0.159732 0.132659 0.097464
0.192855 0.160168 0.117674
0.223625 0.185723 0.136449
0.250868 0.208348 0.153072
0.091646 0.076113 0.055920
0.118889 0.098738 0.072542
0.149659 0.124293 0.091318
0.182782 0.151802 0.111528
0.217080 0.180287 0.132456
0.251379 0.208772 0.153384
0.284501 0.236280 0.173594
0.315271 0.261836 0.192369
0.342514 0.284461 0.208992
0.195160 0.162082 0.119081
0.222403 0.184707 0.135703
0.253173 0.210263 0.154479
0.286296 0.237771 0.174689
0.320594 0.266256 0.195617
0.354893 0.294741 0.216545
0.388015 0.322250 0.236755
0.418786 0.347805 0.255530
0.446028 0.370430 0.272153
0.306586 0.254622 0.187069
0.333829 0.277248 0.203692
0.364599 0.302803 0.222467
0.397722 0.330311 0.242678
0.432020 0.358796 0.263605
0.466318 0.387281 0.284533
0.499441 0.414790 0.304744
0.530211 0.440345 0.323519
0.557454 0.462970 0.340141
0.421968 0.350448 0.257472
0.449211 0.373073 0.274095
0.479981 0.398628 0.292870
0.513104 0.426137 0.313080
0.547402 0.454622 0.334008
0.581700 0.483107 0.354936
0.614823 0.510616 0.375146
0.645593 0.536171 0.393921
0.672836 0.558796 0.410544
0.537350 0.446274 0.327874
0.564593 0.468899 0.344497
0.595363 0.494454 0.363272
0.628486 0.521963 0.383483
0.662784 0.550448 0.404410
0.697082 0.578933 0.425338
0.730205 0.606441 0.445549
0.760975 0.631996 0.464324
0.788218 0.654622 0.480946
0.648776 0.538814 0.395863
0.676018 0.561439 0.412486
0.706789 0.586994 0.431261
0.739911 0.614503 0.451471
0.774210 0.642988 0.472399
0.808508 0.671473 0.493327
0.841631 0.698981 0.513537
0.872401 0.724537 0.532313
0.899644 0.747162 0.548935
0.752290 0.624783 0.459024
0.779533 0.647408 0.475647
0.810303 0.672964 0.494422
0.843425 0.700472 0.514632
0.877724 0.728957 0.535560
0.912022 0.757442 0.556488
0.945145 0.784951 0.576698
0.975915 0.810506 0.595474
1.000000 0.833131 0.612096
0.843936 0.700896 0.514944
0.871179 0.723521 0.531567
0.901949 0.749076 0.550342
0.935072 0.776585 0.570552
0.969370 0.805070 0.591480
1.000000 0.833555 0.612408
1.000000 0.861064 0.632618
1.000000 0.886619 0.651393
1.000000 0.909244 0.668016
0.009252 0.007684 0.005645
0.036494 0.030309 0.022268
0.067265 0.055864 0.041043
0.100387 0.083373 0.061253
0.134686 0.111858 0.082181
0.168984 0.140343 0.103109
0.202107 0.167851 0.123319
0.232877 0.193406 0.142094
0.260120 0.216032 0.158717
0.100898 0.083797 0.061565
0.128141 0.106422 0.078187
0.158911 0.131977 0.096963
0.192034 0.159486 0.117173
0.226332 0.187971 0.138101
0.260630 0.216456 0.159029
0.293753 0.243964 0.179239
0.324523 0.269519 0.198014
0.351766 0.292145 0.214637
0.204412 0.169766 0.124726
0.231655 0.192391 0.141349
0.262425 0.217946 0.160124
0.295548 0.245455 0.180334
0.329846 0.273940 0.201262
0.364144 0.302425 0.222190
0.397267 0.329933 0.242400
0.428037 0.355489 0.261175
0.455280 0.378114 0.277798
0.315838 0.262306 0.192715
0.343081 0.284931 0.209337
0.373851 0.310487 0.228113
0.406974 0.337995 0.248323
0.441272 0.366480 0.269251
0.475570 0.394965 0.290178
0.508693 0.422474 0.310389
0.539463 0.448029 0.329164
0.566706 0.470654 0.345787
0.431220 0.358132 0.263117
0.458462 0.380757 0.279740
0.489233 0.406312 0.298515
0.522355 0.433821 0.318725
0.556654 0.462306 0.339653
0.590952 0.490791 0.360581
0.624075 0.518299 0.380791
0.654845 0.543854 0.399566
0.682088 0.566480 0.416189
0.546602 0.453957 0.333520
0.573844 0.476583 0.350142
0.604615 0.502138 0.368918
0.637737 0.529646 0.389128
0.672036 0.558131 0.410056
0.706334 0.586616 0.430983
0.739456 0.614125 0.451194
0.770227 0.639680 0.469969
0.797470 0.662305 0.486592
0.658028 0.546497 0.401508
0.685270 0.569123 0.418131
0.716041 0.594678 0.436906
0.749163 0.622186 0.457117
0.783462 0.650671 0.478044
0.817760 0.679157 0.498972
0.850882 0.706665 0.519182
0.881653 0.732220 0.537958
0.908896 0.754845 0.554580
0.761542 0.632467 0.464669
0.788784 0.655092 0.481292
0.819555 0.680647 0.500067
0.852677 0.708156 0.520278
0.886976 0.736641 0.541205
0.921274 0.765126 0.562133
0.954396 0.792634 0.582344
0.985167 0.818189 0.601119
1.000000 0.840815 0.617741
0.853188 0.708580 0.520589
0.880430 0.731205 0.537212
0.911201 0.756760 0.555987
0.944323 0.784269 0.576197
0.978622 0.812754 0.597125
1.000000 0.841239 0.618053
1.000000 0.868747 0.638263
1.000000 0.894302 0.657038
1.000000 0.916928 0.673661
0.019702 0.016362 0.012021
0.046944 0.038988 0.028644
0.077715 0.064543 0.047419
0.110837 0.092051 0.067629
0.145136 0.120536 0.088557
0.179434 0.149021 0.109485
0.212556 0.176530 0.129695
0.243327 0.202085 0.148471
0.270570 0.224710 0.165093
0.111348 0.092475 0.067941
0.138590 0.115101 0.084564
0.169361 0.140656 0.103339
0.202483 0.168164 0.123549
0.236782 0.196649 0.144477
0.271080 0.225134 0.165405
0.304203 0.252643 0.185615
0.334973 0.278198 0.204390
0.362216 0.300823 0.221013
0.214862 0.178445 0.131102
0.242104 0.201070 0.147725
0.272875 0.226625 0.166500
0.305997 0.254133 0.186710
0.340296 0.282619 0.207638
0.374594 0.311104 0.228566
0.407717 0.338612 0.248776
0.438487 0.364167 0.267551
0.465730 0.386793 0.284174
0.326288 0.270985 0.199091
0.353530 0.293610 0.215713
0.384301 0.319165 0.234489
0.417423 0.346674 0.254699
0.451722 0.375159 0.275627
0.486020 0.403644 0.296555
0.519142 0.431152 0.316765
0.549913 0.456707 0.335540
0.577156 0.479333 0.352163
0.441670 0.366810 0.269493
0.468912 0.389436 0.286116
0.499683 0.414991 0.304891
0.532805 0.442499 0.325101
0.567104 0.470984 0.346029
0.601402 0.499469 0.366957
0.634524 0.526978 0.387167
0.665295 0.552533 0.405943
0.692538 0.575158 0.422565
0.557051 0.462636 0.339896
0.584294 0.485261 0.356518
0.615065 0.510816 0.375294
0.648187 0.538325 0.395504
0.682485 0.566810 0.416432
0.716784 0.595295 0.437360
0.749906 0.622803 0.457570
0.780677 0.648359 0.476345
0.807919 0.670984 0.492968
0.668477 0.555176 0.407884
0.695720 0.577801 0.424507
0.726491 0.603357 0.443282
0.759613 0.630865 0.463493
0.793911 0.659350 0.484420
0.828210 0.687835 0.505348
0.861332 0.715344 0.525559
0.892103 0.740899 0.544334
0.919345 0.763524 0.560956
0.771991 0.641145 0.471046
0.799234 0.663771 0.487668
0.830005 0.689326 0.506443
0.863127 0.716834 0.526654
0.897425 0.745319 0.547582
0.931724 0.773804 0.568509
0.964846 0.801313 0.588720
0.995617 0.826868 0.607495
1.000000 0.849493 0.624118
0.863638 0.717258 0.526965
0.890880 0.739884 0.543588
0.921651 0.765439 0.562363
0.954773 0.792947 0.582573
0.989072 0.821432 0.603501
1.000000 0.849917 0.624429
1.000000 0.877426 0.644639
1.000000 0.902981 0.663415
1.000000 0.925606 0.680037
0.030950 0.025704 0.018885
0.058193 0.048330 0.035507
0.088963 0.073885 0.054283
0.122086 0.101393 0.074493
0.156384 0.129878 0.095421
0.190682 0.158363 0.116349
0.223805 0.185872 0.136559
0.254575 0.211427 0.155334
0.281818 0.234052 0.171957
0.122596 0.101817 0.074805
0.149839 0.124443 0.091427
0.180610 0.149998 0.110202
0.213732 0.177506 0.130413
0.248030 0.205991 0.151341
0.282329 0.234476 0.172268
0.315451 0.261985 0.192479
0.346222 0.287540 0.211254
0.373464 0.310165 0.227877
0.226110 0.187787 0.137966
0.253353 0.210412 0.154588
0.284124 0.235967 0.173364
0.317246 0.263475 0.193574
0.351544 0.291961 0.214502
0.385843 0.320446 0.235429
0.418965 0.347954 0.255640
0.449736 0.373509 0.274415
0.476978 0.396135 0.291038
0.337536 0.280327 0.205954
0.364779 0.302952 0.222577
0.395549 0.328507 0.241352
0.428672 0.356016 0.261562
0.462970 0.384501 0.282490
0.497269 0.412986 0.303418
0.530391 0.440494 0.323628
0.561162 0.466049 0.342404
0.588404 0.488675 0.359026
0.452918 0.376152 0.276357
0.480161 0.398778 0.292979
0.510931 0.424333 0.311755
0.544054 0.451841 0.331965
0.578352 0.480326 0.352893
0.612650 0.508811 0.373821
0.645773 0.536320 0.394031
0.676543 0.561875 0.412806
0.703786 0.584500 0.429429
0.568300 0.471978 0.346759
0.595543 0.494603 0.363382
0.626313 0.520158 0.382157
0.659436 0.547667 0.402367
0.693734 0.576152 0.423295
0.728032 0.604637 0.444223
0.761155 0.632145 0.464433
0.791925 0.657701 0.483209
0.819168 0.680326 0.499831
0.679726 0.564518 0.414748
0.706969 0.587143 0.431371
0.737739 0.612699 0.450146
0.770862 0.640207 0.470356
0.805160 0.668692 0.491284
0.839458 0.697177 0.512212
0.872581 0.724686 0.532422
0.903351 0.750241 0.551197
0.930594 0.772866 0.567820
0.783240 0.650487 0.477909
0.810483 0.673113 0.494532
0.841253 0.698668 0.513307
0.874376 0.726176 0.533517
0.908674 0.754661 0.554445
0.942972 0.783146 0.575373
0.976095 0.810655 0.595583
1.000000 0.836210 0.614358
1.000000 0.858835 0.630981
0.874886 0.726600 0.533829
0.902129 0.749226 0.550451
0.932899 0.774781 0.569227
0.966022 0.802289 0.589437
1.000000 0.830774 0.610365
1.000000 0.859259 0.631293
1.000000 0.886768 0.651503
1.000000 0.912323 0.670278
1.000000 0.934948 0.686901
0.042598 0.035378 0.025992
0.069841 0.058003 0.042615
0.100611 0.083558 0.061390
0.133734 0.111067 0.081600
0.168032 0.139552 0.102528
0.202330 0.168037 0.123456
0.235453 0.195546 0.143666
0.266223 0.221101 0.162441
0.293466 0.243726 0.179064
0.134244 0.111491 0.081912
0.161487 0.134116 0.098534
0.192257 0.159671 0.117310
0.225380 0.187180 0.137520
0.259678 0.215665 0.158448
0.293977 0.244150 0.179376
0.327099 0.271658 0.199586
0.357869 0.297214 0.218361
0.385112 0.319839 0.234984
0.237758 0.197460 0.145073
0.265001 0.220085 0.161695
0.295771 0.245641 0.180471
0.328894 0.273149 0.200681
0.363192 0.301634 0.221609
0.397491 0.330119 0.242537
0.430613 0.357628 0.262747
0.461384 0.383183 0.281522
0.488626 0.405808 0.298145
0.349184 0.290000 0.213062
0.376427 0.312626 0.229684
0.407197 0.338181 0.248459
0.440320 0.365689 0.268670
0.474618 0.394174 0.289598
0.508916 0.422659 0.310525
0.542039 0.450168 0.330736
0.572809 0.475723 0.349511
0.600052 0.498348 0.366134
0.464566 0.385826 0.283464
0.491809 0.408451 0.300087
0.522579 0.434006 0.318862
0.555702 0.461515 0.339072
0.590000 0.490000 0.360000
0.624298 0.518485 0.380928
0.657421 0.545994 0.401138
0.688191 0.571549 0.419913
0.715434 0.594174 0.436536
0.579948 0.481652 0.353866
0.607191 0.504277 0.370489
0.637961 0.529832 0.389264
0.671084 0.557341 0.409475
0.705382 0.585826 0.430402
0.739680 0.614311 0.451330
0.772803 0.641819 0.471541
0.803573 0.667374 0.490316
0.830816 0.690000 0.506938
0.691374 0.574192 0.421855
0.718616 0.596817 0.438478
0.749387 0.622372 0.457253
0.782509 0.649881 0.477463
0.816808 0.678366 0.498391
0.851106 0.706851 0.519319
0.884229 0.734359 0.539529
0.914999 0.759915 0.558305
0.942242 0.782540 0.574927
0.794888 0.660161 0.485016
0.822131 0.682786 0.501639
0.852901 0.708342 0.520414
0.886023 0.735850 0.540624
0.920322 0.764335 0.561552
0.954620 0.792820 0.582480
0.987743 0.820329 0.602690
1.000000 0.845884 0.621466
1.000000 0.868509 0.638088
0.886534 0.736274 0.540936
0.913777 0.758899 0.557559
0.944547 0.784454 0.576334
0.977670 0.811963 0.596544
1.000000 0.840448 0.617472
1.000000 0.868933 0.638400
1.000000 0.896442 0.658610
1.000000 0.921997 0.677385
1.000000 0.944622 0.694008
0.054246 0.045052 0.033099
0.081489 0.067677 0.049722
0.112259 0.093232 0.068497
0.145382 0.120741 0.088707
0.179680 0.149226 0.109635
0.213978 0.177711 0.130563
0.247101 0.205219 0.150773
0.277871 0.230774 0.169549
0.305114 0.253400 0.186171
0.145892 0.121165 0.089019
0.173135 0.143790 0.105642
0.203905 0.169345 0.124417
0.237028 0.196854 0.144627
0.271326 0.225339 0.165555
0.305624 0.253824 0.186483
0.338747 0.281332 0.206693
0.369517 0.306887 0.225468
0.396760 0.329513 0.242091
0.249406 0.207134 0.152180
0.276649 0.229759 0.168803
0.307419 0.255314 0.187578
0.340542 0.282823 0.207788
0.374840 0.311308 0.228716
0.409138 0.339793 0.249644
0.442261 0.367301 0.269854
0.473031 0.392857 0.288629
0.500274 0.415482 0.305252
0.360832 0.299674 0.220169
0.388075 0.322299 0.236791
0.418845 0.347855 0.255567
0.451968 0.375363 0.275777
0.486266 0.403848 0.296705
0.520564 0.432333 0.317632
0.553687 0.459842 0.337843
0.584457 0.485397 0.356618
0.611700 0.508022 0.373241
0.476214 0.395500 0.290571
0.503457 0.418125 0.307194
0.534227 0.443680 0.325969
0.567350 0.471189 0.346179
0.601648 0.499674 0.367107
0.635946 0.528159 0.388035
0.669069 0.555667 0.408245
0.699839 0.581222 0.427021
0.727082 0.603848 0.443643
0.591596 0.491325 0.360974
0.618838 0.513951 0.377596
0.649609 0.539506 0.396372
0.682731 0.567014 0.416582
0.717030 0.595499 0.437510
0.751328 0.623984 0.458437
0.784451 0.651493 0.478648
0.815221 0.677048 0.497423
0.842464 0.699673 0.514046
0.703022 0.583865 0.428962
0.730264 0.606491 0.445585
0.761035 0.632046 0.464360
0.794157 0.659554 0.484571
0.828456 0.688039 0.505498
0.862754 0.716525 0.526426
0.895876 0.744033 0.546636
0.926647 0.769588 0.565412
0.953890 0.792213 0.582034
0.806536 0.669835 0.492123
0.833778 0.692460 0.508746
0.864549 0.718015 0.527521
0.897671 0.745524 0.547732
0.931970 0.774009 0.568659
0.966268 0.802494 0.589587
0.999390 0.830002 0.609798
1.000000 0.855557 0.628573
1.000000 0.878183 0.645195
0.898182 0.745948 0.548043
0.925425 0.768573 0.564666
0.956195 0.794128 0.583441
0.989318 0.821637 0.603651
1.000000 0.850122 0.624579
1.000000 0.878607 0.645507
1.000000 0.906115 0.665717
1.000000 0.931670 0.684493
1.000000 0.954296 0.701115
0.065494 0.054394 0.039963
0.092737 0.077019 0.056585
0.123508 0.102574 0.075361
0.156630 0.130083 0.095571
0.190928 0.158568 0.116499
0.225227 0.187053 0.137427
0.258349 0.214561 0.157637
0.289120 0.240116 0.176412
0.316362 0.262742 0.193035
0.157141 0.130507 0.095882
0.184383 0.153132 0.112505
0.215154 0.178687 0.131280
0.248276 0.206196 0.151491
0.282575 0.234681 0.172418
0.316873 0.263166 0.193346
0.349995 0.290674 0.213557
0.380766 0.316229 0.232332
0.408009 0.338855 0.248954
0.260655 0.216476 0.159044
0.287897 0.239101 0.175666
0.318668 0.264656 0.194441
0.351790 0.292165 0.214652
0.386089 0.320650 0.235580
0.420387 0.349135 0.256507
0.453509 0.376643 0.276718
0.484280 0.402199 0.295493
0.511523 0.424824 0.312116
0.372081 0.309016 0.227032
0.399323 0.331641 0.243655
0.430094 0.357197 0.262430
0.463216 0.384705 0.282640
0.497515 0.413190 0.303568
0.531813 0.441675 0.324496
0.564935 0.469184 0.344706
0.595706 0.494739 0.363482
0.622949 0.517364 0.380104
0.487462 0.404842 0.297435
0.514705 0.427467 0.314057
0.545476 0.453022 0.332833
0.578598 0.480531 0.353043
0.612896 0.509016 0.373971
0.647195 0.537501 0.394899
0.680317 0.565009 0.415109
0.711088 0.590564 0.433884
0.738330 0.613190 0.450507
0.602844 0.500667 0.367837
0.630087 0.523293 0.384460
0.660858 0.548848 0.403235
0.693980 0.576356 0.423445
0.728278 0.604841 0.444373
0.762577 0.633326 0.465301
0.795699 0.660835 0.485511
0.826470 0.686390 0.504287
0.853712 0.709015 0.520909
0.714270 0.593207 0.435826
0.741513 0.615833 0.452449
0.772283 0.641388 0.471224
0.805406 0.668896 0.491434
0.839704 0.697381 0.512362
0.874003 0.725867 0.533290
0.907125 0.753375 0.553500
0.937896 0.778930 0.572275
0.965138 0.801555 0.588898
0.817784 0.679177 0.498987
0.845027 0.701802 0.515610
0.875797 0.727357 0.534385
0.908920 0.754866 0.554595
0.943218 0.783351 0.575523
0.977517 0.811836 0.596451
1.000000 0.839344 0.616661
1.000000 0.864899 0.635436
1.000000 0.887525 0.652059
0.909430 0.755290 0.554907
0.936673 0.777915 0.571529
0.967444 0.803470 0.590305
1.000000 0.830979 0.610515
1.000000 0.859464 0.631443
1.000000 0.887949 0.652371
1.000000 0.915457 0.672581
1.000000 0.941012 0.691356
1.000000 0.963638 0.707979
0.075944 0.063072 0.046339
0.103187 0.085698 0.062962
0.133957 0.111253 0.081737
0.167080 0.138761 0.101947
0.201378 0.167246 0.122875
0.235677 0.195731 0.143803
0.268799 0.223240 0.164013
0.299570 0.248795 0.182788
0.326812 0.271420 0.199411
0.167590 0.139185 0.102259
0.194833 0.161811 0.118881
0.225604 0.187366 0.137656
0.258726 0.214874 0.157867
0.293024 0.243359 0.178795
0.327323 0.271844 0.199722
0.360445 0.299353 0.219933
0.391216 0.324908 0.238708
0.418458 0.347533 0.255331
0.271104 0.225155 0.165420
0.298347 0.247780 0.182042
0.329118 0.273335 0.200818
0.362240 0.300843 0.221028
0.396538 0.329329 0.241956
0.430837 0.357814 0.262883
0.463959 0.385322 0.283094
0.494730 0.410877 0.301869
0.521972 0.433503 0.318492
0.382530 0.317695 0.233408
0.409773 0.340320 0.250031
0.440544 0.365875 0.268806
0.473666 0.393384 0.289017
0.507964 0.421869 0.309944
0.542263 0.450354 0.330872
0.575385 0.477862 0.351082
0.606156 0.503417 0.369858
0.633398 0.526043 0.386480
0.497912 0.413520 0.303811
0.525155 0.436146 0.320434
0.555925 0.461701 0.339209
0.589048 0.489209 0.359419
0.623346 0.517694 0.380347
0.657645 0.546179 0.401275
0.690767 0.573688 0.421485
0.721538 0.599243 0.440260
0.748780 0.621868 0.456883
0.613294 0.509346 0.374213
0.640537 0.531971 0.390836
0.671307 0.557526 0.409611
0.704430 0.585035 0.429822
0.738728 0.613520 0.450749
0.773026 0.642005 0.471677
0.806149 0.669513 0.491887
0.836919 0.695069 0.510663
0.864162 0.717694 0.527285
0.724720 0.601886 0.442202
0.751963 0.624511 0.458825
0.782733 0.650067 0.477600
0.815856 0.677575 0.497810
0.850154 0.706060 0.518738
0.884452 0.734545 0.539666
0.917575 0.762054 0.559876
0.948345 0.787609 0.578651
0.975588 0.810234 0.595274
0.828234 0.687855 0.505363
0.855477 0.710481 0.521986
0.886247 0.736036 0.540761
0.919370 0.763544 0.560971
0.953668 0.792029 0.581899
0.987966 0.820514 0.602827
1.000000 0.848023 0.623037
1.000000 0.873578 0.641812
1.000000 0.896203 0.658435
0.919880 0.763968 0.561283
0.947123 0.786594 0.577906
0.977893 0.812149 0.596681
1.000000 0.839657 0.616891
1.000000 0.868142 0.637819
1.000000 0.896627 0.658747
1.000000 0.924136 0.678957
1.000000 0.949691 0.697732
1.000000 0.972316 0.714355
0.085196 0.070756 0.051984
0.112439 0.093381 0.068607
0.143209 0.118936 0.087382
0.176332 0.146445 0.107592
0.210630 0.174930 0.128520
0.244928 0.203415 0.149448
0.278051 0.230924 0.169658
0.308821 0.256479 0.188433
0.336064 0.279104 0.205056
0.176842 0.146869 0.107904
0.204085 0.169494 0.124526
0.234855 0.195049 0.143302
0.267978 0.222558 0.163512
0.302276 0.251043 0.184440
0.336575 0.279528 0.205368
0.369697 0.307036 0.225578
0.400467 0.332592 0.244353
0.427710 0.355217 0.260976
0.280356 0.232838 0.171065
0.307599 0.255463 0.187687
0.338369 0.281019 0.206463
0.371492 0.308527 0.226673
0.405790 0.337012 0.247601
0.440089 0.365497 0.268529
0.473211 0.393006 0.288739
0.503982 0.418561 0.307514
0.531224 0.441186 0.324137
0.391782 0.325378 0.239054
0.419025 0.348004 0.255676
0.449795 0.373559 0.274451
0.482918 0.401067 0.294662
0.517216 0.429552 0.315589
0.551514 0.458037 0.336517
0.584637 0.485546 0.356728
0.615407 0.511101 0.375503
0.642650 0.533726 0.392126
0.507164 0.421204 0.309456
0.534407 0.443829 0.326079
0.565177 0.469384 0.344854
0.598300 0.496893 0.365064
0.632598 0.525378 0.385992
0.666896 0.553863 0.406920
0.700019 0.581372 0.427130
0.730789 0.606927 0.445905
0.758032 0.629552 0.462528
0.622546 0.517030 0.379858
0.649789 0.539655 0.396481
0.680559 0.565210 0.415256
0.713682 0.592719 0.435467
0.747980 0.621204 0.456394
0.782278 0.649689 0.477322
0.815401 0.677197 0.497533
0.846171 0.702752 0.516308
0.873414 0.725378 0.532930
0.733972 0.609570 0.447847
0.761214 0.632195 0.464470
0.791985 0.657750 0.483245
0.825107 0.685259 0.503455
0.859406 0.713744 0.524383
0.893704 0.742229 0.545311
0.926827 0.769737 0.565521
0.957597 0.795293 0.584297
0.984840 0.817918 0.600919
0.837486 0.695539 0.511008
0.864729 0.718164 0.527631
0.895499 0.743720 0.546406
0.928621 0.771228 0.566616
0.962920 0.799713 0.587544
0.997218 0.828198 0.608472
1.000000 0.855707 0.628682
1.000000 0.881262 0.647458
1.000000 0.903887 0.664080
0.929132 0.771652 0.566928
0.956375 0.794277 0.583551
0.987145 0.819832 0.602326
1.000000 0.847341 0.622536
1.000000 0.875826 0.643464
1.000000 0.904311 0.664392
1.000000 0.931820 0.684602
1.000000 0.957375 0.703377
1.000000 0.980000 0.720000
