assets/luts/sepia.cube
# Sepia — Studio filter "sepia"
# Generated by scripts/generate-filter-luts.mjs — do not edit by hand.
LUT_3D_SIZE 5
DOMAIN_MIN 0.0 0.0 0.0
DOMAIN_MAX 1.0 1.0 1.0
0.000000 0.000000 0.000000
0.058013 0.048180 0.035398
0.125434 0.104174 0.076536
0.192855 0.160168 0.117674
0.250868 0.208348 0.153072
0.195160 0.162082 0.119081
0.253173 0.210263 0.154479
0.320594 0.266256 0.195617
0.388015 0.322250 0.236755
0.446028 0.370430 0.272153
0.421968 0.350448 0.257472
0.479981 0.398628 0.292870
0.547402 0.454622 0.334008
0.614823 0.510616 0.375146
0.672836 0.558796 0.410544
0.648776 0.538814 0.395863
0.706789 0.586994 0.431261
0.774210 0.642988 0.472399
0.841631 0.698981 0.513537
0.899644 0.747162 0.548935
0.843936 0.700896 0.514944
0.901949 0.749076 0.550342
0.969370 0.805070 0.591480
1.000000 0.861064 0.632618
1.000000 0.909244 0.668016
0.019702 0.016362 0.012021
0.077715 0.064543 0.047419
0.145136 0.120536 0.088557
0.212556 0.176530 0.129695
0.270570 0.224710 0.165093
0.214862 0.178445 0.131102
0.272875 0.226625 0.166500
0.340296 0.282619 0.207638
0.407717 0.338612 0.248776
0.465730 0.386793 0.284174
0.441670 0.366810 0.269493
0.499683 0.414991 0.304891
0.567104 0.470984 0.346029
0.634524 0.526978 0.387167
0.692538 0.575158 0.422565
0.668477 0.555176 0.407884
0.726491 0.603357 0.443282
0.793911 0.659350 0.484420
0.861332 0.715344 0.525559
0.919345 0.763524 0.560956
0.863638 0.717258 0.526965
0.921651 0.765439 0.562363
0.989072 0.821432 0.603501
1.000000 0.877426 0.644639
1.000000 0.925606 0.680037
0.042598 0.035378 0.025992
0.100611 0.083558 0.061390
0.168032 0.139552 0.102528
0.235453 0.195546 0.143666
0.293466 0.243726 0.179064
0.237758 0.197460 0.145073
0.295771 0.245641 0.180471
0.363192 0.301634 0.221609
0.430613 0.357628 0.262747
0.488626 0.405808 0.298145
0.464566 0.385826 0.283464
0.522579 0.434006 0.318862
0.590000 0.490000 0.360000
0.657421 0.545994 0.401138
0.715434 0.594174 0.436536
0.691374 0.574192 0.421855
0.749387 0.622372 0.457253
0.816808 0.678366 0.498391
0.884229 0.734359 0.539529
0.942242 0.782540 0.574927
0.886534 0.736274 0.540936
0.944547 0.784454 0.576334
1.000000 0.840448 0.617472
1.000000 0.896442 0.658610
1.000000 0.944622 0.694008
0.065494 0.054394 0.039963
0.123508 0.102574 0.075361
0.190928 0.158568 0.116499
0.258349 0.214561 0.157637
0.316362 0.262742 0.193035
0.260655 0.216476 0.159044
0.318668 0.264656 0.194441
0.386089 0.320650 0.235580
0.453509 0.376643 0.276718
0.511523 0.424824 0.312116
0.487462 0.404842 0.297435
0.545476 0.453022 0.332833
0.612896 0.509016 0.373971
0.680317 0.565009 0.415109
0.738330 0.613190 0.450507
0.714270 0.593207 0.435826
0.772283 0.641388 0.471224
0.839704 0.697381 0.512362
0.907125 0.753375 0.553500
0.965138 0.801555 0.588898
0.909430 0.755290 0.554907
0.967444 0.803470 0.590305
1.000000 0.859464 0.631443
1.000000 0.915457 0.672581
1.000000 0.963638 0.707979
0.085196 0.070756 0.051984
0.143209 0.118936 0.087382
0.210630 0.174930 0.128520
0.278051 0.230924 0.169658
0.336064 0.279104 0.205056
0.280356 0.232838 0.171065
0.338369 0.281019 0.206463
0.405790 0.337012 0.247601
0.473211 0.393006 0.288739
0.531224 0.441186 0.324137
0.507164 0.421204 0.309456
0.565177 0.469384 0.344854
0.632598 0.525378 0.385992
0.700019 0.581372 0.427130
0.758032 0.629552 0.462528
0.733972 0.609570 0.447847
0.791985 0.657750 0.483245
0.859406 0.713744 0.524383
0.926827 0.769737 0.565521
0.984840 0.817918 0.600919
0.929132 0.771652 0.566928
0.987145 0.819832 0.602326
1.000000 0.875826 0.643464
1.000000 0.931820 0.684602
1.000000 0.980000 0.720000
