assets/luts/sepia.cube
# Sepia — Studio filter "sepia"
# Generated by scripts/generate-filter-luts.mjs — do not edit by hand.
LUT_3D_SIZE 17
DOMAIN_MIN 0.0 0.0 0.0
DOMAIN_MAX 1.0 1.0 1.0
0.000000 0.000000 0.000000
0.013107 0.010885 0.007997
0.027243 0.022625 0.016623
0.042260 0.035098 0.025786
0.058013 0.048180 0.035398
0.074354 0.061752 0.045369
0.091136 0.075689 0.055608
0.108211 0.089870 0.066027
0.125434 0.104174 0.076536
0.142657 0.118478 0.087045
0.159732 0.132659 0.097464
0.176514 0.146596 0.107703
0.192855 0.160168 0.117674
0.208608 0.173250 0.127286
0.223625 0.185723 0.136449
0.237761 0.197463 0.145075
0.250868 0.208348 0.153072
0.044092 0.036619 0.026904
0.057199 0.047504 0.034901
0.071335 0.059244 0.043526
0.086353 0.071717 0.052690
0.102106 0.084800 0.062302
0.118446 0.098371 0.072272
0.135228 0.112308 0.082512
0.152304 0.126489 0.092931
0.169526 0.140793 0.103440
0.186749 0.155097 0.113949
0.203825 0.169278 0.124368
0.220606 0.183215 0.134607
0.236947 0.196787 0.144578
0.252700 0.209869 0.154190
0.267718 0.222342 0.163353
0.281853 0.234082 0.171978
0.294960 0.244967 0.179976
0.091646 0.076113 0.055920
0.104753 0.086998 0.063917
0.118889 0.098738 0.072542
0.133907 0.111211 0.081706
0.149659 0.124293 0.091318
0.166000 0.137865 0.101288
0.182782 0.151802 0.111528
0.199857 0.165983 0.121947
0.217080 0.180287 0.132456
0.234303 0.194591 0.142964
0.251379 0.208772 0.153384
0.268160 0.222709 0.163623
0.284501 0.236280 0.173594
0.300254 0.249363 0.183206
0.315271 0.261836 0.192369
0.329407 0.273576 0.200994
0.342514 0.284461 0.208992
0.142167 0.118071 0.086746
0.155274 0.128956 0.094743
0.169410 0.140696 0.103369
0.184427 0.153169 0.112532
0.200180 0.166251 0.122144
0.216521 0.179822 0.132114
0.233303 0.193760 0.142354
0.250378 0.207941 0.152773
0.267601 0.222245 0.163282
0.284824 0.236548 0.173791
0.301899 0.250730 0.184210
0.318681 0.264667 0.194449
0.335022 0.278238 0.204420
0.350774 0.291321 0.214032
0.365792 0.303794 0.223195
0.379928 0.315533 0.231821
0.393035 0.326419 0.239818
0.195160 0.162082 0.119081
0.208267 0.172968 0.127078
0.222403 0.184707 0.135703
0.237421 0.197180 0.144867
0.253173 0.210263 0.154479
0.269514 0.223834 0.164449
0.286296 0.237771 0.174689
0.303372 0.251953 0.185108
0.320594 0.266256 0.195617
0.337817 0.280560 0.206126
0.354893 0.294741 0.216545
0.371674 0.308679 0.226784
0.388015 0.322250 0.236755
0.403768 0.335333 0.246367
0.418786 0.347805 0.255530
0.432921 0.359545 0.264155
0.446028 0.370430 0.272153
0.250131 0.207736 0.152623
0.263238 0.218622 0.160620
0.277374 0.230362 0.169245
0.292392 0.242834 0.178409
0.308145 0.255917 0.188020
0.324485 0.269488 0.197991
0.341267 0.283425 0.208231
0.358343 0.297607 0.218650
0.375565 0.311910 0.229159
0.392788 0.326214 0.239667
0.409864 0.340395 0.250086
0.426645 0.354333 0.260326
0.442986 0.367904 0.270297
0.458739 0.380987 0.279909
0.473757 0.393459 0.289072
0.487893 0.405199 0.297697
0.500999 0.416084 0.305695
0.306586 0.254622 0.187069
0.319693 0.265508 0.195067
0.333829 0.277248 0.203692
0.348847 0.289720 0.212856
0.364599 0.302803 0.222467
0.380940 0.316374 0.232438
0.397722 0.330311 0.242678
0.414797 0.344493 0.253097
0.432020 0.358796 0.263605
0.449243 0.373100 0.274114
0.466318 0.387281 0.284533
0.483100 0.401219 0.294773
0.499441 0.414790 0.304744
0.515194 0.427873 0.314355
0.530211 0.440345 0.323519
0.544347 0.452085 0.332144
0.557454 0.462970 0.340141
0.364030 0.302330 0.222120
0.377137 0.313215 0.230117
0.391273 0.324955 0.238743
0.406290 0.337428 0.247906
0.422043 0.350510 0.257518
0.438384 0.364081 0.267488
0.455165 0.378019 0.277728
0.472241 0.392200 0.288147
0.489464 0.406504 0.298656
0.506686 0.420807 0.309165
0.523762 0.434989 0.319584
0.540544 0.448926 0.329823
0.556885 0.462497 0.339794
0.572637 0.475580 0.349406
0.587655 0.488053 0.358569
0.601791 0.499792 0.367194
0.614898 0.510678 0.375192
0.421968 0.350448 0.257472
0.435075 0.361333 0.265469
0.449211 0.373073 0.274095
0.464228 0.385546 0.283258
0.479981 0.398628 0.292870
0.496322 0.412200 0.302841
0.513104 0.426137 0.313080
0.530179 0.440318 0.323499
0.547402 0.454622 0.334008
0.564625 0.468926 0.344517
0.581700 0.483107 0.354936
0.598482 0.497044 0.365175
0.614823 0.510616 0.375146
0.630576 0.523698 0.384758
0.645593 0.536171 0.393921
0.659729 0.547911 0.402547
0.672836 0.558796 0.410544
0.479906 0.398566 0.292824
0.493013 0.409452 0.300822
0.507149 0.421191 0.309447
0.522167 0.433664 0.318610
0.537919 0.446747 0.328222
0.554260 0.460318 0.338193
0.571042 0.474255 0.348432
0.588118 0.488437 0.358851
0.605340 0.502740 0.369360
0.622563 0.517044 0.379869
0.639639 0.531225 0.390288
0.656420 0.545163 0.400528
0.672761 0.558734 0.410498
0.688514 0.571816 0.420110
0.703531 0.584289 0.429273
0.717667 0.596029 0.437899
0.730774 0.606914 0.445896
0.537350 0.446274 0.327874
0.550457 0.457159 0.335872
0.564593 0.468899 0.344497
0.579610 0.481371 0.353661
0.595363 0.494454 0.363272
0.611704 0.508025 0.373243
0.628486 0.521963 0.383483
0.645561 0.536144 0.393902
0.662784 0.550448 0.404410
0.680007 0.564751 0.414919
0.697082 0.578933 0.425338
0.713864 0.592870 0.435578
0.730205 0.606441 0.445549
0.745957 0.619524 0.455160
0.760975 0.631996 0.464324
0.775111 0.643736 0.472949
0.788218 0.654622 0.480946
0.593805 0.493160 0.362321
0.606911 0.504045 0.370319
0.621047 0.515785 0.378944
0.636065 0.528257 0.388107
0.651818 0.541340 0.397719
0.668159 0.554911 0.407690
0.684940 0.568849 0.417930
0.702016 0.583030 0.428349
0.719239 0.597334 0.438857
0.736461 0.611637 0.449366
0.753537 0.625819 0.459785
0.770319 0.639756 0.470025
0.786659 0.653327 0.479996
0.802412 0.666410 0.489607
0.817430 0.678882 0.498771
0.831566 0.690622 0.507396
0.844673 0.701508 0.515393
0.648776 0.538814 0.395863
0.661883 0.549699 0.403861
0.676018 0.561439 0.412486
0.691036 0.573911 0.421649
0.706789 0.586994 0.431261
0.723130 0.600565 0.441232
0.739911 0.614503 0.451471
0.756987 0.628684 0.461890
0.774210 0.642988 0.472399
0.791432 0.657291 0.482908
0.808508 0.671473 0.493327
0.825290 0.685410 0.503567
0.841631 0.698981 0.513537
0.857383 0.712064 0.523149
0.872401 0.724537 0.532313
0.886537 0.736276 0.540938
0.899644 0.747162 0.548935
0.701769 0.582825 0.428198
0.714876 0.593711 0.436195
0.729012 0.605450 0.444821
0.744030 0.617923 0.453984
0.759782 0.631006 0.463596
0.776123 0.644577 0.473567
0.792905 0.658514 0.483806
0.809980 0.672696 0.494225
0.827203 0.686999 0.504734
0.844426 0.701303 0.515243
0.861501 0.715484 0.525662
0.878283 0.729422 0.535902
0.894624 0.742993 0.545872
0.910377 0.756075 0.555484
0.925394 0.768548 0.564647
0.939530 0.780288 0.573273
0.952637 0.791173 0.581270
0.752290 0.624783 0.459024
0.765397 0.635668 0.467022
0.779533 0.647408 0.475647
0.794550 0.659881 0.484810
0.810303 0.672964 0.494422
0.826644 0.686535 0.504393
0.843425 0.700472 0.514632
0.860501 0.714653 0.525052
0.877724 0.728957 0.535560
0.894947 0.743261 0.546069
0.912022 0.757442 0.556488
0.928804 0.771379 0.566728
0.945145 0.784951 0.576698
0.960897 0.798033 0.586310
0.975915 0.810506 0.595474
0.990051 0.822246 0.604099
1.000000 0.833131 0.612096
0.799844 0.664277 0.488040
0.812951 0.675162 0.496038
0.827086 0.686902 0.504663
0.842104 0.699375 0.513826
0.857857 0.712457 0.523438
0.874198 0.726029 0.533409
0.890979 0.739966 0.543648
0.908055 0.754147 0.554067
0.925278 0.768451 0.564576
0.942500 0.782755 0.575085
0.959576 0.796936 0.585504
0.976358 0.810873 0.595744
0.992698 0.824444 0.605714
1.000000 0.837527 0.615326
1.000000 0.850000 0.624490
1.000000 0.861740 0.633115
1.000000 0.872625 0.641112
0.843936 0.700896 0.514944
0.857043 0.711781 0.522941
0.871179 0.723521 0.531567
0.886196 0.735994 0.540730
0.901949 0.749076 0.550342
0.918290 0.762648 0.560313
0.935072 0.776585 0.570552
0.952147 0.790766 0.580971
0.969370 0.805070 0.591480
0.986593 0.819374 0.601989
1.000000 0.833555 0.612408
1.000000 0.847492 0.622647
1.000000 0.861064 0.632618
1.000000 0.874146 0.642230
1.000000 0.886619 0.651393
1.000000 0.898359 0.660019
1.000000 0.909244 0.668016
0.004451 0.003697 0.002716
0.017558 0.014582 0.010713
0.031694 0.026322 0.019339
0.046712 0.038794 0.028502
0.062464 0.051877 0.038114
0.078805 0.065448 0.048084
0.095587 0.079386 0.058324
0.112662 0.093567 0.068743
0.129885 0.107871 0.079252
0.147108 0.122174 0.089761
0.164184 0.136356 0.100180
0.180965 0.150293 0.110419
0.197306 0.163864 0.120390
0.213059 0.176947 0.130002
0.228076 0.189419 0.139165
0.242212 0.201159 0.147791
0.255319 0.212045 0.155788
0.048544 0.040316 0.029620
0.061650 0.051201 0.037617
0.075786 0.062941 0.046242
0.090804 0.075413 0.055406
0.106557 0.088496 0.065018
0.122897 0.102067 0.074988
0.139679 0.116005 0.085228
0.156755 0.130186 0.095647
0.173978 0.144490 0.106156
0.191200 0.158793 0.116665
0.208276 0.172975 0.127084
0.225058 0.186912 0.137323
0.241398 0.200483 0.147294
0.257151 0.213566 0.156906
0.272169 0.226039 0.166069
0.286305 0.237778 0.174694
0.299412 0.248664 0.182692
0.096097 0.079810 0.058636
0.109204 0.090695 0.066633
0.123340 0.102435 0.075258
0.138358 0.114907 0.084422
0.154111 0.127990 0.094034
0.170451 0.141561 0.104004
0.187233 0.155499 0.114244
0.204309 0.169680 0.124663
0.221531 0.183984 0.135172
0.238754 0.198287 0.145680
0.255830 0.212469 0.156099
0.272611 0.226406 0.166339
0.288952 0.239977 0.176310
0.304705 0.253060 0.185922
0.319723 0.265532 0.195085
0.333858 0.277272 0.203710
0.346965 0.288158 0.211708
0.146618 0.121768 0.089462
0.159725 0.132653 0.097459
0.173861 0.144393 0.106085
0.188879 0.156865 0.115248
0.204631 0.169948 0.124860
0.220972 0.183519 0.134830
0.237754 0.197457 0.145070
0.254829 0.211638 0.155489
0.272052 0.225942 0.165998
0.289275 0.240245 0.176507
0.306350 0.254427 0.186926
0.323132 0.268364 0.197165
0.339473 0.281935 0.207136
0.355226 0.295018 0.216748
0.370243 0.307490 0.225911
0.384379 0.319230 0.234536
0.397486 0.330116 0.242534
0.199611 0.165779 0.121797
0.212718 0.176664 0.129794
0.226854 0.188404 0.138419
0.241872 0.200877 0.147583
0.257625 0.213959 0.157195
0.273965 0.227531 0.167165
0.290747 0.241468 0.177405
0.307823 0.255649 0.187824
0.325045 0.269953 0.198333
0.342268 0.284257 0.208842
0.359344 0.298438 0.219261
0.376125 0.312375 0.229500
0.392466 0.325946 0.239471
0.408219 0.339029 0.249083
0.423237 0.351502 0.258246
0.437372 0.363242 0.266871
0.450479 0.374127 0.274869
0.254583 0.211433 0.155339
0.267689 0.222318 0.163336
0.281825 0.234058 0.171961
0.296843 0.246531 0.181125
0.312596 0.259613 0.190736
0.328937 0.273185 0.200707
0.345718 0.287122 0.210947
0.362794 0.301303 0.221366
0.380017 0.315607 0.231875
0.397239 0.329911 0.242383
0.414315 0.344092 0.252802
0.431097 0.358029 0.263042
0.447437 0.371601 0.273013
0.463190 0.384683 0.282624
0.478208 0.397156 0.291788
0.492344 0.408896 0.300413
0.505451 0.419781 0.308411
0.311037 0.258319 0.189785
0.324144 0.269204 0.197783
0.338280 0.280944 0.206408
0.353298 0.293417 0.215572
0.369051 0.306500 0.225183
0.385391 0.320071 0.235154
0.402173 0.334008 0.245394
0.419249 0.348190 0.255813
0.436471 0.362493 0.266321
0.453694 0.376797 0.276830
0.470770 0.390978 0.287249
0.487551 0.404916 0.297489
0.503892 0.418487 0.307460
0.519645 0.431569 0.317071
0.534663 0.444042 0.326235
0.548798 0.455782 0.334860
0.561905 0.466667 0.342857
0.368481 0.306027 0.224836
0.381588 0.316912 0.232833
0.395724 0.328652 0.241459
0.410741 0.341124 0.250622
0.426494 0.354207 0.260234
0.442835 0.367778 0.270204
0.459617 0.381715 0.280444
0.476692 0.395897 0.290863
0.493915 0.410201 0.301372
0.511138 0.424504 0.311881
0.528213 0.438686 0.322300
0.544995 0.452623 0.332539
0.561336 0.466194 0.342510
0.577088 0.479277 0.352122
0.592106 0.491749 0.361285
0.606242 0.503489 0.369910
0.619349 0.514375 0.377908
0.426419 0.354145 0.260188
0.439526 0.365030 0.268185
0.453662 0.376770 0.276811
0.468680 0.389242 0.285974
0.484432 0.402325 0.295586
0.500773 0.415896 0.305556
0.517555 0.429834 0.315796
0.534630 0.444015 0.326215
0.551853 0.458319 0.336724
0.569076 0.472622 0.347233
0.586152 0.486804 0.357652
0.602933 0.500741 0.367891
0.619274 0.514312 0.377862
0.635027 0.527395 0.387474
0.650044 0.539867 0.396637
0.664180 0.551607 0.405263
0.677287 0.562493 0.413260
0.484357 0.402263 0.295540
0.497464 0.413148 0.303537
0.511600 0.424888 0.312163
0.526618 0.437361 0.321326
0.542371 0.450443 0.330938
0.558711 0.464014 0.340909
0.575493 0.477952 0.351148
0.592569 0.492133 0.361567
0.609791 0.506437 0.372076
0.627014 0.520740 0.382585
0.644090 0.534922 0.393004
0.660871 0.548859 0.403244
0.677212 0.562430 0.413214
0.692965 0.575513 0.422826
0.707983 0.587986 0.431989
0.722118 0.599726 0.440615
0.735225 0.610611 0.448612
0.541801 0.449970 0.330590
0.554908 0.460856 0.338588
0.569044 0.472596 0.347213
0.584062 0.485068 0.356377
0.599814 0.498151 0.365988
0.616155 0.511722 0.375959
0.632937 0.525659 0.386199
0.650012 0.539841 0.396618
0.667235 0.554144 0.407126
0.684458 0.568448 0.417635
0.701533 0.582629 0.428054
0.718315 0.596567 0.438294
0.734656 0.610138 0.448265
0.750409 0.623221 0.457876
0.765426 0.635693 0.467040
0.779562 0.647433 0.475665
0.792669 0.658318 0.483662
0.598256 0.496856 0.365037
0.611363 0.507742 0.373035
0.625498 0.519482 0.381660
0.640516 0.531954 0.390823
0.656269 0.545037 0.400435
0.672610 0.558608 0.410406
0.689391 0.572545 0.420646
0.706467 0.586727 0.431065
0.723690 0.601030 0.441573
0.740912 0.615334 0.452082
0.757988 0.629516 0.462501
0.774770 0.643453 0.472741
0.791111 0.657024 0.482711
0.806863 0.670107 0.492323
0.821881 0.682579 0.501487
0.836017 0.694319 0.510112
0.849124 0.705204 0.518109
0.653227 0.542511 0.398579
0.666334 0.553396 0.406577
0.680470 0.565136 0.415202
0.695487 0.577608 0.424365
0.711240 0.590691 0.433977
0.727581 0.604262 0.443948
0.744363 0.618199 0.454187
0.761438 0.632381 0.464606
0.778661 0.646685 0.475115
0.795884 0.660988 0.485624
0.812959 0.675170 0.496043
0.829741 0.689107 0.506283
0.846082 0.702678 0.516253
0.861834 0.715761 0.525865
0.876852 0.728233 0.535028
0.890988 0.739973 0.543654
0.904095 0.750859 0.551651
0.706220 0.586522 0.430914
0.719327 0.597407 0.438911
0.733463 0.609147 0.447537
0.748481 0.621620 0.456700
0.764233 0.634702 0.466312
0.780574 0.648273 0.476283
0.797356 0.662211 0.486522
0.814432 0.676392 0.496941
0.831654 0.690696 0.507450
0.848877 0.704999 0.517959
0.865953 0.719181 0.528378
0.882734 0.733118 0.538618
0.899075 0.746689 0.548588
0.914828 0.759772 0.558200
0.929846 0.772245 0.567363
0.943981 0.783984 0.575989
0.957088 0.794870 0.583986
0.756741 0.628480 0.461740
0.769848 0.639365 0.469738
0.783984 0.651105 0.478363
0.799001 0.663577 0.487526
0.814754 0.676660 0.497138
0.831095 0.690231 0.507109
0.847877 0.704169 0.517348
0.864952 0.718350 0.527768
0.882175 0.732654 0.538276
0.899398 0.746957 0.548785
0.916473 0.761139 0.559204
0.933255 0.775076 0.569444
0.949596 0.788647 0.579414
0.965349 0.801730 0.589026
0.980366 0.814203 0.598190
0.994502 0.825942 0.606815
1.000000 0.836828 0.614812
0.804295 0.667974 0.490756
0.817402 0.678859 0.498754
0.831537 0.690599 0.507379
0.846555 0.703071 0.516542
0.862308 0.716154 0.526154
0.878649 0.729725 0.536125
0.895430 0.743663 0.546364
0.912506 0.757844 0.556783
0.929729 0.772148 0.567292
0.946951 0.786451 0.577801
0.964027 0.800633 0.588220
0.980809 0.814570 0.598460
0.997150 0.828141 0.608430
1.000000 0.841224 0.618042
1.000000 0.853696 0.627205
1.000000 0.865436 0.635831
1.000000 0.876322 0.643828
0.848387 0.704593 0.517660
0.861494 0.715478 0.525657
0.875630 0.727218 0.534283
0.890648 0.739690 0.543446
0.906400 0.752773 0.553058
0.922741 0.766344 0.563028
0.939523 0.780282 0.573268
0.956598 0.794463 0.583687
0.973821 0.808767 0.594196
0.991044 0.823070 0.604705
1.000000 0.837252 0.615124
1.000000 0.851189 0.625363
1.000000 0.864760 0.635334
1.000000 0.877843 0.644946
1.000000 0.890315 0.654109
1.000000 0.902055 0.662735
1.000000 0.912941 0.670732
0.009252 0.007684 0.005645
0.022359 0.018569 0.013643
0.036494 0.030309 0.022268
0.051512 0.042781 0.031431
0.067265 0.055864 0.041043
0.083606 0.069435 0.051014
0.100387 0.083373 0.061253
0.117463 0.097554 0.071672
0.134686 0.111858 0.082181
0.151908 0.126161 0.092690
0.168984 0.140343 0.103109
0.185766 0.154280 0.113349
0.202107 0.167851 0.123319
0.217859 0.180934 0.132931
0.232877 0.193406 0.142094
0.247013 0.205146 0.150720
0.260120 0.216032 0.158717
0.053344 0.044303 0.032549
0.066451 0.055188 0.040546
0.080587 0.066928 0.049172
0.095605 0.079400 0.058335
0.111357 0.092483 0.067947
0.127698 0.106054 0.077917
0.144480 0.119992 0.088157
0.161555 0.134173 0.098576
0.178778 0.148477 0.109085
0.196001 0.162780 0.119594
0.213076 0.176962 0.130013
0.229858 0.190899 0.140252
0.246199 0.204470 0.150223
0.261952 0.217553 0.159835
0.276969 0.230025 0.168998
0.291105 0.241765 0.177624
0.304212 0.252651 0.185621
0.100898 0.083797 0.061565
0.114005 0.094682 0.069562
0.128141 0.106422 0.078187
0.143158 0.118894 0.087351
0.158911 0.131977 0.096963
0.175252 0.145548 0.106933
0.192034 0.159486 0.117173
0.209109 0.173667 0.127592
0.226332 0.187971 0.138101
0.243555 0.202274 0.148610
0.260630 0.216456 0.159029
0.277412 0.230393 0.169268
0.293753 0.243964 0.179239
0.309505 0.257047 0.188851
0.324523 0.269519 0.198014
0.338659 0.281259 0.206639
0.351766 0.292145 0.214637
0.151419 0.125755 0.092391
0.164526 0.136640 0.100388
0.178661 0.148380 0.109014
0.193679 0.160852 0.118177
0.209432 0.173935 0.127789
0.225773 0.187506 0.137760
0.242554 0.201443 0.147999
0.259630 0.215625 0.158418
0.276853 0.229929 0.168927
0.294075 0.244232 0.179436
0.311151 0.258414 0.189855
0.327933 0.272351 0.200095
0.344273 0.285922 0.210065
0.360026 0.299005 0.219677
0.375044 0.311477 0.228840
0.389180 0.323217 0.237466
0.402287 0.334103 0.245463
0.204412 0.169766 0.124726
0.217519 0.180651 0.132723
0.231655 0.192391 0.141349
0.246672 0.204864 0.150512
0.262425 0.217946 0.160124
0.278766 0.231517 0.170094
0.295548 0.245455 0.180334
0.312623 0.259636 0.190753
0.329846 0.273940 0.201262
0.347069 0.288243 0.211771
0.364144 0.302425 0.222190
0.380926 0.316362 0.232429
0.397267 0.329933 0.242400
0.413019 0.343016 0.252012
0.428037 0.355489 0.261175
0.442173 0.367228 0.269801
0.455280 0.378114 0.277798
0.259383 0.215420 0.158268
0.272490 0.226305 0.166265
0.286626 0.238045 0.174890
0.301644 0.250518 0.184054
0.317396 0.263600 0.193666
0.333737 0.277172 0.203636
0.350519 0.291109 0.213876
0.367594 0.305290 0.224295
0.384817 0.319594 0.234804
0.402040 0.333898 0.245312
0.419116 0.348079 0.255732
0.435897 0.362016 0.265971
0.452238 0.375587 0.275942
0.467991 0.388670 0.285554
0.483008 0.401143 0.294717
0.497144 0.412883 0.303342
0.510251 0.423768 0.311340
0.315838 0.262306 0.192715
0.328945 0.273191 0.200712
0.343081 0.284931 0.209337
0.358098 0.297404 0.218501
0.373851 0.310487 0.228113
0.390192 0.324058 0.238083
0.406974 0.337995 0.248323
0.424049 0.352176 0.258742
0.441272 0.366480 0.269251
0.458495 0.380784 0.279759
0.475570 0.394965 0.290178
0.492352 0.408902 0.300418
0.508693 0.422474 0.310389
0.524445 0.435556 0.320001
0.539463 0.448029 0.329164
0.553599 0.459769 0.337789
0.566706 0.470654 0.345787
0.373282 0.310014 0.227765
0.386388 0.320899 0.235762
0.400524 0.332639 0.244388
0.415542 0.345111 0.253551
0.431295 0.358194 0.263163
0.447636 0.371765 0.273134
0.464417 0.385702 0.283373
0.481493 0.399884 0.293792
0.498716 0.414188 0.304301
0.515938 0.428491 0.314810
0.533014 0.442673 0.325229
0.549796 0.456610 0.335469
0.566136 0.470181 0.345439
0.581889 0.483264 0.355051
0.596907 0.495736 0.364214
0.611043 0.507476 0.372840
0.624150 0.518362 0.380837
0.431220 0.358132 0.263117
0.444327 0.369017 0.271115
0.458462 0.380757 0.279740
0.473480 0.393229 0.288903
0.489233 0.406312 0.298515
0.505574 0.419883 0.308486
0.522355 0.433821 0.318725
0.539431 0.448002 0.329144
0.556654 0.462306 0.339653
0.573876 0.476609 0.350162
0.590952 0.490791 0.360581
0.607734 0.504728 0.370821
0.624075 0.518299 0.380791
0.639827 0.531382 0.390403
0.654845 0.543854 0.399566
0.668981 0.555594 0.408192
0.682088 0.566480 0.416189
0.489158 0.406250 0.298469
0.502265 0.417135 0.306467
0.516401 0.428875 0.315092
0.531418 0.441347 0.324255
0.547171 0.454430 0.333867
0.563512 0.468001 0.343838
0.580294 0.481939 0.354077
0.597369 0.496120 0.364496
0.614592 0.510424 0.375005
0.631815 0.524727 0.385514
0.648890 0.538909 0.395933
0.665672 0.552846 0.406173
0.682013 0.566417 0.416143
0.697765 0.579500 0.425755
0.712783 0.591973 0.434919
0.726919 0.603712 0.443544
0.740026 0.614598 0.451541
0.546602 0.453957 0.333520
0.559709 0.464843 0.341517
0.573844 0.476583 0.350142
0.588862 0.489055 0.359306
0.604615 0.502138 0.368918
0.620956 0.515709 0.378888
0.637737 0.529646 0.389128
0.654813 0.543828 0.399547
0.672036 0.558131 0.410056
0.689258 0.572435 0.420564
0.706334 0.586616 0.430983
0.723116 0.600554 0.441223
0.739456 0.614125 0.451194
0.755209 0.627208 0.460806
0.770227 0.639680 0.469969
0.784363 0.651420 0.478594
0.797470 0.662305 0.486592
0.603056 0.500843 0.367967
0.616163 0.511729 0.375964
0.630299 0.523469 0.384589
0.645317 0.535941 0.393753
0.661070 0.549024 0.403364
0.677410 0.562595 0.413335
0.694192 0.576532 0.423575
0.711268 0.590714 0.433994
0.728490 0.605017 0.444503
0.745713 0.619321 0.455011
0.762789 0.633502 0.465430
0.779570 0.647440 0.475670
0.795911 0.661011 0.485641
0.811664 0.674094 0.495253
0.826682 0.686566 0.504416
0.840817 0.698306 0.513041
0.853924 0.709191 0.521039
0.658028 0.546497 0.401508
0.671134 0.557383 0.409506
0.685270 0.569123 0.418131
0.700288 0.581595 0.427294
0.716041 0.594678 0.436906
0.732381 0.608249 0.446877
0.749163 0.622186 0.457117
0.766239 0.636368 0.467536
0.783462 0.650671 0.478044
0.800684 0.664975 0.488553
0.817760 0.679157 0.498972
0.834542 0.693094 0.509212
0.850882 0.706665 0.519182
0.866635 0.719748 0.528794
0.881653 0.732220 0.537958
0.895789 0.743960 0.546583
0.908896 0.754845 0.554580
0.711021 0.590509 0.433843
0.724128 0.601394 0.441841
0.738263 0.613134 0.450466
0.753281 0.625606 0.459629
0.769034 0.638689 0.469241
0.785375 0.652260 0.479212
0.802156 0.666198 0.489451
0.819232 0.680379 0.499870
0.836455 0.694683 0.510379
0.853677 0.708986 0.520888
0.870753 0.723168 0.531307
0.887535 0.737105 0.541547
0.903876 0.750676 0.551517
0.919628 0.763759 0.561129
0.934646 0.776232 0.570293
0.948782 0.787971 0.578918
0.961889 0.798857 0.586915
0.761542 0.632467 0.464669
0.774648 0.643352 0.472667
0.788784 0.655092 0.481292
0.803802 0.667564 0.490455
0.819555 0.680647 0.500067
0.835896 0.694218 0.510038
0.852677 0.708156 0.520278
0.869753 0.722337 0.530697
0.886976 0.736641 0.541205
0.904198 0.750944 0.551714
0.921274 0.765126 0.562133
0.938056 0.779063 0.572373
0.954396 0.792634 0.582344
0.970149 0.805717 0.591955
0.985167 0.818189 0.601119
0.999303 0.829929 0.609744
1.000000 0.840815 0.617741
0.809095 0.671961 0.493685
0.822202 0.682846 0.501683
0.836338 0.694586 0.510308
0.851356 0.707058 0.519471
0.867109 0.720141 0.529083
0.883449 0.733712 0.539054
0.900231 0.747650 0.549294
0.917307 0.761831 0.559713
0.934529 0.776135 0.570221
0.951752 0.790438 0.580730
0.968828 0.804620 0.591149
0.985609 0.818557 0.601389
1.000000 0.832128 0.611359
1.000000 0.845211 0.620971
1.000000 0.857683 0.630135
1.000000 0.869423 0.638760
1.000000 0.880309 0.646757
0.853188 0.708580 0.520589
0.866295 0.719465 0.528587
0.880430 0.731205 0.537212
0.895448 0.743677 0.546375
0.911201 0.756760 0.555987
0.927542 0.770331 0.565958
0.944323 0.784269 0.576197
0.961399 0.798450 0.586616
0.978622 0.812754 0.597125
0.995844 0.827057 0.607634
1.000000 0.841239 0.618053
1.000000 0.855176 0.628293
1.000000 0.868747 0.638263
1.000000 0.881830 0.647875
1.000000 0.894302 0.657038
1.000000 0.906042 0.665664
1.000000 0.916928 0.673661
0.014352 0.011919 0.008757
0.027459 0.022805 0.016754
0.041595 0.034545 0.025380
0.056612 0.047017 0.034543
0.072365 0.060100 0.044155
0.088706 0.073671 0.054126
0.105488 0.087608 0.064365
0.122563 0.101790 0.074784
0.139786 0.116093 0.085293
0.157009 0.130397 0.095802
0.174084 0.144578 0.106221
0.190866 0.158516 0.116461
0.207207 0.172087 0.126431
0.222959 0.185170 0.136043
0.237977 0.197642 0.145206
