assets/luts/silver.cube
# Silver — Studio filter "silver"
# Generated by scripts/generate-filter-luts.mjs — do not edit by hand.
LUT_3D_SIZE 9
DOMAIN_MIN 0.0 0.0 0.0
DOMAIN_MAX 1.0 1.0 1.0
0.000000 0.000000 0.000000
0.013739 0.014470 0.016078
0.042467 0.044726 0.049695
0.071194 0.074981 0.083313
0.099922 0.105237 0.116930
0.128650 0.135493 0.150547
0.157377 0.165748 0.184165
0.186105 0.196004 0.217782
0.199844 0.210474 0.233860
0.046220 0.048678 0.054087
0.059959 0.063148 0.070165
0.088687 0.093404 0.103782
0.117414 0.123660 0.137400
0.146142 0.153915 0.171017
0.174869 0.184171 0.204634
0.203597 0.214427 0.238252
0.232325 0.244682 0.271869
0.246064 0.259152 0.287947
0.142861 0.150460 0.167178
0.156600 0.164930 0.183256
0.185328 0.195186 0.216873
0.214056 0.225442 0.250491
0.242783 0.255697 0.284108
0.271511 0.285953 0.317725
0.300238 0.316208 0.351343
0.328966 0.346464 0.384960
0.342705 0.360934 0.401038
0.239503 0.252242 0.280269
0.253242 0.266712 0.296347
0.281969 0.296968 0.329964
0.310697 0.327223 0.363582
0.339425 0.357479 0.397199
0.368152 0.387735 0.430816
0.396880 0.417990 0.464434
0.425607 0.448246 0.498051
0.439347 0.462716 0.514129
0.336144 0.354024 0.393360
0.349883 0.368494 0.409438
0.378611 0.398750 0.443055
0.407338 0.429005 0.476673
0.436066 0.459261 0.510290
0.464794 0.489517 0.543907
0.493521 0.519772 0.577525
0.522249 0.550028 0.611142
0.535988 0.564498 0.627220
0.432785 0.455806 0.506451
0.446525 0.470276 0.522529
0.475252 0.500532 0.556146
0.503980 0.530787 0.589764
0.532707 0.561043 0.623381
0.561435 0.591299 0.656998
0.590163 0.621554 0.690616
0.618890 0.651810 0.724233
0.632629 0.666280 0.740311
0.529427 0.557588 0.619542
0.543166 0.572058 0.635620
0.571894 0.602314 0.669237
0.600621 0.632569 0.702855
0.629349 0.662825 0.736472
0.658076 0.693080 0.770089
0.686804 0.723336 0.803707
0.715532 0.753592 0.837324
0.729271 0.768062 0.853402
0.626068 0.659370 0.732633
0.639807 0.673840 0.748711
0.668535 0.704095 0.782328
0.697263 0.734351 0.815946
0.725990 0.764607 0.849563
0.754718 0.794862 0.883180
0.783445 0.825118 0.916798
0.812173 0.855374 0.950415
0.825912 0.869844 0.966493
0.672288 0.708048 0.786720
0.686027 0.722518 0.802798
0.714755 0.752774 0.836415
0.743482 0.783029 0.870033
0.772210 0.813285 0.903650
0.800938 0.843541 0.937267
0.829665 0.873796 0.970885
0.858393 0.904052 1.000000
0.872132 0.918522 1.000000
0.004666 0.004914 0.005460
0.018405 0.019384 0.021538
0.047133 0.049640 0.055155
0.075860 0.079895 0.088773
0.104588 0.110151 0.122390
0.133316 0.140407 0.156008
0.162043 0.170662 0.189625
0.190771 0.200918 0.223242
0.204510 0.215388 0.239320
0.050886 0.053592 0.059547
0.064625 0.068063 0.075625
0.093353 0.098318 0.109242
0.122080 0.128574 0.142860
0.150808 0.158829 0.176477
0.179535 0.189085 0.210095
0.208263 0.219341 0.243712
0.236990 0.249596 0.277329
0.250730 0.264066 0.293407
0.147527 0.155374 0.172638
0.161266 0.169844 0.188716
0.189994 0.200100 0.222333
0.218722 0.230356 0.255951
0.247449 0.260611 0.289568
0.276177 0.290867 0.323186
0.304904 0.321123 0.356803
0.333632 0.351378 0.390420
0.347371 0.365848 0.406498
0.244169 0.257156 0.285729
0.257908 0.271626 0.301807
0.286635 0.301882 0.335424
0.315363 0.332138 0.369042
0.344091 0.362393 0.402659
0.372818 0.392649 0.436277
0.401546 0.422904 0.469894
0.430273 0.453160 0.503511
0.444013 0.467630 0.519589
0.340810 0.358938 0.398820
0.354549 0.373408 0.414898
0.383277 0.403664 0.448515
0.412004 0.433919 0.482133
0.440732 0.464175 0.515750
0.469459 0.494431 0.549368
0.498187 0.524686 0.582985
0.526915 0.554942 0.616602
0.540654 0.569412 0.632680
0.437451 0.460720 0.511911
0.451191 0.475190 0.527989
0.479918 0.505446 0.561606
0.508646 0.535701 0.595224
0.537373 0.565957 0.628841
0.566101 0.596213 0.662459
0.594828 0.626468 0.696076
0.623556 0.656724 0.729693
0.637295 0.671194 0.745771
0.534093 0.562502 0.625002
0.547832 0.576972 0.641080
0.576560 0.607228 0.674697
0.605287 0.637483 0.708315
0.634015 0.667739 0.741932
0.662742 0.697995 0.775550
0.691470 0.728250 0.809167
0.720197 0.758506 0.842784
0.733937 0.772976 0.858862
0.630734 0.664284 0.738093
0.644473 0.678754 0.754171
0.673201 0.709010 0.787788
0.701929 0.739265 0.821406
0.730656 0.769521 0.855023
0.759384 0.799776 0.888641
0.788111 0.830032 0.922258
0.816839 0.860288 0.955875
0.830578 0.874758 0.971953
0.676954 0.712962 0.792180
0.690693 0.727432 0.808258
0.719421 0.757688 0.841875
0.748148 0.787943 0.875493
0.776876 0.818199 0.909110
0.805604 0.848455 0.942728
0.834331 0.878710 0.976345
0.863059 0.908966 1.000000
0.876798 0.923436 1.000000
0.014422 0.015189 0.016877
0.028161 0.029659 0.032955
0.056889 0.059915 0.066572
0.085616 0.090170 0.100189
0.114344 0.120426 0.133807
0.143072 0.150682 0.167424
0.171799 0.180937 0.201042
0.200527 0.211193 0.234659
0.214266 0.225663 0.250737
0.060642 0.063867 0.070964
0.074381 0.078337 0.087042
0.103109 0.108593 0.120659
0.131836 0.138849 0.154276
0.160564 0.169104 0.187894
0.189291 0.199360 0.221511
0.218019 0.229616 0.255129
0.246746 0.259871 0.288746
0.260486 0.274341 0.304824
0.157283 0.165649 0.184055
0.171022 0.180119 0.200133
0.199750 0.210375 0.233750
0.228478 0.240631 0.267367
0.257205 0.270886 0.300985
0.285933 0.301142 0.334602
0.314660 0.331398 0.368220
0.343388 0.361653 0.401837
0.357127 0.376123 0.417915
0.253925 0.267431 0.297146
0.267664 0.281901 0.313224
0.296391 0.312157 0.346841
0.325119 0.342413 0.380458
0.353847 0.372668 0.414076
0.382574 0.402924 0.447693
0.411302 0.433179 0.481311
0.440029 0.463435 0.514928
0.453769 0.477905 0.531006
0.350566 0.369213 0.410237
0.364305 0.383683 0.426315
0.393033 0.413939 0.459932
0.421760 0.444194 0.493549
0.450488 0.474450 0.527167
0.479216 0.504706 0.560784
0.507943 0.534961 0.594402
0.536671 0.565217 0.628019
0.550410 0.579687 0.644097
0.447207 0.470995 0.523328
0.460947 0.485465 0.539406
0.489674 0.515721 0.573023
0.518402 0.545976 0.606640
0.547129 0.576232 0.640258
0.575857 0.606488 0.673875
0.604584 0.636743 0.707493
0.633312 0.666999 0.741110
0.647051 0.681469 0.757188
0.543849 0.572777 0.636419
0.557588 0.587247 0.652497
0.586316 0.617503 0.686114
0.615043 0.647758 0.719731
0.643771 0.678014 0.753349
0.672498 0.708270 0.786966
0.701226 0.738525 0.820584
0.729953 0.768781 0.854201
0.743693 0.783251 0.870279
0.640490 0.674559 0.749510
0.654229 0.689029 0.765588
0.682957 0.719284 0.799205
0.711685 0.749540 0.832822
0.740412 0.779796 0.866440
0.769140 0.810051 0.900057
0.797867 0.840307 0.933675
0.826595 0.870563 0.967292
0.840334 0.885033 0.983370
0.686710 0.723237 0.803597
0.700449 0.737707 0.819675
0.729177 0.767963 0.853292
0.757904 0.798218 0.886909
0.786632 0.828474 0.920527
0.815360 0.858730 0.954144
0.844087 0.888985 0.987762
0.872815 0.919241 1.000000
0.886554 0.933711 1.000000
0.024178 0.025464 0.028293
0.037917 0.039934 0.044371
0.066645 0.070190 0.077989
0.095372 0.100445 0.111606
0.124100 0.130701 0.145223
0.152828 0.160957 0.178841
0.181555 0.191212 0.212458
0.210283 0.221468 0.246076
0.224022 0.235938 0.262153
0.070398 0.074142 0.082380
0.084137 0.088612 0.098458
0.112865 0.118868 0.132076
0.141592 0.149124 0.165693
0.170320 0.179379 0.199310
0.199047 0.209635 0.232928
0.227775 0.239891 0.266545
0.256502 0.270146 0.300162
0.270242 0.284616 0.316240
0.167039 0.175924 0.195471
0.180778 0.190394 0.211549
0.209506 0.220650 0.245167
0.238234 0.250906 0.278784
0.266961 0.281161 0.312401
0.295689 0.311417 0.346019
0.324416 0.341673 0.379636
0.353144 0.371928 0.413254
0.366883 0.386398 0.429331
0.263681 0.277706 0.308562
0.277420 0.292176 0.324640
0.306147 0.322432 0.358258
0.334875 0.352688 0.391875
0.363603 0.382943 0.425492
0.392330 0.413199 0.459110
0.421058 0.443454 0.492727
0.449785 0.473710 0.526344
0.463525 0.488180 0.542422
0.360322 0.379488 0.421653
0.374061 0.393958 0.437731
0.402789 0.424214 0.471349
0.431516 0.454469 0.504966
0.460244 0.484725 0.538583
0.488972 0.514981 0.572201
0.517699 0.545236 0.605818
0.546427 0.575492 0.639436
0.560166 0.589962 0.655513
0.456963 0.481270 0.534744
0.470703 0.495740 0.550822
0.499430 0.525996 0.584440
0.528158 0.556251 0.618057
0.556885 0.586507 0.651674
0.585613 0.616763 0.685292
0.614341 0.647018 0.718909
0.643068 0.677274 0.752527
0.656807 0.691744 0.768604
0.553605 0.583052 0.647835
0.567344 0.597522 0.663913
0.596072 0.627778 0.697531
0.624799 0.658033 0.731148
0.653527 0.688289 0.764765
0.682254 0.718544 0.798383
0.710982 0.748800 0.832000
0.739709 0.779056 0.865617
0.753449 0.793526 0.881695
0.650246 0.684834 0.760926
0.663985 0.699304 0.777004
0.692713 0.729559 0.810622
0.721441 0.759815 0.844239
0.750168 0.790071 0.877856
0.778896 0.820326 0.911474
0.807623 0.850582 0.945091
0.836351 0.880838 0.978708
0.850090 0.895308 0.994786
0.696466 0.733512 0.815013
0.710205 0.747982 0.831091
0.738933 0.778238 0.864709
0.767660 0.808493 0.898326
0.796388 0.838749 0.931943
0.825116 0.869005 0.965561
0.853843 0.899260 0.999178
0.882571 0.929516 1.000000
0.896310 0.943986 1.000000
0.033934 0.035739 0.039710
0.047673 0.050209 0.055788
0.076401 0.080465 0.089405
0.105128 0.110720 0.123023
0.133856 0.140976 0.156640
0.162584 0.171232 0.190257
0.191311 0.201487 0.223875
0.220039 0.231743 0.257492
0.233778 0.246213 0.273570
0.080154 0.084417 0.093797
0.093893 0.098887 0.109875
0.122621 0.129143 0.143492
0.151348 0.159399 0.177110
0.180076 0.189654 0.210727
0.208803 0.219910 0.244344
0.237531 0.250166 0.277962
0.266259 0.280421 0.311579
0.279998 0.294891 0.327657
0.176795 0.186199 0.206888
0.190534 0.200669 0.222966
0.219262 0.230925 0.256583
0.247990 0.261181 0.290201
0.276717 0.291436 0.323818
0.305445 0.321692 0.357435
0.334172 0.351947 0.391053
0.362900 0.382203 0.424670
0.376639 0.396673 0.440748
0.273437 0.287981 0.319979
0.287176 0.302451 0.336057
0.315903 0.332707 0.369674
0.344631 0.362962 0.403292
0.373359 0.393218 0.436909
0.402086 0.423474 0.470526
0.430814 0.453729 0.504144
0.459541 0.483985 0.537761
0.473281 0.498455 0.553839
0.370078 0.389763 0.433070
0.383817 0.404233 0.449148
0.412545 0.434489 0.482765
0.441272 0.464744 0.516383
0.470000 0.495000 0.550000
0.498728 0.525256 0.583617
0.527455 0.555511 0.617235
0.556183 0.585767 0.650852
0.569922 0.600237 0.666930
0.466719 0.491545 0.546161
0.480459 0.506015 0.562239
0.509186 0.536271 0.595856
0.537914 0.566526 0.629474
0.566641 0.596782 0.663091
0.595369 0.627038 0.696708
0.624097 0.657293 0.730326
0.652824 0.687549 0.763943
0.666563 0.702019 0.780021
0.563361 0.593327 0.659252
0.577100 0.607797 0.675330
0.605828 0.638053 0.708947
0.634555 0.668308 0.742565
0.663283 0.698564 0.776182
0.692010 0.728819 0.809799
0.720738 0.759075 0.843417
0.749466 0.789331 0.877034
0.763205 0.803801 0.893112
0.660002 0.695109 0.772343
0.673741 0.709579 0.788421
0.702469 0.739834 0.822038
0.731197 0.770090 0.855656
0.759924 0.800346 0.889273
0.788652 0.830601 0.922890
0.817379 0.860857 0.956508
0.846107 0.891113 0.990125
0.859846 0.905583 1.000000
0.706222 0.743787 0.826430
0.719961 0.758257 0.842508
0.748689 0.788513 0.876125
0.777416 0.818768 0.909743
0.806144 0.849024 0.943360
0.834872 0.879280 0.976977
0.863599 0.909535 1.000000
0.892327 0.939791 1.000000
0.906066 0.954261 1.000000
0.043690 0.046014 0.051127
0.057429 0.060484 0.067205
0.086157 0.090740 0.100822
0.114884 0.120995 0.134439
0.143612 0.151251 0.168057
0.172340 0.181507 0.201674
0.201067 0.211762 0.235291
0.229795 0.242018 0.268909
0.243534 0.256488 0.284987
0.089910 0.094692 0.105214
0.103649 0.109162 0.121291
0.132377 0.139418 0.154909
0.161104 0.169674 0.188526
0.189832 0.199929 0.222144
0.218559 0.230185 0.255761
0.247287 0.260441 0.289378
0.276015 0.290696 0.322996
0.289754 0.305166 0.339074
0.186551 0.196474 0.218305
0.200291 0.210944 0.234383
0.229018 0.241200 0.268000
0.257746 0.271456 0.301617
0.286473 0.301711 0.335235
0.315201 0.331967 0.368852
0.343928 0.362222 0.402469
0.372656 0.392478 0.436087
0.386395 0.406948 0.452165
0.283193 0.298256 0.331396
0.296932 0.312726 0.347474
0.325659 0.342982 0.381091
0.354387 0.373237 0.414708
0.383115 0.403493 0.448326
0.411842 0.433749 0.481943
0.440570 0.464004 0.515560
0.469297 0.494260 0.549178
0.483037 0.508730 0.565256
0.379834 0.400038 0.444487
0.393573 0.414508 0.460565
0.422301 0.444764 0.494182
0.451028 0.475019 0.527799
0.479756 0.505275 0.561417
0.508484 0.535531 0.595034
0.537211 0.565786 0.628651
0.565939 0.596042 0.662269
0.579678 0.610512 0.678347
0.476475 0.501820 0.557578
0.490215 0.516290 0.573656
0.518942 0.546546 0.607273
0.547670 0.576801 0.640890
0.576397 0.607057 0.674508
0.605125 0.637313 0.708125
0.633853 0.667568 0.741742
0.662580 0.697824 0.775360
0.676319 0.712294 0.791438
0.573117 0.603602 0.670669
0.586856 0.618072 0.686747
0.615584 0.648327 0.720364
0.644311 0.678583 0.753981
0.673039 0.708839 0.787599
0.701766 0.739094 0.821216
0.730494 0.769350 0.854833
0.759222 0.799606 0.888451
0.772961 0.814076 0.904529
0.669758 0.705384 0.783760
0.683497 0.719854 0.799837
0.712225 0.750109 0.833455
0.740953 0.780365 0.867072
0.769680 0.810621 0.900690
0.798408 0.840876 0.934307
0.827135 0.871132 0.967924
0.855863 0.901388 1.000000
0.869602 0.915858 1.000000
0.715978 0.754062 0.837847
0.729717 0.768532 0.853924
0.758445 0.798788 0.887542
0.787172 0.829043 0.921159
0.815900 0.859299 0.954777
0.844628 0.889555 0.988394
0.873355 0.919810 1.000000
0.902083 0.950066 1.000000
0.915822 0.964536 1.000000
0.053446 0.056289 0.062543
0.067185 0.070759 0.078621
0.095913 0.101015 0.112239
0.124640 0.131270 0.145856
0.153368 0.161526 0.179473
0.182096 0.191782 0.213091
0.210823 0.222037 0.246708
0.239551 0.252293 0.280325
0.253290 0.266763 0.296403
0.099666 0.104967 0.116630
0.113405 0.119437 0.132708
0.142133 0.149693 0.166326
0.170860 0.179949 0.199943
0.199588 0.210204 0.233560
0.228315 0.240460 0.267178
0.257043 0.270715 0.300795
0.285771 0.300971 0.334412
0.299510 0.315441 0.350490
0.196307 0.206749 0.229721
0.210047 0.221219 0.245799
0.238774 0.251475 0.279417
0.267502 0.281730 0.313034
0.296229 0.311986 0.346651
0.324957 0.342242 0.380269
0.353684 0.372497 0.413886
0.382412 0.402753 0.447503
0.396151 0.417223 0.463581
0.292949 0.308531 0.342812
0.306688 0.323001 0.358890
0.335416 0.353257 0.392508
0.364143 0.383512 0.426125
0.392871 0.413768 0.459742
0.421598 0.444024 0.493360
0.450326 0.474279 0.526977
0.479053 0.504535 0.560594
0.492793 0.519005 0.576672
0.389590 0.410313 0.455903
0.403329 0.424783 0.471981
0.432057 0.455039 0.505599
0.460784 0.485294 0.539216
0.489512 0.515550 0.572833
0.518240 0.545806 0.606451
0.546967 0.576061 0.640068
0.575695 0.606317 0.673685
0.589434 0.620787 0.689763
0.486231 0.512095 0.568994
0.499971 0.526565 0.585072
0.528698 0.556821 0.618690
0.557426 0.587076 0.652307
0.586153 0.617332 0.685924
0.614881 0.647587 0.719542
0.643609 0.677843 0.753159
0.672336 0.708099 0.786776
0.686075 0.722569 0.802854
0.582873 0.613877 0.682085
0.596612 0.628347 0.698163
0.625340 0.658602 0.731780
0.654067 0.688858 0.765398
0.682795 0.719114 0.799015
0.711522 0.749369 0.832633
0.740250 0.779625 0.866250
0.768978 0.809881 0.899867
0.782717 0.824351 0.915945
0.679514 0.715659 0.795176
0.693254 0.730129 0.811254
0.721981 0.760384 0.844871
0.750709 0.790640 0.878489
0.779436 0.820896 0.912106
0.808164 0.851151 0.945724
0.836891 0.881407 0.979341
0.865619 0.911663 1.000000
0.879358 0.926133 1.000000
0.725734 0.764337 0.849263
0.739473 0.778807 0.865341
0.768201 0.809063 0.898958
0.796928 0.839318 0.932576
0.825656 0.869574 0.966193
0.854384 0.899830 0.999811
0.883111 0.930085 1.000000
0.911839 0.960341 1.000000
0.925578 0.974811 1.000000
0.063202 0.066564 0.073960
0.076941 0.081034 0.090038
0.105669 0.111290 0.123655
0.134397 0.141545 0.157273
0.163124 0.171801 0.190890
0.191852 0.202057 0.224507
0.220579 0.232312 0.258125
0.249307 0.262568 0.291742
0.263046 0.277038 0.307820
0.109422 0.115242 0.128047
0.123161 0.129712 0.144125
0.151889 0.159968 0.177742
0.180616 0.190224 0.211360
0.209344 0.220479 0.244977
0.238071 0.250735 0.278594
0.266799 0.280990 0.312212
0.295527 0.311246 0.345829
0.309266 0.325716 0.361907
0.206063 0.217024 0.241138
0.219803 0.231494 0.257216
0.248530 0.261750 0.290833
0.277258 0.292005 0.324450
0.305985 0.322261 0.358068
0.334713 0.352517 0.391685
0.363440 0.382772 0.425303
0.392168 0.413028 0.458920
0.405907 0.427498 0.474998
0.302705 0.318806 0.354229
0.316444 0.333276 0.370307
0.345172 0.363532 0.403924
0.373899 0.393787 0.437542
0.402627 0.424043 0.471159
0.431354 0.454299 0.504776
0.460082 0.484554 0.538394
0.488809 0.514810 0.572011
0.502549 0.529280 0.588089
0.399346 0.420588 0.467320
0.413085 0.435058 0.483398
0.441813 0.465314 0.517015
0.470540 0.495569 0.550633
0.499268 0.525825 0.584250
0.527996 0.556081 0.617867
0.556723 0.586336 0.651485
0.585451 0.616592 0.685102
0.599190 0.631062 0.701180
0.495987 0.522370 0.580411
0.509727 0.536840 0.596489
0.538454 0.567096 0.630106
0.567182 0.597351 0.663724
0.595909 0.627607 0.697341
0.624637 0.657862 0.730958
0.653365 0.688118 0.764576
0.682092 0.718374 0.798193
0.695831 0.732844 0.814271
0.592629 0.624152 0.693502
0.606368 0.638622 0.709580
0.635096 0.668877 0.743197
0.663823 0.699133 0.776814
0.692551 0.729389 0.810432
0.721278 0.759644 0.844049
0.750006 0.789900 0.877667
0.778734 0.820156 0.911284
0.792473 0.834626 0.927362
0.689270 0.725934 0.806593
0.703010 0.740404 0.822671
0.731737 0.770659 0.856288
0.760465 0.800915 0.889905
0.789192 0.831171 0.923523
0.817920 0.861426 0.957140
0.846647 0.891682 0.990758
0.875375 0.921937 1.000000
0.889114 0.936408 1.000000
0.735490 0.774612 0.860680
0.749229 0.789082 0.876758
0.777957 0.819338 0.910375
0.806684 0.849593 0.943993
0.835412 0.879849 0.977610
0.864140 0.910105 1.000000
0.892867 0.940360 1.000000
0.921595 0.970616 1.000000
0.935334 0.985086 1.000000
0.067868 0.071478 0.079420
0.081607 0.085948 0.095498
0.110335 0.116204 0.129115
0.139062 0.146459 0.162733
0.167790 0.176715 0.196350
0.196518 0.206971 0.229967
0.225245 0.237226 0.263585
0.253973 0.267482 0.297202
0.267712 0.281952 0.313280
0.114088 0.120156 0.133507
0.127827 0.134626 0.149585
0.156555 0.164882 0.183202
0.185282 0.195138 0.216820
0.214010 0.225393 0.250437
0.242737 0.255649 0.284054
0.271465 0.285905 0.317672
0.300193 0.316160 0.351289
0.313932 0.330630 0.367367
0.210729 0.221938 0.246598
0.224468 0.236408 0.262676
0.253196 0.266664 0.296293
0.281924 0.296920 0.329911
0.310651 0.327175 0.363528
0.339379 0.357431 0.397145
0.368106 0.387686 0.430763
0.396834 0.417942 0.464380
0.410573 0.432412 0.480458
0.307371 0.323720 0.359689
0.321110 0.338190 0.375767
0.349837 0.368446 0.409384
0.378565 0.398701 0.443002
0.407293 0.428957 0.476619
0.436020 0.459213 0.510236
0.464748 0.489468 0.543854
0.493475 0.519724 0.577471
0.507215 0.534194 0.593549
0.404012 0.425502 0.472780
0.417751 0.439972 0.488858
0.446479 0.470228 0.522475
0.475206 0.500483 0.556093
0.503934 0.530739 0.589710
0.532662 0.560995 0.623327
0.561389 0.591250 0.656945
0.590117 0.621506 0.690562
0.603856 0.635976 0.706640
0.500653 0.527284 0.585871
0.514393 0.541754 0.601949
0.543120 0.572010 0.635566
0.571848 0.602265 0.669184
0.600575 0.632521 0.702801
0.629303 0.662777 0.736418
0.658031 0.693032 0.770036
0.686758 0.723288 0.803653
0.700497 0.737758 0.819731
0.597295 0.629066 0.698962
0.611034 0.643536 0.715040
0.639762 0.673792 0.748657
0.668489 0.704047 0.782275
0.697217 0.734303 0.815892
0.725944 0.764558 0.849509
0.754672 0.794814 0.883127
0.783400 0.825070 0.916744
0.797139 0.839540 0.932822
0.693936 0.730848 0.812053
0.707675 0.745318 0.828131
0.736403 0.775573 0.861748
0.765131 0.805829 0.895366
0.793858 0.836085 0.928983
0.822586 0.866340 0.962600
0.851313 0.896596 0.996218
0.880041 0.926852 1.000000
0.893780 0.941322 1.000000
0.740156 0.779526 0.866140
0.753895 0.793996 0.882218
0.782623 0.824252 0.915835
0.811350 0.854507 0.949453
0.840078 0.884763 0.983070
0.868806 0.915019 1.000000
0.897533 0.945274 1.000000
0.926261 0.975530 1.000000
0.940000 0.990000 1.000000
