assets/luts/silver.cube
# Silver — Studio filter "silver"
# Generated by scripts/generate-filter-luts.mjs — do not edit by hand.
LUT_3D_SIZE 5
DOMAIN_MIN 0.0 0.0 0.0
DOMAIN_MAX 1.0 1.0 1.0
0.000000 0.000000 0.000000
0.042467 0.044726 0.049695
0.099922 0.105237 0.116930
0.157377 0.165748 0.184165
0.199844 0.210474 0.233860
0.142861 0.150460 0.167178
0.185328 0.195186 0.216873
0.242783 0.255697 0.284108
0.300238 0.316208 0.351343
0.342705 0.360934 0.401038
0.336144 0.354024 0.393360
0.378611 0.398750 0.443055
0.436066 0.459261 0.510290
0.493521 0.519772 0.577525
0.535988 0.564498 0.627220
0.529427 0.557588 0.619542
0.571894 0.602314 0.669237
0.629349 0.662825 0.736472
0.686804 0.723336 0.803707
0.729271 0.768062 0.853402
0.672288 0.708048 0.786720
0.714755 0.752774 0.836415
0.772210 0.813285 0.903650
0.829665 0.873796 0.970885
0.872132 0.918522 1.000000
0.014422 0.015189 0.016877
0.056889 0.059915 0.066572
0.114344 0.120426 0.133807
0.171799 0.180937 0.201042
0.214266 0.225663 0.250737
0.157283 0.165649 0.184055
0.199750 0.210375 0.233750
0.257205 0.270886 0.300985
0.314660 0.331398 0.368220
0.357127 0.376123 0.417915
0.350566 0.369213 0.410237
0.393033 0.413939 0.459932
0.450488 0.474450 0.527167
0.507943 0.534961 0.594402
0.550410 0.579687 0.644097
0.543849 0.572777 0.636419
0.586316 0.617503 0.686114
0.643771 0.678014 0.753349
0.701226 0.738525 0.820584
0.743693 0.783251 0.870279
0.686710 0.723237 0.803597
0.729177 0.767963 0.853292
0.786632 0.828474 0.920527
0.844087 0.888985 0.987762
0.886554 0.933711 1.000000
0.033934 0.035739 0.039710
0.076401 0.080465 0.089405
0.133856 0.140976 0.156640
0.191311 0.201487 0.223875
0.233778 0.246213 0.273570
0.176795 0.186199 0.206888
0.219262 0.230925 0.256583
0.276717 0.291436 0.323818
0.334172 0.351947 0.391053
0.376639 0.396673 0.440748
0.370078 0.389763 0.433070
0.412545 0.434489 0.482765
0.470000 0.495000 0.550000
0.527455 0.555511 0.617235
0.569922 0.600237 0.666930
0.563361 0.593327 0.659252
0.605828 0.638053 0.708947
0.663283 0.698564 0.776182
0.720738 0.759075 0.843417
0.763205 0.803801 0.893112
0.706222 0.743787 0.826430
0.748689 0.788513 0.876125
0.806144 0.849024 0.943360
0.863599 0.909535 1.000000
0.906066 0.954261 1.000000
0.053446 0.056289 0.062543
0.095913 0.101015 0.112239
0.153368 0.161526 0.179473
0.210823 0.222037 0.246708
0.253290 0.266763 0.296403
0.196307 0.206749 0.229721
0.238774 0.251475 0.279417
0.296229 0.311986 0.346651
0.353684 0.372497 0.413886
0.396151 0.417223 0.463581
0.389590 0.410313 0.455903
0.432057 0.455039 0.505599
0.489512 0.515550 0.572833
0.546967 0.576061 0.640068
0.589434 0.620787 0.689763
0.582873 0.613877 0.682085
0.625340 0.658602 0.731780
0.682795 0.719114 0.799015
0.740250 0.779625 0.866250
0.782717 0.824351 0.915945
0.725734 0.764337 0.849263
0.768201 0.809063 0.898958
0.825656 0.869574 0.966193
0.883111 0.930085 1.000000
0.925578 0.974811 1.000000
0.067868 0.071478 0.079420
0.110335 0.116204 0.129115
0.167790 0.176715 0.196350
0.225245 0.237226 0.263585
0.267712 0.281952 0.313280
0.210729 0.221938 0.246598
0.253196 0.266664 0.296293
0.310651 0.327175 0.363528
0.368106 0.387686 0.430763
0.410573 0.432412 0.480458
0.404012 0.425502 0.472780
0.446479 0.470228 0.522475
0.503934 0.530739 0.589710
0.561389 0.591250 0.656945
0.603856 0.635976 0.706640
0.597295 0.629066 0.698962
0.639762 0.673792 0.748657
0.697217 0.734303 0.815892
0.754672 0.794814 0.883127
0.797139 0.839540 0.932822
0.740156 0.779526 0.866140
0.782623 0.824252 0.915835
0.840078 0.884763 0.983070
0.897533 0.945274 1.000000
0.940000 0.990000 1.000000
