assets/luts/silver.cube
# Silver — Studio filter "silver"
# Generated by scripts/generate-filter-luts.mjs — do not edit by hand.
LUT_3D_SIZE 17
DOMAIN_MIN 0.0 0.0 0.0
DOMAIN_MAX 1.0 1.0 1.0
0.000000 0.000000 0.000000
0.000000 0.000000 0.000000
0.013739 0.014470 0.016078
0.028103 0.029598 0.032887
0.042467 0.044726 0.049695
0.056831 0.059854 0.066504
0.071194 0.074981 0.083313
0.085558 0.090109 0.100121
0.099922 0.105237 0.116930
0.114286 0.120365 0.133739
0.128650 0.135493 0.150547
0.143013 0.150620 0.167356
0.157377 0.165748 0.184165
0.171741 0.180876 0.200973
0.186105 0.196004 0.217782
0.199844 0.210474 0.233860
0.199844 0.210474 0.233860
0.000000 0.000000 0.000000
0.000000 0.000000 0.000000
0.013739 0.014470 0.016078
0.028103 0.029598 0.032887
0.042467 0.044726 0.049695
0.056831 0.059854 0.066504
0.071194 0.074981 0.083313
0.085558 0.090109 0.100121
0.099922 0.105237 0.116930
0.114286 0.120365 0.133739
0.128650 0.135493 0.150547
0.143013 0.150620 0.167356
0.157377 0.165748 0.184165
0.171741 0.180876 0.200973
0.186105 0.196004 0.217782
0.199844 0.210474 0.233860
0.199844 0.210474 0.233860
0.046220 0.048678 0.054087
0.046220 0.048678 0.054087
0.059959 0.063148 0.070165
0.074323 0.078276 0.086974
0.088687 0.093404 0.103782
0.103050 0.108532 0.120591
0.117414 0.123660 0.137400
0.131778 0.138787 0.154208
0.146142 0.153915 0.171017
0.160506 0.169043 0.187826
0.174869 0.184171 0.204634
0.189233 0.199299 0.221443
0.203597 0.214427 0.238252
0.217961 0.229554 0.255060
0.232325 0.244682 0.271869
0.246064 0.259152 0.287947
0.246064 0.259152 0.287947
0.094540 0.099569 0.110633
0.094540 0.099569 0.110633
0.108280 0.114039 0.126710
0.122644 0.129167 0.143519
0.137007 0.144295 0.160328
0.151371 0.159423 0.177136
0.165735 0.174551 0.193945
0.180099 0.189678 0.210754
0.194462 0.204806 0.227563
0.208826 0.219934 0.244371
0.223190 0.235062 0.261180
0.237554 0.250190 0.277989
0.251918 0.265318 0.294797
0.266281 0.280445 0.311606
0.280645 0.295573 0.328415
0.294384 0.310043 0.344493
0.294384 0.310043 0.344493
0.142861 0.150460 0.167178
0.142861 0.150460 0.167178
0.156600 0.164930 0.183256
0.170964 0.180058 0.200065
0.185328 0.195186 0.216873
0.199692 0.210314 0.233682
0.214056 0.225442 0.250491
0.228419 0.240569 0.267299
0.242783 0.255697 0.284108
0.257147 0.270825 0.300917
0.271511 0.285953 0.317725
0.285875 0.301081 0.334534
0.300238 0.316208 0.351343
0.314602 0.331336 0.368151
0.328966 0.346464 0.384960
0.342705 0.360934 0.401038
0.342705 0.360934 0.401038
0.191182 0.201351 0.223724
0.191182 0.201351 0.223724
0.204921 0.215821 0.239801
0.219285 0.230949 0.256610
0.233649 0.246077 0.273419
0.248013 0.261205 0.290227
0.262376 0.276333 0.307036
0.276740 0.291460 0.323845
0.291104 0.306588 0.340653
0.305468 0.321716 0.357462
0.319831 0.336844 0.374271
0.334195 0.351972 0.391080
0.348559 0.367099 0.407888
0.362923 0.382227 0.424697
0.377287 0.397355 0.441506
0.391026 0.411825 0.457584
0.391026 0.411825 0.457584
0.239503 0.252242 0.280269
0.239503 0.252242 0.280269
0.253242 0.266712 0.296347
0.267606 0.281840 0.313156
0.281969 0.296968 0.329964
0.296333 0.312096 0.346773
0.310697 0.327223 0.363582
0.325061 0.342351 0.380390
0.339425 0.357479 0.397199
0.353788 0.372607 0.414008
0.368152 0.387735 0.430816
0.382516 0.402863 0.447625
0.396880 0.417990 0.464434
0.411244 0.433118 0.481242
0.425607 0.448246 0.498051
0.439347 0.462716 0.514129
0.439347 0.462716 0.514129
0.287823 0.303133 0.336814
0.287823 0.303133 0.336814
0.301563 0.317603 0.352892
0.315926 0.332731 0.369701
0.330290 0.347859 0.386510
0.344654 0.362987 0.403318
0.359018 0.378114 0.420127
0.373382 0.393242 0.436936
0.387745 0.408370 0.453744
0.402109 0.423498 0.470553
0.416473 0.438626 0.487362
0.430837 0.453754 0.504171
0.445200 0.468881 0.520979
0.459564 0.484009 0.537788
0.473928 0.499137 0.554597
0.487667 0.513607 0.570674
0.487667 0.513607 0.570674
0.336144 0.354024 0.393360
0.336144 0.354024 0.393360
0.349883 0.368494 0.409438
0.364247 0.383622 0.426247
0.378611 0.398750 0.443055
0.392975 0.413878 0.459864
0.407338 0.429005 0.476673
0.421702 0.444133 0.493481
0.436066 0.459261 0.510290
0.450430 0.474389 0.527099
0.464794 0.489517 0.543907
0.479157 0.504644 0.560716
0.493521 0.519772 0.577525
0.507885 0.534900 0.594333
0.522249 0.550028 0.611142
0.535988 0.564498 0.627220
0.535988 0.564498 0.627220
0.384465 0.404915 0.449906
0.384465 0.404915 0.449906
0.398204 0.419385 0.465983
0.412568 0.434513 0.482792
0.426932 0.449641 0.499601
0.441295 0.464768 0.516409
0.455659 0.479896 0.533218
0.470023 0.495024 0.550027
0.484387 0.510152 0.566836
0.498750 0.525280 0.583644
0.513114 0.540408 0.600453
0.527478 0.555535 0.617262
0.541842 0.570663 0.634070
0.556206 0.585791 0.650879
0.570569 0.600919 0.667688
0.584309 0.615389 0.683766
0.584309 0.615389 0.683766
0.432785 0.455806 0.506451
0.432785 0.455806 0.506451
0.446525 0.470276 0.522529
0.460888 0.485404 0.539338
0.475252 0.500532 0.556146
0.489616 0.515659 0.572955
0.503980 0.530787 0.589764
0.518344 0.545915 0.606572
0.532707 0.561043 0.623381
0.547071 0.576171 0.640190
0.561435 0.591299 0.656998
0.575799 0.606426 0.673807
0.590163 0.621554 0.690616
0.604526 0.636682 0.707424
0.618890 0.651810 0.724233
0.632629 0.666280 0.740311
0.632629 0.666280 0.740311
0.481106 0.506697 0.562996
0.481106 0.506697 0.562996
0.494845 0.521167 0.579074
0.509209 0.536295 0.595883
0.523573 0.551423 0.612692
0.537937 0.566550 0.629500
0.552301 0.581678 0.646309
0.566664 0.596806 0.663118
0.581028 0.611934 0.679926
0.595392 0.627062 0.696735
0.609756 0.642189 0.713544
0.624119 0.657317 0.730353
0.638483 0.672445 0.747161
0.652847 0.687573 0.763970
0.667211 0.702701 0.780779
0.680950 0.717171 0.796856
0.680950 0.717171 0.796856
0.529427 0.557588 0.619542
0.529427 0.557588 0.619542
0.543166 0.572058 0.635620
0.557530 0.587186 0.652429
0.571894 0.602314 0.669237
0.586257 0.617441 0.686046
0.600621 0.632569 0.702855
0.614985 0.647697 0.719663
0.629349 0.662825 0.736472
0.643713 0.677953 0.753281
0.658076 0.693080 0.770089
0.672440 0.708208 0.786898
0.686804 0.723336 0.803707
0.701168 0.738464 0.820515
0.715532 0.753592 0.837324
0.729271 0.768062 0.853402
0.729271 0.768062 0.853402
0.577747 0.608479 0.676088
0.577747 0.608479 0.676088
0.591487 0.622949 0.692165
0.605851 0.638077 0.708974
0.620214 0.653204 0.725783
0.634578 0.668332 0.742591
0.648942 0.683460 0.759400
0.663306 0.698588 0.776209
0.677670 0.713716 0.793018
0.692033 0.728844 0.809826
0.706397 0.743971 0.826635
0.720761 0.759099 0.843444
0.735125 0.774227 0.860252
0.749488 0.789355 0.877061
0.763852 0.804483 0.893870
0.777591 0.818953 0.909948
0.777591 0.818953 0.909948
0.626068 0.659370 0.732633
0.626068 0.659370 0.732633
0.639807 0.673840 0.748711
0.654171 0.688968 0.765520
0.668535 0.704095 0.782328
0.682899 0.719223 0.799137
0.697263 0.734351 0.815946
0.711626 0.749479 0.832754
0.725990 0.764607 0.849563
0.740354 0.779735 0.866372
0.754718 0.794862 0.883180
0.769082 0.809990 0.899989
0.783445 0.825118 0.916798
0.797809 0.840246 0.933606
0.812173 0.855374 0.950415
0.825912 0.869844 0.966493
0.825912 0.869844 0.966493
0.672288 0.708048 0.786720
0.672288 0.708048 0.786720
0.686027 0.722518 0.802798
0.700391 0.737646 0.819607
0.714755 0.752774 0.836415
0.729119 0.767902 0.853224
0.743482 0.783029 0.870033
0.757846 0.798157 0.886841
0.772210 0.813285 0.903650
0.786574 0.828413 0.920459
0.800938 0.843541 0.937267
0.815301 0.858668 0.954076
0.829665 0.873796 0.970885
0.844029 0.888924 0.987693
0.858393 0.904052 1.000000
0.872132 0.918522 1.000000
0.872132 0.918522 1.000000
0.672288 0.708048 0.786720
0.672288 0.708048 0.786720
0.686027 0.722518 0.802798
0.700391 0.737646 0.819607
0.714755 0.752774 0.836415
0.729119 0.767902 0.853224
0.743482 0.783029 0.870033
0.757846 0.798157 0.886841
0.772210 0.813285 0.903650
0.786574 0.828413 0.920459
0.800938 0.843541 0.937267
0.815301 0.858668 0.954076
0.829665 0.873796 0.970885
0.844029 0.888924 0.987693
0.858393 0.904052 1.000000
0.872132 0.918522 1.000000
0.872132 0.918522 1.000000
0.000000 0.000000 0.000000
0.000000 0.000000 0.000000
0.013739 0.014470 0.016078
0.028103 0.029598 0.032887
0.042467 0.044726 0.049695
0.056831 0.059854 0.066504
0.071194 0.074981 0.083313
0.085558 0.090109 0.100121
0.099922 0.105237 0.116930
0.114286 0.120365 0.133739
0.128650 0.135493 0.150547
0.143013 0.150620 0.167356
0.157377 0.165748 0.184165
0.171741 0.180876 0.200973
0.186105 0.196004 0.217782
0.199844 0.210474 0.233860
0.199844 0.210474 0.233860
0.000000 0.000000 0.000000
0.000000 0.000000 0.000000
0.013739 0.014470 0.016078
0.028103 0.029598 0.032887
0.042467 0.044726 0.049695
0.056831 0.059854 0.066504
0.071194 0.074981 0.083313
0.085558 0.090109 0.100121
0.099922 0.105237 0.116930
0.114286 0.120365 0.133739
0.128650 0.135493 0.150547
0.143013 0.150620 0.167356
0.157377 0.165748 0.184165
0.171741 0.180876 0.200973
0.186105 0.196004 0.217782
0.199844 0.210474 0.233860
0.199844 0.210474 0.233860
0.046220 0.048678 0.054087
0.046220 0.048678 0.054087
0.059959 0.063148 0.070165
0.074323 0.078276 0.086974
0.088687 0.093404 0.103782
0.103050 0.108532 0.120591
0.117414 0.123660 0.137400
0.131778 0.138787 0.154208
0.146142 0.153915 0.171017
0.160506 0.169043 0.187826
0.174869 0.184171 0.204634
0.189233 0.199299 0.221443
0.203597 0.214427 0.238252
0.217961 0.229554 0.255060
0.232325 0.244682 0.271869
0.246064 0.259152 0.287947
0.246064 0.259152 0.287947
0.094540 0.099569 0.110633
0.094540 0.099569 0.110633
0.108280 0.114039 0.126710
0.122644 0.129167 0.143519
0.137007 0.144295 0.160328
0.151371 0.159423 0.177136
0.165735 0.174551 0.193945
0.180099 0.189678 0.210754
0.194462 0.204806 0.227563
0.208826 0.219934 0.244371
0.223190 0.235062 0.261180
0.237554 0.250190 0.277989
0.251918 0.265318 0.294797
0.266281 0.280445 0.311606
0.280645 0.295573 0.328415
0.294384 0.310043 0.344493
0.294384 0.310043 0.344493
0.142861 0.150460 0.167178
0.142861 0.150460 0.167178
0.156600 0.164930 0.183256
0.170964 0.180058 0.200065
0.185328 0.195186 0.216873
0.199692 0.210314 0.233682
0.214056 0.225442 0.250491
0.228419 0.240569 0.267299
0.242783 0.255697 0.284108
0.257147 0.270825 0.300917
0.271511 0.285953 0.317725
0.285875 0.301081 0.334534
0.300238 0.316208 0.351343
0.314602 0.331336 0.368151
0.328966 0.346464 0.384960
0.342705 0.360934 0.401038
0.342705 0.360934 0.401038
0.191182 0.201351 0.223724
0.191182 0.201351 0.223724
0.204921 0.215821 0.239801
0.219285 0.230949 0.256610
0.233649 0.246077 0.273419
0.248013 0.261205 0.290227
0.262376 0.276333 0.307036
0.276740 0.291460 0.323845
0.291104 0.306588 0.340653
0.305468 0.321716 0.357462
0.319831 0.336844 0.374271
0.334195 0.351972 0.391080
0.348559 0.367099 0.407888
0.362923 0.382227 0.424697
0.377287 0.397355 0.441506
0.391026 0.411825 0.457584
0.391026 0.411825 0.457584
0.239503 0.252242 0.280269
0.239503 0.252242 0.280269
0.253242 0.266712 0.296347
0.267606 0.281840 0.313156
0.281969 0.296968 0.329964
0.296333 0.312096 0.346773
0.310697 0.327223 0.363582
0.325061 0.342351 0.380390
0.339425 0.357479 0.397199
0.353788 0.372607 0.414008
0.368152 0.387735 0.430816
0.382516 0.402863 0.447625
0.396880 0.417990 0.464434
0.411244 0.433118 0.481242
0.425607 0.448246 0.498051
0.439347 0.462716 0.514129
0.439347 0.462716 0.514129
0.287823 0.303133 0.336814
0.287823 0.303133 0.336814
0.301563 0.317603 0.352892
0.315926 0.332731 0.369701
0.330290 0.347859 0.386510
0.344654 0.362987 0.403318
0.359018 0.378114 0.420127
0.373382 0.393242 0.436936
0.387745 0.408370 0.453744
0.402109 0.423498 0.470553
0.416473 0.438626 0.487362
0.430837 0.453754 0.504171
0.445200 0.468881 0.520979
0.459564 0.484009 0.537788
0.473928 0.499137 0.554597
0.487667 0.513607 0.570674
0.487667 0.513607 0.570674
0.336144 0.354024 0.393360
0.336144 0.354024 0.393360
0.349883 0.368494 0.409438
0.364247 0.383622 0.426247
0.378611 0.398750 0.443055
0.392975 0.413878 0.459864
0.407338 0.429005 0.476673
0.421702 0.444133 0.493481
0.436066 0.459261 0.510290
0.450430 0.474389 0.527099
0.464794 0.489517 0.543907
0.479157 0.504644 0.560716
0.493521 0.519772 0.577525
0.507885 0.534900 0.594333
0.522249 0.550028 0.611142
0.535988 0.564498 0.627220
0.535988 0.564498 0.627220
0.384465 0.404915 0.449906
0.384465 0.404915 0.449906
0.398204 0.419385 0.465983
0.412568 0.434513 0.482792
0.426932 0.449641 0.499601
0.441295 0.464768 0.516409
0.455659 0.479896 0.533218
0.470023 0.495024 0.550027
0.484387 0.510152 0.566836
0.498750 0.525280 0.583644
0.513114 0.540408 0.600453
0.527478 0.555535 0.617262
0.541842 0.570663 0.634070
0.556206 0.585791 0.650879
0.570569 0.600919 0.667688
0.584309 0.615389 0.683766
0.584309 0.615389 0.683766
0.432785 0.455806 0.506451
0.432785 0.455806 0.506451
0.446525 0.470276 0.522529
0.460888 0.485404 0.539338
0.475252 0.500532 0.556146
0.489616 0.515659 0.572955
0.503980 0.530787 0.589764
0.518344 0.545915 0.606572
0.532707 0.561043 0.623381
0.547071 0.576171 0.640190
0.561435 0.591299 0.656998
0.575799 0.606426 0.673807
0.590163 0.621554 0.690616
0.604526 0.636682 0.707424
0.618890 0.651810 0.724233
0.632629 0.666280 0.740311
0.632629 0.666280 0.740311
0.481106 0.506697 0.562996
0.481106 0.506697 0.562996
0.494845 0.521167 0.579074
0.509209 0.536295 0.595883
0.523573 0.551423 0.612692
0.537937 0.566550 0.629500
0.552301 0.581678 0.646309
0.566664 0.596806 0.663118
0.581028 0.611934 0.679926
0.595392 0.627062 0.696735
0.609756 0.642189 0.713544
0.624119 0.657317 0.730353
0.638483 0.672445 0.747161
0.652847 0.687573 0.763970
0.667211 0.702701 0.780779
0.680950 0.717171 0.796856
0.680950 0.717171 0.796856
0.529427 0.557588 0.619542
0.529427 0.557588 0.619542
0.543166 0.572058 0.635620
0.557530 0.587186 0.652429
0.571894 0.602314 0.669237
0.586257 0.617441 0.686046
0.600621 0.632569 0.702855
0.614985 0.647697 0.719663
0.629349 0.662825 0.736472
0.643713 0.677953 0.753281
0.658076 0.693080 0.770089
0.672440 0.708208 0.786898
0.686804 0.723336 0.803707
0.701168 0.738464 0.820515
0.715532 0.753592 0.837324
0.729271 0.768062 0.853402
0.729271 0.768062 0.853402
0.577747 0.608479 0.676088
0.577747 0.608479 0.676088
0.591487 0.622949 0.692165
0.605851 0.638077 0.708974
0.620214 0.653204 0.725783
0.634578 0.668332 0.742591
0.648942 0.683460 0.759400
0.663306 0.698588 0.776209
0.677670 0.713716 0.793018
0.692033 0.728844 0.809826
0.706397 0.743971 0.826635
0.720761 0.759099 0.843444
0.735125 0.774227 0.860252
0.749488 0.789355 0.877061
0.763852 0.804483 0.893870
0.777591 0.818953 0.909948
0.777591 0.818953 0.909948
0.626068 0.659370 0.732633
0.626068 0.659370 0.732633
0.639807 0.673840 0.748711
0.654171 0.688968 0.765520
0.668535 0.704095 0.782328
0.682899 0.719223 0.799137
0.697263 0.734351 0.815946
0.711626 0.749479 0.832754
0.725990 0.764607 0.849563
0.740354 0.779735 0.866372
0.754718 0.794862 0.883180
0.769082 0.809990 0.899989
0.783445 0.825118 0.916798
0.797809 0.840246 0.933606
0.812173 0.855374 0.950415
0.825912 0.869844 0.966493
0.825912 0.869844 0.966493
0.672288 0.708048 0.786720
0.672288 0.708048 0.786720
0.686027 0.722518 0.802798
0.700391 0.737646 0.819607
0.714755 0.752774 0.836415
0.729119 0.767902 0.853224
0.743482 0.783029 0.870033
0.757846 0.798157 0.886841
0.772210 0.813285 0.903650
0.786574 0.828413 0.920459
0.800938 0.843541 0.937267
0.815301 0.858668 0.954076
0.829665 0.873796 0.970885
0.844029 0.888924 0.987693
0.858393 0.904052 1.000000
0.872132 0.918522 1.000000
0.872132 0.918522 1.000000
0.672288 0.708048 0.786720
0.672288 0.708048 0.786720
0.686027 0.722518 0.802798
0.700391 0.737646 0.819607
0.714755 0.752774 0.836415
0.729119 0.767902 0.853224
0.743482 0.783029 0.870033
0.757846 0.798157 0.886841
0.772210 0.813285 0.903650
0.786574 0.828413 0.920459
0.800938 0.843541 0.937267
0.815301 0.858668 0.954076
0.829665 0.873796 0.970885
0.844029 0.888924 0.987693
0.858393 0.904052 1.000000
0.872132 0.918522 1.000000
0.872132 0.918522 1.000000
0.004666 0.004914 0.005460
0.004666 0.004914 0.005460
0.018405 0.019384 0.021538
0.032769 0.034512 0.038347
0.047133 0.049640 0.055155
0.061497 0.064768 0.071964
0.075860 0.079895 0.088773
0.090224 0.095023 0.105581
0.104588 0.110151 0.122390
0.118952 0.125279 0.139199
0.133316 0.140407 0.156008
0.147679 0.155535 0.172816
0.162043 0.170662 0.189625
0.176407 0.185790 0.206434
0.190771 0.200918 0.223242
0.204510 0.215388 0.239320
0.204510 0.215388 0.239320
0.004666 0.004914 0.005460
0.004666 0.004914 0.005460
0.018405 0.019384 0.021538
0.032769 0.034512 0.038347
0.047133 0.049640 0.055155
0.061497 0.064768 0.071964
0.075860 0.079895 0.088773
0.090224 0.095023 0.105581
0.104588 0.110151 0.122390
0.118952 0.125279 0.139199
0.133316 0.140407 0.156008
0.147679 0.155535 0.172816
0.162043 0.170662 0.189625
0.176407 0.185790 0.206434
0.190771 0.200918 0.223242
0.204510 0.215388 0.239320
0.204510 0.215388 0.239320
0.050886 0.053592 0.059547
0.050886 0.053592 0.059547
0.064625 0.068063 0.075625
0.078989 0.083190 0.092434
0.093353 0.098318 0.109242
0.107716 0.113446 0.126051
0.122080 0.128574 0.142860
0.136444 0.143702 0.159668
0.150808 0.158829 0.176477
0.165172 0.173957 0.193286
0.179535 0.189085 0.210095
0.193899 0.204213 0.226903
0.208263 0.219341 0.243712
0.222627 0.234469 0.260521
0.236990 0.249596 0.277329
0.250730 0.264066 0.293407
0.250730 0.264066 0.293407
0.099206 0.104483 0.116093
0.099206 0.104483 0.116093
0.112946 0.118953 0.132171
0.127309 0.134081 0.148979
0.141673 0.149209 0.165788
0.156037 0.164337 0.182597
0.170401 0.179465 0.199405
0.184765 0.194593 0.216214
0.199128 0.209720 0.233023
0.213492 0.224848 0.249831
0.227856 0.239976 0.266640
0.242220 0.255104 0.283449
0.256584 0.270232 0.300257
0.270947 0.285359 0.317066
0.285311 0.300487 0.333875
0.299050 0.314957 0.349953
0.299050 0.314957 0.349953
0.147527 0.155374 0.172638
0.147527 0.155374 0.172638
0.161266 0.169844 0.188716
0.175630 0.184972 0.205525
0.189994 0.200100 0.222333
0.204358 0.215228 0.239142
0.218722 0.230356 0.255951
0.233085 0.245483 0.272759
0.247449 0.260611 0.289568
0.261813 0.275739 0.306377
0.276177 0.290867 0.323186
0.290540 0.305995 0.339994
0.304904 0.321123 0.356803
0.319268 0.336250 0.373612
0.333632 0.351378 0.390420
0.347371 0.365848 0.406498
0.347371 0.365848 0.406498
0.195848 0.206265 0.229184
0.195848 0.206265 0.229184
0.209587 0.220735 0.245262
0.223951 0.235863 0.262070
0.238315 0.250991 0.278879
0.252678 0.266119 0.295688
0.267042 0.281247 0.312496
0.281406 0.296374 0.329305
0.295770 0.311502 0.346114
0.310134 0.326630 0.362922
0.324497 0.341758 0.379731
0.338861 0.356886 0.396540
0.353225 0.372014 0.413348
0.367589 0.387141 0.430157
0.381953 0.402269 0.446966
0.395692 0.416739 0.463044
0.395692 0.416739 0.463044
0.244169 0.257156 0.285729
0.244169 0.257156 0.285729
0.257908 0.271626 0.301807
0.272272 0.286754 0.318616
0.286635 0.301882 0.335424
0.300999 0.317010 0.352233
0.315363 0.332138 0.369042
0.329727 0.347265 0.385850
0.344091 0.362393 0.402659
0.358454 0.377521 0.419468
0.372818 0.392649 0.436277
0.387182 0.407777 0.453085
0.401546 0.422904 0.469894
0.415909 0.438032 0.486703
0.430273 0.453160 0.503511
0.444013 0.467630 0.519589
0.444013 0.467630 0.519589
0.292489 0.308047 0.342275
0.292489 0.308047 0.342275
0.306228 0.322517 0.358352
0.320592 0.337645 0.375161
0.334956 0.352773 0.391970
0.349320 0.367901 0.408779
0.363684 0.383029 0.425587
0.378047 0.398156 0.442396
0.392411 0.413284 0.459205
0.406775 0.428412 0.476013
0.421139 0.443540 0.492822
0.435503 0.458668 0.509631
0.449866 0.473795 0.526439
0.464230 0.488923 0.543248
0.478594 0.504051 0.560057
0.492333 0.518521 0.576135
0.492333 0.518521 0.576135
0.340810 0.358938 0.398820
0.340810 0.358938 0.398820
0.354549 0.373408 0.414898
0.368913 0.388536 0.431707
0.383277 0.403664 0.448515
0.397641 0.418792 0.465324
0.412004 0.433919 0.482133
0.426368 0.449047 0.498941
0.440732 0.464175 0.515750
0.455096 0.479303 0.532559
0.469459 0.494431 0.549368
0.483823 0.509559 0.566176
0.498187 0.524686 0.582985
0.512551 0.539814 0.599794
0.526915 0.554942 0.616602
0.540654 0.569412 0.632680
0.540654 0.569412 0.632680
0.389131 0.409829 0.455366
0.389131 0.409829 0.455366
0.402870 0.424299 0.471444
0.417234 0.439427 0.488252
0.431597 0.454555 0.505061
0.445961 0.469683 0.521870
0.460325 0.484810 0.538678
0.474689 0.499938 0.555487
0.489053 0.515066 0.572296
0.503416 0.530194 0.589104
0.517780 0.545322 0.605913
0.532144 0.560450 0.622722
0.546508 0.575577 0.639530
0.560872 0.590705 0.656339
0.575235 0.605833 0.673148
0.588975 0.620303 0.689226
0.588975 0.620303 0.689226
0.437451 0.460720 0.511911
0.437451 0.460720 0.511911
0.451191 0.475190 0.527989
0.465554 0.490318 0.544798
0.479918 0.505446 0.561606
0.494282 0.520574 0.578415
0.508646 0.535701 0.595224
0.523010 0.550829 0.612032
0.537373 0.565957 0.628841
0.551737 0.581085 0.645650
0.566101 0.596213 0.662459
0.580465 0.611340 0.679267
0.594828 0.626468 0.696076
0.609192 0.641596 0.712885
0.623556 0.656724 0.729693
0.637295 0.671194 0.745771
0.637295 0.671194 0.745771
0.485772 0.511611 0.568457
0.485772 0.511611 0.568457
0.499511 0.526081 0.584534
0.513875 0.541209 0.601343
0.528239 0.556337 0.618152
0.542603 0.571465 0.634961
0.556966 0.586592 0.651769
0.571330 0.601720 0.668578
0.585694 0.616848 0.685387
0.600058 0.631976 0.702195
0.614422 0.647104 0.719004
0.628785 0.662231 0.735813
0.643149 0.677359 0.752621
0.657513 0.692487 0.769430
0.671877 0.707615 0.786239
0.685616 0.722085 0.802317
0.685616 0.722085 0.802317
0.534093 0.562502 0.625002
0.534093 0.562502 0.625002
0.547832 0.576972 0.641080
0.562196 0.592100 0.657889
0.576560 0.607228 0.674697
0.590923 0.622355 0.691506
0.605287 0.637483 0.708315
0.619651 0.652611 0.725123
0.634015 0.667739 0.741932
0.648379 0.682867 0.758741
0.662742 0.697995 0.775550
0.677106 0.713122 0.792358
0.691470 0.728250 0.809167
0.705834 0.743378 0.825976
0.720197 0.758506 0.842784
0.733937 0.772976 0.858862
0.733937 0.772976 0.858862
0.582413 0.613393 0.681548
0.582413 0.613393 0.681548
0.596153 0.627863 0.697626
0.610516 0.642991 0.714434
0.624880 0.658119 0.731243
0.639244 0.673246 0.748052
0.653608 0.688374 0.764860
0.667972 0.703502 0.781669
0.682335 0.718630 0.798478
0.696699 0.733758 0.815286
0.711063 0.748886 0.832095
0.725427 0.764013 0.848904
0.739791 0.779141 0.865712
0.754154 0.794269 0.882521
0.768518 0.809397 0.899330
0.782257 0.823867 0.915408
0.782257 0.823867 0.915408
0.630734 0.664284 0.738093
0.630734 0.664284 0.738093
0.644473 0.678754 0.754171
0.658837 0.693882 0.770980
0.673201 0.709010 0.787788
0.687565 0.724137 0.804597
0.701929 0.739265 0.821406
0.716292 0.754393 0.838214
0.730656 0.769521 0.855023
0.745020 0.784649 0.871832
0.759384 0.799776 0.888641
0.773747 0.814904 0.905449
0.788111 0.830032 0.922258
0.802475 0.845160 0.939067
0.816839 0.860288 0.955875
0.830578 0.874758 0.971953
0.830578 0.874758 0.971953
0.676954 0.712962 0.792180
0.676954 0.712962 0.792180
0.690693 0.727432 0.808258
0.705057 0.742560 0.825067
0.719421 0.757688 0.841875
0.733785 0.772816 0.858684
0.748148 0.787943 0.875493
0.762512 0.803071 0.892301
0.776876 0.818199 0.909110
0.791240 0.833327 0.925919
0.805604 0.848455 0.942728
0.819967 0.863583 0.959536
0.834331 0.878710 0.976345
0.848695 0.893838 0.993154
0.863059 0.908966 1.000000
0.876798 0.923436 1.000000
0.876798 0.923436 1.000000
0.676954 0.712962 0.792180
0.676954 0.712962 0.792180
0.690693 0.727432 0.808258
0.705057 0.742560 0.825067
0.719421 0.757688 0.841875
0.733785 0.772816 0.858684
0.748148 0.787943 0.875493
0.762512 0.803071 0.892301
0.776876 0.818199 0.909110
0.791240 0.833327 0.925919
0.805604 0.848455 0.942728
0.819967 0.863583 0.959536
0.834331 0.878710 0.976345
0.848695 0.893838 0.993154
0.863059 0.908966 1.000000
0.876798 0.923436 1.000000
0.876798 0.923436 1.000000
0.009544 0.010052 0.011168
0.009544 0.010052 0.011168
0.023283 0.024522 0.027246
0.037647 0.039650 0.044055
0.052011 0.054777 0.060864
0.066375 0.069905 0.077672
0.080738 0.085033 0.094481
0.095102 0.100161 0.111290
0.109466 0.115289 0.128098
0.123830 0.130416 0.144907
0.138194 0.145544 0.161716
0.152557 0.160672 0.178525
0.166921 0.175800 0.195333
0.181285 0.190928 0.212142
0.195649 0.206056 0.228951
