assets/luts/soft.cube
# Soft — Studio filter "soft"
# Generated by scripts/generate-filter-luts.mjs — do not edit by hand.
LUT_3D_SIZE 17
DOMAIN_MIN 0.0 0.0 0.0
DOMAIN_MAX 1.0 1.0 1.0
0.050000 0.050000 0.050000
0.101929 0.050695 0.050695
0.155715 0.051415 0.051415
0.211092 0.052157 0.052157
0.267794 0.052916 0.052916
0.325557 0.053689 0.053689
0.384116 0.054473 0.054473
0.443205 0.055264 0.055264
0.502559 0.056059 0.056059
0.561913 0.056854 0.056854
0.621002 0.057645 0.057645
0.679561 0.058429 0.058429
0.737324 0.059202 0.059202
0.794027 0.059961 0.059961
0.849403 0.060703 0.060703
0.903189 0.061423 0.061423
0.955118 0.062118 0.062118
0.052339 0.103573 0.052339
0.104268 0.104268 0.053034
0.158054 0.104988 0.053754
0.213430 0.105730 0.054496
0.270133 0.106489 0.055255
0.327896 0.107262 0.056028
0.386455 0.108046 0.056812
0.445544 0.108837 0.057603
0.504898 0.109632 0.058398
0.564252 0.110427 0.059193
0.623341 0.111218 0.059984
0.681900 0.112002 0.060768
0.739663 0.112775 0.061541
0.796365 0.113534 0.062300
0.851742 0.114276 0.063042
0.905528 0.114996 0.063762
0.957457 0.115691 0.064457
0.054761 0.159061 0.054761
0.106691 0.159756 0.055457
0.160476 0.160476 0.056177
0.215853 0.161218 0.056918
0.272555 0.161977 0.057677
0.330319 0.162750 0.058451
0.388877 0.163534 0.059235
0.447966 0.164325 0.060026
0.507320 0.165120 0.060820
0.566675 0.165915 0.061615
0.625764 0.166706 0.062406
0.684322 0.167490 0.063190
0.742086 0.168263 0.063964
0.798788 0.169022 0.064723
0.854165 0.169764 0.065464
0.907950 0.170484 0.066184
0.959880 0.171179 0.066880
0.057256 0.216190 0.057256
0.109185 0.216886 0.057951
0.162971 0.217606 0.058671
0.218347 0.218347 0.059412
0.275050 0.219106 0.060171
0.332813 0.219880 0.060945
0.391371 0.220664 0.061729
0.450460 0.221455 0.062520
0.509815 0.222249 0.063315
0.569169 0.223044 0.064109
0.628258 0.223835 0.064900
0.686817 0.224619 0.065684
0.744580 0.225393 0.066458
0.801282 0.226152 0.067217
0.856659 0.226893 0.067958
0.910444 0.227613 0.068678
0.962374 0.228309 0.069374
0.059809 0.274688 0.059809
0.111739 0.275383 0.060505
0.165524 0.276103 0.061225
0.220901 0.276844 0.061966
0.277603 0.277603 0.062725
0.335367 0.278377 0.063499
0.393925 0.279161 0.064283
0.453014 0.279952 0.065074
0.512369 0.280747 0.065869
0.571723 0.281541 0.066663
0.630812 0.282332 0.067454
0.689370 0.283116 0.068238
0.747134 0.283890 0.069012
0.803836 0.284649 0.069771
0.859213 0.285390 0.070512
0.912998 0.286110 0.071232
0.964928 0.286806 0.071928
0.062411 0.334279 0.062411
0.114340 0.334974 0.063106
0.168126 0.335694 0.063826
0.223503 0.336436 0.064568
0.280205 0.337195 0.065327
0.337968 0.337968 0.066100
0.396527 0.338752 0.066884
0.455616 0.339543 0.067675
0.514970 0.340338 0.068470
0.574324 0.341133 0.069265
0.633413 0.341924 0.070056
0.691972 0.342708 0.070840
0.749735 0.343481 0.071613
0.806438 0.344240 0.072372
0.861814 0.344982 0.073114
0.915600 0.345702 0.073834
0.967529 0.346397 0.074529
0.065049 0.394691 0.065049
0.116978 0.395386 0.065744
0.170764 0.396106 0.066464
0.226140 0.396848 0.067205
0.282843 0.397607 0.067964
0.340606 0.398380 0.068738
0.399164 0.399164 0.069522
0.458253 0.399956 0.070313
0.517608 0.400750 0.071108
0.576962 0.401545 0.071902
0.636051 0.402336 0.072693
0.694610 0.403120 0.073477
0.752373 0.403893 0.074251
0.809075 0.404653 0.075010
0.864452 0.405394 0.075751
0.918237 0.406114 0.076471
0.970167 0.406809 0.077167
0.067710 0.455650 0.067710
0.119639 0.456346 0.068405
0.173425 0.457066 0.069125
0.228801 0.457807 0.069867
0.285504 0.458566 0.070626
0.343267 0.459340 0.071399
0.401826 0.460124 0.072183
0.460915 0.460915 0.072974
0.520269 0.461709 0.073769
0.579623 0.462504 0.074564
0.638712 0.463295 0.075355
0.697271 0.464079 0.076139
0.755034 0.464853 0.076912
0.811737 0.465612 0.077671
0.867113 0.466353 0.078413
0.920899 0.467073 0.079133
0.972828 0.467769 0.079828
0.070383 0.516883 0.070383
0.122313 0.517578 0.071078
0.176098 0.518299 0.071799
0.231475 0.519040 0.072540
0.288177 0.519799 0.073299
0.345940 0.520573 0.074073
0.404499 0.521357 0.074857
0.463588 0.522148 0.075648
0.522942 0.522942 0.076442
0.582296 0.523737 0.077237
0.641386 0.524528 0.078028
0.699944 0.525312 0.078812
0.757707 0.526085 0.079585
0.814410 0.526845 0.080345
0.869786 0.527586 0.081086
0.923572 0.528306 0.081806
0.975501 0.529001 0.082501
0.073057 0.578116 0.073057
0.124986 0.578811 0.073752
0.178771 0.579531 0.074472
0.234148 0.580273 0.075213
0.290851 0.581032 0.075972
0.348614 0.581805 0.076746
0.407172 0.582589 0.077530
0.466261 0.583380 0.078321
0.525616 0.584175 0.079116
0.584970 0.584970 0.079910
0.644059 0.585761 0.080701
0.702617 0.586545 0.081485
0.760381 0.587318 0.082259
0.817083 0.588077 0.083018
0.872460 0.588819 0.083759
0.926245 0.589539 0.084479
0.978175 0.590234 0.085175
0.075718 0.639075 0.075718
0.127647 0.639771 0.076413
0.181433 0.640491 0.077133
0.236809 0.641232 0.077875
0.293512 0.641991 0.078634
0.351275 0.642765 0.079407
0.409834 0.643549 0.080191
0.468923 0.644340 0.080982
0.528277 0.645134 0.081777
0.587631 0.645929 0.082572
0.646720 0.646720 0.083363
0.705279 0.647504 0.084147
0.763042 0.648278 0.084920
0.819744 0.649037 0.085679
0.875121 0.649778 0.086421
0.928907 0.650498 0.087141
0.980836 0.651193 0.087836
0.078355 0.699487 0.078355
0.130285 0.700183 0.079051
0.184070 0.700903 0.079771
0.239447 0.701644 0.080512
0.296149 0.702403 0.081271
0.353913 0.703177 0.082045
0.412471 0.703961 0.082829
0.471560 0.704752 0.083620
0.530914 0.705547 0.084414
0.590269 0.706341 0.085209
0.649358 0.707132 0.086000
0.707916 0.707916 0.086784
0.765679 0.708690 0.087558
0.822382 0.709449 0.088317
0.877759 0.710190 0.089058
0.931544 0.710910 0.089778
0.983474 0.711606 0.090474
0.080957 0.759079 0.080957
0.132886 0.759774 0.081652
0.186672 0.760494 0.082372
0.242049 0.761236 0.083114
0.298751 0.761995 0.083873
0.356514 0.762768 0.084646
0.415073 0.763552 0.085430
0.474162 0.764343 0.086221
0.533516 0.765138 0.087016
0.592870 0.765933 0.087811
0.651959 0.766724 0.088602
0.710518 0.767508 0.089386
0.768281 0.768281 0.090159
0.824984 0.769040 0.090918
0.880360 0.769782 0.091660
0.934146 0.770502 0.092380
0.986075 0.771197 0.093075
0.083511 0.817576 0.083511
0.135440 0.818271 0.084206
0.189226 0.818991 0.084926
0.244602 0.819733 0.085668
0.301305 0.820492 0.086427
0.359068 0.821265 0.087200
0.417627 0.822049 0.087984
0.476716 0.822840 0.088775
0.536070 0.823635 0.089570
0.595424 0.824430 0.090365
0.654513 0.825221 0.091156
0.713072 0.826005 0.091940
0.770835 0.826778 0.092713
0.827537 0.827537 0.093472
0.882914 0.828279 0.094214
0.936700 0.828999 0.094934
0.988629 0.829694 0.095629
0.086005 0.874705 0.086005
0.137934 0.875401 0.086700
0.191720 0.876121 0.087420
0.247097 0.876862 0.088162
0.303799 0.877621 0.088921
0.361562 0.878395 0.089694
0.420121 0.879179 0.090478
0.479210 0.879970 0.091269
0.538564 0.880765 0.092064
0.597918 0.881559 0.092859
0.657007 0.882350 0.093650
0.715566 0.883134 0.094434
0.773329 0.883908 0.095207
0.830032 0.884667 0.095966
0.885408 0.885408 0.096708
0.939194 0.886128 0.097428
0.991123 0.886824 0.098123
0.088428 0.930193 0.088428
0.140357 0.930889 0.089123
0.194142 0.931609 0.089843
0.249519 0.932350 0.090584
0.306222 0.933109 0.091343
0.363985 0.933883 0.092117
0.422543 0.934667 0.092901
0.481632 0.935458 0.093692
0.540987 0.936252 0.094487
0.600341 0.937047 0.095281
0.659430 0.937838 0.096072
0.717988 0.938622 0.096856
0.775752 0.939396 0.097630
0.832454 0.940155 0.098389
0.887831 0.940896 0.099130
0.941616 0.941616 0.099850
0.993546 0.942312 0.100546
0.090766 0.983766 0.090766
0.142696 0.984462 0.091462
0.196481 0.985182 0.092182
0.251858 0.985923 0.092923
0.308560 0.986682 0.093682
0.366324 0.987456 0.094456
0.424882 0.988240 0.095240
0.483971 0.989031 0.096031
0.543326 0.989826 0.096826
0.602680 0.990620 0.097620
0.661769 0.991411 0.098411
0.720327 0.992195 0.099195
0.778091 0.992969 0.099969
0.834793 0.993728 0.100728
0.890170 0.994469 0.101469
0.943955 0.995189 0.102189
0.995885 0.995885 0.102885
0.050236 0.050236 0.101470
0.102166 0.050931 0.102166
0.155951 0.051651 0.102886
0.211328 0.052393 0.103627
0.268030 0.053152 0.104386
0.325793 0.053925 0.105160
0.384352 0.054709 0.105944
0.443441 0.055501 0.106735
0.502795 0.056295 0.107529
0.562149 0.057090 0.108324
0.621238 0.057881 0.109115
0.679797 0.058665 0.109899
0.737560 0.059438 0.110673
0.794263 0.060198 0.111432
0.849639 0.060939 0.112173
0.903425 0.061659 0.112893
0.955354 0.062354 0.113588
0.052575 0.103809 0.103809
0.104504 0.104504 0.104504
0.158290 0.105225 0.105225
0.213667 0.105966 0.105966
0.270369 0.106725 0.106725
0.328132 0.107498 0.107498
0.386691 0.108282 0.108282
0.445780 0.109074 0.109074
0.505134 0.109868 0.109868
0.564488 0.110663 0.110663
0.623577 0.111454 0.111454
0.682136 0.112238 0.112238
0.739899 0.113011 0.113011
0.796602 0.113771 0.113771
0.851978 0.114512 0.114512
0.905764 0.115232 0.115232
0.957693 0.115927 0.115927
0.054998 0.159297 0.106232
0.106927 0.159992 0.106927
0.160712 0.160712 0.107647
0.216089 0.161454 0.108388
0.272792 0.162213 0.109148
0.330555 0.162986 0.109921
0.389113 0.163770 0.110705
0.448202 0.164562 0.111496
0.507557 0.165356 0.112291
0.566911 0.166151 0.113085
0.626000 0.166942 0.113877
0.684558 0.167726 0.114661
0.742322 0.168499 0.115434
0.799024 0.169259 0.116193
0.854401 0.170000 0.116934
0.908186 0.170720 0.117655
0.960116 0.171415 0.118350
0.057492 0.216426 0.108726
0.109421 0.217122 0.109421
0.163207 0.217842 0.110141
0.218583 0.218583 0.110883
0.275286 0.219342 0.111642
0.333049 0.220116 0.112415
0.391608 0.220900 0.113199
0.450697 0.221691 0.113990
0.510051 0.222486 0.114785
0.569405 0.223280 0.115580
0.628494 0.224071 0.116371
0.687053 0.224855 0.117155
0.744816 0.225629 0.117928
0.801518 0.226388 0.118687
0.856895 0.227129 0.119429
0.910680 0.227849 0.120149
0.962610 0.228545 0.120844
0.060046 0.274924 0.111280
0.111975 0.275619 0.111975
0.165761 0.276339 0.112695
0.221137 0.277080 0.113436
0.277840 0.277840 0.114196
0.335603 0.278613 0.114969
0.394161 0.279397 0.115753
0.453250 0.280188 0.116544
0.512605 0.280983 0.117339
0.571959 0.281777 0.118133
0.631048 0.282569 0.118925
0.689607 0.283353 0.119709
0.747370 0.284126 0.120482
0.804072 0.284885 0.121241
0.859449 0.285626 0.121982
0.913234 0.286347 0.122703
0.965164 0.287042 0.123398
0.062647 0.334515 0.113881
0.114577 0.335210 0.114577
0.168362 0.335930 0.115297
0.223739 0.336672 0.116038
0.280441 0.337431 0.116797
0.338204 0.338204 0.117571
0.396763 0.338988 0.118355
0.455852 0.339780 0.119146
0.515206 0.340574 0.119940
0.574560 0.341369 0.120735
0.633649 0.342160 0.121526
0.692208 0.342944 0.122310
0.749971 0.343717 0.123084
0.806674 0.344477 0.123843
0.862050 0.345218 0.124584
0.915836 0.345938 0.125304
0.967765 0.346633 0.126000
0.065285 0.394927 0.116519
0.117214 0.395622 0.117214
0.171000 0.396343 0.117934
0.226376 0.397084 0.118676
0.283079 0.397843 0.119435
0.340842 0.398617 0.120208
0.399401 0.399401 0.120992
0.458490 0.400192 0.121783
0.517844 0.400986 0.122578
0.577198 0.401781 0.123373
0.636287 0.402572 0.124164
0.694846 0.403356 0.124948
0.752609 0.404129 0.125721
0.809311 0.404889 0.126480
0.864688 0.405630 0.127222
0.918473 0.406350 0.127942
0.970403 0.407045 0.128637
0.067946 0.455886 0.119180
0.119875 0.456582 0.119875
0.173661 0.457302 0.120596
0.229038 0.458043 0.121337
0.285740 0.458802 0.122096
0.343503 0.459576 0.122869
0.402062 0.460360 0.123653
0.461151 0.461151 0.124445
0.520505 0.461946 0.125239
0.579859 0.462740 0.126034
0.638948 0.463531 0.126825
0.697507 0.464315 0.127609
0.755270 0.465089 0.128382
0.811973 0.465848 0.129142
0.867349 0.466589 0.129883
0.921135 0.467309 0.130603
0.973064 0.468005 0.131298
0.070619 0.517119 0.121853
0.122549 0.517815 0.122549
0.176334 0.518535 0.123269
0.231711 0.519276 0.124010
0.288413 0.520035 0.124769
0.346177 0.520809 0.125543
0.404735 0.521593 0.126327
0.463824 0.522384 0.127118
0.523178 0.523178 0.127913
0.582533 0.523973 0.128707
0.641622 0.524764 0.129498
0.700180 0.525548 0.130282
0.757943 0.526322 0.131056
0.814646 0.527081 0.131815
0.870023 0.527822 0.132556
0.923808 0.528542 0.133276
0.975738 0.529238 0.133972
0.073293 0.578352 0.124527
0.125222 0.579047 0.125222
0.179008 0.579768 0.125942
0.234384 0.580509 0.126684
0.291087 0.581268 0.127443
0.348850 0.582041 0.128216
0.407409 0.582825 0.129000
0.466498 0.583617 0.129791
0.525852 0.584411 0.130586
0.585206 0.585206 0.131381
0.644295 0.585997 0.132172
0.702854 0.586781 0.132956
0.760617 0.587554 0.133729
0.817319 0.588314 0.134488
0.872696 0.589055 0.135230
0.926481 0.589775 0.135950
0.978411 0.590470 0.136645
0.075954 0.639311 0.127188
0.127883 0.640007 0.127883
0.181669 0.640727 0.128603
0.237046 0.641468 0.129345
0.293748 0.642227 0.130104
0.351511 0.643001 0.130877
0.410070 0.643785 0.131661
0.469159 0.644576 0.132453
0.528513 0.645371 0.133247
0.587867 0.646165 0.134042
0.646956 0.646956 0.134833
0.705515 0.647740 0.135617
0.763278 0.648514 0.136390
0.819981 0.649273 0.137150
0.875357 0.650014 0.137891
0.929143 0.650734 0.138611
0.981072 0.651430 0.139306
0.078591 0.699724 0.129826
0.130521 0.700419 0.130521
0.184306 0.701139 0.131241
0.239683 0.701880 0.131982
0.296386 0.702639 0.132742
0.354149 0.703413 0.133515
0.412707 0.704197 0.134299
0.471796 0.704988 0.135090
0.531151 0.705783 0.135885
0.590505 0.706577 0.136679
0.649594 0.707368 0.137470
0.708152 0.708152 0.138254
0.765916 0.708926 0.139028
0.822618 0.709685 0.139787
0.877995 0.710426 0.140528
0.931780 0.711146 0.141249
0.983710 0.711842 0.141944
0.081193 0.759315 0.132427
0.133122 0.760010 0.133122
0.186908 0.760730 0.133843
0.242285 0.761472 0.134584
0.298987 0.762231 0.135343
0.356750 0.763004 0.136117
0.415309 0.763788 0.136901
0.474398 0.764579 0.137692
0.533752 0.765374 0.138486
0.593106 0.766169 0.139281
0.652195 0.766960 0.140072
0.710754 0.767744 0.140856
0.768517 0.768517 0.141629
0.825220 0.769276 0.142389
0.880596 0.770018 0.143130
0.934382 0.770738 0.143850
0.986311 0.771433 0.144545
0.083747 0.817812 0.134981
0.135676 0.818507 0.135676
0.189462 0.819228 0.136396
0.244839 0.819969 0.137138
0.301541 0.820728 0.137897
0.359304 0.821501 0.138670
0.417863 0.822285 0.139454
0.476952 0.823077 0.140246
0.536306 0.823871 0.141040
0.595660 0.824666 0.141835
0.654749 0.825457 0.142626
0.713308 0.826241 0.143410
0.771071 0.827014 0.144183
0.827774 0.827774 0.144943
0.883150 0.828515 0.145684
0.936936 0.829235 0.146404
0.988865 0.829930 0.147099
0.086241 0.874942 0.137475
0.138171 0.875637 0.138171
0.191956 0.876357 0.138891
0.247333 0.877098 0.139632
0.304035 0.877857 0.140391
0.361798 0.878631 0.141165
0.420357 0.879415 0.141949
0.479446 0.880206 0.142740
0.538800 0.881001 0.143534
0.598154 0.881795 0.144329
0.657243 0.882586 0.145120
0.715802 0.883370 0.145904
0.773565 0.884144 0.146678
0.830268 0.884903 0.147437
0.885644 0.885644 0.148178
0.939430 0.886364 0.148898
0.991359 0.887060 0.149593
0.088664 0.930429 0.139898
0.140593 0.931125 0.140593
0.194379 0.931845 0.141313
0.249755 0.932586 0.142055
0.306458 0.933345 0.142814
0.364221 0.934119 0.143587
0.422780 0.934903 0.144371
0.481869 0.935694 0.145162
0.541223 0.936489 0.145957
0.600577 0.937283 0.146752
0.659666 0.938074 0.147543
0.718225 0.938858 0.148327
0.775988 0.939632 0.149100
0.832690 0.940391 0.149859
0.888067 0.941132 0.150601
0.941852 0.941852 0.151321
0.993782 0.942548 0.152016
0.091003 0.984003 0.142237
0.142932 0.984698 0.142932
0.196717 0.985418 0.143652
0.252094 0.986159 0.144393
0.308797 0.986918 0.145153
0.366560 0.987692 0.145926
0.425118 0.988476 0.146710
0.484207 0.989267 0.147501
0.543562 0.990062 0.148296
0.602916 0.990856 0.149090
0.662005 0.991647 0.149882
0.720563 0.992431 0.150666
0.778327 0.993205 0.151439
0.835029 0.993964 0.152198
0.890406 0.994705 0.152939
0.944191 0.995425 0.153660
0.996121 0.996121 0.154355
0.050481 0.050481 0.154780
0.102410 0.051176 0.155476
0.156196 0.051896 0.156196
0.211572 0.052637 0.156937
0.268275 0.053397 0.157696
0.326038 0.054170 0.158470
0.384597 0.054954 0.159254
0.443686 0.055745 0.160045
0.503040 0.056540 0.160839
0.562394 0.057334 0.161634
0.621483 0.058126 0.162425
0.680042 0.058910 0.163209
0.737805 0.059683 0.163983
0.794507 0.060442 0.164742
0.849884 0.061183 0.165483
0.903669 0.061904 0.166203
0.955599 0.062599 0.166898
0.052820 0.104054 0.157119
0.104749 0.104749 0.157814
0.158535 0.105469 0.158535
0.213911 0.106210 0.159276
0.270614 0.106970 0.160035
0.328377 0.107743 0.160808
0.386935 0.108527 0.161592
0.446024 0.109318 0.162384
0.505379 0.110113 0.163178
0.564733 0.110907 0.163973
0.623822 0.111699 0.164764
0.682381 0.112483 0.165548
0.740144 0.113256 0.166321
0.796846 0.114015 0.167081
0.852223 0.114757 0.167822
0.906008 0.115477 0.168542
0.957938 0.116172 0.169237
0.055242 0.159542 0.159542
0.107171 0.160237 0.160237
0.160957 0.160957 0.160957
0.216334 0.161698 0.161698
0.273036 0.162458 0.162458
0.330799 0.163231 0.163231
0.389358 0.164015 0.164015
0.448447 0.164806 0.164806
0.507801 0.165601 0.165601
0.567155 0.166395 0.166395
0.626244 0.167187 0.167187
0.684803 0.167971 0.167971
0.742566 0.168744 0.168744
0.799269 0.169503 0.169503
0.854645 0.170244 0.170244
0.908431 0.170965 0.170965
0.960360 0.171660 0.171660
0.057736 0.216671 0.162036
0.109666 0.217366 0.162731
0.163451 0.218086 0.163451
0.218828 0.218828 0.164193
0.275530 0.219587 0.164952
0.333293 0.220360 0.165725
0.391852 0.221144 0.166509
0.450941 0.221935 0.167300
0.510295 0.222730 0.168095
0.569649 0.223525 0.168890
0.628739 0.224316 0.169681
0.687297 0.225100 0.170465
0.745060 0.225873 0.171238
0.801763 0.226632 0.171997
0.857139 0.227374 0.172739
0.910925 0.228094 0.173459
0.962854 0.228789 0.174154
0.060290 0.275168 0.164590
0.112219 0.275863 0.165285
0.166005 0.276584 0.166005
0.221382 0.277325 0.166746
0.278084 0.278084 0.167506
0.335847 0.278858 0.168279
0.394406 0.279642 0.169063
0.453495 0.280433 0.169854
0.512849 0.281227 0.170649
0.572203 0.282022 0.171443
0.631292 0.282813 0.172235
0.689851 0.283597 0.173019
0.747614 0.284370 0.173792
0.804317 0.285130 0.174551
0.859693 0.285871 0.175293
0.913479 0.286591 0.176013
0.965408 0.287286 0.176708
0.062892 0.334760 0.167191
0.114821 0.335455 0.167887
0.168607 0.336175 0.168607
0.223983 0.336916 0.169348
0.280686 0.337676 0.170107
0.338449 0.338449 0.170881
0.397008 0.339233 0.171665
0.456097 0.340024 0.172456
0.515451 0.340819 0.173250
0.574805 0.341613 0.174045
0.633894 0.342405 0.174836
0.692453 0.343189 0.175620
0.750216 0.343962 0.176394
0.806918 0.344721 0.177153
0.862295 0.345462 0.177894
0.916081 0.346183 0.178614
0.968010 0.346878 0.179310
0.065529 0.395172 0.169829
0.117459 0.395867 0.170524
0.171244 0.396587 0.171244
0.226621 0.397329 0.171986
0.283323 0.398088 0.172745
0.341086 0.398861 0.173518
0.399645 0.399645 0.174302
0.458734 0.400436 0.175093
0.518088 0.401231 0.175888
0.577442 0.402026 0.176683
0.636532 0.402817 0.177474
0.695090 0.403601 0.178258
0.752853 0.404374 0.179031
0.809556 0.405133 0.179790
0.864932 0.405875 0.180532
0.918718 0.406595 0.181252
0.970647 0.407290 0.181947
0.068191 0.456131 0.172490
0.120120 0.456826 0.173185
0.173906 0.457546 0.173906
0.229282 0.458288 0.174647
0.285985 0.459047 0.175406
0.343748 0.459820 0.176179
0.402306 0.460604 0.176963
0.461395 0.461395 0.177755
0.520750 0.462190 0.178549
0.580104 0.462985 0.179344
0.639193 0.463776 0.180135
0.697752 0.464560 0.180919
0.755515 0.465333 0.181692
0.812217 0.466092 0.182452
0.867594 0.466834 0.183193
0.921379 0.467554 0.183913
0.973309 0.468249 0.184608
0.070864 0.517364 0.175163
0.122793 0.518059 0.175859
0.176579 0.518779 0.176579
0.231955 0.519521 0.177320
0.288658 0.520280 0.178079
0.346421 0.521053 0.178853
0.404980 0.521837 0.179637
0.464069 0.522628 0.180428
0.523423 0.523423 0.181223
0.582777 0.524218 0.182017
0.641866 0.525009 0.182808
0.700425 0.525793 0.183592
0.758188 0.526566 0.184366
0.814890 0.527325 0.185125
0.870267 0.528067 0.185866
0.924053 0.528787 0.186586
0.975982 0.529482 0.187282
0.073537 0.578597 0.177837
0.125467 0.579292 0.178532
0.179252 0.580012 0.179252
0.234629 0.580753 0.179994
0.291331 0.581513 0.180753
0.349094 0.582286 0.181526
0.407653 0.583070 0.182310
0.466742 0.583861 0.183101
0.526096 0.584656 0.183896
0.585450 0.585450 0.184691
0.644539 0.586242 0.185482
0.703098 0.587026 0.186266
0.760861 0.587799 0.187039
0.817564 0.588558 0.187798
0.872940 0.589300 0.188540
0.926726 0.590020 0.189260
0.978655 0.590715 0.189955
0.076199 0.639556 0.180498
0.128128 0.640251 0.181193
0.181914 0.640971 0.181914
0.237290 0.641713 0.182655
0.293993 0.642472 0.183414
0.351756 0.643245 0.184187
0.410314 0.644029 0.184971
0.469403 0.644820 0.185763
0.528758 0.645615 0.186557
0.588112 0.646410 0.187352
0.647201 0.647201 0.188143
0.705760 0.647985 0.188927
0.763523 0.648758 0.189700
0.820225 0.649517 0.190460
0.875602 0.650259 0.191201
0.929387 0.650979 0.191921
0.981317 0.651674 0.192616
0.078836 0.699968 0.183136
0.130765 0.700663 0.183831
0.184551 0.701383 0.184551
0.239928 0.702125 0.185292
0.296630 0.702884 0.186052
0.354393 0.703657 0.186825
0.412952 0.704441 0.187609
0.472041 0.705233 0.188400
0.531395 0.706027 0.189195
0.590749 0.706822 0.189989
0.649838 0.707613 0.190780
0.708397 0.708397 0.191565
0.766160 0.709170 0.192338
0.822863 0.709930 0.193097
0.878239 0.710671 0.193838
0.932025 0.711391 0.194559
0.983954 0.712086 0.195254
0.081438 0.759560 0.185737
0.133367 0.760255 0.186433
0.187153 0.760975 0.187153
0.242529 0.761716 0.187894
0.299232 0.762475 0.188653
0.356995 0.763249 0.189427
0.415554 0.764033 0.190211
0.474643 0.764824 0.191002
0.533997 0.765619 0.191796
0.593351 0.766413 0.192591
0.652440 0.767204 0.193382
0.710999 0.767988 0.194166
0.768762 0.768762 0.194940
0.825464 0.769521 0.195699
0.880841 0.770262 0.196440
0.934626 0.770982 0.197160
0.986556 0.771678 0.197855
0.083992 0.818057 0.188291
0.135921 0.818752 0.188986
0.189706 0.819472 0.189706
0.245083 0.820213 0.190448
0.301786 0.820973 0.191207
0.359549 0.821746 0.191980
0.418107 0.822530 0.192764
0.477196 0.823321 0.193556
0.536551 0.824116 0.194350
0.595905 0.824910 0.195145
0.654994 0.825702 0.195936
0.713552 0.826486 0.196720
0.771316 0.827259 0.197493
0.828018 0.828018 0.198253
0.883395 0.828760 0.198994
0.937180 0.829480 0.199714
0.989110 0.830175 0.200409
0.086486 0.875186 0.190785
0.138415 0.875881 0.191481
0.192201 0.876601 0.192201
0.247577 0.877343 0.192942
0.304280 0.878102 0.193701
0.362043 0.878875 0.194475
0.420602 0.879659 0.195259
0.479691 0.880451 0.196050
0.539045 0.881245 0.196844
0.598399 0.882040 0.197639
0.657488 0.882831 0.198430
0.716047 0.883615 0.199214
0.773810 0.884388 0.199988
0.830512 0.885147 0.200747
0.885889 0.885889 0.201488
0.939674 0.886609 0.202208
0.991604 0.887304 0.202903
0.088908 0.930674 0.193208
0.140838 0.931369 0.193903
0.194623 0.932089 0.194623
0.250000 0.932831 0.195365
0.306702 0.933590 0.196124
0.364465 0.934363 0.196897
0.423024 0.935147 0.197681
0.482113 0.935938 0.198472
0.541467 0.936733 0.199267
0.600821 0.937528 0.200062
0.659910 0.938319 0.200853
0.718469 0.939103 0.201637
0.776232 0.939876 0.202410
0.832935 0.940635 0.203169
0.888311 0.941377 0.203911
0.942097 0.942097 0.204631
0.994026 0.942792 0.205326
0.091247 0.984247 0.195547
0.143176 0.984942 0.196242
0.196962 0.985662 0.196962
0.252339 0.986404 0.197703
0.309041 0.987163 0.198463
0.366804 0.987936 0.199236
0.425363 0.988720 0.200020
0.484452 0.989512 0.200811
0.543806 0.990306 0.201606
0.603160 0.991101 0.202400
0.662249 0.991892 0.203192
0.720808 0.992676 0.203976
0.778571 0.993449 0.204749
0.835274 0.994208 0.205508
0.890650 0.994950 0.206250
0.944436 0.995670 0.206970
0.996365 0.996365 0.207665
0.050732 0.050732 0.209667
0.102662 0.051428 0.210363
0.156447 0.052148 0.211083
0.211824 0.052889 0.211824
0.268527 0.053648 0.212583
0.326290 0.054422 0.213357
0.384848 0.055206 0.214141
0.443937 0.055997 0.214932
0.503292 0.056792 0.215726
0.562646 0.057586 0.216521
0.621735 0.058377 0.217312
0.680293 0.059161 0.218096
0.738057 0.059935 0.218870
0.794759 0.060694 0.219629
0.850136 0.061435 0.220370
