assets/luts/soft.cube
# Soft — Studio filter "soft"
# Generated by scripts/generate-filter-luts.mjs — do not edit by hand.
LUT_3D_SIZE 5
DOMAIN_MIN 0.0 0.0 0.0
DOMAIN_MAX 1.0 1.0 1.0
0.050000 0.050000 0.050000
0.267794 0.052916 0.052916
0.502559 0.056059 0.056059
0.737324 0.059202 0.059202
0.955118 0.062118 0.062118
0.059809 0.274688 0.059809
0.277603 0.277603 0.062725
0.512369 0.280747 0.065869
0.747134 0.283890 0.069012
0.964928 0.286806 0.071928
0.070383 0.516883 0.070383
0.288177 0.519799 0.073299
0.522942 0.522942 0.076442
0.757707 0.526085 0.079585
0.975501 0.529001 0.082501
0.080957 0.759079 0.080957
0.298751 0.761995 0.083873
0.533516 0.765138 0.087016
0.768281 0.768281 0.090159
0.986075 0.771197 0.093075
0.090766 0.983766 0.090766
0.308560 0.986682 0.093682
0.543326 0.989826 0.096826
0.778091 0.992969 0.099969
0.995885 0.995885 0.102885
0.050990 0.050990 0.265868
0.268784 0.053906 0.268784
0.503549 0.057049 0.271927
0.738314 0.060193 0.275071
0.956108 0.063108 0.277987
0.060800 0.275678 0.275678
0.278594 0.278594 0.278594
0.513359 0.281737 0.281737
0.748124 0.284880 0.284880
0.965918 0.287796 0.287796
0.071373 0.517873 0.286252
0.289168 0.520789 0.289168
0.523933 0.523933 0.292311
0.758698 0.527076 0.295454
0.976492 0.529992 0.298370
0.081947 0.760069 0.296825
0.299741 0.762985 0.299741
0.534506 0.766128 0.302884
0.769271 0.769271 0.306028
0.987065 0.772187 0.308944
0.091757 0.984757 0.306635
0.309551 0.987673 0.309551
0.544316 0.990816 0.312694
0.779081 0.993959 0.315837
0.996875 0.996875 0.318753
0.052058 0.052058 0.498558
0.269852 0.054974 0.501474
0.504617 0.058117 0.504617
0.739382 0.061260 0.507760
0.957176 0.064176 0.510676
0.061867 0.276745 0.508367
0.279661 0.279661 0.511283
0.514426 0.282804 0.514426
0.749191 0.285947 0.517569
0.966985 0.288863 0.520485
0.072441 0.518941 0.518941
0.290235 0.521857 0.521857
0.525000 0.525000 0.525000
0.759765 0.528143 0.528143
0.977559 0.531059 0.531059
0.083015 0.761137 0.529515
0.300809 0.764053 0.532431
0.535574 0.767196 0.535574
0.770339 0.770339 0.538717
0.988133 0.773255 0.541633
0.092824 0.985824 0.539324
0.310618 0.988740 0.542240
0.545383 0.991883 0.545383
0.780148 0.995026 0.548526
0.997942 0.997942 0.551442
0.053125 0.053125 0.731247
0.270919 0.056041 0.734163
0.505684 0.059184 0.737306
0.740449 0.062327 0.740449
0.958243 0.065243 0.743365
0.062935 0.277813 0.741056
0.280729 0.280729 0.743972
0.515494 0.283872 0.747116
0.750259 0.287015 0.750259
0.968053 0.289931 0.753175
0.073508 0.520008 0.751630
0.291302 0.522924 0.754546
0.526067 0.526067 0.757689
0.760832 0.529211 0.760832
0.978627 0.532127 0.763748
0.084082 0.762204 0.762204
0.301876 0.765120 0.765120
0.536641 0.768263 0.768263
0.771406 0.771406 0.771406
0.989200 0.774322 0.774322
0.093892 0.986892 0.772013
0.311686 0.989807 0.774929
0.546451 0.992951 0.778073
0.781216 0.996094 0.781216
0.999010 0.999010 0.784132
0.054115 0.054115 0.947115
0.271909 0.057031 0.950031
0.506675 0.060174 0.953174
0.741440 0.063318 0.956318
0.959234 0.066234 0.959234
0.063925 0.278803 0.956925
0.281719 0.281719 0.959841
0.516484 0.284862 0.962984
0.751249 0.288005 0.966127
0.969043 0.290921 0.969043
0.074499 0.520999 0.967499
0.292293 0.523915 0.970415
0.527058 0.527058 0.973558
0.761823 0.530201 0.976701
0.979617 0.533117 0.979617
0.085072 0.763194 0.978072
0.302866 0.766110 0.980988
0.537631 0.769253 0.984131
0.772397 0.772397 0.987275
0.990191 0.775312 0.990191
0.094882 0.987882 0.987882
0.312676 0.990798 0.990798
0.547441 0.993941 0.993941
0.782206 0.997084 0.997084
1.000000 1.000000 1.000000
