assets/luts/soft.cube
# Soft — Studio filter "soft"
# Generated by scripts/generate-filter-luts.mjs — do not edit by hand.
LUT_3D_SIZE 9
DOMAIN_MIN 0.0 0.0 0.0
DOMAIN_MAX 1.0 1.0 1.0
0.050000 0.050000 0.050000
0.155715 0.051415 0.051415
0.267794 0.052916 0.052916
0.384116 0.054473 0.054473
0.502559 0.056059 0.056059
0.621002 0.057645 0.057645
0.737324 0.059202 0.059202
0.849403 0.060703 0.060703
0.955118 0.062118 0.062118
0.054761 0.159061 0.054761
0.160476 0.160476 0.056177
0.272555 0.161977 0.057677
0.388877 0.163534 0.059235
0.507320 0.165120 0.060820
0.625764 0.166706 0.062406
0.742086 0.168263 0.063964
0.854165 0.169764 0.065464
0.959880 0.171179 0.066880
0.059809 0.274688 0.059809
0.165524 0.276103 0.061225
0.277603 0.277603 0.062725
0.393925 0.279161 0.064283
0.512369 0.280747 0.065869
0.630812 0.282332 0.067454
0.747134 0.283890 0.069012
0.859213 0.285390 0.070512
0.964928 0.286806 0.071928
0.065049 0.394691 0.065049
0.170764 0.396106 0.066464
0.282843 0.397607 0.067964
0.399164 0.399164 0.069522
0.517608 0.400750 0.071108
0.636051 0.402336 0.072693
0.752373 0.403893 0.074251
0.864452 0.405394 0.075751
0.970167 0.406809 0.077167
0.070383 0.516883 0.070383
0.176098 0.518299 0.071799
0.288177 0.519799 0.073299
0.404499 0.521357 0.074857
0.522942 0.522942 0.076442
0.641386 0.524528 0.078028
0.757707 0.526085 0.079585
0.869786 0.527586 0.081086
0.975501 0.529001 0.082501
0.075718 0.639075 0.075718
0.181433 0.640491 0.077133
0.293512 0.641991 0.078634
0.409834 0.643549 0.080191
0.528277 0.645134 0.081777
0.646720 0.646720 0.083363
0.763042 0.648278 0.084920
0.875121 0.649778 0.086421
0.980836 0.651193 0.087836
0.080957 0.759079 0.080957
0.186672 0.760494 0.082372
0.298751 0.761995 0.083873
0.415073 0.763552 0.085430
0.533516 0.765138 0.087016
0.651959 0.766724 0.088602
0.768281 0.768281 0.090159
0.880360 0.769782 0.091660
0.986075 0.771197 0.093075
0.086005 0.874705 0.086005
0.191720 0.876121 0.087420
0.303799 0.877621 0.088921
0.420121 0.879179 0.090478
0.538564 0.880765 0.092064
0.657007 0.882350 0.093650
0.773329 0.883908 0.095207
0.885408 0.885408 0.096708
0.991123 0.886824 0.098123
0.090766 0.983766 0.090766
0.196481 0.985182 0.092182
0.308560 0.986682 0.093682
0.424882 0.988240 0.095240
0.543326 0.989826 0.096826
0.661769 0.991411 0.098411
0.778091 0.992969 0.099969
0.890170 0.994469 0.101469
0.995885 0.995885 0.102885
0.050481 0.050481 0.154780
0.156196 0.051896 0.156196
0.268275 0.053397 0.157696
0.384597 0.054954 0.159254
0.503040 0.056540 0.160839
0.621483 0.058126 0.162425
0.737805 0.059683 0.163983
0.849884 0.061183 0.165483
0.955599 0.062599 0.166898
0.055242 0.159542 0.159542
0.160957 0.160957 0.160957
0.273036 0.162458 0.162458
0.389358 0.164015 0.164015
0.507801 0.165601 0.165601
0.626244 0.167187 0.167187
0.742566 0.168744 0.168744
0.854645 0.170244 0.170244
0.960360 0.171660 0.171660
0.060290 0.275168 0.164590
0.166005 0.276584 0.166005
0.278084 0.278084 0.167506
0.394406 0.279642 0.169063
0.512849 0.281227 0.170649
0.631292 0.282813 0.172235
0.747614 0.284370 0.173792
0.859693 0.285871 0.175293
0.965408 0.287286 0.176708
0.065529 0.395172 0.169829
0.171244 0.396587 0.171244
0.283323 0.398088 0.172745
0.399645 0.399645 0.174302
0.518088 0.401231 0.175888
0.636532 0.402817 0.177474
0.752853 0.404374 0.179031
0.864932 0.405875 0.180532
0.970647 0.407290 0.181947
0.070864 0.517364 0.175163
0.176579 0.518779 0.176579
0.288658 0.520280 0.178079
0.404980 0.521837 0.179637
0.523423 0.523423 0.181223
0.641866 0.525009 0.182808
0.758188 0.526566 0.184366
0.870267 0.528067 0.185866
0.975982 0.529482 0.187282
0.076199 0.639556 0.180498
0.181914 0.640971 0.181914
0.293993 0.642472 0.183414
0.410314 0.644029 0.184971
0.528758 0.645615 0.186557
0.647201 0.647201 0.188143
0.763523 0.648758 0.189700
0.875602 0.650259 0.191201
0.981317 0.651674 0.192616
0.081438 0.759560 0.185737
0.187153 0.760975 0.187153
0.299232 0.762475 0.188653
0.415554 0.764033 0.190211
0.533997 0.765619 0.191796
0.652440 0.767204 0.193382
0.768762 0.768762 0.194940
0.880841 0.770262 0.196440
0.986556 0.771678 0.197855
0.086486 0.875186 0.190785
0.192201 0.876601 0.192201
0.304280 0.878102 0.193701
0.420602 0.879659 0.195259
0.539045 0.881245 0.196844
0.657488 0.882831 0.198430
0.773810 0.884388 0.199988
0.885889 0.885889 0.201488
0.991604 0.887304 0.202903
0.091247 0.984247 0.195547
0.196962 0.985662 0.196962
0.309041 0.987163 0.198463
0.425363 0.988720 0.200020
0.543806 0.990306 0.201606
0.662249 0.991892 0.203192
0.778571 0.993449 0.204749
0.890650 0.994950 0.206250
0.996365 0.996365 0.207665
0.050990 0.050990 0.265868
0.156705 0.052406 0.267284
0.268784 0.053906 0.268784
0.385106 0.055464 0.270342
0.503549 0.057049 0.271927
0.621993 0.058635 0.273513
0.738314 0.060193 0.275071
0.850393 0.061693 0.276571
0.956108 0.063108 0.277987
0.055752 0.160051 0.270630
0.161467 0.161467 0.272045
0.273546 0.162967 0.273546
0.389868 0.164525 0.275103
0.508311 0.166110 0.276689
0.626754 0.167696 0.278275
0.743076 0.169254 0.279832
0.855155 0.170754 0.281333
0.960870 0.172169 0.282748
0.060800 0.275678 0.275678
0.166515 0.277093 0.277093
0.278594 0.278594 0.278594
0.394916 0.280151 0.280151
0.513359 0.281737 0.281737
0.631802 0.283323 0.283323
0.748124 0.284880 0.284880
0.860203 0.286381 0.286381
0.965918 0.287796 0.287796
0.066039 0.395681 0.280917
0.171754 0.397097 0.282332
0.283833 0.398597 0.283833
0.400155 0.400155 0.285390
0.518598 0.401740 0.286976
0.637041 0.403326 0.288562
0.753363 0.404884 0.290119
0.865442 0.406384 0.291620
0.971157 0.407800 0.293035
0.071373 0.517873 0.286252
0.177088 0.519289 0.287667
0.289168 0.520789 0.289168
0.405489 0.522347 0.290725
0.523933 0.523933 0.292311
0.642376 0.525518 0.293896
0.758698 0.527076 0.295454
0.870777 0.528576 0.296954
0.976492 0.529992 0.298370
0.076708 0.640066 0.291586
0.182423 0.641481 0.293002
0.294502 0.642981 0.294502
0.410824 0.644539 0.296060
0.529267 0.646125 0.297645
0.647710 0.647710 0.299231
0.764032 0.649268 0.300789
0.876111 0.650768 0.302289
0.981826 0.652184 0.303704
0.081947 0.760069 0.296825
0.187662 0.761484 0.298241
0.299741 0.762985 0.299741
0.416063 0.764542 0.301299
0.534506 0.766128 0.302884
0.652950 0.767714 0.304470
0.769271 0.769271 0.306028
0.881350 0.770772 0.307528
0.987065 0.772187 0.308944
0.086995 0.875696 0.301873
0.192710 0.877111 0.303289
0.304789 0.878612 0.304789
0.421111 0.880169 0.306347
0.539554 0.881755 0.307933
0.657998 0.883341 0.309518
0.774319 0.884898 0.311076
0.886399 0.886399 0.312576
0.992113 0.887814 0.313992
0.091757 0.984757 0.306635
0.197472 0.986172 0.308050
0.309551 0.987673 0.309551
0.425873 0.989230 0.311108
0.544316 0.990816 0.312694
0.662759 0.992402 0.314280
0.779081 0.993959 0.315837
0.891160 0.995460 0.317338
0.996875 0.996875 0.318753
0.051519 0.051519 0.381162
0.157234 0.052935 0.382577
0.269313 0.054435 0.384078
0.385635 0.055992 0.385635
0.504078 0.057578 0.387221
0.622521 0.059164 0.388807
0.738843 0.060721 0.390364
0.850922 0.062222 0.391865
0.956637 0.063637 0.393280
0.056281 0.160580 0.385923
0.161996 0.161996 0.387338
0.274075 0.163496 0.388839
0.390396 0.165053 0.390396
0.508840 0.166639 0.391982
0.627283 0.168225 0.393568
0.743605 0.169782 0.395125
0.855684 0.171283 0.396626
0.961399 0.172698 0.398041
0.061329 0.276207 0.390971
0.167044 0.277622 0.392387
0.279123 0.279123 0.393887
0.395444 0.280680 0.395444
0.513888 0.282266 0.397030
0.632331 0.283852 0.398616
0.748653 0.285409 0.400173
0.860732 0.286910 0.401674
0.966447 0.288325 0.403089
0.066568 0.396210 0.396210
0.172283 0.397626 0.397626
0.284362 0.399126 0.399126
0.400684 0.400684 0.400684
0.519127 0.402269 0.402269
0.637570 0.403855 0.403855
0.753892 0.405413 0.405413
0.865971 0.406913 0.406913
0.971686 0.408328 0.408328
0.071902 0.518402 0.401545
0.177617 0.519818 0.402960
0.289696 0.521318 0.404461
0.406018 0.522876 0.406018
0.524461 0.524461 0.407604
0.642905 0.526047 0.409190
0.759226 0.527605 0.410747
0.871306 0.529105 0.412248
0.977021 0.530521 0.413663
0.077237 0.640594 0.406880
0.182952 0.642010 0.408295
0.295031 0.643510 0.409796
0.411353 0.645068 0.411353
0.529796 0.646654 0.412939
0.648239 0.648239 0.414524
0.764561 0.649797 0.416082
0.876640 0.651297 0.417582
0.982355 0.652713 0.418998
0.082476 0.760598 0.412119
0.188191 0.762013 0.413534
0.300270 0.763514 0.415035
0.416592 0.765071 0.416592
0.535035 0.766657 0.418178
0.653478 0.768243 0.419764
0.769800 0.769800 0.421321
0.881879 0.771301 0.422822
0.987594 0.772716 0.424237
0.087524 0.876225 0.417167
0.193239 0.877640 0.418582
0.305318 0.879141 0.420083
0.421640 0.880698 0.421640
0.540083 0.882284 0.423226
0.658526 0.883869 0.424812
0.774848 0.885427 0.426369
0.886927 0.886927 0.427870
0.992642 0.888343 0.429285
0.092286 0.985286 0.421928
0.198001 0.986701 0.423344
0.310080 0.988202 0.424844
0.426401 0.989759 0.426401
0.544845 0.991345 0.427987
0.663288 0.992930 0.429573
0.779610 0.994488 0.431130
0.891689 0.995988 0.432631
0.997404 0.997404 0.434046
0.052058 0.052058 0.498558
0.157773 0.053473 0.499973
0.269852 0.054974 0.501474
0.386174 0.056531 0.503031
0.504617 0.058117 0.504617
0.623060 0.059703 0.506203
0.739382 0.061260 0.507760
0.851461 0.062761 0.509261
0.957176 0.064176 0.510676
0.056819 0.161119 0.503319
0.162534 0.162534 0.504734
0.274613 0.164035 0.506235
0.390935 0.165592 0.507792
0.509378 0.167178 0.509378
0.627821 0.168764 0.510964
0.744143 0.170321 0.512521
0.856222 0.171822 0.514022
0.961937 0.173237 0.515437
0.061867 0.276745 0.508367
0.167582 0.278161 0.509782
0.279661 0.279661 0.511283
0.395983 0.281219 0.512840
0.514426 0.282804 0.514426
0.632869 0.284390 0.516012
0.749191 0.285947 0.517569
0.861270 0.287448 0.519070
0.966985 0.288863 0.520485
0.067106 0.396749 0.513606
0.172821 0.398164 0.515022
0.284900 0.399665 0.516522
0.401222 0.401222 0.518080
0.519665 0.402808 0.519665
0.638109 0.404394 0.521251
0.754430 0.405951 0.522808
0.866509 0.407452 0.524309
0.972224 0.408867 0.525724
0.072441 0.518941 0.518941
0.178156 0.520356 0.520356
0.290235 0.521857 0.521857
0.406557 0.523414 0.523414
0.525000 0.525000 0.525000
0.643443 0.526586 0.526586
0.759765 0.528143 0.528143
0.871844 0.529644 0.529644
0.977559 0.531059 0.531059
0.077776 0.641133 0.524276
0.183491 0.642548 0.525691
0.295570 0.644049 0.527192
0.411891 0.645606 0.528749
0.530335 0.647192 0.530335
0.648778 0.648778 0.531920
0.765100 0.650335 0.533478
0.877179 0.651836 0.534978
0.982894 0.653251 0.536394
0.083015 0.761137 0.529515
0.188730 0.762552 0.530930
0.300809 0.764053 0.532431
0.417131 0.765610 0.533988
0.535574 0.767196 0.535574
0.654017 0.768781 0.537160
0.770339 0.770339 0.538717
0.882418 0.771839 0.540218
0.988133 0.773255 0.541633
0.088063 0.876763 0.534563
0.193778 0.878178 0.535978
0.305857 0.879679 0.537479
0.422179 0.881236 0.539036
0.540622 0.882822 0.540622
0.659065 0.884408 0.542208
0.775387 0.885965 0.543765
0.887466 0.887466 0.545266
0.993181 0.888881 0.546681
0.092824 0.985824 0.539324
0.198539 0.987239 0.540739
0.310618 0.988740 0.542240
0.426940 0.990297 0.543797
0.545383 0.991883 0.545383
0.663826 0.993469 0.546969
0.780148 0.995026 0.548526
0.892227 0.996527 0.550027
0.997942 0.997942 0.551442
0.052596 0.052596 0.615954
0.158311 0.054012 0.617369
0.270390 0.055512 0.618870
0.386712 0.057070 0.620427
0.505155 0.058655 0.622013
0.623599 0.060241 0.623599
0.739920 0.061798 0.625156
0.851999 0.063299 0.626656
0.957714 0.064714 0.628072
0.057358 0.161657 0.620715
0.163073 0.163073 0.622130
0.275152 0.164573 0.623631
0.391474 0.166131 0.625188
0.509917 0.167716 0.626774
0.628360 0.169302 0.628360
0.744682 0.170859 0.629917
0.856761 0.172360 0.631418
0.962476 0.173775 0.632833
0.062406 0.277284 0.625763
0.168121 0.278699 0.627178
0.280200 0.280200 0.628679
0.396522 0.281757 0.630236
0.514965 0.283343 0.631822
0.633408 0.284929 0.633408
0.749730 0.286486 0.634965
0.861809 0.287987 0.636466
0.967524 0.289402 0.637881
0.067645 0.397287 0.631002
0.173360 0.398703 0.632418
0.285439 0.400203 0.633918
0.401761 0.401761 0.635476
0.520204 0.403346 0.637061
0.638647 0.404932 0.638647
0.754969 0.406490 0.640204
0.867048 0.407990 0.641705
0.972763 0.409406 0.643120
0.072979 0.519479 0.636337
0.178694 0.520895 0.637752
0.290774 0.522395 0.639253
0.407095 0.523953 0.640810
0.525539 0.525539 0.642396
0.643982 0.527124 0.643982
0.760304 0.528682 0.645539
0.872383 0.530182 0.647040
0.978098 0.531598 0.648455
0.078314 0.641672 0.641672
0.184029 0.643087 0.643087
0.296108 0.644587 0.644587
0.412430 0.646145 0.646145
0.530873 0.647731 0.647731
0.649316 0.649316 0.649316
0.765638 0.650874 0.650874
0.877717 0.652374 0.652374
0.983432 0.653790 0.653790
0.083553 0.761675 0.646911
0.189268 0.763090 0.648326
0.301347 0.764591 0.649827
0.417669 0.766148 0.651384
0.536112 0.767734 0.652970
0.654556 0.769320 0.654556
0.770877 0.770877 0.656113
0.882956 0.772378 0.657613
0.988671 0.773793 0.659029
0.088601 0.877302 0.651959
0.194316 0.878717 0.653374
0.306395 0.880218 0.654875
0.422717 0.881775 0.656432
0.541160 0.883361 0.658018
0.659604 0.884947 0.659604
0.775925 0.886504 0.661161
0.888004 0.888004 0.662662
0.993719 0.889420 0.664077
0.093363 0.986363 0.656720
0.199078 0.987778 0.658135
0.311157 0.989279 0.659636
0.427479 0.990836 0.661193
0.545922 0.992422 0.662779
0.664365 0.994008 0.664365
0.780687 0.995565 0.665922
0.892766 0.997065 0.667423
0.998481 0.998481 0.668838
0.053125 0.053125 0.731247
0.158840 0.054540 0.732662
0.270919 0.056041 0.734163
0.387241 0.057598 0.735720
0.505684 0.059184 0.737306
0.624127 0.060770 0.738892
0.740449 0.062327 0.740449
0.852528 0.063828 0.741950
0.958243 0.065243 0.743365
0.057887 0.162186 0.736008
0.163601 0.163601 0.737424
0.275681 0.165102 0.738924
0.392002 0.166659 0.740482
0.510446 0.168245 0.742067
0.628889 0.169831 0.743653
0.745211 0.171388 0.745211
0.857290 0.172889 0.746711
0.963005 0.174304 0.748127
0.062935 0.277813 0.741056
0.168650 0.279228 0.742472
0.280729 0.280729 0.743972
0.397050 0.282286 0.745530
0.515494 0.283872 0.747116
0.633937 0.285458 0.748701
0.750259 0.287015 0.750259
0.862338 0.288516 0.751759
0.968053 0.289931 0.753175
0.068174 0.397816 0.746296
0.173889 0.399232 0.747711
0.285968 0.400732 0.749211
0.402290 0.402290 0.750769
0.520733 0.403875 0.752355
0.639176 0.405461 0.753940
0.755498 0.407019 0.755498
0.867577 0.408519 0.756998
0.973292 0.409934 0.758414
0.073508 0.520008 0.751630
0.179223 0.521424 0.753046
0.291302 0.522924 0.754546
0.407624 0.524482 0.756104
0.526067 0.526067 0.757689
0.644511 0.527653 0.759275
0.760832 0.529211 0.760832
0.872912 0.530711 0.762333
0.978627 0.532127 0.763748
0.078843 0.642200 0.756965
0.184558 0.643616 0.758380
0.296637 0.645116 0.759881
0.412959 0.646674 0.761438
0.531402 0.648260 0.763024
0.649845 0.649845 0.764610
0.766167 0.651403 0.766167
0.878246 0.652903 0.767668
0.983961 0.654319 0.769083
0.084082 0.762204 0.762204
0.189797 0.763619 0.763619
0.301876 0.765120 0.765120
0.418198 0.766677 0.766677
0.536641 0.768263 0.768263
0.655084 0.769849 0.769849
0.771406 0.771406 0.771406
0.883485 0.772907 0.772907
0.989200 0.774322 0.774322
0.089130 0.877831 0.767252
0.194845 0.879246 0.768667
0.306924 0.880746 0.770168
0.423246 0.882304 0.771725
0.541689 0.883890 0.773311
0.660132 0.885475 0.774897
0.776454 0.887033 0.776454
0.888533 0.888533 0.777955
0.994248 0.889949 0.779370
0.093892 0.986892 0.772013
0.199607 0.988307 0.773429
0.311686 0.989807 0.774929
0.428007 0.991365 0.776487
0.546451 0.992951 0.778073
0.664894 0.994536 0.779658
0.781216 0.996094 0.781216
0.893295 0.997594 0.782716
0.999010 0.999010 0.784132
0.053635 0.053635 0.842335
0.159350 0.055050 0.843750
0.271429 0.056551 0.845251
0.387751 0.058108 0.846808
0.506194 0.059694 0.848394
0.624637 0.061280 0.849980
0.740959 0.062837 0.851537
0.853038 0.064338 0.853038
0.958753 0.065753 0.854453
0.058396 0.162696 0.847097
0.164111 0.164111 0.848512
0.276190 0.165612 0.850012
0.392512 0.167169 0.851570
0.510955 0.168755 0.853156
0.629398 0.170341 0.854741
0.745720 0.171898 0.856299
0.857799 0.173399 0.857799
0.963514 0.174814 0.859215
0.063444 0.278322 0.852145
0.169159 0.279738 0.853560
0.281238 0.281238 0.855060
0.397560 0.282796 0.856618
0.516003 0.284381 0.858204
0.634446 0.285967 0.859789
0.750768 0.287525 0.861347
0.862847 0.289025 0.862847
0.968562 0.290440 0.864263
0.068683 0.398326 0.857384
0.174398 0.399741 0.858799
0.286477 0.401242 0.860300
0.402799 0.402799 0.861857
0.521242 0.404385 0.863443
0.639686 0.405971 0.865029
0.756007 0.407528 0.866586
0.868086 0.409029 0.868086
0.973801 0.410444 0.869502
0.074018 0.520518 0.862718
0.179733 0.521933 0.864134
0.291812 0.523434 0.865634
0.408134 0.524991 0.867192
0.526577 0.526577 0.868777
0.645020 0.528163 0.870363
0.761342 0.529720 0.871921
0.873421 0.531221 0.873421
0.979136 0.532636 0.874837
0.079353 0.642710 0.868053
0.185068 0.644125 0.869468
0.297147 0.645626 0.870969
0.413468 0.647183 0.872526
0.531912 0.648769 0.874112
0.650355 0.650355 0.875698
0.766677 0.651912 0.877255
0.878756 0.653413 0.878756
0.984471 0.654828 0.880171
0.084592 0.762714 0.873292
0.190307 0.764129 0.874707
0.302386 0.765630 0.876208
0.418708 0.767187 0.877765
0.537151 0.768773 0.879351
0.655594 0.770358 0.880937
0.771916 0.771916 0.882494
0.883995 0.773416 0.883995
0.989710 0.774832 0.885410
0.089640 0.878340 0.878340
0.195355 0.879756 0.879756
0.307434 0.881256 0.881256
0.423756 0.882813 0.882813
0.542199 0.884399 0.884399
0.660642 0.885985 0.885985
0.776964 0.887542 0.887542
0.889043 0.889043 0.889043
0.994758 0.890458 0.890458
0.094401 0.987401 0.883102
0.200116 0.988817 0.884517
0.312195 0.990317 0.886017
0.428517 0.991874 0.887575
0.546960 0.993460 0.889161
0.665403 0.995046 0.890746
0.781725 0.996603 0.892304
0.893804 0.998104 0.893804
0.999519 0.999519 0.895220
0.054115 0.054115 0.947115
0.159830 0.055531 0.948531
0.271909 0.057031 0.950031
0.388231 0.058589 0.951589
0.506675 0.060174 0.953174
0.625118 0.061760 0.954760
0.741440 0.063318 0.956318
0.853519 0.064818 0.957818
0.959234 0.066234 0.959234
0.058877 0.163176 0.951877
0.164592 0.164592 0.953292
0.276671 0.166092 0.954793
0.392993 0.167650 0.956350
0.511436 0.169235 0.957936
0.629879 0.170821 0.959522
0.746201 0.172379 0.961079
0.858280 0.173879 0.962580
0.963995 0.175295 0.963995
0.063925 0.278803 0.956925
0.169640 0.280218 0.958340
0.281719 0.281719 0.959841
0.398041 0.283276 0.961398
0.516484 0.284862 0.962984
0.634927 0.286448 0.964570
0.751249 0.288005 0.966127
0.863328 0.289506 0.967628
0.969043 0.290921 0.969043
0.069164 0.398807 0.962164
0.174879 0.400222 0.963579
0.286958 0.401722 0.965080
0.403280 0.403280 0.966637
0.521723 0.404866 0.968223
0.640166 0.406451 0.969809
0.756488 0.408009 0.971366
0.868567 0.409509 0.972867
0.974282 0.410925 0.974282
0.074499 0.520999 0.967499
0.180214 0.522414 0.968914
0.292293 0.523915 0.970415
0.408614 0.525472 0.971972
0.527058 0.527058 0.973558
0.645501 0.528643 0.975143
0.761823 0.530201 0.976701
0.873902 0.531701 0.978201
0.979617 0.533117 0.979617
0.079833 0.643191 0.972833
0.185548 0.644606 0.974249
0.297627 0.646107 0.975749
0.413949 0.647664 0.977307
0.532392 0.649250 0.978892
0.650836 0.650836 0.980478
0.767157 0.652393 0.982036
0.879236 0.653894 0.983536
0.984951 0.655309 0.984951
0.085072 0.763194 0.978072
0.190787 0.764610 0.979488
0.302866 0.766110 0.980988
0.419188 0.767668 0.982546
0.537631 0.769253 0.984131
0.656075 0.770839 0.985717
0.772397 0.772397 0.987275
0.884476 0.773897 0.988775
0.990191 0.775312 0.990191
0.090120 0.878821 0.983120
0.195835 0.880236 0.984536
0.307914 0.881737 0.986036
0.424236 0.883294 0.987594
0.542680 0.884880 0.989180
0.661123 0.886466 0.990765
0.777445 0.888023 0.992323
0.889524 0.889524 0.993823
0.995239 0.890939 0.995239
0.094882 0.987882 0.987882
0.200597 0.989297 0.989297
0.312676 0.990798 0.990798
0.428998 0.992355 0.992355
0.547441 0.993941 0.993941
0.665884 0.995527 0.995527
0.782206 0.997084 0.997084
0.894285 0.998585 0.998585
1.000000 1.000000 1.000000
