assets/luts/sunset.cube
# Sunset — Studio filter "sunset"
# Generated by scripts/generate-filter-luts.mjs — do not edit by hand.
LUT_3D_SIZE 17
DOMAIN_MIN 0.0 0.0 0.0
DOMAIN_MAX 1.0 1.0 1.0
0.050000 0.000000 0.040000
0.115215 0.000546 0.039180
0.185549 0.001136 0.038296
0.260272 0.001762 0.037357
0.338652 0.002419 0.036372
0.419957 0.003100 0.035350
0.503457 0.003800 0.034301
0.588419 0.004512 0.033233
0.674112 0.005230 0.032156
0.759806 0.005948 0.031078
0.844768 0.006660 0.030011
0.928267 0.007359 0.028961
1.000000 0.008041 0.027939
1.000000 0.008504 0.027244
1.000000 0.008504 0.027244
1.000000 0.008504 0.027244
1.000000 0.008504 0.027244
0.052700 0.055476 0.037686
0.112192 0.054090 0.037015
0.182427 0.052646 0.036216
0.257045 0.051113 0.035367
0.335314 0.049504 0.034476
0.416505 0.047835 0.033553
0.499887 0.046121 0.032604
0.584730 0.044376 0.031638
0.670303 0.042617 0.030665
0.755876 0.040858 0.029691
0.840718 0.039114 0.028725
0.924100 0.037400 0.027777
1.000000 0.035731 0.026853
1.000000 0.033976 0.026181
1.000000 0.031816 0.026271
1.000000 0.029783 0.026356
1.000000 0.027898 0.026435
0.055612 0.115308 0.035190
0.109030 0.113871 0.034596
0.179266 0.112427 0.033796
0.253884 0.110893 0.032947
0.332153 0.109284 0.032057
0.413344 0.107615 0.031133
0.496726 0.105901 0.030184
0.581568 0.104157 0.029219
0.667141 0.102398 0.028245
0.752714 0.100639 0.027271
0.837557 0.098895 0.026306
0.920939 0.097181 0.025357
1.000000 0.095512 0.024433
1.000000 0.093807 0.023685
1.000000 0.091647 0.023775
1.000000 0.089614 0.023860
1.000000 0.087729 0.023939
0.058706 0.178872 0.032538
0.105671 0.177381 0.032025
0.175907 0.175937 0.031226
0.250525 0.174403 0.030377
0.328794 0.172794 0.029486
0.409985 0.171125 0.028562
0.493367 0.169411 0.027613
0.578210 0.167667 0.026648
0.663783 0.165908 0.025674
0.749356 0.164149 0.024700
0.834198 0.162405 0.023735
0.917580 0.160691 0.022786
0.998771 0.159022 0.021862
1.000000 0.157372 0.021033
1.000000 0.155212 0.021124
1.000000 0.153178 0.021208
1.000000 0.151293 0.021287
0.061951 0.245547 0.029756
0.102148 0.243999 0.029328
0.172384 0.242556 0.028529
0.247002 0.241022 0.027680
0.325271 0.239413 0.026789
0.406462 0.237744 0.025866
0.489844 0.236030 0.024917
0.574687 0.234286 0.023951
0.660259 0.232526 0.022978
0.745832 0.230767 0.022004
0.830675 0.229023 0.021038
0.914057 0.227309 0.020090
0.995248 0.225640 0.019166
1.000000 0.224031 0.018275
1.000000 0.221887 0.018342
1.000000 0.219854 0.018427
1.000000 0.217968 0.018505
0.065317 0.314711 0.026871
0.098494 0.313104 0.026531
0.168729 0.311660 0.025732
0.243347 0.310127 0.024883
0.321616 0.308518 0.023992
0.402807 0.306849 0.023068
0.486189 0.305135 0.022120
0.571032 0.303390 0.021154
0.656605 0.301631 0.020180
0.742178 0.299872 0.019207
0.827020 0.298128 0.018241
0.910402 0.296414 0.017293
0.991593 0.294745 0.016369
1.000000 0.293136 0.015478
1.000000 0.291051 0.015457
1.000000 0.289017 0.015541
1.000000 0.287132 0.015620
0.068775 0.385741 0.023907
0.094740 0.384074 0.023659
0.164976 0.382630 0.022859
0.239594 0.381096 0.022010
0.317863 0.379487 0.021120
0.399054 0.377818 0.020196
0.482436 0.376104 0.019247
0.567279 0.374360 0.018282
0.652852 0.372601 0.017308
0.738425 0.370842 0.016334
0.823267 0.369098 0.015369
0.906649 0.367384 0.014420
0.987840 0.365715 0.013496
1.000000 0.364106 0.012605
1.000000 0.362081 0.012493
1.000000 0.360048 0.012578
1.000000 0.358162 0.012657
0.072292 0.458016 0.020892
0.090921 0.456287 0.020736
0.161157 0.454843 0.019936
0.235775 0.453310 0.019087
0.314044 0.451701 0.018197
0.395235 0.450032 0.017273
0.478617 0.448318 0.016324
0.563460 0.446573 0.015359
0.649033 0.444814 0.014385
0.734606 0.443055 0.013411
0.819448 0.441311 0.012446
0.902830 0.439597 0.011497
0.984021 0.437928 0.010573
1.000000 0.436319 0.009682
1.000000 0.434355 0.009478
1.000000 0.432322 0.009563
1.000000 0.430437 0.009642
0.075840 0.530912 0.017851
0.087070 0.529122 0.017787
0.157305 0.527678 0.016988
0.231923 0.526144 0.016139
0.310192 0.524535 0.015249
0.391383 0.522866 0.014325
0.474765 0.521152 0.013376
0.559608 0.519408 0.012410
0.645181 0.517649 0.011437
0.730754 0.515890 0.010463
0.815596 0.514146 0.009498
0.898978 0.512432 0.008549
0.980169 0.510763 0.007625
1.000000 0.509154 0.006734
1.000000 0.507252 0.006437
1.000000 0.505219 0.006522
1.000000 0.503334 0.006600
0.079388 0.603809 0.014810
0.083218 0.601957 0.014839
0.153453 0.600513 0.014040
0.228071 0.598979 0.013191
0.306340 0.597370 0.012300
0.387531 0.595701 0.011377
0.470913 0.593987 0.010428
0.555756 0.592243 0.009462
0.641329 0.590484 0.008489
0.726902 0.588725 0.007515
0.811744 0.586981 0.006549
0.895126 0.585267 0.005601
0.976317 0.583598 0.004677
1.000000 0.581989 0.003786
1.000000 0.580149 0.003396
1.000000 0.578116 0.003481
1.000000 0.576231 0.003559
0.082906 0.676084 0.011795
0.082814 0.674198 0.011873
0.149634 0.672726 0.011117
0.224252 0.671192 0.010268
0.302521 0.669583 0.009377
0.383712 0.667914 0.008454
0.467094 0.666200 0.007505
0.551937 0.664456 0.006539
0.637510 0.662697 0.005566
0.723083 0.660938 0.004592
0.807925 0.659194 0.003626
0.891307 0.657480 0.002678
0.972498 0.655811 0.001754
1.000000 0.654202 0.000863
1.000000 0.652423 0.000381
1.000000 0.650390 0.000465
1.000000 0.648505 0.000544
0.086363 0.747114 0.008832
0.086271 0.745229 0.008910
0.145881 0.743696 0.008245
0.220499 0.742162 0.007395
0.298768 0.740553 0.006505
0.379959 0.738884 0.005581
0.463341 0.737170 0.004632
0.548184 0.735426 0.003667
0.633757 0.733667 0.002693
0.719330 0.731908 0.001719
0.804172 0.730164 0.000754
0.887554 0.728450 0.000000
0.968745 0.726781 0.000000
1.000000 0.725172 0.000000
1.000000 0.723454 0.000000
1.000000 0.721421 0.000000
1.000000 0.719535 0.000000
0.089730 0.816278 0.005946
0.089638 0.814393 0.006025
0.142226 0.812801 0.005447
0.216844 0.811267 0.004598
0.295114 0.809658 0.003708
0.376304 0.807989 0.002784
0.459686 0.806275 0.001835
0.544529 0.804531 0.000870
0.630102 0.802772 0.000000
0.715675 0.801013 0.000000
0.800518 0.799269 0.000000
0.883899 0.797554 0.000000
0.965090 0.795885 0.000000
1.000000 0.794276 0.000000
1.000000 0.792617 0.000000
1.000000 0.790584 0.000000
1.000000 0.788699 0.000000
0.092975 0.882953 0.003165
0.092883 0.881068 0.003243
0.138703 0.879419 0.002751
0.213321 0.877885 0.001902
0.291590 0.876276 0.001011
0.372781 0.874607 0.000087
0.456163 0.872893 0.000000
0.541006 0.871149 0.000000
0.626579 0.869390 0.000000
0.712152 0.867631 0.000000
0.796994 0.865887 0.000000
0.880376 0.864173 0.000000
0.961567 0.862504 0.000000
1.000000 0.860895 0.000000
1.000000 0.859293 0.000000
1.000000 0.857259 0.000000
1.000000 0.855374 0.000000
0.096069 0.946517 0.000513
0.095977 0.944632 0.000591
0.135344 0.942929 0.000180
0.209962 0.941396 0.000000
0.288232 0.939787 0.000000
0.369423 0.938118 0.000000
0.452804 0.936404 0.000000
0.537647 0.934659 0.000000
0.623220 0.932900 0.000000
0.708793 0.931141 0.000000
0.793636 0.929397 0.000000
0.877018 0.927683 0.000000
0.958208 0.926014 0.000000
1.000000 0.924405 0.000000
1.000000 0.922857 0.000000
1.000000 0.920824 0.000000
1.000000 0.918939 0.000000
0.098981 1.000000 0.000000
0.098889 1.000000 0.000000
0.132183 1.000000 0.000000
0.206801 1.000000 0.000000
0.285070 0.999567 0.000000
0.366261 0.997898 0.000000
0.449643 0.996184 0.000000
0.534486 0.994440 0.000000
0.620059 0.992681 0.000000
0.705632 0.990922 0.000000
0.790474 0.989178 0.000000
0.873856 0.987464 0.000000
0.955047 0.985795 0.000000
1.000000 0.984186 0.000000
1.000000 0.982652 0.000000
1.000000 0.980655 0.000000
1.000000 0.978770 0.000000
0.100064 1.000000 0.000000
0.100064 1.000000 0.000000
0.127826 1.000000 0.000000
0.202548 1.000000 0.000000
0.280928 1.000000 0.000000
0.362233 1.000000 0.000000
0.445733 1.000000 0.000000
0.530695 1.000000 0.000000
0.616389 1.000000 0.000000
0.702082 1.000000 0.000000
0.787044 1.000000 0.000000
0.870544 1.000000 0.000000
0.951849 1.000000 0.000000
1.000000 1.000000 0.000000
1.000000 1.000000 0.000000
1.000000 1.000000 0.000000
1.000000 1.000000 0.000000
0.050271 0.000155 0.093333
0.114959 0.000692 0.090695
0.185284 0.001275 0.087843
0.259996 0.001895 0.084813
0.338365 0.002546 0.081635
0.419659 0.003220 0.078338
0.503146 0.003913 0.074952
0.588096 0.004618 0.071507
0.673778 0.005329 0.068032
0.759459 0.006040 0.064557
0.844409 0.006745 0.061112
0.927897 0.007438 0.057726
1.000000 0.008113 0.054429
1.000000 0.008574 0.051534
1.000000 0.008568 0.049443
1.000000 0.008563 0.047475
1.000000 0.008557 0.045650
0.052917 0.055091 0.085516
0.111883 0.053696 0.083027
0.182108 0.052246 0.080260
0.256716 0.050706 0.077320
0.334974 0.049091 0.074236
0.416153 0.047415 0.071038
0.499523 0.045694 0.067752
0.584354 0.043943 0.064410
0.669915 0.042177 0.061038
0.755475 0.040411 0.057666
0.840306 0.038660 0.054324
0.923676 0.036939 0.051038
1.000000 0.035264 0.047840
1.000000 0.033507 0.044968
1.000000 0.031341 0.042968
1.000000 0.029302 0.041084
1.000000 0.027411 0.039338
0.055799 0.114905 0.077061
0.108691 0.113459 0.074649
0.178917 0.112009 0.071882
0.253524 0.110469 0.068942
0.331782 0.108854 0.065858
0.412961 0.107178 0.062659
0.496331 0.105457 0.059374
0.581162 0.103706 0.056031
0.666723 0.101940 0.052660
0.752284 0.100174 0.049288
0.837114 0.098423 0.045945
0.920484 0.096703 0.042660
1.000000 0.095027 0.039461
1.000000 0.093321 0.036514
1.000000 0.091155 0.034513
1.000000 0.089116 0.032630
1.000000 0.087225 0.030884
0.058861 0.178451 0.068079
0.105300 0.176951 0.065748
0.175526 0.175501 0.062981
0.250133 0.173961 0.060041
0.328391 0.172346 0.056957
0.409571 0.170670 0.053758
0.492941 0.168949 0.050473
0.577771 0.167198 0.047130
0.663332 0.165432 0.043759
0.748893 0.163666 0.040387
0.833723 0.161915 0.037044
0.917093 0.160194 0.033759
0.998273 0.158519 0.030560
1.000000 0.156867 0.027532
1.000000 0.154701 0.025531
1.000000 0.152662 0.023648
1.000000 0.150771 0.021901
0.062072 0.245107 0.058657
0.101743 0.243550 0.056411
0.171969 0.242100 0.053644
0.246576 0.240560 0.050704
0.324834 0.238945 0.047620
0.406014 0.237269 0.044421
0.489384 0.235548 0.041136
0.574214 0.233797 0.037793
0.659775 0.232031 0.034422
0.745336 0.230265 0.031050
0.830166 0.228514 0.027708
0.913537 0.226794 0.024422
0.994716 0.225118 0.021223
1.000000 0.223503 0.018304
1.000000 0.221363 0.018364
1.000000 0.219330 0.018449
1.000000 0.217445 0.018527
0.065404 0.314251 0.048884
0.098054 0.312635 0.046726
0.168279 0.311185 0.043959
0.242886 0.309645 0.041019
0.321145 0.308030 0.037935
0.402324 0.306354 0.034736
0.485694 0.304633 0.031451
0.570525 0.302882 0.028108
0.656086 0.301116 0.024737
0.741646 0.299350 0.021365
0.826478 0.297600 0.018270
0.909860 0.295886 0.017321
0.991051 0.294217 0.016397
1.000000 0.292608 0.015506
1.000000 0.290527 0.015478
1.000000 0.288494 0.015563
1.000000 0.286608 0.015642
0.068825 0.385260 0.038847
0.094265 0.383584 0.036780
0.164490 0.382134 0.034012
0.239097 0.380595 0.031072
0.317356 0.378979 0.027989
0.398535 0.377304 0.024790
0.481905 0.375583 0.021504
0.566736 0.373832 0.018310
0.652309 0.372073 0.017336
0.737882 0.370314 0.016362
0.822725 0.368570 0.015397
0.906107 0.366856 0.014448
0.987298 0.365187 0.013524
1.000000 0.363578 0.012634
1.000000 0.361557 0.012515
1.000000 0.359524 0.012600
1.000000 0.357639 0.012679
0.072306 0.457514 0.028634
0.090409 0.455776 0.026659
0.160635 0.454327 0.023892
0.235242 0.452787 0.020952
0.313502 0.451172 0.018225
0.394693 0.449503 0.017301
0.478075 0.447789 0.016352
0.562917 0.446045 0.015387
0.648490 0.444286 0.014413
0.734063 0.442527 0.013439
0.818906 0.440783 0.012474
0.902288 0.439069 0.011525
0.983479 0.437400 0.010601
1.000000 0.435791 0.009711
1.000000 0.433832 0.009500
1.000000 0.431798 0.009585
1.000000 0.429913 0.009663
0.075817 0.530390 0.018333
0.086527 0.528594 0.017816
0.156763 0.527150 0.017017
0.231381 0.525616 0.016168
0.309650 0.524007 0.015277
0.390841 0.522338 0.014353
0.474223 0.520624 0.013404
0.559065 0.518880 0.012439
0.644638 0.517121 0.011465
0.730211 0.515362 0.010491
0.815054 0.513618 0.009526
0.898436 0.511904 0.008577
0.979627 0.510235 0.007653
1.000000 0.508626 0.006763
1.000000 0.506728 0.006459
1.000000 0.504695 0.006544
1.000000 0.502810 0.006622
0.079363 0.603285 0.014832
0.082675 0.601429 0.014868
0.152911 0.599985 0.014068
0.227529 0.598451 0.013219
0.305798 0.596842 0.012329
0.386989 0.595173 0.011405
0.470371 0.593459 0.010456
0.555214 0.591715 0.009491
0.640787 0.589956 0.008517
0.726359 0.588197 0.007543
0.811202 0.586452 0.006578
0.894584 0.584738 0.005629
0.975775 0.583069 0.004705
1.000000 0.581460 0.003814
1.000000 0.579625 0.003418
1.000000 0.577592 0.003502
1.000000 0.575707 0.003581
0.082881 0.675560 0.011817
0.082789 0.673675 0.011895
0.149092 0.672198 0.011146
0.223710 0.670664 0.010296
0.301979 0.669055 0.009406
0.383170 0.667386 0.008482
0.466552 0.665672 0.007533
0.551395 0.663928 0.006568
0.636968 0.662169 0.005594
0.722540 0.660410 0.004620
0.807383 0.658666 0.003655
0.890765 0.656952 0.002706
0.971956 0.655283 0.001782
1.000000 0.653674 0.000892
1.000000 0.651900 0.000402
1.000000 0.649866 0.000487
1.000000 0.647981 0.000566
0.086338 0.746590 0.008853
0.086246 0.744705 0.008932
0.145339 0.743168 0.008273
0.219956 0.741634 0.007424
0.298226 0.740025 0.006533
0.379417 0.738356 0.005609
0.462799 0.736642 0.004660
0.547641 0.734898 0.003695
0.633214 0.733139 0.002721
0.718787 0.731380 0.001748
0.803630 0.729635 0.000782
0.887012 0.727921 0.000000
0.968203 0.726252 0.000000
1.000000 0.724643 0.000000
1.000000 0.722930 0.000000
1.000000 0.720897 0.000000
1.000000 0.719012 0.000000
0.089704 0.815754 0.005968
0.089612 0.813869 0.006047
0.141684 0.812273 0.005476
0.216302 0.810739 0.004627
0.294571 0.809130 0.003736
0.375762 0.807461 0.002812
0.459144 0.805747 0.001863
0.543987 0.804003 0.000898
0.629560 0.802244 0.000000
0.715133 0.800484 0.000000
0.799975 0.798740 0.000000
0.883357 0.797026 0.000000
0.964548 0.795357 0.000000
1.000000 0.793748 0.000000
1.000000 0.792094 0.000000
1.000000 0.790061 0.000000
1.000000 0.788175 0.000000
0.092949 0.882429 0.003186
0.092857 0.880544 0.003265
0.138161 0.878891 0.002779
0.212779 0.877357 0.001930
0.291048 0.875748 0.001039
0.372239 0.874079 0.000116
0.455621 0.872365 0.000000
0.540464 0.870621 0.000000
0.626036 0.868862 0.000000
0.711609 0.867103 0.000000
0.796452 0.865359 0.000000
0.879834 0.863645 0.000000
0.961025 0.861976 0.000000
1.000000 0.860367 0.000000
1.000000 0.858769 0.000000
1.000000 0.856736 0.000000
1.000000 0.854850 0.000000
0.096043 0.945993 0.000535
0.095951 0.944108 0.000613
0.134802 0.942401 0.000208
0.209420 0.940867 0.000000
0.287689 0.939258 0.000000
0.368880 0.937589 0.000000
0.452262 0.935875 0.000000
0.537105 0.934131 0.000000
0.622678 0.932372 0.000000
0.708251 0.930613 0.000000
0.793093 0.928869 0.000000
0.876475 0.927155 0.000000
0.957666 0.925486 0.000000
1.000000 0.923877 0.000000
1.000000 0.922333 0.000000
1.000000 0.920300 0.000000
1.000000 0.918415 0.000000
0.098955 1.000000 0.000000
0.098863 1.000000 0.000000
0.131641 1.000000 0.000000
0.206258 1.000000 0.000000
0.284528 0.999039 0.000000
0.365719 0.997370 0.000000
0.449101 0.995656 0.000000
0.533943 0.993912 0.000000
0.619516 0.992153 0.000000
0.705089 0.990394 0.000000
0.789932 0.988649 0.000000
0.873314 0.986935 0.000000
0.954505 0.985266 0.000000
1.000000 0.983657 0.000000
1.000000 0.982124 0.000000
1.000000 0.980131 0.000000
1.000000 0.978246 0.000000
0.100064 1.000000 0.000000
0.100064 1.000000 0.000000
0.127309 1.000000 0.000000
0.202032 1.000000 0.000000
0.280411 1.000000 0.000000
0.361717 1.000000 0.000000
0.445216 1.000000 0.000000
0.530178 1.000000 0.000000
0.615872 1.000000 0.000000
0.701565 1.000000 0.000000
0.786527 1.000000 0.000000
0.870027 1.000000 0.000000
0.951332 1.000000 0.000000
1.000000 1.000000 0.000000
1.000000 1.000000 0.000000
1.000000 1.000000 0.000000
1.000000 1.000000 0.000000
0.050563 0.000322 0.150854
0.114694 0.000854 0.148223
0.185019 0.001437 0.145371
0.259731 0.002057 0.142341
0.338099 0.002708 0.139162
0.419393 0.003382 0.135865
0.502881 0.004075 0.132479
0.587831 0.004780 0.129034
0.673512 0.005492 0.125559
0.759194 0.006203 0.122084
0.844144 0.006908 0.118639
0.927631 0.007601 0.115253
1.000000 0.008275 0.111956
1.000000 0.008741 0.109054
1.000000 0.008735 0.106964
1.000000 0.008730 0.104996
1.000000 0.008724 0.103171
0.053182 0.054693 0.143060
0.111590 0.053293 0.140578
0.181816 0.051843 0.137811
0.256423 0.050303 0.134871
0.334681 0.048688 0.131787
0.415860 0.047012 0.128588
0.499230 0.045292 0.125303
0.584061 0.043541 0.121960
0.669622 0.041774 0.118589
0.755182 0.040008 0.115217
0.840013 0.038257 0.111875
0.923383 0.036537 0.108589
1.000000 0.034861 0.105390
1.000000 0.033109 0.102512
1.000000 0.030942 0.100512
1.000000 0.028904 0.098628
1.000000 0.027013 0.096882
0.056064 0.114507 0.134605
0.108398 0.113056 0.132200
0.178624 0.111606 0.129433
0.253231 0.110066 0.126493
0.331489 0.108451 0.123409
0.412668 0.106775 0.120210
0.496039 0.105055 0.116925
0.580869 0.103304 0.113582
0.666430 0.101538 0.110211
0.751991 0.099772 0.106839
0.836821 0.098021 0.103496
0.920191 0.096300 0.100211
1.000000 0.094624 0.097012
1.000000 0.092923 0.094058
1.000000 0.090756 0.092057
1.000000 0.088718 0.090174
1.000000 0.086827 0.088428
0.059125 0.178053 0.125623
0.105007 0.176548 0.123299
0.175233 0.175098 0.120532
0.249840 0.173558 0.117592
0.328098 0.171943 0.114508
0.409278 0.170267 0.111309
0.492648 0.168547 0.108024
0.577478 0.166796 0.104681
0.663039 0.165030 0.101309
0.748600 0.163263 0.097938
0.833430 0.161512 0.094595
0.916800 0.159792 0.091310
0.997980 0.158116 0.088111
1.000000 0.156469 0.085075
1.000000 0.154302 0.083075
1.000000 0.152264 0.081191
1.000000 0.150373 0.079445
0.062337 0.244709 0.116201
0.101450 0.243147 0.113962
0.171676 0.241697 0.111195
0.246283 0.240157 0.108255
0.324541 0.238542 0.105171
0.405721 0.236867 0.101972
0.489091 0.235146 0.098687
0.573921 0.233395 0.095344
0.659482 0.231629 0.091973
0.745043 0.229863 0.088601
0.829874 0.228112 0.085258
0.913244 0.226391 0.081973
0.994423 0.224715 0.078774
1.000000 0.223100 0.075691
1.000000 0.220958 0.073653
1.000000 0.218919 0.071770
1.000000 0.217029 0.070024
0.065668 0.313853 0.106428
0.097761 0.312232 0.104277
0.167986 0.310782 0.101510
0.242594 0.309242 0.098570
0.320852 0.307627 0.095486
0.402031 0.305951 0.092287
0.485401 0.304231 0.089002
0.570232 0.302480 0.085659
0.655793 0.300714 0.082288
0.741353 0.298948 0.078916
0.826184 0.297197 0.075573
0.909554 0.295476 0.072288
0.990733 0.293800 0.069089
1.000000 0.292185 0.066005
1.000000 0.290102 0.063880
1.000000 0.288063 0.061996
1.000000 0.286173 0.060250
0.069089 0.384862 0.096391
0.093972 0.383181 0.094331
0.164197 0.381732 0.091563
0.238804 0.380192 0.088623
0.317063 0.378576 0.085540
0.398242 0.376901 0.082341
0.481612 0.375180 0.079055
0.566443 0.373429 0.075713
0.652003 0.371663 0.072341
0.737564 0.369897 0.068970
0.822395 0.368146 0.065627
0.905765 0.366425 0.062341
0.986944 0.364749 0.059143
1.000000 0.363134 0.056059
1.000000 0.361112 0.053842
1.000000 0.359073 0.051959
1.000000 0.357182 0.050213
0.072571 0.457116 0.086178
0.090116 0.455373 0.084210
0.160342 0.453924 0.081442
0.234949 0.452384 0.078503
0.313207 0.450769 0.075419
0.394386 0.449093 0.072220
0.477757 0.447372 0.068935
0.562587 0.445621 0.065592
0.648148 0.443855 0.062220
0.733709 0.442089 0.058849
0.818539 0.440338 0.055506
0.901909 0.438617 0.052221
0.983089 0.436942 0.049022
1.000000 0.435326 0.045938
1.000000 0.433366 0.043629
1.000000 0.431327 0.041746
1.000000 0.429436 0.040000
0.076082 0.529992 0.075877
0.086227 0.528187 0.074002
0.156453 0.526738 0.071235
0.231060 0.525198 0.068295
0.309318 0.523582 0.065211
0.390498 0.521907 0.062012
0.473868 0.520186 0.058727
0.558698 0.518435 0.055384
0.644259 0.516669 0.052012
0.729820 0.514903 0.048641
0.814651 0.513152 0.045298
0.898021 0.511431 0.042013
0.979200 0.509755 0.038814
1.000000 0.508140 0.035730
1.000000 0.506241 0.033328
1.000000 0.504202 0.031445
1.000000 0.502312 0.029699
0.079593 0.602867 0.065576
0.082339 0.601001 0.063794
0.152564 0.599551 0.061027
0.227171 0.598011 0.058087
0.305430 0.596396 0.055003
0.386609 0.594720 0.051804
0.469979 0.593000 0.048519
0.554810 0.591249 0.045176
0.640370 0.589483 0.041804
0.725931 0.587716 0.038433
0.810762 0.585966 0.035090
0.894132 0.584245 0.031805
0.975311 0.582569 0.028606
1.000000 0.580954 0.025522
1.000000 0.579117 0.023027
1.000000 0.577078 0.021144
1.000000 0.575188 0.019398
0.083074 0.675121 0.055363
0.082973 0.673231 0.053617
0.148709 0.671744 0.050906
0.223316 0.670204 0.047966
0.301574 0.668588 0.044882
0.382753 0.666913 0.041683
0.466124 0.665192 0.038398
0.550954 0.663441 0.035055
0.636515 0.661675 0.031684
0.722076 0.659909 0.028312
0.806906 0.658158 0.024969
0.890276 0.656437 0.021684
0.971456 0.654761 0.018485
1.000000 0.653146 0.015401
1.000000 0.651371 0.012814
1.000000 0.649332 0.010931
1.000000 0.647441 0.009185
0.086495 0.746131 0.045326
0.086394 0.744240 0.043579
0.144920 0.742693 0.040959
0.219527 0.741153 0.038019
0.297785 0.739538 0.034936
0.378964 0.737862 0.031737
0.462334 0.736141 0.028451
0.547165 0.734390 0.025109
0.632726 0.732624 0.021737
0.718287 0.730858 0.018366
0.803117 0.729107 0.015023
0.886487 0.727386 0.011737
0.967666 0.725711 0.008539
1.000000 0.724095 0.005455
1.000000 0.722380 0.002777
1.000000 0.720342 0.000894
1.000000 0.718451 0.000000
0.089827 0.815275 0.035552
0.089726 0.813384 0.033806
0.141230 0.811778 0.031274
0.215837 0.810238 0.028334
0.294095 0.808623 0.025250
0.375275 0.806947 0.022051
0.458645 0.805226 0.018766
0.543475 0.803475 0.015423
0.629036 0.801709 0.012052
0.714597 0.799943 0.008680
0.799428 0.798192 0.005338
0.882798 0.796471 0.002052
0.963977 0.794796 0.000000
1.000000 0.793180 0.000000
1.000000 0.791529 0.000000
1.000000 0.789496 0.000000
1.000000 0.787610 0.000000
0.093038 0.881931 0.026130
0.092937 0.880040 0.024384
0.137673 0.878377 0.021937
0.212280 0.876837 0.018997
0.290539 0.875222 0.015914
0.371718 0.873546 0.012715
0.455088 0.871825 0.009430
0.539918 0.870074 0.006087
0.625479 0.868308 0.002715
0.711040 0.866542 0.000000
0.795871 0.864791 0.000000
0.879249 0.863075 0.000000
0.960440 0.861406 0.000000
1.000000 0.859797 0.000000
1.000000 0.858204 0.000000
1.000000 0.856171 0.000000
1.000000 0.854286 0.000000
0.096100 0.945476 0.017148
0.095999 0.943586 0.015402
0.134282 0.941869 0.013036
0.208889 0.940329 0.010096
0.287148 0.938714 0.007013
0.368327 0.937038 0.003814
0.451697 0.935317 0.000528
0.536528 0.933566 0.000000
0.622093 0.931803 0.000000
0.707666 0.930044 0.000000
0.792508 0.928299 0.000000
0.875890 0.926585 0.000000
0.957081 0.924916 0.000000
1.000000 0.923307 0.000000
1.000000 0.921768 0.000000
1.000000 0.919735 0.000000
1.000000 0.917850 0.000000
0.098982 1.000000 0.008694
0.098881 1.000000 0.006947
0.131091 1.000000 0.004658
0.205698 1.000000 0.001718
0.283956 0.998477 0.000000
0.365135 0.996801 0.000000
0.448516 0.995086 0.000000
0.533358 0.993342 0.000000
0.618931 0.991583 0.000000
0.704504 0.989824 0.000000
0.789347 0.988080 0.000000
0.872729 0.986366 0.000000
0.953920 0.984697 0.000000
1.000000 0.983088 0.000000
1.000000 0.981554 0.000000
1.000000 0.979566 0.000000
1.000000 0.977681 0.000000
0.100090 1.000000 0.002195
0.100081 1.000000 0.000370
0.126758 1.000000 0.000000
0.201474 1.000000 0.000000
0.279854 1.000000 0.000000
0.361159 1.000000 0.000000
0.444659 1.000000 0.000000
0.529621 1.000000 0.000000
0.615314 1.000000 0.000000
0.701008 1.000000 0.000000
0.785970 1.000000 0.000000
0.869469 1.000000 0.000000
0.950775 1.000000 0.000000
1.000000 1.000000 0.000000
1.000000 1.000000 0.000000
1.000000 1.000000 0.000000
1.000000 1.000000 0.000000
0.050873 0.000499 0.211963
0.114412 0.001026 0.209339
0.184737 0.001610 0.206487
0.259449 0.002230 0.203457
0.337817 0.002880 0.200279
0.419111 0.003555 0.196982
0.502599 0.004248 0.193596
0.587549 0.004953 0.190151
0.673230 0.005664 0.186676
0.758912 0.006375 0.183201
0.843862 0.007080 0.179756
0.927349 0.007773 0.176370
1.000000 0.008447 0.173073
1.000000 0.008919 0.170164
1.000000 0.008912 0.168073
