assets/luts/sunset.cube
# Sunset — Studio filter "sunset"
# Generated by scripts/generate-filter-luts.mjs — do not edit by hand.
LUT_3D_SIZE 9
DOMAIN_MIN 0.0 0.0 0.0
DOMAIN_MAX 1.0 1.0 1.0
0.050000 0.000000 0.040000
0.185549 0.001136 0.038296
0.338652 0.002419 0.036372
0.503457 0.003800 0.034301
0.674112 0.005230 0.032156
0.844768 0.006660 0.030011
1.000000 0.008041 0.027939
1.000000 0.008504 0.027244
1.000000 0.008504 0.027244
0.055612 0.115308 0.035190
0.179266 0.112427 0.033796
0.332153 0.109284 0.032057
0.496726 0.105901 0.030184
0.667141 0.102398 0.028245
0.837557 0.098895 0.026306
1.000000 0.095512 0.024433
1.000000 0.091647 0.023775
1.000000 0.087729 0.023939
0.061951 0.245547 0.029756
0.172384 0.242556 0.028529
0.325271 0.239413 0.026789
0.489844 0.236030 0.024917
0.660259 0.232526 0.022978
0.830675 0.229023 0.021038
0.995248 0.225640 0.019166
1.000000 0.221887 0.018342
1.000000 0.217968 0.018505
0.068775 0.385741 0.023907
0.164976 0.382630 0.022859
0.317863 0.379487 0.021120
0.482436 0.376104 0.019247
0.652852 0.372601 0.017308
0.823267 0.369098 0.015369
0.987840 0.365715 0.013496
1.000000 0.362081 0.012493
1.000000 0.358162 0.012657
0.075840 0.530912 0.017851
0.157305 0.527678 0.016988
0.310192 0.524535 0.015249
0.474765 0.521152 0.013376
0.645181 0.517649 0.011437
0.815596 0.514146 0.009498
0.980169 0.510763 0.007625
1.000000 0.507252 0.006437
1.000000 0.503334 0.006600
0.082906 0.676084 0.011795
0.149634 0.672726 0.011117
0.302521 0.669583 0.009377
0.467094 0.666200 0.007505
0.637510 0.662697 0.005566
0.807925 0.659194 0.003626
0.972498 0.655811 0.001754
1.000000 0.652423 0.000381
1.000000 0.648505 0.000544
0.089730 0.816278 0.005946
0.142226 0.812801 0.005447
0.295114 0.809658 0.003708
0.459686 0.806275 0.001835
0.630102 0.802772 0.000000
0.800518 0.799269 0.000000
0.965090 0.795885 0.000000
1.000000 0.792617 0.000000
1.000000 0.788699 0.000000
0.096069 0.946517 0.000513
0.135344 0.942929 0.000180
0.288232 0.939787 0.000000
0.452804 0.936404 0.000000
0.623220 0.932900 0.000000
0.793636 0.929397 0.000000
0.958208 0.926014 0.000000
1.000000 0.922857 0.000000
1.000000 0.918939 0.000000
0.100064 1.000000 0.000000
0.127826 1.000000 0.000000
0.280928 1.000000 0.000000
0.445733 1.000000 0.000000
0.616389 1.000000 0.000000
0.787044 1.000000 0.000000
0.951849 1.000000 0.000000
1.000000 1.000000 0.000000
1.000000 1.000000 0.000000
0.050563 0.000322 0.150854
0.185019 0.001437 0.145371
0.338099 0.002708 0.139162
0.502881 0.004075 0.132479
0.673512 0.005492 0.125559
0.844144 0.006908 0.118639
1.000000 0.008275 0.111956
1.000000 0.008735 0.106964
1.000000 0.008724 0.103171
0.056064 0.114507 0.134605
0.178624 0.111606 0.129433
0.331489 0.108451 0.123409
0.496039 0.105055 0.116925
0.666430 0.101538 0.110211
0.836821 0.098021 0.103496
1.000000 0.094624 0.097012
1.000000 0.090756 0.092057
1.000000 0.086827 0.088428
0.062337 0.244709 0.116201
0.171676 0.241697 0.111195
0.324541 0.238542 0.105171
0.489091 0.235146 0.098687
0.659482 0.231629 0.091973
0.829874 0.228112 0.085258
0.994423 0.224715 0.078774
1.000000 0.220958 0.073653
1.000000 0.217029 0.070024
0.069089 0.384862 0.096391
0.164197 0.381732 0.091563
0.317063 0.378576 0.085540
0.481612 0.375180 0.079055
0.652003 0.371663 0.072341
0.822395 0.368146 0.065627
0.986944 0.364749 0.059143
1.000000 0.361112 0.053842
1.000000 0.357182 0.050213
0.076082 0.529992 0.075877
0.156453 0.526738 0.071235
0.309318 0.523582 0.065211
0.473868 0.520186 0.058727
0.644259 0.516669 0.052012
0.814651 0.513152 0.045298
0.979200 0.509755 0.038814
1.000000 0.506241 0.033328
1.000000 0.502312 0.029699
0.083074 0.675121 0.055363
0.148709 0.671744 0.050906
0.301574 0.668588 0.044882
0.466124 0.665192 0.038398
0.636515 0.661675 0.031684
0.806906 0.658158 0.024969
0.971456 0.654761 0.018485
1.000000 0.651371 0.012814
1.000000 0.647441 0.009185
0.089827 0.815275 0.035552
0.141230 0.811778 0.031274
0.294095 0.808623 0.025250
0.458645 0.805226 0.018766
0.629036 0.801709 0.012052
0.799428 0.798192 0.005338
0.963977 0.794796 0.000000
1.000000 0.791529 0.000000
1.000000 0.787610 0.000000
0.096100 0.945476 0.017148
0.134282 0.941869 0.013036
0.287148 0.938714 0.007013
0.451697 0.935317 0.000528
0.622093 0.931803 0.000000
0.792508 0.928299 0.000000
0.957081 0.924916 0.000000
1.000000 0.921768 0.000000
1.000000 0.917850 0.000000
0.100090 1.000000 0.002195
0.126758 1.000000 0.000000
0.279854 1.000000 0.000000
0.444659 1.000000 0.000000
0.615314 1.000000 0.000000
0.785970 1.000000 0.000000
0.950775 1.000000 0.000000
1.000000 1.000000 0.000000
1.000000 1.000000 0.000000
0.051198 0.000685 0.276063
0.184441 0.001790 0.270595
0.337522 0.003061 0.264387
0.502303 0.004428 0.257704
0.672934 0.005845 0.250783
0.843566 0.007261 0.243863
1.000000 0.008628 0.237180
1.000000 0.009098 0.232173
1.000000 0.009087 0.228380
0.056639 0.113640 0.259865
0.177986 0.110730 0.254708
0.330852 0.107574 0.248685
0.495401 0.104178 0.242200
0.665792 0.100661 0.235486
0.836184 0.097144 0.228772
1.000000 0.093747 0.222288
1.000000 0.089890 0.217317
1.000000 0.085961 0.213688
0.062912 0.243842 0.241462
0.171038 0.240821 0.236470
0.323904 0.237665 0.230447
0.488453 0.234269 0.223963
0.658845 0.230752 0.217248
0.829236 0.227235 0.210534
0.993785 0.223838 0.204050
1.000000 0.220092 0.198913
1.000000 0.216162 0.195284
0.069665 0.383996 0.221651
0.163560 0.380855 0.216839
0.316425 0.377700 0.210815
0.480974 0.374303 0.204331
0.651366 0.370786 0.197617
0.821757 0.367269 0.190902
0.986307 0.363873 0.184418
1.000000 0.360245 0.179103
1.000000 0.356316 0.175473
0.076657 0.529125 0.201137
0.155815 0.525861 0.196510
0.308681 0.522706 0.190486
0.473230 0.519309 0.184002
0.643622 0.515792 0.177288
0.814013 0.512275 0.170573
0.978562 0.508879 0.164089
1.000000 0.505375 0.158589
1.000000 0.501445 0.154959
0.083650 0.674255 0.180623
0.148071 0.670867 0.176181
0.300937 0.667712 0.170158
0.465486 0.664315 0.163673
0.635877 0.660798 0.156959
0.806269 0.657281 0.150245
0.970818 0.653885 0.143761
1.000000 0.650504 0.138075
1.000000 0.646575 0.134445
0.090402 0.814408 0.160812
0.140592 0.810901 0.156550
0.293458 0.807746 0.150526
0.458007 0.804349 0.144042
0.628399 0.800832 0.137327
0.798790 0.797315 0.130613
0.963339 0.793919 0.124129
1.000000 0.790658 0.118264
1.000000 0.786728 0.114635
0.096675 0.944610 0.142408
0.133645 0.940992 0.138312
0.286510 0.937837 0.132288
0.451059 0.934440 0.125804
0.621451 0.930923 0.119090
0.791842 0.927406 0.112375
0.956392 0.924010 0.105891
1.000000 0.920855 0.099867
1.000000 0.916930 0.096231
0.100725 1.000000 0.127404
0.126180 1.000000 0.123291
0.279261 1.000000 0.117082
0.444042 1.000000 0.110399
0.614674 1.000000 0.103479
0.785305 1.000000 0.096559
0.950087 1.000000 0.089876
1.000000 1.000000 0.083721
1.000000 1.000000 0.079937
0.051882 0.001076 0.410842
0.183819 0.002170 0.405390
0.336900 0.003441 0.399182
0.501681 0.004808 0.392499
0.672312 0.006225 0.385579
0.842944 0.007641 0.378659
1.000000 0.009008 0.371976
1.000000 0.009489 0.366952
1.000000 0.009478 0.363159
0.057259 0.112708 0.394700
0.177300 0.109786 0.389559
0.330165 0.106631 0.383535
0.494715 0.103234 0.377051
0.665106 0.099717 0.370337
0.835497 0.096200 0.363622
1.000000 0.092804 0.357138
1.000000 0.088957 0.352151
1.000000 0.085028 0.348522
0.063532 0.242909 0.376296
0.170352 0.239877 0.371321
0.323217 0.236722 0.365297
0.487767 0.233325 0.358813
0.658158 0.229808 0.352099
0.828550 0.226291 0.345385
0.993099 0.222895 0.338900
1.000000 0.219159 0.333747
1.000000 0.215230 0.330118
0.070285 0.383063 0.356485
0.162873 0.379911 0.351689
0.315739 0.376756 0.345666
0.480288 0.373360 0.339182
0.650679 0.369842 0.332467
0.821071 0.366325 0.325753
0.985620 0.362929 0.319269
1.000000 0.359312 0.313937
1.000000 0.355383 0.310307
0.077277 0.528192 0.335971
0.155129 0.524917 0.331361
0.307994 0.521762 0.325337
0.472544 0.518365 0.318853
0.642935 0.514848 0.312138
0.813327 0.511331 0.305424
0.977876 0.507935 0.298940
1.000000 0.504442 0.293423
1.000000 0.500513 0.289794
0.084269 0.673322 0.315457
0.147385 0.669923 0.311032
0.300250 0.666768 0.305008
0.464800 0.663371 0.298524
0.635191 0.659854 0.291810
0.805582 0.656337 0.285095
0.970132 0.652941 0.278611
1.000000 0.649571 0.272909
1.000000 0.645642 0.269280
0.091022 0.813475 0.295647
0.139906 0.809957 0.291400
0.292771 0.806802 0.285377
0.457321 0.803406 0.278892
0.627712 0.799889 0.272178
0.798104 0.796372 0.265464
0.962653 0.792975 0.258980
1.000000 0.789725 0.253098
1.000000 0.785795 0.249469
0.097295 0.943677 0.277243
0.132958 0.940048 0.273162
0.285824 0.936893 0.267139
0.450373 0.933497 0.260655
0.620764 0.929980 0.253940
0.791156 0.926463 0.247226
0.955705 0.923066 0.240742
1.000000 0.919911 0.234718
1.000000 0.915997 0.231065
0.101410 1.000000 0.262183
0.125558 1.000000 0.258086
0.278639 1.000000 0.251878
0.443420 1.000000 0.245195
0.614052 1.000000 0.238275
0.784683 1.000000 0.231354
0.949465 1.000000 0.224672
1.000000 1.000000 0.218571
1.000000 1.000000 0.214771
0.052591 0.001480 0.550406
0.183175 0.002564 0.544971
0.336256 0.003834 0.538763
0.501037 0.005202 0.532080
0.671668 0.006618 0.525160
0.842300 0.008034 0.518240
1.000000 0.009402 0.511557
1.000000 0.009894 0.506516
1.000000 0.009883 0.502723
0.057901 0.111742 0.534321
0.176589 0.108809 0.529197
0.329454 0.105653 0.523173
0.494004 0.102257 0.516689
0.664395 0.098740 0.509975
0.834787 0.095223 0.503261
0.999336 0.091826 0.496777
1.000000 0.087991 0.491773
1.000000 0.084062 0.488143
0.064174 0.241944 0.515917
0.169641 0.238900 0.510959
0.322507 0.235744 0.504936
0.487056 0.232348 0.498452
0.657448 0.228831 0.491737
0.827839 0.225314 0.485023
0.992388 0.221917 0.478539
1.000000 0.218193 0.473369
1.000000 0.214264 0.469739
0.070926 0.382097 0.496106
0.162163 0.378934 0.491328
0.315028 0.375779 0.485304
0.479577 0.372382 0.478820
0.649969 0.368865 0.472105
0.820360 0.365348 0.465391
0.984910 0.361952 0.458907
1.000000 0.358347 0.453558
1.000000 0.354417 0.449929
0.077919 0.527226 0.475593
0.154418 0.523940 0.470999
0.307284 0.520785 0.464975
0.471833 0.517388 0.458491
0.642224 0.513871 0.451777
0.812616 0.510354 0.445062
0.977165 0.506958 0.438578
1.000000 0.503476 0.433044
1.000000 0.499547 0.429415
0.084911 0.672356 0.455079
0.146674 0.668946 0.450670
0.299539 0.665791 0.444647
0.464089 0.662394 0.438162
0.634480 0.658877 0.431448
0.804872 0.655360 0.424734
0.969421 0.651964 0.418250
1.000000 0.648605 0.412530
1.000000 0.644676 0.408901
0.091664 0.812509 0.435268
0.139195 0.808980 0.431038
0.292061 0.805825 0.425015
0.456610 0.802428 0.418531
0.627001 0.798911 0.411816
0.797393 0.795394 0.405102
0.961942 0.791998 0.398618
1.000000 0.788759 0.392720
1.000000 0.784830 0.389090
0.097937 0.942711 0.416864
0.132248 0.939071 0.412801
0.285113 0.935916 0.406777
0.449662 0.932519 0.400293
0.620054 0.929002 0.393579
0.790445 0.925485 0.386864
0.954994 0.922089 0.380380
1.000000 0.918934 0.374356
1.000000 0.915031 0.370686
0.102118 1.000000 0.401747
0.124914 1.000000 0.397667
0.277995 1.000000 0.391459
0.442776 1.000000 0.384776
0.613408 1.000000 0.377856
0.784039 1.000000 0.370936
0.948821 1.000000 0.364253
1.000000 1.000000 0.358210
1.000000 1.000000 0.354392
0.053299 0.001885 0.689970
0.182531 0.002957 0.684552
0.335612 0.004228 0.678344
0.500393 0.005595 0.671661
0.671024 0.007011 0.664741
0.841656 0.008428 0.657821
1.000000 0.009795 0.651138
1.000000 0.010299 0.646080
1.000000 0.010288 0.642287
0.058542 0.110776 0.673942
0.175878 0.107831 0.668835
0.328744 0.104676 0.662812
0.493293 0.101280 0.656328
0.663685 0.097763 0.649613
0.834076 0.094246 0.642899
0.998625 0.090849 0.636415
1.000000 0.087025 0.631394
1.000000 0.083096 0.627765
0.064816 0.240978 0.655538
0.168931 0.237922 0.650598
0.321796 0.234767 0.644574
0.486345 0.231371 0.638090
0.656737 0.227854 0.631375
0.827128 0.224337 0.624661
0.991678 0.220940 0.618177
1.000000 0.217227 0.612990
1.000000 0.213298 0.609361
0.071568 0.381131 0.635728
0.161452 0.377957 0.630966
0.314317 0.374801 0.624942
0.478867 0.371405 0.618458
0.649258 0.367888 0.611744
0.819649 0.364371 0.605029
0.984199 0.360975 0.598545
1.000000 0.357381 0.593179
1.000000 0.353451 0.589550
0.078561 0.526261 0.615214
0.153708 0.522963 0.610637
0.306573 0.519807 0.604614
0.471122 0.516411 0.598129
0.641514 0.512894 0.591415
0.811905 0.509377 0.584701
0.976455 0.505980 0.578217
1.000000 0.502510 0.572665
1.000000 0.498581 0.569036
0.085553 0.671390 0.594700
0.145963 0.667969 0.590309
0.298829 0.664813 0.584285
0.463378 0.661417 0.577801
0.633769 0.657900 0.571086
0.804161 0.654383 0.564372
0.968710 0.650986 0.557888
1.000000 0.647639 0.552151
1.000000 0.643710 0.548522
0.092305 0.811544 0.574889
0.138485 0.808003 0.570677
0.291350 0.804848 0.564653
0.455899 0.801451 0.558169
0.626291 0.797934 0.551455
0.796682 0.794417 0.544740
0.961231 0.791021 0.538256
1.000000 0.787793 0.532341
1.000000 0.783864 0.528711
0.098579 0.941745 0.556485
0.131537 0.938094 0.552439
0.284402 0.934939 0.546415
0.448952 0.931542 0.539931
0.619343 0.928025 0.533217
0.789734 0.924508 0.526502
0.954284 0.921112 0.520018
1.000000 0.917956 0.513995
1.000000 0.914065 0.510308
0.102826 1.000000 0.541311
0.124270 1.000000 0.537248
0.277351 1.000000 0.531040
0.442132 1.000000 0.524357
0.612764 1.000000 0.517437
0.783395 1.000000 0.510517
0.948133 1.000000 0.503872
1.000000 1.000000 0.497848
1.000000 1.000000 0.494014
0.053983 0.002276 0.824749
0.181909 0.003337 0.819348
0.334990 0.004608 0.813140
0.499771 0.005975 0.806457
0.670403 0.007391 0.799537
0.841034 0.008808 0.792616
1.000000 0.010175 0.785934
1.000000 0.010690 0.780859
1.000000 0.010679 0.777066
0.059162 0.109843 0.808777
0.175192 0.106888 0.803686
0.328057 0.103732 0.797662
0.492607 0.100336 0.791178
0.662998 0.096819 0.784464
0.833390 0.093302 0.777750
0.997939 0.089905 0.771265
1.000000 0.086093 0.766228
1.000000 0.082163 0.762599
0.065435 0.240045 0.790373
0.168244 0.236979 0.785448
0.321110 0.233823 0.779425
0.485659 0.230427 0.772941
0.656050 0.226910 0.766226
0.826442 0.223393 0.759512
0.990991 0.219996 0.753028
1.000000 0.216294 0.747824
1.000000 0.212365 0.744195
0.072188 0.380198 0.770562
0.160766 0.377013 0.765817
0.313631 0.373858 0.759793
0.478180 0.370461 0.753309
0.648572 0.366944 0.746594
0.818963 0.363427 0.739880
0.983512 0.360031 0.733396
1.000000 0.356448 0.728014
1.000000 0.352519 0.724384
0.079180 0.525328 0.750048
0.153021 0.522019 0.745488
0.305887 0.518864 0.739464
0.470436 0.515467 0.732980
0.640827 0.511950 0.726266
0.811219 0.508433 0.719551
0.975768 0.505037 0.713067
1.000000 0.501577 0.707500
1.000000 0.497648 0.703870
0.086173 0.670457 0.729534
0.145277 0.667025 0.725159
0.298142 0.663870 0.719135
0.462692 0.660473 0.712651
0.633083 0.656956 0.705937
0.803475 0.653439 0.699223
0.968024 0.650043 0.692739
1.000000 0.646707 0.686986
1.000000 0.642777 0.683356
0.092925 0.810611 0.709723
0.137798 0.807059 0.705527
0.290664 0.803904 0.699504
0.455213 0.800507 0.693020
0.625604 0.796990 0.686305
0.795996 0.793473 0.679591
0.960545 0.790077 0.673107
1.000000 0.786860 0.667175
1.000000 0.782931 0.663546
0.099198 0.940813 0.691320
0.130850 0.937150 0.687290
0.283716 0.933995 0.681266
0.448265 0.930598 0.674782
0.618657 0.927081 0.668067
0.789048 0.923564 0.661353
0.953597 0.920168 0.654869
1.000000 0.917013 0.648845
1.000000 0.913133 0.645142
0.103511 1.000000 0.676090
0.123648 1.000000 0.672044
0.276729 1.000000 0.665835
0.441511 1.000000 0.659152
0.612142 1.000000 0.652232
0.782773 1.000000 0.645312
0.947446 1.000000 0.638722
1.000000 1.000000 0.632698
1.000000 1.000000 0.628848
0.054619 0.002639 0.949958
0.181331 0.003690 0.944572
0.334412 0.004961 0.938364
0.499193 0.006328 0.931681
0.669825 0.007744 0.924761
0.840456 0.009161 0.917841
1.000000 0.010528 0.911158
1.000000 0.011053 0.906068
1.000000 0.011042 0.902275
0.059738 0.108977 0.934037
0.174554 0.106011 0.928962
0.327420 0.102856 0.922938
0.491969 0.099459 0.916454
0.662361 0.095942 0.909739
0.832752 0.092425 0.903025
0.997301 0.089029 0.896541
1.000000 0.085226 0.891488
1.000000 0.081297 0.887859
0.066011 0.239178 0.915633
0.167607 0.236102 0.910724
0.320472 0.232947 0.904700
0.485021 0.229550 0.898216
0.655413 0.226033 0.891502
0.825804 0.222516 0.884787
0.990354 0.219120 0.878303
1.000000 0.215428 0.873084
1.000000 0.211498 0.869455
0.072764 0.379332 0.895822
0.160128 0.376136 0.891092
0.312993 0.372981 0.885068
0.477543 0.369585 0.878584
0.647934 0.366068 0.871870
0.818325 0.362551 0.865156
0.982875 0.359154 0.858671
1.000000 0.355581 0.853274
1.000000 0.351652 0.849644
0.079756 0.524461 0.875308
0.152384 0.521142 0.870763
0.305249 0.517987 0.864740
0.469798 0.514591 0.858256
0.640190 0.511073 0.851541
0.810581 0.507556 0.844827
0.975131 0.504160 0.838343
1.000000 0.500711 0.832760
1.000000 0.496781 0.829131
0.086748 0.669591 0.854794
0.144639 0.666148 0.850435
0.297505 0.662993 0.844411
0.462054 0.659596 0.837927
0.632446 0.656079 0.831212
0.802837 0.652562 0.824498
0.967386 0.649166 0.818014
1.000000 0.645840 0.812246
1.000000 0.641911 0.808617
0.093501 0.809744 0.834984
0.137161 0.806182 0.830803
0.290026 0.803027 0.824779
0.454575 0.799631 0.818295
0.624967 0.796114 0.811581
0.795358 0.792597 0.804866
0.959908 0.789200 0.798382
1.000000 0.785994 0.792435
1.000000 0.782064 0.788806
0.099774 0.939946 0.816580
0.130213 0.936273 0.812565
0.283078 0.933118 0.806541
0.447628 0.929722 0.800057
0.618019 0.926205 0.793343
0.788410 0.922688 0.786629
0.952960 0.919291 0.780144
1.000000 0.916136 0.774121
1.000000 0.912266 0.770402
0.104146 1.000000 0.801299
0.123071 1.000000 0.797268
0.276152 1.000000 0.791059
0.440933 1.000000 0.784377
0.611564 1.000000 0.777456
0.782196 1.000000 0.770536
0.946809 1.000000 0.763998
1.000000 1.000000 0.757974
1.000000 1.000000 0.754108
0.055054 0.002888 1.000000
0.180711 0.003941 1.000000
0.333814 0.005224 1.000000
0.498619 0.006605 1.000000
0.669274 0.008035 1.000000
0.839930 0.009465 1.000000
1.000000 0.010841 1.000000
1.000000 0.011375 1.000000
1.000000 0.011364 1.000000
0.060178 0.108170 1.000000
0.173940 0.105206 1.000000
0.326827 0.102063 1.000000
0.491400 0.098680 1.000000
0.661796 0.095166 1.000000
0.832187 0.091649 1.000000
0.996737 0.088253 1.000000
1.000000 0.084459 1.000000
1.000000 0.080529 0.998758
0.066517 0.238409 1.000000
0.167042 0.235326 1.000000
0.319908 0.232171 1.000000
0.484457 0.228774 1.000000
0.654848 0.225257 1.000000
0.825240 0.221740 0.995700
0.989789 0.218344 0.989216
1.000000 0.214661 0.983984
1.000000 0.210731 0.980354
0.073273 0.378565 1.000000
0.159563 0.375360 1.000000
0.312429 0.372205 0.995981
0.476978 0.368808 0.989497
0.647370 0.365291 0.982783
0.817761 0.361774 0.976068
0.982310 0.358378 0.969584
1.000000 0.354814 0.964173
1.000000 0.350885 0.960544
0.080266 0.523694 0.986207
0.151819 0.520366 0.981676
0.304685 0.517211 0.975652
0.469234 0.513814 0.969168
0.639625 0.510297 0.962454
0.810017 0.506780 0.955740
0.974566 0.503384 0.949255
1.000000 0.499944 0.943659
1.000000 0.496014 0.940030
0.087258 0.668823 0.965693
0.144075 0.665372 0.961347
0.296940 0.662217 0.955324
0.461490 0.658820 0.948839
0.631881 0.655303 0.942125
0.802272 0.651786 0.935411
0.966822 0.648390 0.928927
1.000000 0.645073 0.923145
1.000000 0.641144 0.919516
0.094011 0.808977 0.945883
0.136596 0.805406 0.941716
0.289461 0.802251 0.935692
0.454011 0.798855 0.929208
0.624402 0.795337 0.922493
0.794794 0.791820 0.915779
0.959343 0.788424 0.909295
1.000000 0.785226 0.903335
1.000000 0.781297 0.899705
0.100284 0.939179 0.927479
0.129648 0.935497 0.923478
0.282514 0.932342 0.917454
0.447063 0.928946 0.910970
0.617455 0.925428 0.904256
0.787846 0.921911 0.897541
0.952395 0.918515 0.891057
1.000000 0.915360 0.885033
1.000000 0.911499 0.881301
0.104709 1.000000 0.912152
0.122559 1.000000 0.908135
0.275640 1.000000 0.901927
0.440421 1.000000 0.895244
0.611053 1.000000 0.888324
0.781684 1.000000 0.881404
0.946244 1.000000 0.874910
1.000000 1.000000 0.868887
1.000000 1.000000 0.865007
