assets/luts/sunset.cube
# Sunset — Studio filter "sunset"
# Generated by scripts/generate-filter-luts.mjs — do not edit by hand.
LUT_3D_SIZE 5
DOMAIN_MIN 0.0 0.0 0.0
DOMAIN_MAX 1.0 1.0 1.0
0.050000 0.000000 0.040000
0.338652 0.002419 0.036372
0.674112 0.005230 0.032156
1.000000 0.008041 0.027939
1.000000 0.008504 0.027244
0.061951 0.245547 0.029756
0.325271 0.239413 0.026789
0.660259 0.232526 0.022978
0.995248 0.225640 0.019166
1.000000 0.217968 0.018505
0.075840 0.530912 0.017851
0.310192 0.524535 0.015249
0.645181 0.517649 0.011437
0.980169 0.510763 0.007625
1.000000 0.503334 0.006600
0.089730 0.816278 0.005946
0.295114 0.809658 0.003708
0.630102 0.802772 0.000000
0.965090 0.795885 0.000000
1.000000 0.788699 0.000000
0.100064 1.000000 0.000000
0.280928 1.000000 0.000000
0.616389 1.000000 0.000000
0.951849 1.000000 0.000000
1.000000 1.000000 0.000000
0.051198 0.000685 0.276063
0.337522 0.003061 0.264387
0.672934 0.005845 0.250783
1.000000 0.008628 0.237180
1.000000 0.009087 0.228380
0.062912 0.243842 0.241462
0.323904 0.237665 0.230447
0.658845 0.230752 0.217248
0.993785 0.223838 0.204050
1.000000 0.216162 0.195284
0.076657 0.529125 0.201137
0.308681 0.522706 0.190486
0.643622 0.515792 0.177288
0.978562 0.508879 0.164089
1.000000 0.501445 0.154959
0.090402 0.814408 0.160812
0.293458 0.807746 0.150526
0.628399 0.800832 0.137327
0.963339 0.793919 0.124129
1.000000 0.786728 0.114635
0.100725 1.000000 0.127404
0.279261 1.000000 0.117082
0.614674 1.000000 0.103479
0.950087 1.000000 0.089876
1.000000 1.000000 0.079937
0.052591 0.001480 0.550406
0.336256 0.003834 0.538763
0.671668 0.006618 0.525160
1.000000 0.009402 0.511557
1.000000 0.009883 0.502723
0.064174 0.241944 0.515917
0.322507 0.235744 0.504936
0.657448 0.228831 0.491737
0.992388 0.221917 0.478539
1.000000 0.214264 0.469739
0.077919 0.527226 0.475593
0.307284 0.520785 0.464975
0.642224 0.513871 0.451777
0.977165 0.506958 0.438578
1.000000 0.499547 0.429415
0.091664 0.812509 0.435268
0.292061 0.805825 0.425015
0.627001 0.798911 0.411816
0.961942 0.791998 0.398618
1.000000 0.784830 0.389090
0.102118 1.000000 0.401747
0.277995 1.000000 0.391459
0.613408 1.000000 0.377856
0.948821 1.000000 0.364253
1.000000 1.000000 0.354392
0.053983 0.002276 0.824749
0.334990 0.004608 0.813140
0.670403 0.007391 0.799537
1.000000 0.010175 0.785934
1.000000 0.010679 0.777066
0.065435 0.240045 0.790373
0.321110 0.233823 0.779425
0.656050 0.226910 0.766226
0.990991 0.219996 0.753028
1.000000 0.212365 0.744195
0.079180 0.525328 0.750048
0.305887 0.518864 0.739464
0.640827 0.511950 0.726266
0.975768 0.505037 0.713067
1.000000 0.497648 0.703870
0.092925 0.810611 0.709723
0.290664 0.803904 0.699504
0.625604 0.796990 0.686305
0.960545 0.790077 0.673107
1.000000 0.782931 0.663546
0.103511 1.000000 0.676090
0.276729 1.000000 0.665835
0.612142 1.000000 0.652232
0.947446 1.000000 0.638722
1.000000 1.000000 0.628848
0.055054 0.002888 1.000000
0.333814 0.005224 1.000000
0.669274 0.008035 1.000000
1.000000 0.010841 1.000000
1.000000 0.011364 1.000000
0.066517 0.238409 1.000000
0.319908 0.232171 1.000000
0.654848 0.225257 1.000000
0.989789 0.218344 0.989216
1.000000 0.210731 0.980354
0.080266 0.523694 0.986207
0.304685 0.517211 0.975652
0.639625 0.510297 0.962454
0.974566 0.503384 0.949255
1.000000 0.496014 0.940030
0.094011 0.808977 0.945883
0.289461 0.802251 0.935692
0.624402 0.795337 0.922493
0.959343 0.788424 0.909295
1.000000 0.781297 0.899705
0.104709 1.000000 0.912152
0.275640 1.000000 0.901927
0.611053 1.000000 0.888324
0.946244 1.000000 0.874910
1.000000 1.000000 0.865007
