assets/luts/super8.cube
# Super 8 — Studio filter "super8"
# Generated by scripts/generate-filter-luts.mjs — do not edit by hand.
LUT_3D_SIZE 17
DOMAIN_MIN 0.0 0.0 0.0
DOMAIN_MAX 1.0 1.0 1.0
0.131600 0.100800 0.059200
0.192328 0.102334 0.060455
0.249113 0.103769 0.061629
0.304498 0.105169 0.062774
0.358994 0.106546 0.063901
0.412838 0.107906 0.065014
0.466169 0.109254 0.066117
0.519075 0.110591 0.067211
0.571622 0.111919 0.068297
0.623856 0.113238 0.069377
0.675814 0.114551 0.070451
0.727525 0.115858 0.071520
0.779012 0.117159 0.072585
0.830295 0.118455 0.073645
0.881390 0.119746 0.074701
0.932311 0.121033 0.075754
0.983071 0.122315 0.076803
0.137231 0.165016 0.063424
0.197959 0.166551 0.064679
0.254744 0.167985 0.065853
0.310129 0.169385 0.066998
0.364626 0.170762 0.068125
0.418470 0.172123 0.069238
0.471800 0.173470 0.070340
0.524707 0.174807 0.071434
0.577254 0.176135 0.072521
0.629488 0.177455 0.073600
0.681446 0.178767 0.074675
0.733156 0.180074 0.075744
0.784643 0.181375 0.076808
0.835926 0.182671 0.077868
0.887021 0.183962 0.078925
0.937943 0.185249 0.079977
0.988702 0.186531 0.081027
0.142497 0.225062 0.067373
0.203225 0.226597 0.068628
0.260010 0.228032 0.069802
0.315395 0.229431 0.070947
0.369891 0.230808 0.072074
0.423736 0.232169 0.073187
0.477066 0.233516 0.074290
0.529973 0.234853 0.075383
0.582519 0.236181 0.076470
0.634753 0.237501 0.077550
0.686711 0.238814 0.078624
0.738422 0.240120 0.079693
0.789909 0.241421 0.080757
0.841192 0.242717 0.081818
0.892287 0.244008 0.082874
0.943208 0.245295 0.083927
0.993968 0.246577 0.084976
0.147633 0.283629 0.071225
0.208361 0.285164 0.072480
0.265146 0.286598 0.073654
0.320531 0.287998 0.074799
0.375027 0.289375 0.075926
0.428872 0.290735 0.077039
0.482202 0.292083 0.078142
0.535109 0.293420 0.079235
0.587655 0.294748 0.080322
0.639889 0.296067 0.081402
0.691847 0.297380 0.082476
0.743558 0.298687 0.083545
0.795045 0.299988 0.084609
0.846328 0.301284 0.085670
0.897423 0.302575 0.086726
0.948344 0.303862 0.087779
0.999104 0.305144 0.088828
0.152687 0.341255 0.075015
0.213415 0.342790 0.076270
0.270199 0.344225 0.077444
0.325585 0.345624 0.078589
0.380081 0.347001 0.079716
0.433925 0.348362 0.080829
0.487255 0.349709 0.081932
0.540162 0.351046 0.083026
0.592709 0.352374 0.084112
0.644943 0.353694 0.085192
0.696901 0.355007 0.086266
0.748611 0.356313 0.087335
0.800098 0.357614 0.088400
0.851381 0.358910 0.089460
0.902476 0.360201 0.090516
0.953398 0.361488 0.091569
1.000000 0.362771 0.092618
0.157680 0.398192 0.078760
0.218408 0.399727 0.080015
0.275192 0.401162 0.081189
0.330578 0.402561 0.082334
0.385074 0.403938 0.083461
0.438918 0.405299 0.084574
0.492248 0.406646 0.085677
0.545155 0.407983 0.086770
0.597702 0.409311 0.087857
0.649936 0.410631 0.088937
0.701894 0.411944 0.090011
0.753604 0.413250 0.091080
0.805091 0.414551 0.092144
0.856374 0.415847 0.093205
0.907469 0.417138 0.094261
0.958391 0.418425 0.095314
1.000000 0.419707 0.096363
0.162625 0.454586 0.082469
0.223353 0.456120 0.083724
0.280138 0.457555 0.084898
0.335523 0.458955 0.086043
0.390019 0.460332 0.087170
0.443863 0.461692 0.088283
0.497194 0.463040 0.089386
0.550100 0.464377 0.090479
0.602647 0.465704 0.091566
0.654881 0.467024 0.092646
0.706839 0.468337 0.093720
0.758550 0.469644 0.094789
0.810037 0.470945 0.095853
0.861320 0.472241 0.096914
0.912415 0.473532 0.097970
0.963336 0.474818 0.099023
1.000000 0.476101 0.100072
0.167531 0.510531 0.086148
0.228259 0.512066 0.087404
0.285044 0.513501 0.088578
0.340429 0.514900 0.089723
0.394925 0.516277 0.090849
0.448770 0.517638 0.091963
0.502100 0.518985 0.093065
0.555007 0.520322 0.094159
0.607553 0.521650 0.095245
0.659787 0.522970 0.096325
0.711745 0.524283 0.097399
0.763456 0.525589 0.098468
0.814943 0.526890 0.099533
0.866226 0.528186 0.100593
0.917321 0.529477 0.101649
0.968242 0.530764 0.102702
1.000000 0.532047 0.103752
0.172404 0.566096 0.089803
0.233132 0.567631 0.091058
0.289916 0.569066 0.092232
0.345302 0.570465 0.093377
0.399798 0.571842 0.094504
0.453642 0.573203 0.095617
0.506973 0.574550 0.096720
0.559879 0.575887 0.097814
0.612426 0.577215 0.098900
0.664660 0.578535 0.099980
0.716618 0.579848 0.101054
0.768329 0.581154 0.102123
0.819816 0.582455 0.103187
0.871098 0.583751 0.104248
0.922194 0.585042 0.105304
0.973115 0.586329 0.106357
1.000000 0.587612 0.107406
0.177248 0.621331 0.093436
0.237976 0.622865 0.094691
0.294760 0.624300 0.095865
0.350146 0.625700 0.097010
0.404642 0.627077 0.098137
0.458486 0.628437 0.099250
0.511816 0.629785 0.100353
0.564723 0.631122 0.101446
0.617270 0.632449 0.102533
0.669504 0.633769 0.103613
0.721462 0.635082 0.104687
0.773172 0.636389 0.105756
0.824659 0.637690 0.106820
0.875942 0.638986 0.107880
0.927037 0.640277 0.108937
0.977959 0.641563 0.109990
1.000000 0.642846 0.111039
0.182066 0.676273 0.097049
0.242794 0.677808 0.098305
0.299578 0.679242 0.099479
0.354964 0.680642 0.100624
0.409460 0.682019 0.101750
0.463304 0.683379 0.102864
0.516634 0.684727 0.103966
0.569541 0.686064 0.105060
0.622088 0.687392 0.106146
0.674322 0.688711 0.107226
0.726280 0.690024 0.108300
0.777991 0.691331 0.109369
0.829478 0.692632 0.110434
0.880760 0.693928 0.111494
0.931855 0.695219 0.112550
0.982777 0.696506 0.113603
1.000000 0.697788 0.114653
0.186861 0.730954 0.100646
0.247589 0.732488 0.101901
0.304373 0.733923 0.103075
0.359759 0.735323 0.104220
0.414255 0.736700 0.105347
0.468099 0.738060 0.106460
0.521430 0.739408 0.107563
0.574336 0.740745 0.108656
0.626883 0.742072 0.109743
0.679117 0.743392 0.110823
0.731075 0.744705 0.111897
0.782786 0.746012 0.112966
0.834273 0.747313 0.114030
0.885556 0.748609 0.115090
0.936651 0.749900 0.116147
0.987572 0.751186 0.117200
1.000000 0.752469 0.118249
0.191635 0.785398 0.104227
0.252363 0.786933 0.105482
0.309148 0.788367 0.106656
0.364533 0.789767 0.107801
0.419030 0.791144 0.108928
0.472874 0.792505 0.110041
0.526204 0.793852 0.111143
0.579111 0.795189 0.112237
0.631658 0.796517 0.113324
0.683892 0.797837 0.114403
0.735850 0.799149 0.115478
0.787560 0.800456 0.116547
0.839047 0.801757 0.117611
0.890330 0.803053 0.118671
0.941425 0.804344 0.119728
0.992347 0.805631 0.120780
1.000000 0.806913 0.121830
0.196391 0.839627 0.107793
0.257119 0.841161 0.109049
0.313903 0.842596 0.110223
0.369289 0.843995 0.111368
0.423785 0.845372 0.112494
0.477629 0.846733 0.113607
0.530960 0.848080 0.114710
0.583866 0.849417 0.115804
0.636413 0.850745 0.116890
0.688647 0.852065 0.117970
0.740605 0.853378 0.119044
0.792316 0.854684 0.120113
0.843803 0.855985 0.121178
0.895085 0.857281 0.122238
0.946181 0.858572 0.123294
0.997102 0.859859 0.124347
1.000000 0.861142 0.125396
0.201129 0.893656 0.111347
0.261857 0.895191 0.112602
0.318642 0.896626 0.113776
0.374027 0.898025 0.114921
0.428523 0.899402 0.116048
0.482367 0.900763 0.117161
0.535698 0.902110 0.118264
0.588605 0.903447 0.119357
0.641151 0.904775 0.120444
0.693385 0.906095 0.121524
0.745343 0.907408 0.122598
0.797054 0.908714 0.123667
0.848541 0.910015 0.124731
0.899824 0.911311 0.125792
0.950919 0.912602 0.126848
1.000000 0.913889 0.127901
1.000000 0.915172 0.128950
0.205851 0.947503 0.114888
0.266579 0.949037 0.116144
0.323364 0.950472 0.117318
0.378749 0.951872 0.118463
0.433245 0.953249 0.119589
0.487089 0.954609 0.120703
0.540420 0.955957 0.121805
0.593327 0.957294 0.122899
0.645873 0.958621 0.123985
0.698107 0.959941 0.125065
0.750065 0.961254 0.126139
0.801776 0.962561 0.127208
0.853263 0.963862 0.128273
0.904546 0.965157 0.129333
0.955641 0.966449 0.130389
1.000000 0.967735 0.131442
1.000000 0.969018 0.132492
0.210558 1.000000 0.118419
0.271286 1.000000 0.119674
0.328071 1.000000 0.120848
0.383456 1.000000 0.121993
0.437952 1.000000 0.123120
0.491797 1.000000 0.124233
0.545127 1.000000 0.125335
0.598034 1.000000 0.126429
0.650580 1.000000 0.127516
0.702814 1.000000 0.128595
0.754772 1.000000 0.129670
0.806483 1.000000 0.130739
0.857970 1.000000 0.131803
0.909253 1.000000 0.132863
0.960348 1.000000 0.133920
1.000000 1.000000 0.134972
1.000000 1.000000 0.136022
0.132168 0.101321 0.118680
0.192896 0.102856 0.119936
0.249681 0.104290 0.121110
0.305067 0.105690 0.122255
0.359563 0.107067 0.123382
0.413407 0.108428 0.124495
0.466737 0.109775 0.125597
0.519644 0.111112 0.126691
0.572191 0.112440 0.127777
0.624425 0.113760 0.128857
0.676383 0.115072 0.129931
0.728093 0.116379 0.131001
0.779580 0.117680 0.132065
0.830863 0.118976 0.133125
0.881958 0.120267 0.134182
0.932880 0.121554 0.135234
0.983640 0.122836 0.136284
0.137800 0.165537 0.122904
0.198528 0.167072 0.124159
0.255312 0.168507 0.125333
0.310698 0.169906 0.126478
0.365194 0.171283 0.127605
0.419038 0.172644 0.128718
0.472369 0.173991 0.129821
0.525275 0.175328 0.130915
0.577822 0.176656 0.132001
0.630056 0.177976 0.133081
0.682014 0.179289 0.134155
0.733725 0.180595 0.135224
0.785212 0.181896 0.136288
0.836494 0.183192 0.137349
0.887590 0.184483 0.138405
0.938511 0.185770 0.139458
0.989271 0.187052 0.140507
0.143066 0.225583 0.126853
0.203794 0.227118 0.128109
0.260578 0.228553 0.129283
0.315964 0.229952 0.130428
0.370460 0.231329 0.131554
0.424304 0.232690 0.132668
0.477634 0.234037 0.133770
0.530541 0.235374 0.134864
0.583088 0.236702 0.135950
0.635322 0.238022 0.137030
0.687280 0.239335 0.138104
0.738990 0.240641 0.139173
0.790477 0.241942 0.140238
0.841760 0.243238 0.141298
0.892855 0.244529 0.142354
0.943777 0.245816 0.143407
0.994537 0.247099 0.144456
0.148202 0.284150 0.130705
0.208930 0.285685 0.131961
0.265714 0.287120 0.133135
0.321100 0.288519 0.134280
0.375596 0.289896 0.135406
0.429440 0.291257 0.136520
0.482770 0.292604 0.137622
0.535677 0.293941 0.138716
0.588224 0.295269 0.139802
0.640458 0.296589 0.140882
0.692416 0.297901 0.141956
0.744126 0.299208 0.143025
0.795613 0.300509 0.144090
0.846896 0.301805 0.145150
0.897991 0.303096 0.146206
0.948913 0.304383 0.147259
0.999673 0.305665 0.148308
0.153255 0.341777 0.134495
0.213983 0.343311 0.135751
0.270768 0.344746 0.136925
0.326153 0.346145 0.138070
0.380649 0.347522 0.139196
0.434494 0.348883 0.140310
0.487824 0.350230 0.141412
0.540731 0.351567 0.142506
0.593277 0.352895 0.143592
0.645511 0.354215 0.144672
0.697469 0.355528 0.145746
0.749180 0.356834 0.146815
0.800667 0.358135 0.147880
0.851950 0.359431 0.148940
0.903045 0.360722 0.149996
0.953966 0.362009 0.151049
1.000000 0.363292 0.152099
0.158248 0.398713 0.138240
0.218976 0.400248 0.139496
0.275761 0.401683 0.140670
0.331146 0.403082 0.141815
0.385642 0.404459 0.142941
0.439487 0.405820 0.144054
0.492817 0.407167 0.145157
0.545724 0.408504 0.146251
0.598270 0.409832 0.147337
0.650504 0.411152 0.148417
0.702462 0.412465 0.149491
0.754173 0.413771 0.150560
0.805660 0.415072 0.151625
0.856943 0.416368 0.152685
0.908038 0.417659 0.153741
0.958959 0.418946 0.154794
1.000000 0.420229 0.155843
0.163194 0.455107 0.141949
0.223922 0.456641 0.143205
0.280706 0.458076 0.144379
0.336092 0.459476 0.145524
0.390588 0.460853 0.146650
0.444432 0.462213 0.147763
0.497762 0.463561 0.148866
0.550669 0.464898 0.149960
0.603216 0.466226 0.151046
0.655450 0.467545 0.152126
0.707408 0.468858 0.153200
0.759118 0.470165 0.154269
0.810605 0.471466 0.155334
0.861888 0.472762 0.156394
0.912983 0.474053 0.157450
0.963905 0.475339 0.158503
1.000000 0.476622 0.159552
0.168100 0.511053 0.145629
0.228828 0.512587 0.146884
0.285612 0.514022 0.148058
0.340998 0.515421 0.149203
0.395494 0.516798 0.150330
0.449338 0.518159 0.151443
0.502668 0.519507 0.152546
0.555575 0.520843 0.153639
0.608122 0.522171 0.154726
0.660356 0.523491 0.155806
0.712314 0.524804 0.156880
0.764024 0.526111 0.157949
0.815511 0.527412 0.159013
0.866794 0.528707 0.160074
0.917889 0.529998 0.161130
0.968811 0.531285 0.162183
1.000000 0.532568 0.163232
0.172972 0.566618 0.149283
0.233700 0.568152 0.150539
0.290485 0.569587 0.151713
0.345870 0.570986 0.152858
0.400367 0.572363 0.153984
0.454211 0.573724 0.155098
0.507541 0.575072 0.156200
0.560448 0.576408 0.157294
0.612995 0.577736 0.158380
0.665229 0.579056 0.159460
0.717187 0.580369 0.160534
0.768897 0.581676 0.161603
0.820384 0.582977 0.162668
0.871667 0.584272 0.163728
0.922762 0.585563 0.164784
0.973683 0.586850 0.165837
1.000000 0.588133 0.166887
0.177816 0.621852 0.152916
0.238544 0.623386 0.154172
0.295329 0.624821 0.155346
0.350714 0.626221 0.156491
0.405210 0.627598 0.157617
0.459055 0.628958 0.158730
0.512385 0.630306 0.159833
0.565292 0.631643 0.160927
0.617838 0.632970 0.162013
0.670072 0.634290 0.163093
0.722030 0.635603 0.164167
0.773741 0.636910 0.165236
0.825228 0.638211 0.166301
0.876511 0.639507 0.167361
0.927606 0.640798 0.168417
0.978527 0.642084 0.169470
1.000000 0.643367 0.170519
0.182634 0.676794 0.156530
0.243362 0.678329 0.157785
0.300147 0.679764 0.158959
0.355532 0.681163 0.160104
0.410028 0.682540 0.161231
0.463873 0.683901 0.162344
0.517203 0.685248 0.163447
0.570110 0.686585 0.164540
0.622656 0.687913 0.165627
0.674891 0.689233 0.166707
0.726848 0.690545 0.167781
0.778559 0.691852 0.168850
0.830046 0.693153 0.169914
0.881329 0.694449 0.170974
0.932424 0.695740 0.172031
0.983345 0.697027 0.173084
1.000000 0.698309 0.174133
0.187429 0.731475 0.160126
0.248157 0.733009 0.161382
0.304942 0.734444 0.162556
0.360327 0.735844 0.163701
0.414824 0.737221 0.164827
0.468668 0.738581 0.165940
0.521998 0.739929 0.167043
0.574905 0.741266 0.168137
0.627452 0.742594 0.169223
0.679686 0.743913 0.170303
0.731644 0.745226 0.171377
0.783354 0.746533 0.172446
0.834841 0.747834 0.173511
0.886124 0.749130 0.174571
0.937219 0.750421 0.175627
0.988141 0.751708 0.176680
1.000000 0.752990 0.177729
0.192204 0.785919 0.163707
0.252932 0.787454 0.164962
0.309716 0.788889 0.166136
0.365102 0.790288 0.167281
0.419598 0.791665 0.168408
0.473442 0.793026 0.169521
0.526773 0.794373 0.170624
0.579679 0.795710 0.171718
0.632226 0.797038 0.172804
0.684460 0.798358 0.173884
0.736418 0.799671 0.174958
0.788129 0.800977 0.176027
0.839616 0.802278 0.177091
0.890898 0.803574 0.178152
0.941994 0.804865 0.179208
0.992915 0.806152 0.180261
1.000000 0.807434 0.181310
0.196959 0.840148 0.167274
0.257687 0.841682 0.168529
0.314472 0.843117 0.169703
0.369857 0.844516 0.170848
0.424354 0.845893 0.171975
0.478198 0.847254 0.173088
0.531528 0.848602 0.174190
0.584435 0.849938 0.175284
0.636982 0.851266 0.176371
0.689216 0.852586 0.177450
0.741174 0.853899 0.178525
0.792884 0.855206 0.179594
0.844371 0.856507 0.180658
0.895654 0.857802 0.181718
0.946749 0.859093 0.182775
0.997671 0.860380 0.183827
1.000000 0.861663 0.184877
0.201698 0.894178 0.170827
0.262426 0.895712 0.172083
0.319210 0.897147 0.173257
0.374596 0.898546 0.174402
0.429092 0.899923 0.175528
0.482936 0.901284 0.176641
0.536266 0.902632 0.177744
0.589173 0.903968 0.178838
0.641720 0.905296 0.179924
0.693954 0.906616 0.181004
0.745912 0.907929 0.182078
0.797622 0.909236 0.183147
0.849109 0.910536 0.184212
0.900392 0.911832 0.185272
0.951487 0.913123 0.186328
1.000000 0.914410 0.187381
1.000000 0.915693 0.188430
0.206420 0.948024 0.174369
0.267148 0.949558 0.175624
0.323932 0.950993 0.176798
0.379318 0.952393 0.177943
0.433814 0.953770 0.179070
0.487658 0.955130 0.180183
0.540988 0.956478 0.181286
0.593895 0.957815 0.182379
0.646442 0.959142 0.183466
0.698676 0.960462 0.184546
0.750634 0.961775 0.185620
0.802344 0.963082 0.186689
0.853831 0.964383 0.187753
0.905114 0.965679 0.188813
0.956209 0.966970 0.189870
1.000000 0.968256 0.190923
1.000000 0.969539 0.191972
0.211127 1.000000 0.177899
0.271855 1.000000 0.179154
0.328639 1.000000 0.180328
0.384025 1.000000 0.181473
0.438521 1.000000 0.182600
0.492365 1.000000 0.183713
0.545695 1.000000 0.184816
0.598602 1.000000 0.185910
0.651149 1.000000 0.186996
0.703383 1.000000 0.188076
0.755341 1.000000 0.189150
0.807051 1.000000 0.190219
0.858538 1.000000 0.191284
0.909821 1.000000 0.192344
0.960916 1.000000 0.193400
1.000000 1.000000 0.194453
1.000000 1.000000 0.195502
0.132700 0.101808 0.174298
0.193428 0.103343 0.175554
0.250213 0.104778 0.176728
0.305598 0.106177 0.177873
0.360094 0.107554 0.178999
0.413939 0.108915 0.180113
0.467269 0.110262 0.181215
0.520176 0.111599 0.182309
0.572722 0.112927 0.183395
0.624956 0.114247 0.184475
0.676914 0.115560 0.185549
0.728625 0.116866 0.186618
0.780112 0.118167 0.187683
0.831395 0.119463 0.188743
0.882490 0.120754 0.189799
0.933411 0.122041 0.190852
0.984171 0.123324 0.191902
0.138331 0.166025 0.178522
0.199059 0.167559 0.179777
0.255844 0.168994 0.180951
0.311230 0.170393 0.182096
0.365726 0.171770 0.183223
0.419570 0.173131 0.184336
0.472900 0.174478 0.185439
0.525807 0.175815 0.186533
0.578354 0.177143 0.187619
0.630588 0.178463 0.188699
0.682546 0.179776 0.189773
0.734256 0.181082 0.190842
0.785743 0.182383 0.191906
0.837026 0.183679 0.192967
0.888121 0.184970 0.194023
0.939043 0.186257 0.195076
0.989803 0.187540 0.196125
0.143597 0.226071 0.182471
0.204325 0.227605 0.183727
0.261110 0.229040 0.184901
0.316495 0.230439 0.186046
0.370991 0.231817 0.187172
0.424836 0.233177 0.188285
0.478166 0.234525 0.189388
0.531073 0.235861 0.190482
0.583619 0.237189 0.191568
0.635854 0.238509 0.192648
0.687811 0.239822 0.193722
0.739522 0.241129 0.194791
0.791009 0.242430 0.195856
0.842292 0.243725 0.196916
0.893387 0.245016 0.197972
0.944308 0.246303 0.199025
0.995068 0.247586 0.200074
0.148733 0.284637 0.186323
0.209461 0.286172 0.187579
0.266246 0.287607 0.188753
0.321631 0.289006 0.189898
0.376127 0.290383 0.191024
0.429972 0.291744 0.192137
0.483302 0.293091 0.193240
0.536209 0.294428 0.194334
0.588755 0.295756 0.195420
0.640990 0.297076 0.196500
0.692947 0.298389 0.197574
0.744658 0.299695 0.198643
0.796145 0.300996 0.199708
0.847428 0.302292 0.200768
0.898523 0.303583 0.201824
0.949444 0.304870 0.202877
1.000000 0.306153 0.203926
0.153787 0.342264 0.190113
0.214515 0.343798 0.191369
0.271299 0.345233 0.192543
0.326685 0.346633 0.193688
0.381181 0.348010 0.194814
0.435025 0.349370 0.195928
0.488355 0.350718 0.197030
0.541262 0.352055 0.198124
0.593809 0.353382 0.199210
0.646043 0.354702 0.200290
0.698001 0.356015 0.201364
0.749712 0.357322 0.202433
0.801198 0.358623 0.203498
0.852481 0.359919 0.204558
0.903576 0.361210 0.205614
0.954498 0.362496 0.206667
1.000000 0.363779 0.207717
0.158780 0.399201 0.193858
0.219508 0.400735 0.195114
0.276292 0.402170 0.196287
0.331678 0.403570 0.197433
0.386174 0.404947 0.198559
0.440018 0.406307 0.199672
0.493348 0.407655 0.200775
0.546255 0.408992 0.201869
0.598802 0.410319 0.202955
0.651036 0.411639 0.204035
0.702994 0.412952 0.205109
0.754705 0.414259 0.206178
0.806191 0.415560 0.207243
0.857474 0.416855 0.208303
0.908569 0.418147 0.209359
0.959491 0.419433 0.210412
1.000000 0.420716 0.211461
0.163725 0.455594 0.197567
0.224453 0.457129 0.198823
0.281238 0.458564 0.199997
0.336623 0.459963 0.201142
0.391119 0.461340 0.202268
0.444964 0.462701 0.203381
0.498294 0.464048 0.204484
0.551201 0.465385 0.205578
0.603747 0.466713 0.206664
0.655981 0.468033 0.207744
0.707939 0.469346 0.208818
0.759650 0.470652 0.209887
0.811137 0.471953 0.210952
0.862420 0.473249 0.212012
0.913515 0.474540 0.213068
0.964436 0.475827 0.214121
1.000000 0.477109 0.215170
0.168631 0.511540 0.201247
0.229359 0.513074 0.202502
0.286144 0.514509 0.203676
0.341529 0.515909 0.204821
0.396025 0.517286 0.205948
0.449870 0.518646 0.207061
0.503200 0.519994 0.208164
0.556107 0.521331 0.209257
0.608653 0.522658 0.210344
0.660888 0.523978 0.211424
0.712845 0.525291 0.212498
0.764556 0.526598 0.213567
0.816043 0.527899 0.214631
0.867326 0.529195 0.215691
0.918421 0.530486 0.216748
0.969342 0.531772 0.217801
1.000000 0.533055 0.218850
0.173504 0.567105 0.204901
0.234232 0.568639 0.206157
0.291016 0.570074 0.207331
0.346402 0.571474 0.208476
0.400898 0.572851 0.209602
0.454742 0.574211 0.210716
0.508073 0.575559 0.211818
0.560979 0.576896 0.212912
0.613526 0.578223 0.213998
0.665760 0.579543 0.215078
0.717718 0.580856 0.216152
0.769429 0.582163 0.217221
0.820916 0.583464 0.218286
0.872199 0.584760 0.219346
0.923294 0.586051 0.220402
0.974215 0.587337 0.221455
1.000000 0.588620 0.222504
0.178348 0.622339 0.208534
0.239076 0.623874 0.209790
0.295860 0.625309 0.210963
0.351246 0.626708 0.212109
0.405742 0.628085 0.213235
0.459586 0.629446 0.214348
0.512916 0.630793 0.215451
0.565823 0.632130 0.216545
0.618370 0.633458 0.217631
0.670604 0.634778 0.218711
0.722562 0.636091 0.219785
0.774273 0.637397 0.220854
0.825759 0.638698 0.221919
0.877042 0.639994 0.222979
0.928137 0.641285 0.224035
0.979059 0.642572 0.225088
1.000000 0.643854 0.226137
0.183166 0.677281 0.212148
0.243894 0.678816 0.213403
0.300678 0.680251 0.214577
0.356064 0.681650 0.215722
0.410560 0.683027 0.216849
0.464404 0.684388 0.217962
0.517735 0.685735 0.219064
0.570641 0.687072 0.220158
0.623188 0.688400 0.221245
0.675422 0.689720 0.222325
0.727380 0.691033 0.223399
0.779091 0.692339 0.224468
0.830578 0.693640 0.225532
0.881860 0.694936 0.226592
0.932955 0.696227 0.227649
0.983877 0.697514 0.228701
1.000000 0.698797 0.229751
0.187961 0.731962 0.215744
0.248689 0.733497 0.217000
0.305474 0.734932 0.218173
0.360859 0.736331 0.219319
0.415355 0.737708 0.220445
0.469199 0.739069 0.221558
0.522530 0.740416 0.222661
0.575436 0.741753 0.223755
0.627983 0.743081 0.224841
0.680217 0.744401 0.225921
0.732175 0.745714 0.226995
0.783886 0.747020 0.228064
0.835373 0.748321 0.229129
0.886656 0.749617 0.230189
0.937751 0.750908 0.231245
0.988672 0.752195 0.232298
1.000000 0.753477 0.233347
0.192735 0.786407 0.219325
0.253463 0.787941 0.220580
0.310248 0.789376 0.221754
0.365634 0.790775 0.222899
0.420130 0.792152 0.224026
0.473974 0.793513 0.225139
0.527304 0.794860 0.226242
0.580211 0.796197 0.227336
0.632758 0.797525 0.228422
0.684992 0.798845 0.229502
0.736950 0.800158 0.230576
0.788660 0.801464 0.231645
0.840147 0.802765 0.232709
0.891430 0.804061 0.233770
0.942525 0.805352 0.234826
0.993447 0.806639 0.235879
1.000000 0.807922 0.236928
0.197491 0.840635 0.222891
0.258219 0.842169 0.224147
0.315004 0.843604 0.225321
0.370389 0.845004 0.226466
0.424885 0.846381 0.227593
0.478729 0.847741 0.228706
0.532060 0.849089 0.229808
0.584966 0.850426 0.230902
0.637513 0.851753 0.231989
0.689747 0.853073 0.233068
0.741705 0.854386 0.234143
0.793416 0.855693 0.235212
0.844903 0.856994 0.236276
0.896186 0.858290 0.237336
0.947281 0.859581 0.238393
0.998202 0.860867 0.239445
1.000000 0.862150 0.240495
0.202229 0.894665 0.226445
0.262957 0.896199 0.227701
0.319742 0.897634 0.228875
0.375127 0.899034 0.230020
0.429623 0.900411 0.231146
0.483468 0.901771 0.232259
0.536798 0.903119 0.233362
0.589705 0.904456 0.234456
0.642251 0.905783 0.235542
0.694485 0.907103 0.236622
0.746443 0.908416 0.237696
0.798154 0.909723 0.238765
0.849641 0.911024 0.239830
0.900924 0.912320 0.240890
0.952019 0.913611 0.241946
1.000000 0.914897 0.242999
1.000000 0.916180 0.244048
0.206951 0.948511 0.229987
0.267679 0.950046 0.231242
0.324464 0.951480 0.232416
0.379849 0.952880 0.233561
0.434345 0.954257 0.234688
0.488190 0.955618 0.235801
0.541520 0.956965 0.236903
0.594427 0.958302 0.237997
0.646973 0.959630 0.239084
0.699207 0.960950 0.240163
0.751165 0.962262 0.241238
0.802876 0.963569 0.242307
0.854363 0.964870 0.243371
0.905646 0.966166 0.244431
0.956741 0.967457 0.245488
1.000000 0.968744 0.246540
1.000000 0.970026 0.247590
0.211658 1.000000 0.233517
0.272386 1.000000 0.234772
0.329171 1.000000 0.235946
0.384556 1.000000 0.237091
0.439052 1.000000 0.238218
0.492897 1.000000 0.239331
0.546227 1.000000 0.240434
0.599134 1.000000 0.241528
0.651680 1.000000 0.242614
0.703915 1.000000 0.243694
0.755872 1.000000 0.244768
0.807583 1.000000 0.245837
0.859070 1.000000 0.246901
0.910353 1.000000 0.247962
0.961448 1.000000 0.249018
1.000000 1.000000 0.250071
1.000000 1.000000 0.251120
0.133219 0.102284 0.228546
0.193947 0.103818 0.229801
0.250731 0.105253 0.230975
0.306117 0.106652 0.232120
0.360613 0.108030 0.233247
0.414457 0.109390 0.234360
0.467787 0.110738 0.235463
0.520694 0.112074 0.236557
0.573241 0.113402 0.237643
0.625475 0.114722 0.238723
0.677433 0.116035 0.239797
0.729143 0.117342 0.240866
0.780630 0.118643 0.241931
0.831913 0.119938 0.242991
0.883008 0.121229 0.244047
