assets/luts/super8.cube
# Super 8 — Studio filter "super8"
# Generated by scripts/generate-filter-luts.mjs — do not edit by hand.
LUT_3D_SIZE 5
DOMAIN_MIN 0.0 0.0 0.0
DOMAIN_MAX 1.0 1.0 1.0
0.131600 0.100800 0.059200
0.358994 0.106546 0.063901
0.571622 0.111919 0.068297
0.779012 0.117159 0.072585
0.983071 0.122315 0.076803
0.152687 0.341255 0.075015
0.380081 0.347001 0.079716
0.592709 0.352374 0.084112
0.800098 0.357614 0.088400
1.000000 0.362771 0.092618
0.172404 0.566096 0.089803
0.399798 0.571842 0.094504
0.612426 0.577215 0.098900
0.819816 0.582455 0.103187
1.000000 0.587612 0.107406
0.191635 0.785398 0.104227
0.419030 0.791144 0.108928
0.631658 0.796517 0.113324
0.839047 0.801757 0.117611
1.000000 0.806913 0.121830
0.210558 1.000000 0.118419
0.437952 1.000000 0.123120
0.650580 1.000000 0.127516
0.857970 1.000000 0.131803
1.000000 1.000000 0.136022
0.133729 0.102751 0.281923
0.361123 0.108497 0.286624
0.573751 0.113870 0.291020
0.781141 0.119110 0.295307
0.985200 0.124266 0.299526
0.154815 0.343207 0.297737
0.382210 0.348953 0.302439
0.594838 0.354325 0.306834
0.802227 0.359566 0.311122
1.000000 0.364722 0.315341
0.174533 0.568048 0.312525
0.401927 0.573794 0.317227
0.614555 0.579166 0.321622
0.821944 0.584407 0.325910
1.000000 0.589563 0.330129
0.193764 0.787349 0.326949
0.421158 0.793095 0.331650
0.633786 0.798468 0.336046
0.841176 0.803708 0.340334
1.000000 0.808865 0.344552
0.212687 1.000000 0.341141
0.440081 1.000000 0.345842
0.652709 1.000000 0.350238
0.860099 1.000000 0.354526
1.000000 1.000000 0.358744
0.135719 0.104576 0.490182
0.363113 0.110322 0.494883
0.575741 0.115694 0.499279
0.783131 0.120935 0.503567
0.987190 0.126091 0.507786
0.156806 0.345031 0.505997
0.384200 0.350777 0.510698
0.596828 0.356150 0.515094
0.804218 0.361390 0.519382
1.000000 0.366546 0.523601
0.176523 0.569872 0.520785
0.403917 0.575618 0.525486
0.616545 0.580991 0.529882
0.823935 0.586231 0.534170
1.000000 0.591388 0.538388
0.195755 0.789174 0.535209
0.423149 0.794920 0.539910
0.635777 0.800293 0.544306
0.843166 0.805533 0.548593
1.000000 0.810689 0.552812
0.214677 1.000000 0.549401
0.442071 1.000000 0.554102
0.654700 1.000000 0.558498
0.862089 1.000000 0.562785
1.000000 1.000000 0.567004
0.137661 0.106356 0.693311
0.365055 0.112101 0.698012
0.577683 0.117474 0.702408
0.785072 0.122714 0.706696
0.989132 0.127871 0.710914
0.158747 0.346811 0.709126
0.386141 0.352557 0.713827
0.598769 0.357930 0.718223
0.806159 0.363170 0.722511
1.000000 0.368326 0.726729
0.178464 0.571652 0.723914
0.405859 0.577398 0.728615
0.618487 0.582771 0.733011
0.825876 0.588011 0.737299
1.000000 0.593167 0.741517
0.197696 0.790954 0.738338
0.425090 0.796700 0.743039
0.637718 0.802072 0.747435
0.845108 0.807313 0.751722
1.000000 0.812469 0.755941
0.216619 1.000000 0.752530
0.444013 1.000000 0.757231
0.656641 1.000000 0.761627
0.864030 1.000000 0.765914
1.000000 1.000000 0.770133
0.139571 0.108107 0.893178
0.366965 0.113852 0.897879
0.579593 0.119225 0.902275
0.786983 0.124466 0.906563
0.991042 0.129622 0.910781
0.160657 0.348562 0.908993
0.388052 0.354308 0.913694
0.600680 0.359681 0.918090
0.808069 0.364921 0.922378
1.000000 0.370077 0.926596
0.180375 0.573403 0.923781
0.407769 0.579149 0.928482
0.620397 0.584522 0.932878
0.827787 0.589762 0.937166
1.000000 0.594918 0.941384
0.199606 0.792705 0.938205
0.427000 0.798451 0.942906
0.639629 0.803823 0.947302
0.847018 0.809064 0.951589
1.000000 0.814220 0.955808
0.218529 1.000000 0.952397
0.445923 1.000000 0.957098
0.658551 1.000000 0.961494
0.865941 1.000000 0.965781
1.000000 1.000000 0.970000
