assets/luts/super8.cube
# Super 8 — Studio filter "super8"
# Generated by scripts/generate-filter-luts.mjs — do not edit by hand.
LUT_3D_SIZE 9
DOMAIN_MIN 0.0 0.0 0.0
DOMAIN_MAX 1.0 1.0 1.0
0.131600 0.100800 0.059200
0.249113 0.103769 0.061629
0.358994 0.106546 0.063901
0.466169 0.109254 0.066117
0.571622 0.111919 0.068297
0.675814 0.114551 0.070451
0.779012 0.117159 0.072585
0.881390 0.119746 0.074701
0.983071 0.122315 0.076803
0.142497 0.225062 0.067373
0.260010 0.228032 0.069802
0.369891 0.230808 0.072074
0.477066 0.233516 0.074290
0.582519 0.236181 0.076470
0.686711 0.238814 0.078624
0.789909 0.241421 0.080757
0.892287 0.244008 0.082874
0.993968 0.246577 0.084976
0.152687 0.341255 0.075015
0.270199 0.344225 0.077444
0.380081 0.347001 0.079716
0.487255 0.349709 0.081932
0.592709 0.352374 0.084112
0.696901 0.355007 0.086266
0.800098 0.357614 0.088400
0.902476 0.360201 0.090516
1.000000 0.362771 0.092618
0.162625 0.454586 0.082469
0.280138 0.457555 0.084898
0.390019 0.460332 0.087170
0.497194 0.463040 0.089386
0.602647 0.465704 0.091566
0.706839 0.468337 0.093720
0.810037 0.470945 0.095853
0.912415 0.473532 0.097970
1.000000 0.476101 0.100072
0.172404 0.566096 0.089803
0.289916 0.569066 0.092232
0.399798 0.571842 0.094504
0.506973 0.574550 0.096720
0.612426 0.577215 0.098900
0.716618 0.579848 0.101054
0.819816 0.582455 0.103187
0.922194 0.585042 0.105304
1.000000 0.587612 0.107406
0.182066 0.676273 0.097049
0.299578 0.679242 0.099479
0.409460 0.682019 0.101750
0.516634 0.684727 0.103966
0.622088 0.687392 0.106146
0.726280 0.690024 0.108300
0.829478 0.692632 0.110434
0.931855 0.695219 0.112550
1.000000 0.697788 0.114653
0.191635 0.785398 0.104227
0.309148 0.788367 0.106656
0.419030 0.791144 0.108928
0.526204 0.793852 0.111143
0.631658 0.796517 0.113324
0.735850 0.799149 0.115478
0.839047 0.801757 0.117611
0.941425 0.804344 0.119728
1.000000 0.806913 0.121830
0.201129 0.893656 0.111347
0.318642 0.896626 0.113776
0.428523 0.899402 0.116048
0.535698 0.902110 0.118264
0.641151 0.904775 0.120444
0.745343 0.907408 0.122598
0.848541 0.910015 0.124731
0.950919 0.912602 0.126848
1.000000 0.915172 0.128950
0.210558 1.000000 0.118419
0.328071 1.000000 0.120848
0.437952 1.000000 0.123120
0.545127 1.000000 0.125335
0.650580 1.000000 0.127516
0.754772 1.000000 0.129670
0.857970 1.000000 0.131803
0.960348 1.000000 0.133920
1.000000 1.000000 0.136022
0.132700 0.101808 0.174298
0.250213 0.104778 0.176728
0.360094 0.107554 0.178999
0.467269 0.110262 0.181215
0.572722 0.112927 0.183395
0.676914 0.115560 0.185549
0.780112 0.118167 0.187683
0.882490 0.120754 0.189799
0.984171 0.123324 0.191902
0.143597 0.226071 0.182471
0.261110 0.229040 0.184901
0.370991 0.231817 0.187172
0.478166 0.234525 0.189388
0.583619 0.237189 0.191568
0.687811 0.239822 0.193722
0.791009 0.242430 0.195856
0.893387 0.245016 0.197972
0.995068 0.247586 0.200074
0.153787 0.342264 0.190113
0.271299 0.345233 0.192543
0.381181 0.348010 0.194814
0.488355 0.350718 0.197030
0.593809 0.353382 0.199210
0.698001 0.356015 0.201364
0.801198 0.358623 0.203498
0.903576 0.361210 0.205614
1.000000 0.363779 0.207717
0.163725 0.455594 0.197567
0.281238 0.458564 0.199997
0.391119 0.461340 0.202268
0.498294 0.464048 0.204484
0.603747 0.466713 0.206664
0.707939 0.469346 0.208818
0.811137 0.471953 0.210952
0.913515 0.474540 0.213068
1.000000 0.477109 0.215170
0.173504 0.567105 0.204901
0.291016 0.570074 0.207331
0.400898 0.572851 0.209602
0.508073 0.575559 0.211818
0.613526 0.578223 0.213998
0.717718 0.580856 0.216152
0.820916 0.583464 0.218286
0.923294 0.586051 0.220402
1.000000 0.588620 0.222504
0.183166 0.677281 0.212148
0.300678 0.680251 0.214577
0.410560 0.683027 0.216849
0.517735 0.685735 0.219064
0.623188 0.688400 0.221245
0.727380 0.691033 0.223399
0.830578 0.693640 0.225532
0.932955 0.696227 0.227649
1.000000 0.698797 0.229751
0.192735 0.786407 0.219325
0.310248 0.789376 0.221754
0.420130 0.792152 0.224026
0.527304 0.794860 0.226242
0.632758 0.797525 0.228422
0.736950 0.800158 0.230576
0.840147 0.802765 0.232709
0.942525 0.805352 0.234826
1.000000 0.807922 0.236928
0.202229 0.894665 0.226445
0.319742 0.897634 0.228875
0.429623 0.900411 0.231146
0.536798 0.903119 0.233362
0.642251 0.905783 0.235542
0.746443 0.908416 0.237696
0.849641 0.911024 0.239830
0.952019 0.913611 0.241946
1.000000 0.916180 0.244048
0.211658 1.000000 0.233517
0.329171 1.000000 0.235946
0.439052 1.000000 0.238218
0.546227 1.000000 0.240434
0.651680 1.000000 0.242614
0.755872 1.000000 0.244768
0.859070 1.000000 0.246901
0.961448 1.000000 0.249018
1.000000 1.000000 0.251120
0.133729 0.102751 0.281923
0.251241 0.105721 0.284352
0.361123 0.108497 0.286624
0.468297 0.111205 0.288839
0.573751 0.113870 0.291020
0.677943 0.116503 0.293174
0.781141 0.119110 0.295307
0.883518 0.121697 0.297424
0.985200 0.124266 0.299526
0.144626 0.227014 0.290095
0.262138 0.229983 0.292525
0.372020 0.232759 0.294797
0.479195 0.235468 0.297012
0.584648 0.238132 0.299192
0.688840 0.240765 0.301346
0.792038 0.243373 0.303480
0.894415 0.245959 0.305597
0.996097 0.248529 0.307699
0.154815 0.343207 0.297737
0.272328 0.346176 0.300167
0.382210 0.348953 0.302439
0.489384 0.351661 0.304654
0.594838 0.354325 0.306834
0.699030 0.356958 0.308989
0.802227 0.359566 0.311122
0.904605 0.362153 0.313239
1.000000 0.364722 0.315341
0.164754 0.456537 0.305191
0.282266 0.459507 0.307621
0.392148 0.462283 0.309892
0.499322 0.464991 0.312108
0.604776 0.467656 0.314288
0.708968 0.470288 0.316442
0.812166 0.472896 0.318576
0.914543 0.475483 0.320692
1.000000 0.478052 0.322795
0.174533 0.568048 0.312525
0.292045 0.571017 0.314955
0.401927 0.573794 0.317227
0.509101 0.576502 0.319442
0.614555 0.579166 0.321622
0.718747 0.581799 0.323777
0.821944 0.584407 0.325910
0.924322 0.586994 0.328027
1.000000 0.589563 0.330129
0.184194 0.678224 0.319772
0.301707 0.681194 0.322201
0.411589 0.683970 0.324473
0.518763 0.686678 0.326689
0.624217 0.689343 0.328869
0.728409 0.691976 0.331023
0.831606 0.694583 0.333156
0.933984 0.697170 0.335273
1.000000 0.699740 0.337375
0.193764 0.787349 0.326949
0.311277 0.790319 0.329379
0.421158 0.793095 0.331650
0.528333 0.795803 0.333866
0.633786 0.798468 0.336046
0.737978 0.801101 0.338200
0.841176 0.803708 0.340334
0.943554 0.806295 0.342450
1.000000 0.808865 0.344552
0.203258 0.895608 0.334069
0.320770 0.898577 0.336499
0.430652 0.901354 0.338770
0.537826 0.904062 0.340986
0.643280 0.906726 0.343166
0.747472 0.909359 0.345320
0.850670 0.911967 0.347454
0.953047 0.914554 0.349570
1.000000 0.917123 0.351673
0.212687 1.000000 0.341141
0.330199 1.000000 0.343571
0.440081 1.000000 0.345842
0.547256 1.000000 0.348058
0.652709 1.000000 0.350238
0.756901 1.000000 0.352392
0.860099 1.000000 0.354526
0.962476 1.000000 0.356642
1.000000 1.000000 0.358744
0.134732 0.103671 0.386895
0.252245 0.106640 0.389325
0.362126 0.109417 0.391596
0.469301 0.112125 0.393812
0.574754 0.114790 0.395992
0.678946 0.117422 0.398146
0.782144 0.120030 0.400280
0.884522 0.122617 0.402396
0.986203 0.125186 0.404499
0.145629 0.227933 0.395068
0.263142 0.230903 0.397498
0.373023 0.233679 0.399769
0.480198 0.236387 0.401985
0.585651 0.239052 0.404165
0.689843 0.241685 0.406319
0.793041 0.244292 0.408453
0.895419 0.246879 0.410569
0.997100 0.249448 0.412671
0.155819 0.344126 0.402710
0.273331 0.347096 0.405140
0.383213 0.349872 0.407411
0.490387 0.352580 0.409627
0.595841 0.355245 0.411807
0.700033 0.357878 0.413961
0.803230 0.360485 0.416095
0.905608 0.363072 0.418211
1.000000 0.365642 0.420313
0.165757 0.457457 0.410164
0.283270 0.460426 0.412593
0.393151 0.463203 0.414865
0.500326 0.465911 0.417081
0.605779 0.468575 0.419261
0.709971 0.471208 0.421415
0.813169 0.473816 0.423549
0.915547 0.476403 0.425665
1.000000 0.478972 0.427767
0.175536 0.568967 0.417498
0.293048 0.571937 0.419928
0.402930 0.574713 0.422199
0.510105 0.577421 0.424415
0.615558 0.580086 0.426595
0.719750 0.582719 0.428749
0.822948 0.585326 0.430883
0.925326 0.587913 0.432999
1.000000 0.590483 0.435101
0.185198 0.679144 0.424745
0.302710 0.682113 0.427174
0.412592 0.684890 0.429446
0.519766 0.687598 0.431661
0.625220 0.690263 0.433842
0.729412 0.692895 0.435996
0.832610 0.695503 0.438129
0.934987 0.698090 0.440246
1.000000 0.700659 0.442348
0.194767 0.788269 0.431922
0.312280 0.791238 0.434351
0.422162 0.794015 0.436623
0.529336 0.796723 0.438839
0.634790 0.799388 0.441019
0.738982 0.802020 0.443173
0.842179 0.804628 0.445306
0.944557 0.807215 0.447423
1.000000 0.809784 0.449525
0.204261 0.896527 0.439042
0.321774 0.899497 0.441471
0.431655 0.902273 0.443743
0.538830 0.904981 0.445959
0.644283 0.907646 0.448139
0.748475 0.910279 0.450293
0.851673 0.912886 0.452427
0.954051 0.915473 0.454543
1.000000 0.918043 0.456645
0.213690 1.000000 0.446114
0.331203 1.000000 0.448543
0.441084 1.000000 0.450815
0.548259 1.000000 0.453031
0.653712 1.000000 0.455211
0.757904 1.000000 0.457365
0.861102 1.000000 0.459498
0.963480 1.000000 0.461615
1.000000 1.000000 0.463717
0.135719 0.104576 0.490182
0.253232 0.107545 0.492612
0.363113 0.110322 0.494883
0.470288 0.113030 0.497099
0.575741 0.115694 0.499279
0.679933 0.118327 0.501433
0.783131 0.120935 0.503567
0.885509 0.123522 0.505683
0.987190 0.126091 0.507786
0.146616 0.228838 0.498355
0.264129 0.231808 0.500785
0.374010 0.234584 0.503056
0.481185 0.237292 0.505272
0.586639 0.239957 0.507452
0.690831 0.242589 0.509606
0.794028 0.245197 0.511740
0.896406 0.247784 0.513856
0.998087 0.250353 0.515958
0.156806 0.345031 0.505997
0.274318 0.348001 0.508427
0.384200 0.350777 0.510698
0.491375 0.353485 0.512914
0.596828 0.356150 0.515094
0.701020 0.358783 0.517248
0.804218 0.361390 0.519382
0.906595 0.363977 0.521498
1.000000 0.366546 0.523601
0.166744 0.458362 0.513451
0.284257 0.461331 0.515881
0.394138 0.464108 0.518152
0.501313 0.466816 0.520368
0.606766 0.469480 0.522548
0.710958 0.472113 0.524702
0.814156 0.474721 0.526836
0.916534 0.477308 0.528952
1.000000 0.479877 0.531054
0.176523 0.569872 0.520785
0.294036 0.572842 0.523215
0.403917 0.575618 0.525486
0.511092 0.578326 0.527702
0.616545 0.580991 0.529882
0.720737 0.583624 0.532036
0.823935 0.586231 0.534170
0.926313 0.588818 0.536286
1.000000 0.591388 0.538388
0.186185 0.680049 0.528032
0.303697 0.683018 0.530461
0.413579 0.685795 0.532733
0.520754 0.688503 0.534948
0.626207 0.691168 0.537129
0.730399 0.693800 0.539283
0.833597 0.696408 0.541416
0.935975 0.698995 0.543533
1.000000 0.701564 0.545635
0.195755 0.789174 0.535209
0.313267 0.792143 0.537638
0.423149 0.794920 0.539910
0.530323 0.797628 0.542126
0.635777 0.800293 0.544306
0.739969 0.802925 0.546460
0.843166 0.805533 0.548593
0.945544 0.808120 0.550710
1.000000 0.810689 0.552812
0.205248 0.897432 0.542329
0.322761 0.900402 0.544759
0.432642 0.903178 0.547030
0.539817 0.905886 0.549246
0.645270 0.908551 0.551426
0.749462 0.911184 0.553580
0.852660 0.913791 0.555714
0.955038 0.916378 0.557830
1.000000 0.918947 0.559932
0.214677 1.000000 0.549401
0.332190 1.000000 0.551830
0.442071 1.000000 0.554102
0.549246 1.000000 0.556318
0.654700 1.000000 0.558498
0.758891 1.000000 0.560652
0.862089 1.000000 0.562785
0.964467 1.000000 0.564902
1.000000 1.000000 0.567004
0.136695 0.105470 0.592234
0.254207 0.108439 0.594663
0.364089 0.111216 0.596935
0.471263 0.113924 0.599151
0.576717 0.116589 0.601331
0.680909 0.119221 0.603485
0.784106 0.121829 0.605618
0.886484 0.124416 0.607735
0.988166 0.126985 0.609837
0.147592 0.229732 0.600407
0.265104 0.232702 0.602836
0.374986 0.235478 0.605108
0.482160 0.238186 0.607323
0.587614 0.240851 0.609504
0.691806 0.243484 0.611658
0.795003 0.246091 0.613791
0.897381 0.248678 0.615908
0.999063 0.251247 0.618010
0.157781 0.345925 0.608049
0.275294 0.348895 0.610478
0.385175 0.351671 0.612750
0.492350 0.354379 0.614966
0.597803 0.357044 0.617146
0.701995 0.359677 0.619300
0.805193 0.362284 0.621433
0.907571 0.364871 0.623550
1.000000 0.367441 0.625652
0.167720 0.459256 0.615502
0.285232 0.462225 0.617932
0.395114 0.465002 0.620204
0.502288 0.467710 0.622419
0.607742 0.470374 0.624600
0.711934 0.473007 0.626754
0.815131 0.475615 0.628887
0.917509 0.478202 0.631004
1.000000 0.480771 0.633106
0.177498 0.570766 0.622837
0.295011 0.573736 0.625266
0.404893 0.576512 0.627538
0.512067 0.579220 0.629753
0.617521 0.581885 0.631934
0.721713 0.584518 0.634088
0.824910 0.587125 0.636221
0.927288 0.589712 0.638338
1.000000 0.592282 0.640440
0.187160 0.680943 0.630083
0.304673 0.683912 0.632512
0.414555 0.686689 0.634784
0.521729 0.689397 0.637000
0.627183 0.692062 0.639180
0.731375 0.694694 0.641334
0.834572 0.697302 0.643468
0.936950 0.699889 0.645584
1.000000 0.702458 0.647686
0.196730 0.790068 0.637260
0.314242 0.793037 0.639690
0.424124 0.795814 0.641961
0.531299 0.798522 0.644177
0.636752 0.801187 0.646357
0.740944 0.803819 0.648511
0.844142 0.806427 0.650645
0.946520 0.809014 0.652761
1.000000 0.811583 0.654864
0.206224 0.898326 0.644381
0.323736 0.901296 0.646810
0.433618 0.904072 0.649082
0.540792 0.906780 0.651297
0.646246 0.909445 0.653478
0.750438 0.912078 0.655632
0.853635 0.914685 0.657765
0.956013 0.917272 0.659882
1.000000 0.919842 0.661984
0.215653 1.000000 0.651452
0.333165 1.000000 0.653882
0.443047 1.000000 0.656153
0.550221 1.000000 0.658369
0.655675 1.000000 0.660549
0.759867 1.000000 0.662703
0.863064 1.000000 0.664837
0.965442 1.000000 0.666953
1.000000 1.000000 0.669056
0.137661 0.106356 0.693311
0.255173 0.109325 0.695741
0.365055 0.112101 0.698012
0.472229 0.114810 0.700228
0.577683 0.117474 0.702408
0.681875 0.120107 0.704562
0.785072 0.122714 0.706696
0.887450 0.125301 0.708812
0.989132 0.127871 0.710914
0.148558 0.230618 0.701484
0.266070 0.233587 0.703913
0.375952 0.236364 0.706185
0.483126 0.239072 0.708401
0.588580 0.241736 0.710581
0.692772 0.244369 0.712735
0.795970 0.246977 0.714869
0.898347 0.249564 0.716985
1.000000 0.252133 0.719087
0.158747 0.346811 0.709126
0.276260 0.349780 0.711556
0.386141 0.352557 0.713827
0.493316 0.355265 0.716043
0.598769 0.357930 0.718223
0.702961 0.360562 0.720377
0.806159 0.363170 0.722511
0.908537 0.365757 0.724627
1.000000 0.368326 0.726729
0.168686 0.460141 0.716580
0.286198 0.463111 0.719009
0.396080 0.465887 0.721281
0.503254 0.468595 0.723497
0.608708 0.471260 0.725677
0.712900 0.473893 0.727831
0.816097 0.476500 0.729965
0.918475 0.479087 0.732081
1.000000 0.481657 0.734183
0.178464 0.571652 0.723914
0.295977 0.574621 0.726344
0.405859 0.577398 0.728615
0.513033 0.580106 0.730831
0.618487 0.582771 0.733011
0.722679 0.585403 0.735165
0.825876 0.588011 0.737299
0.928254 0.590598 0.739415
1.000000 0.593167 0.741517
0.188126 0.681829 0.731160
0.305639 0.684798 0.733590
0.415521 0.687574 0.735862
0.522695 0.690283 0.738077
0.628149 0.692947 0.740257
0.732341 0.695580 0.742412
0.835538 0.698188 0.744545
0.937916 0.700774 0.746662
1.000000 0.703344 0.748764
0.197696 0.790954 0.738338
0.315209 0.793923 0.740767
0.425090 0.796700 0.743039
0.532265 0.799408 0.745255
0.637718 0.802072 0.747435
0.741910 0.804705 0.749589
0.845108 0.807313 0.751722
0.947486 0.809900 0.753839
1.000000 0.812469 0.755941
0.207190 0.899212 0.745458
0.324702 0.902181 0.747887
0.434584 0.904958 0.750159
0.541758 0.907666 0.752375
0.647212 0.910331 0.754555
0.751404 0.912963 0.756709
0.854601 0.915571 0.758843
0.956979 0.918158 0.760959
1.000000 0.920727 0.763061
0.216619 1.000000 0.752530
0.334131 1.000000 0.754959
0.444013 1.000000 0.757231
0.551187 1.000000 0.759447
0.656641 1.000000 0.761627
0.760833 1.000000 0.763781
0.864030 1.000000 0.765914
0.966408 1.000000 0.768031
1.000000 1.000000 0.770133
0.138619 0.107234 0.793586
0.256132 0.110203 0.796015
0.366013 0.112980 0.798287
0.473188 0.115688 0.800503
0.578641 0.118353 0.802683
0.682833 0.120985 0.804837
0.786031 0.123593 0.806970
0.888409 0.126180 0.809087
0.990090 0.128749 0.811189
0.149516 0.231496 0.801759
0.267029 0.234466 0.804188
0.376910 0.237242 0.806460
0.484085 0.239950 0.808675
0.589538 0.242615 0.810856
0.693730 0.245248 0.813010
0.796928 0.247855 0.815143
0.899306 0.250442 0.817260
1.000000 0.253011 0.819362
0.159706 0.347689 0.809401
0.277218 0.350659 0.811830
0.387100 0.353435 0.814102
0.494274 0.356143 0.816318
0.599728 0.358808 0.818498
0.703920 0.361441 0.820652
0.807117 0.364048 0.822785
0.909495 0.366635 0.824902
1.000000 0.369205 0.827004
0.169644 0.461020 0.816855
0.287157 0.463989 0.819284
0.397038 0.466766 0.821556
0.504213 0.469474 0.823771
0.609666 0.472139 0.825952
0.713858 0.474771 0.828106
0.817056 0.477379 0.830239
0.919434 0.479966 0.832356
1.000000 0.482535 0.834458
0.179423 0.572531 0.824189
0.296935 0.575500 0.826618
0.406817 0.578276 0.828890
0.513992 0.580985 0.831106
0.619445 0.583649 0.833286
0.723637 0.586282 0.835440
0.826835 0.588889 0.837573
0.929213 0.591476 0.839690
1.000000 0.594046 0.841792
0.189085 0.682707 0.831435
0.306597 0.685676 0.833865
0.416479 0.688453 0.836136
0.523653 0.691161 0.838352
0.629107 0.693826 0.840532
0.733299 0.696458 0.842686
0.836497 0.699066 0.844820
0.938874 0.701653 0.846936
1.000000 0.704222 0.849038
0.198654 0.791832 0.838612
0.316167 0.794802 0.841042
0.426049 0.797578 0.843313
0.533223 0.800286 0.845529
0.638677 0.802951 0.847709
0.742869 0.805584 0.849863
0.846066 0.808191 0.851997
0.948444 0.810778 0.854113
1.000000 0.813347 0.856216
0.208148 0.900091 0.845733
0.325661 0.903060 0.848162
0.435542 0.905836 0.850434
0.542717 0.908544 0.852649
0.648170 0.911209 0.854830
0.752362 0.913842 0.856984
0.855560 0.916449 0.859117
0.957938 0.919036 0.861234
1.000000 0.921606 0.863336
0.217577 1.000000 0.852804
0.335090 1.000000 0.855234
0.444971 1.000000 0.857505
0.552146 1.000000 0.859721
0.657599 1.000000 0.861901
0.761791 1.000000 0.864055
0.864989 1.000000 0.866189
0.967367 1.000000 0.868305
1.000000 1.000000 0.870408
0.139571 0.108107 0.893178
0.257083 0.111076 0.895608
0.366965 0.113852 0.897879
0.474140 0.116561 0.900095
0.579593 0.119225 0.902275
0.683785 0.121858 0.904429
0.786983 0.124466 0.906563
0.889361 0.127052 0.908679
0.991042 0.129622 0.910781
0.150468 0.232369 0.901351
0.267981 0.235338 0.903780
0.377862 0.238115 0.906052
0.485037 0.240823 0.908268
0.590490 0.243487 0.910448
0.694682 0.246120 0.912602
0.797880 0.248728 0.914736
0.900258 0.251315 0.916852
1.000000 0.253884 0.918954
0.160657 0.348562 0.908993
0.278170 0.351531 0.911423
0.388052 0.354308 0.913694
0.495226 0.357016 0.915910
0.600680 0.359681 0.918090
0.704872 0.362313 0.920244
0.808069 0.364921 0.922378
0.910447 0.367508 0.924494
1.000000 0.370077 0.926596
0.170596 0.461893 0.916447
0.288108 0.464862 0.918876
0.397990 0.467638 0.921148
0.505165 0.470346 0.923364
0.610618 0.473011 0.925544
0.714810 0.475644 0.927698
0.818008 0.478251 0.929831
0.920386 0.480838 0.931948
1.000000 0.483408 0.934050
0.180375 0.573403 0.923781
0.297887 0.576372 0.926211
0.407769 0.579149 0.928482
0.514943 0.581857 0.930698
0.620397 0.584522 0.932878
0.724589 0.587154 0.935032
0.827787 0.589762 0.937166
0.930164 0.592349 0.939282
1.000000 0.594918 0.941384
0.190037 0.683580 0.931027
0.307549 0.686549 0.933457
0.417431 0.689326 0.935729
0.524605 0.692034 0.937944
0.630059 0.694698 0.940124
0.734251 0.697331 0.942279
0.837448 0.699939 0.944412
0.939826 0.702526 0.946529
1.000000 0.705095 0.948631
0.199606 0.792705 0.938205
0.317119 0.795674 0.940634
0.427000 0.798451 0.942906
0.534175 0.801159 0.945122
0.639629 0.803823 0.947302
0.743821 0.806456 0.949456
0.847018 0.809064 0.951589
0.949396 0.811651 0.953706
1.000000 0.814220 0.955808
0.209100 0.900963 0.945325
0.326612 0.903932 0.947754
0.436494 0.906709 0.950026
0.543669 0.909417 0.952242
0.649122 0.912082 0.954422
0.753314 0.914714 0.956576
0.856512 0.917322 0.958709
0.958890 0.919909 0.960826
1.000000 0.922478 0.962928
0.218529 1.000000 0.952397
0.336041 1.000000 0.954826
0.445923 1.000000 0.957098
0.553098 1.000000 0.959314
0.658551 1.000000 0.961494
0.762743 1.000000 0.963648
0.865941 1.000000 0.965781
0.968319 1.000000 0.967898
1.000000 1.000000 0.970000
