assets/luts/tealorange.cube
# Teal & Orange — Studio filter "tealorange"
# Generated by scripts/generate-filter-luts.mjs — do not edit by hand.
LUT_3D_SIZE 17
DOMAIN_MIN 0.0 0.0 0.0
DOMAIN_MAX 1.0 1.0 1.0
0.000000 0.010000 0.100000
0.012342 0.010108 0.098271
0.071519 0.010230 0.096316
0.136553 0.010365 0.094168
0.206469 0.010509 0.091858
0.280291 0.010661 0.089420
0.357041 0.010820 0.086885
0.435744 0.010982 0.084285
0.515424 0.011147 0.081653
0.595103 0.011311 0.079021
0.673806 0.011474 0.076421
0.750557 0.011632 0.073886
0.824378 0.011785 0.071447
0.894294 0.011929 0.069138
0.959329 0.012063 0.066989
0.989764 0.012126 0.065984
0.989764 0.012126 0.065984
0.000000 0.058808 0.094455
0.013624 0.057900 0.092955
0.072687 0.056881 0.091130
0.137597 0.055762 0.089124
0.207379 0.054559 0.086967
0.281059 0.053288 0.084690
0.357662 0.051967 0.082323
0.436215 0.050613 0.079896
0.515741 0.049241 0.077438
0.595268 0.047870 0.074981
0.673821 0.046515 0.072553
0.750424 0.045194 0.070186
0.824104 0.043924 0.067909
0.893886 0.042721 0.065753
0.958796 0.041601 0.063747
0.992588 0.040531 0.062757
0.992488 0.039522 0.062871
0.000000 0.113988 0.088185
0.015186 0.113072 0.086815
0.074250 0.112054 0.084990
0.139159 0.110934 0.082984
0.208942 0.109731 0.080827
0.282622 0.108460 0.078551
0.359225 0.107140 0.076183
0.437777 0.105785 0.073756
0.517304 0.104414 0.071298
0.596831 0.103042 0.068841
0.675383 0.101688 0.066413
0.751986 0.100367 0.064046
0.825666 0.099096 0.061769
0.895449 0.097893 0.059613
0.960358 0.096774 0.057607
0.998074 0.095711 0.056487
0.997973 0.094702 0.056602
0.000000 0.174631 0.081295
0.016904 0.173706 0.080067
0.075967 0.172688 0.078242
0.140877 0.171568 0.076236
0.210659 0.170365 0.074080
0.284339 0.169094 0.071803
0.360942 0.167774 0.069436
0.439494 0.166419 0.067008
0.519021 0.165048 0.064551
0.598548 0.163676 0.062093
0.677100 0.162322 0.059666
0.753704 0.161001 0.057298
0.827384 0.159730 0.055022
0.897166 0.158527 0.052865
0.962076 0.157408 0.050859
1.000000 0.156354 0.049597
1.000000 0.155345 0.049712
0.000000 0.239826 0.073887
0.018750 0.238891 0.072813
0.077813 0.237873 0.070988
0.142723 0.236754 0.068982
0.212505 0.235550 0.066825
0.286185 0.234280 0.064548
0.362788 0.232959 0.062181
0.441340 0.231604 0.059754
0.520867 0.230233 0.057296
0.600394 0.228862 0.054839
0.678946 0.227507 0.052411
0.755550 0.226186 0.050044
0.829230 0.224916 0.047767
0.899012 0.223712 0.045611
0.963922 0.222593 0.043605
1.000000 0.221549 0.042189
1.000000 0.220540 0.042304
0.000000 0.308663 0.066066
0.020699 0.307718 0.065153
0.079762 0.306699 0.063328
0.144672 0.305580 0.061322
0.214454 0.304377 0.059166
0.288134 0.303106 0.056889
0.364737 0.301785 0.054522
0.443290 0.300431 0.052094
0.522816 0.299059 0.049637
0.602343 0.297688 0.047179
0.680895 0.296334 0.044752
0.757499 0.295013 0.042385
0.831179 0.293742 0.040108
0.900961 0.292539 0.037951
0.965871 0.291419 0.035946
1.000000 0.290385 0.034368
1.000000 0.289377 0.034483
0.000000 0.380230 0.057935
0.022725 0.379275 0.057190
0.081788 0.378257 0.055365
0.146698 0.377137 0.053359
0.216481 0.375934 0.051202
0.290161 0.374664 0.048926
0.366764 0.373343 0.046558
0.445316 0.371988 0.044131
0.524843 0.370617 0.041673
0.604370 0.369245 0.039216
0.682922 0.367891 0.036788
0.759525 0.366570 0.034421
0.833205 0.365299 0.032144
0.902988 0.364096 0.029988
0.967897 0.362977 0.027982
1.000000 0.361953 0.026237
1.000000 0.360944 0.026351
0.004103 0.453619 0.049596
0.024803 0.452653 0.049024
0.083867 0.451634 0.047199
0.148776 0.450515 0.045193
0.218559 0.449312 0.043036
0.292239 0.448041 0.040760
0.368842 0.446720 0.038392
0.447394 0.445366 0.035965
0.526921 0.443994 0.033507
0.606448 0.442623 0.031050
0.685000 0.441269 0.028622
0.761603 0.439948 0.026255
0.835283 0.438677 0.023978
0.905066 0.437474 0.021822
0.969976 0.436354 0.019816
1.000000 0.435336 0.017991
1.000000 0.434333 0.018013
0.011490 0.527918 0.041154
0.026907 0.526941 0.040757
0.085970 0.525922 0.038931
0.150880 0.524803 0.036926
0.220662 0.523600 0.034769
0.294342 0.522329 0.032492
0.370946 0.521008 0.030125
0.449498 0.519654 0.027698
0.529025 0.518282 0.025240
0.608552 0.516911 0.022783
0.687104 0.515557 0.020355
0.763707 0.514236 0.017988
0.837387 0.512965 0.015711
0.907170 0.511762 0.013555
0.972079 0.510643 0.011549
1.000000 0.509624 0.009724
1.000000 0.508632 0.009571
0.018876 0.602217 0.032713
0.029011 0.601229 0.032489
0.088074 0.600211 0.030664
0.152984 0.599091 0.028658
0.222766 0.597888 0.026502
0.296446 0.596617 0.024225
0.373050 0.595296 0.021858
0.451602 0.593942 0.019430
0.531129 0.592571 0.016973
0.610656 0.591199 0.014515
0.689208 0.589845 0.012088
0.765811 0.588524 0.009721
0.839491 0.587253 0.007444
0.909273 0.586050 0.005287
0.974183 0.584931 0.003282
1.000000 0.583912 0.001456
1.000000 0.582931 0.001130
0.026172 0.675605 0.024374
0.031089 0.674607 0.024323
0.090152 0.673588 0.022498
0.155062 0.672469 0.020492
0.224844 0.671266 0.018336
0.298524 0.669995 0.016059
0.375128 0.668674 0.013692
0.453680 0.667320 0.011264
0.533207 0.665948 0.008807
0.612734 0.664577 0.006349
0.691286 0.663222 0.003922
0.767889 0.661901 0.001555
0.841569 0.660631 0.000000
0.911351 0.659428 0.000000
0.976261 0.658308 0.000000
1.000000 0.657290 0.000000
1.000000 0.656319 0.000000
0.033288 0.747173 0.016243
0.033187 0.746164 0.016357
0.092179 0.745146 0.014535
0.157089 0.744026 0.012529
0.226871 0.742823 0.010372
0.300551 0.741552 0.008096
0.377154 0.740231 0.005728
0.455707 0.738877 0.003301
0.535233 0.737506 0.000843
0.614760 0.736134 0.000000
0.693312 0.734780 0.000000
0.769916 0.733459 0.000000
0.843596 0.732188 0.000000
0.913378 0.730985 0.000000
0.978288 0.729866 0.000000
1.000000 0.728847 0.000000
1.000000 0.727887 0.000000
0.040131 0.816010 0.008422
0.040031 0.815001 0.008536
0.094128 0.813972 0.006875
0.159038 0.812853 0.004869
0.228820 0.811649 0.002713
0.302500 0.810379 0.000436
0.379104 0.809058 0.000000
0.457656 0.807703 0.000000
0.537183 0.806332 0.000000
0.616709 0.804961 0.000000
0.695262 0.803606 0.000000
0.771865 0.802285 0.000000
0.845545 0.801015 0.000000
0.915327 0.799811 0.000000
0.980237 0.798692 0.000000
1.000000 0.797674 0.000000
1.000000 0.796724 0.000000
0.046613 0.881205 0.001014
0.046512 0.880196 0.001129
0.095974 0.879157 0.000000
0.160884 0.878038 0.000000
0.230666 0.876835 0.000000
0.304346 0.875564 0.000000
0.380950 0.874243 0.000000
0.459502 0.872889 0.000000
0.539029 0.871517 0.000000
0.618555 0.870146 0.000000
0.697108 0.868791 0.000000
0.773711 0.867471 0.000000
0.847391 0.866200 0.000000
0.917173 0.864997 0.000000
0.982083 0.863877 0.000000
1.000000 0.862859 0.000000
1.000000 0.861919 0.000000
0.052641 0.941847 0.000000
0.052541 0.940839 0.000000
0.097691 0.939791 0.000000
0.162601 0.938672 0.000000
0.232383 0.937469 0.000000
0.306063 0.936198 0.000000
0.382667 0.934877 0.000000
0.461219 0.933523 0.000000
0.540746 0.932151 0.000000
0.620273 0.930780 0.000000
0.698825 0.929425 0.000000
0.775428 0.928105 0.000000
0.849108 0.926834 0.000000
0.918890 0.925631 0.000000
0.983800 0.924511 0.000000
1.000000 0.923493 0.000000
1.000000 0.922561 0.000000
0.058127 0.997028 0.000000
0.058027 0.996019 0.000000
0.099254 0.994964 0.000000
0.164164 0.993844 0.000000
0.233946 0.992641 0.000000
0.307626 0.991371 0.000000
0.384229 0.990050 0.000000
0.462782 0.988695 0.000000
0.542308 0.987324 0.000000
0.621835 0.985952 0.000000
0.700387 0.984598 0.000000
0.776991 0.983277 0.000000
0.850671 0.982006 0.000000
0.920453 0.980803 0.000000
0.985363 0.979684 0.000000
1.000000 0.978665 0.000000
1.000000 0.977742 0.000000
0.060128 1.000000 0.000000
0.060128 1.000000 0.000000
0.097998 1.000000 0.000000
0.163032 1.000000 0.000000
0.232949 1.000000 0.000000
0.306770 1.000000 0.000000
0.383521 1.000000 0.000000
0.462224 1.000000 0.000000
0.541903 1.000000 0.000000
0.621583 1.000000 0.000000
0.700286 1.000000 0.000000
0.777036 1.000000 0.000000
0.850858 1.000000 0.000000
0.920774 1.000000 0.000000
0.985808 1.000000 0.000000
1.000000 1.000000 0.000000
1.000000 1.000000 0.000000
0.000000 0.010037 0.150896
0.012502 0.010144 0.148188
0.071667 0.010265 0.145114
0.136689 0.010399 0.141736
0.206592 0.010542 0.138103
0.280399 0.010693 0.134268
0.357135 0.010851 0.130281
0.435822 0.011012 0.126193
0.515487 0.011175 0.122053
0.595151 0.011339 0.117914
0.673838 0.011500 0.113825
0.750574 0.011658 0.109838
0.824381 0.011809 0.106003
0.894284 0.011952 0.102371
0.959306 0.012086 0.098992
0.990080 0.012149 0.096856
0.990070 0.012148 0.095866
0.000000 0.058500 0.142058
0.013716 0.057590 0.139580
0.072767 0.056571 0.136635
0.137665 0.055451 0.133399
0.207433 0.054247 0.129920
0.281099 0.052975 0.126247
0.357688 0.051653 0.122428
0.436225 0.050297 0.118512
0.515736 0.048925 0.114547
0.595247 0.047552 0.110582
0.673784 0.046197 0.106665
0.750373 0.044875 0.102846
0.824039 0.043603 0.099173
0.893807 0.042399 0.095694
0.958705 0.041279 0.092458
0.992835 0.040208 0.090336
0.992725 0.039198 0.089461
0.000000 0.113678 0.132023
0.015240 0.112760 0.129674
0.074291 0.111741 0.126730
0.139189 0.110620 0.123493
0.208957 0.109416 0.120014
0.282623 0.108145 0.116341
0.359212 0.106823 0.112522
0.437749 0.105467 0.108606
0.517260 0.104095 0.104641
0.596771 0.102722 0.100676
0.675308 0.101366 0.096760
0.751897 0.100044 0.092940
0.825563 0.098773 0.089267
0.895331 0.097569 0.085788
0.960229 0.096448 0.082552
0.998283 0.095386 0.080301
0.998172 0.094376 0.079425
0.000000 0.174317 0.120994
0.016915 0.173391 0.118788
0.075966 0.172372 0.115843
0.140864 0.171251 0.112607
0.210632 0.170047 0.109128
0.284298 0.168776 0.105454
0.360886 0.167454 0.101635
0.439424 0.166098 0.097719
0.518935 0.164726 0.093754
0.598446 0.163353 0.089789
0.676983 0.161997 0.085873
0.753572 0.160675 0.082054
0.827238 0.159404 0.078381
0.897006 0.158200 0.074901
0.961903 0.157079 0.071665
1.000000 0.156026 0.069272
1.000000 0.155016 0.068396
0.000000 0.239509 0.109137
0.018715 0.238573 0.107084
0.077767 0.237554 0.104139
0.142664 0.236434 0.100903
0.212433 0.235229 0.097424
0.286099 0.233958 0.093751
0.362687 0.232636 0.089932
0.441224 0.231280 0.086015
0.520735 0.229908 0.082050
0.600247 0.228535 0.078086
0.678784 0.227180 0.074169
0.755372 0.225858 0.070350
0.829038 0.224586 0.066677
0.898807 0.223382 0.063198
0.963704 0.222262 0.059962
1.000000 0.221217 0.057415
1.000000 0.220208 0.056539
0.000000 0.308342 0.096618
0.020616 0.307396 0.094726
0.079668 0.306377 0.091782
0.144565 0.305257 0.088546
0.214334 0.304052 0.085067
0.288000 0.302781 0.081393
0.364588 0.301459 0.077574
0.443125 0.300103 0.073658
0.522637 0.298731 0.069693
0.602148 0.297358 0.065728
0.680685 0.296003 0.061812
0.757274 0.294681 0.057993
0.830939 0.293409 0.054319
0.900708 0.292205 0.050840
0.965605 0.291085 0.047604
1.000000 0.290050 0.044896
1.000000 0.289041 0.044020
0.000000 0.379906 0.083602
0.022593 0.378950 0.081879
0.081645 0.377930 0.078934
0.146542 0.376810 0.075698
0.216311 0.375606 0.072219
0.289976 0.374334 0.068545
0.366565 0.373012 0.064726
0.445102 0.371657 0.060810
0.524613 0.370284 0.056845
0.604125 0.368912 0.052880
0.682662 0.367556 0.048964
0.759250 0.366234 0.045145
0.832916 0.364963 0.041472
0.902685 0.363758 0.037993
0.967582 0.362638 0.034756
1.000000 0.361615 0.031880
1.000000 0.360605 0.031005
0.004280 0.453291 0.070255
0.024620 0.452324 0.068704
0.083671 0.451305 0.065759
0.148569 0.450184 0.062523
0.218337 0.448980 0.059044
0.292003 0.447709 0.055371
0.368592 0.446387 0.051552
0.447129 0.445031 0.047635
0.526640 0.443658 0.043671
0.606151 0.442286 0.039706
0.684688 0.440930 0.035789
0.761277 0.439608 0.031970
0.834943 0.438337 0.028297
0.904711 0.437133 0.024818
0.969609 0.436012 0.021582
1.000000 0.434993 0.018637
1.000000 0.433990 0.018052
0.011615 0.527587 0.056743
0.026672 0.526608 0.055366
0.085723 0.525589 0.052421
0.150621 0.524469 0.049185
0.220389 0.523264 0.045706
0.294055 0.521993 0.042033
0.370644 0.520671 0.038214
0.449181 0.519315 0.034297
0.528692 0.517943 0.030333
0.608203 0.516570 0.026368
0.686741 0.515215 0.022451
0.763329 0.513893 0.018632
0.837003 0.512622 0.015762
0.906785 0.511418 0.013605
0.971695 0.510299 0.011599
1.000000 0.509281 0.009774
1.000000 0.508289 0.009610
0.018949 0.601882 0.043230
0.028724 0.600893 0.042028
0.087775 0.599873 0.039083
0.152673 0.598753 0.035847
0.222441 0.597549 0.032368
0.296107 0.596277 0.028695
0.372696 0.594955 0.024876
0.451233 0.593600 0.020959
0.530744 0.592227 0.017023
0.610271 0.590856 0.014566
0.688823 0.589501 0.012138
0.765427 0.588180 0.009771
0.839107 0.586910 0.007494
0.908889 0.585706 0.005338
0.973799 0.584587 0.003332
1.000000 0.583569 0.001507
1.000000 0.582588 0.001168
0.026194 0.675267 0.029883
0.030751 0.674267 0.028853
0.089802 0.673247 0.025909
0.154700 0.672127 0.022673
0.224468 0.670923 0.019193
0.298140 0.669652 0.016109
0.374743 0.668331 0.013742
0.453296 0.666976 0.011315
0.532822 0.665605 0.008857
0.612349 0.664234 0.006400
0.690902 0.662879 0.003972
0.767505 0.661558 0.001605
0.841185 0.660288 0.000000
0.910967 0.659084 0.000000
0.975877 0.657965 0.000000
1.000000 0.656946 0.000000
1.000000 0.655977 0.000000
0.033259 0.746831 0.016867
0.033153 0.745822 0.016396
0.091795 0.744802 0.014585
0.156704 0.743683 0.012579
0.226487 0.742480 0.010423
0.300167 0.741209 0.008146
0.376770 0.739888 0.005779
0.455322 0.738534 0.003351
0.534849 0.737162 0.000894
0.614376 0.735791 0.000000
0.692928 0.734436 0.000000
0.769531 0.733115 0.000000
0.843211 0.731845 0.000000
0.912994 0.730642 0.000000
0.977903 0.729522 0.000000
1.000000 0.728504 0.000000
1.000000 0.727544 0.000000
0.040097 0.815667 0.008461
0.039997 0.814658 0.008575
0.093744 0.813629 0.006926
0.158654 0.812509 0.004920
0.228436 0.811306 0.002763
0.302116 0.810035 0.000487
0.378719 0.808715 0.000000
0.457271 0.807360 0.000000
0.536798 0.805989 0.000000
0.616325 0.804617 0.000000
0.694877 0.803263 0.000000
0.771481 0.801942 0.000000
0.845161 0.800671 0.000000
0.914943 0.799468 0.000000
0.979853 0.798349 0.000000
1.000000 0.797330 0.000000
1.000000 0.796381 0.000000
0.046578 0.880862 0.001053
0.046478 0.879853 0.001168
0.095590 0.878814 0.000000
0.160500 0.877695 0.000000
0.230282 0.876491 0.000000
0.303962 0.875221 0.000000
0.380565 0.873900 0.000000
0.459117 0.872545 0.000000
0.538644 0.871174 0.000000
0.618171 0.869803 0.000000
0.696723 0.868448 0.000000
0.773327 0.867127 0.000000
0.847007 0.865857 0.000000
0.916789 0.864653 0.000000
0.981699 0.863534 0.000000
1.000000 0.862516 0.000000
1.000000 0.861576 0.000000
0.052607 0.941505 0.000000
0.052507 0.940496 0.000000
0.097307 0.939448 0.000000
0.162217 0.938329 0.000000
0.231999 0.937125 0.000000
0.305679 0.935855 0.000000
0.382282 0.934534 0.000000
0.460835 0.933179 0.000000
0.540361 0.931808 0.000000
0.619888 0.930437 0.000000
0.698440 0.929082 0.000000
0.775044 0.927761 0.000000
0.848724 0.926491 0.000000
0.918506 0.925287 0.000000
0.983416 0.924168 0.000000
1.000000 0.923150 0.000000
1.000000 0.922219 0.000000
0.058093 0.996685 0.000000
0.057993 0.995676 0.000000
0.098869 0.994620 0.000000
0.163779 0.993501 0.000000
0.233561 0.992298 0.000000
0.307241 0.991027 0.000000
0.383845 0.989706 0.000000
0.462397 0.988352 0.000000
0.541924 0.986980 0.000000
0.621451 0.985609 0.000000
0.700003 0.984255 0.000000
0.776606 0.982934 0.000000
0.850286 0.981663 0.000000
0.920069 0.980460 0.000000
0.984978 0.979340 0.000000
1.000000 0.978322 0.000000
1.000000 0.977399 0.000000
0.060128 1.000000 0.000000
0.060128 1.000000 0.000000
0.097648 1.000000 0.000000
0.162682 1.000000 0.000000
0.232598 1.000000 0.000000
0.306420 1.000000 0.000000
0.383170 1.000000 0.000000
0.461873 1.000000 0.000000
0.541553 1.000000 0.000000
0.621232 1.000000 0.000000
0.699935 1.000000 0.000000
0.776686 1.000000 0.000000
0.850507 1.000000 0.000000
0.920423 1.000000 0.000000
0.985458 1.000000 0.000000
1.000000 1.000000 0.000000
1.000000 1.000000 0.000000
0.000000 0.010079 0.208438
0.012695 0.010185 0.205743
0.071860 0.010306 0.202669
0.136882 0.010440 0.199290
0.206784 0.010583 0.195658
0.280591 0.010734 0.191823
0.357327 0.010892 0.187836
0.436015 0.011053 0.183747
0.515679 0.011217 0.179608
0.595343 0.011380 0.175468
0.674031 0.011541 0.171380
0.750766 0.011699 0.167393
0.824574 0.011850 0.163558
0.894476 0.011994 0.159925
0.959498 0.012127 0.156547
0.990668 0.012191 0.154397
0.990658 0.012190 0.153407
0.000000 0.058154 0.199644
0.013870 0.057244 0.197179
0.072921 0.056225 0.194234
0.137819 0.055105 0.190998
0.207587 0.053900 0.187519
0.281253 0.052629 0.183846
0.357841 0.051307 0.180026
0.436379 0.049951 0.176110
0.515890 0.048579 0.172145
0.595401 0.047206 0.168180
0.673938 0.045851 0.164264
0.750527 0.044529 0.160445
0.824193 0.043257 0.156772
0.893961 0.042053 0.153293
0.958859 0.040933 0.150056
0.993385 0.039863 0.147922
0.993275 0.038853 0.147046
0.000000 0.113332 0.189608
0.015394 0.112414 0.187273
0.074445 0.111395 0.184328
0.139343 0.110274 0.181092
0.209111 0.109070 0.177613
0.282777 0.107798 0.173940
0.359365 0.106476 0.170120
0.437903 0.105121 0.166204
0.517414 0.103748 0.162239
0.596925 0.102376 0.158274
0.675462 0.101020 0.154358
0.752051 0.099698 0.150539
0.825717 0.098427 0.146866
0.895485 0.097222 0.143387
0.960382 0.096102 0.140151
0.998833 0.095040 0.137886
0.998722 0.094031 0.137011
0.000000 0.173972 0.178579
0.017069 0.173045 0.176386
0.076120 0.172026 0.173442
0.141017 0.170905 0.170205
0.210786 0.169701 0.166726
0.284452 0.168429 0.163053
0.361040 0.167107 0.159234
0.439577 0.165752 0.155318
0.519089 0.164379 0.151353
0.598600 0.163007 0.147388
0.677137 0.161651 0.143472
0.753726 0.160329 0.139653
0.827391 0.159058 0.135979
0.897160 0.157853 0.132500
0.962057 0.156733 0.129264
1.000000 0.155680 0.126857
1.000000 0.154671 0.125982
0.000000 0.239164 0.166723
0.018869 0.238227 0.164682
0.077921 0.237208 0.161738
0.142818 0.236087 0.158502
0.212587 0.234883 0.155023
0.286252 0.233612 0.151349
0.362841 0.232290 0.147530
0.441378 0.230934 0.143614
0.520889 0.229562 0.139649
0.600401 0.228189 0.135684
0.678938 0.226833 0.131768
0.755526 0.225511 0.127949
0.829192 0.224240 0.124275
0.898961 0.223036 0.120796
0.963858 0.221915 0.117560
1.000000 0.220872 0.115001
1.000000 0.219862 0.114125
0.000000 0.307997 0.154203
0.020770 0.307050 0.152325
0.079822 0.306031 0.149380
0.144719 0.304910 0.146144
0.214488 0.303706 0.142665
0.288154 0.302435 0.138992
0.364742 0.301113 0.135173
0.443279 0.299757 0.131256
0.522790 0.298385 0.127292
0.602302 0.297012 0.123327
0.680839 0.295656 0.119410
0.757427 0.294334 0.115591
0.831093 0.293063 0.111918
0.900862 0.291859 0.108439
0.965759 0.290738 0.105203
1.000000 0.289705 0.102481
1.000000 0.288695 0.101606
0.000000 0.379561 0.141188
0.022747 0.378604 0.139477
0.081798 0.377584 0.136533
0.146696 0.376464 0.133297
0.216464 0.375260 0.129817
0.290130 0.373988 0.126144
0.366719 0.372666 0.122325
0.445256 0.371311 0.118409
0.524767 0.369938 0.114444
0.604278 0.368566 0.110479
0.682815 0.367210 0.106563
0.759404 0.365888 0.102744
0.833070 0.364617 0.099070
0.902838 0.363412 0.095591
0.967736 0.362292 0.092355
1.000000 0.361269 0.089466
1.000000 0.360260 0.088590
0.004830 0.452946 0.127841
0.024774 0.451978 0.126303
0.083825 0.450958 0.123358
0.148723 0.449838 0.120122
0.218491 0.448634 0.116643
0.292157 0.447362 0.112969
0.368745 0.446040 0.109150
0.447283 0.444685 0.105234
0.526794 0.443312 0.101269
0.606305 0.441940 0.097304
0.684842 0.440584 0.093388
0.761431 0.439262 0.089569
0.835097 0.437991 0.085896
0.904865 0.436786 0.082417
0.969763 0.435666 0.079180
1.000000 0.434647 0.076236
1.000000 0.433645 0.075243
0.012165 0.527241 0.114328
0.026826 0.526262 0.112965
0.085877 0.525243 0.110020
0.150775 0.524123 0.106784
0.220543 0.522918 0.103305
0.294209 0.521647 0.099631
0.370798 0.520325 0.095812
0.449335 0.518969 0.091896
0.528846 0.517597 0.087931
0.608357 0.516224 0.083966
0.686894 0.514869 0.080050
0.763483 0.513547 0.076231
0.837149 0.512275 0.072558
0.906917 0.511071 0.069078
0.971815 0.509951 0.065842
1.000000 0.508931 0.062898
1.000000 0.507940 0.061731
0.019499 0.601536 0.100816
0.028878 0.600546 0.099627
0.087929 0.599527 0.096682
0.152827 0.598407 0.093446
0.222595 0.597203 0.089967
0.296261 0.595931 0.086293
0.372850 0.594609 0.082474
0.451387 0.593253 0.078558
0.530898 0.591881 0.074593
0.610409 0.590509 0.070628
0.688946 0.589153 0.066712
0.765535 0.587831 0.062893
0.839201 0.586559 0.059219
0.908969 0.585355 0.055740
0.973867 0.584235 0.052504
1.000000 0.583216 0.049560
1.000000 0.582235 0.048218
0.026744 0.674921 0.087469
0.030905 0.673921 0.086452
0.089956 0.672901 0.083507
0.154853 0.671781 0.080271
0.224622 0.670577 0.076792
0.298288 0.669305 0.073119
0.374876 0.667983 0.069300
0.453413 0.666628 0.065383
0.532925 0.665255 0.061418
0.612436 0.663883 0.057454
0.690973 0.662527 0.053537
0.767562 0.661205 0.049718
0.841227 0.659933 0.046045
0.910996 0.658729 0.042566
0.975893 0.657609 0.039330
1.000000 0.656590 0.036385
1.000000 0.655620 0.034871
0.033809 0.746486 0.074453
0.033699 0.745476 0.073577
0.091933 0.744455 0.070660
0.156830 0.743335 0.067423
0.226599 0.742130 0.063944
0.300264 0.740859 0.060271
0.376853 0.739537 0.056452
0.455390 0.738181 0.052536
0.534901 0.736809 0.048571
0.614413 0.735436 0.044606
0.692950 0.734081 0.040690
0.769538 0.732759 0.036870
0.843204 0.731487 0.033197
0.912973 0.730283 0.029718
0.977870 0.729163 0.026482
1.000000 0.728143 0.023537
1.000000 0.727184 0.021855
0.040605 0.815319 0.061934
0.040494 0.814309 0.061058
0.093834 0.813278 0.058302
0.158731 0.812158 0.055066
0.228500 0.810953 0.051587
0.302166 0.809682 0.047914
0.378754 0.808360 0.044094
0.457291 0.807004 0.040178
0.536803 0.805632 0.036213
0.616314 0.804259 0.032248
0.694851 0.802904 0.028332
0.771439 0.801582 0.024513
0.845105 0.800310 0.020840
0.914874 0.799106 0.017361
0.979771 0.797986 0.014124
1.000000 0.796966 0.011180
1.000000 0.796017 0.009336
0.047041 0.880510 0.050077
0.046930 0.879501 0.049201
0.095635 0.878460 0.046598
0.160532 0.877340 0.043362
0.230300 0.876136 0.039883
0.303966 0.874864 0.036210
0.380555 0.873542 0.032391
0.459092 0.872186 0.028474
0.538603 0.870814 0.024510
0.618114 0.869441 0.020545
0.696652 0.868086 0.016628
0.773240 0.866764 0.012809
0.846906 0.865492 0.009136
0.916674 0.864288 0.005657
0.981572 0.863168 0.002421
1.000000 0.862149 0.000000
1.000000 0.861209 0.000000
0.053027 0.941150 0.039048
0.052917 0.940141 0.038172
0.097309 0.939091 0.035712
0.162207 0.937971 0.032476
0.231975 0.936767 0.028997
0.305641 0.935495 0.025323
0.382230 0.934173 0.021504
0.460767 0.932817 0.017588
0.540278 0.931445 0.013623
0.619789 0.930072 0.009658
0.698326 0.928717 0.005742
0.774915 0.927395 0.001923
0.848581 0.926123 0.000000
0.918349 0.924919 0.000000
0.983247 0.923799 0.000000
1.000000 0.922779 0.000000
1.000000 0.921849 0.000000
0.058475 0.996328 0.029012
0.058364 0.995318 0.028137
0.098833 0.994261 0.025806
0.163731 0.993140 0.022570
0.233499 0.991936 0.019091
0.307165 0.990665 0.015417
0.383754 0.989343 0.011598
0.462291 0.987987 0.007682
0.541802 0.986615 0.003717
0.621313 0.985242 0.000000
0.699850 0.983886 0.000000
0.776439 0.982564 0.000000
0.850105 0.981293 0.000000
0.919873 0.980089 0.000000
0.984771 0.978968 0.000000
1.000000 0.977949 0.000000
1.000000 0.977027 0.000000
0.060514 1.000000 0.023312
0.060504 1.000000 0.022322
0.097616 1.000000 0.019976
0.162638 1.000000 0.016597
0.232540 1.000000 0.012965
0.306348 1.000000 0.009130
0.383083 1.000000 0.005143
0.461771 1.000000 0.001054
0.541435 1.000000 0.000000
0.621099 1.000000 0.000000
0.699787 1.000000 0.000000
0.776523 1.000000 0.000000
0.850330 1.000000 0.000000
0.920233 1.000000 0.000000
0.985254 1.000000 0.000000
1.000000 1.000000 0.000000
1.000000 1.000000 0.000000
0.000000 0.010125 0.271675
0.012906 0.010230 0.268995
0.072071 0.010352 0.265921
0.137093 0.010485 0.262542
0.206996 0.010628 0.258910
0.280803 0.010780 0.255075
0.357538 0.010937 0.251088
0.436226 0.011099 0.246999
0.515890 0.011262 0.242860
0.595554 0.011425 0.238720
0.674242 0.011587 0.234632
0.750978 0.011744 0.230645
0.824785 0.011896 0.226810
0.894688 0.012039 0.223177
0.959710 0.012172 0.219799
