assets/luts/tealorange.cube
# Teal & Orange — Studio filter "tealorange"
# Generated by scripts/generate-filter-luts.mjs — do not edit by hand.
LUT_3D_SIZE 5
DOMAIN_MIN 0.0 0.0 0.0
DOMAIN_MAX 1.0 1.0 1.0
0.000000 0.010000 0.100000
0.206469 0.010509 0.091858
0.515424 0.011147 0.081653
0.824378 0.011785 0.071447
0.989764 0.012126 0.065984
0.000000 0.239826 0.073887
0.212505 0.235550 0.066825
0.520867 0.230233 0.057296
0.829230 0.224916 0.047767
1.000000 0.220540 0.042304
0.011490 0.527918 0.041154
0.220662 0.523600 0.034769
0.529025 0.518282 0.025240
0.837387 0.512965 0.015711
1.000000 0.508632 0.009571
0.040131 0.816010 0.008422
0.228820 0.811649 0.002713
0.537183 0.806332 0.000000
0.845545 0.801015 0.000000
1.000000 0.796724 0.000000
0.060128 1.000000 0.000000
0.232949 1.000000 0.000000
0.541903 1.000000 0.000000
0.850858 1.000000 0.000000
1.000000 1.000000 0.000000
0.000000 0.010175 0.339660
0.207223 0.010677 0.326910
0.516118 0.011311 0.310860
0.825012 0.011944 0.294809
0.992000 0.012286 0.284629
0.000000 0.238376 0.298045
0.212938 0.234094 0.286375
0.521240 0.228772 0.271001
0.829543 0.223450 0.255628
1.000000 0.219075 0.245448
0.013419 0.526454 0.245651
0.220894 0.522129 0.234657
0.529197 0.516807 0.219283
0.837499 0.511486 0.203910
1.000000 0.507152 0.193053
0.041859 0.814531 0.193256
0.228851 0.810164 0.182939
0.537153 0.804842 0.167566
0.845456 0.799521 0.152192
1.000000 0.795230 0.140658
0.061856 1.000000 0.154534
0.232979 1.000000 0.144217
0.541874 1.000000 0.128167
0.850769 1.000000 0.112116
1.000000 1.000000 0.099503
0.000000 0.010394 0.640078
0.208227 0.010892 0.627397
0.517122 0.011526 0.611346
0.826017 0.012159 0.595296
0.995072 0.012505 0.585048
0.000000 0.236573 0.598693
0.213741 0.232286 0.587092
0.522043 0.226965 0.571718
0.830346 0.221643 0.556344
1.000000 0.217272 0.546096
0.016290 0.524651 0.546299
0.221697 0.520322 0.535374
0.530000 0.515000 0.520000
0.838303 0.509678 0.504626
1.000000 0.505349 0.493701
0.044730 0.812728 0.493904
0.229654 0.808357 0.483656
0.537957 0.803035 0.468282
0.846259 0.797714 0.452908
1.000000 0.793427 0.441307
0.064928 1.000000 0.454952
0.233983 1.000000 0.444704
0.542878 1.000000 0.428654
0.851773 1.000000 0.412603
1.000000 1.000000 0.399922
0.000000 0.010614 0.940497
0.209231 0.011107 0.927884
0.518126 0.011741 0.911833
0.827021 0.012375 0.895783
0.998144 0.012725 0.885466
0.000000 0.234770 0.899342
0.214544 0.230479 0.887808
0.522847 0.225158 0.872434
0.831149 0.219836 0.857061
1.000000 0.215469 0.846744
0.019161 0.522848 0.846947
0.222501 0.518514 0.836090
0.530803 0.513193 0.820717
0.839106 0.507871 0.805343
1.000000 0.503546 0.794349
0.047601 0.810925 0.794552
0.230457 0.806550 0.784372
0.538760 0.801228 0.768999
0.847062 0.795906 0.753625
1.000000 0.791624 0.741955
0.068000 1.000000 0.755371
0.234988 1.000000 0.745191
0.543882 1.000000 0.729140
0.852777 1.000000 0.713090
1.000000 1.000000 0.700340
0.000000 0.010722 1.000000
0.209142 0.011215 1.000000
0.518097 0.011853 1.000000
0.827051 0.012491 1.000000
0.999872 0.012848 1.000000
0.000000 0.233276 1.000000
0.214455 0.228985 1.000000
0.522817 0.223668 1.000000
0.831180 0.218351 1.000000
1.000000 0.213990 1.000000
0.020875 0.521368 1.000000
0.222613 0.517035 1.000000
0.530975 0.511718 1.000000
0.839338 0.506400 1.000000
1.000000 0.502082 0.998846
0.049516 0.809460 0.997696
0.230770 0.805084 0.992233
0.539133 0.799767 0.982704
0.847495 0.794450 0.973175
1.000000 0.790174 0.966113
0.070236 1.000000 0.974016
0.235622 1.000000 0.968553
0.544576 1.000000 0.958347
0.853531 1.000000 0.948142
1.000000 1.000000 0.940000
