assets/luts/tealorange.cube
# Teal & Orange — Studio filter "tealorange"
# Generated by scripts/generate-filter-luts.mjs — do not edit by hand.
LUT_3D_SIZE 9
DOMAIN_MIN 0.0 0.0 0.0
DOMAIN_MAX 1.0 1.0 1.0
0.000000 0.010000 0.100000
0.071519 0.010230 0.096316
0.206469 0.010509 0.091858
0.357041 0.010820 0.086885
0.515424 0.011147 0.081653
0.673806 0.011474 0.076421
0.824378 0.011785 0.071447
0.959329 0.012063 0.066989
0.989764 0.012126 0.065984
0.000000 0.113988 0.088185
0.074250 0.112054 0.084990
0.208942 0.109731 0.080827
0.359225 0.107140 0.076183
0.517304 0.104414 0.071298
0.675383 0.101688 0.066413
0.825666 0.099096 0.061769
0.960358 0.096774 0.057607
0.997973 0.094702 0.056602
0.000000 0.239826 0.073887
0.077813 0.237873 0.070988
0.212505 0.235550 0.066825
0.362788 0.232959 0.062181
0.520867 0.230233 0.057296
0.678946 0.227507 0.052411
0.829230 0.224916 0.047767
0.963922 0.222593 0.043605
1.000000 0.220540 0.042304
0.000000 0.380230 0.057935
0.081788 0.378257 0.055365
0.216481 0.375934 0.051202
0.366764 0.373343 0.046558
0.524843 0.370617 0.041673
0.682922 0.367891 0.036788
0.833205 0.365299 0.032144
0.967897 0.362977 0.027982
1.000000 0.360944 0.026351
0.011490 0.527918 0.041154
0.085970 0.525922 0.038931
0.220662 0.523600 0.034769
0.370946 0.521008 0.030125
0.529025 0.518282 0.025240
0.687104 0.515557 0.020355
0.837387 0.512965 0.015711
0.972079 0.510643 0.011549
1.000000 0.508632 0.009571
0.026172 0.675605 0.024374
0.090152 0.673588 0.022498
0.224844 0.671266 0.018336
0.375128 0.668674 0.013692
0.533207 0.665948 0.008807
0.691286 0.663222 0.003922
0.841569 0.660631 0.000000
0.976261 0.658308 0.000000
1.000000 0.656319 0.000000
0.040131 0.816010 0.008422
0.094128 0.813972 0.006875
0.228820 0.811649 0.002713
0.379104 0.809058 0.000000
0.537183 0.806332 0.000000
0.695262 0.803606 0.000000
0.845545 0.801015 0.000000
0.980237 0.798692 0.000000
1.000000 0.796724 0.000000
0.052641 0.941847 0.000000
0.097691 0.939791 0.000000
0.232383 0.937469 0.000000
0.382667 0.934877 0.000000
0.540746 0.932151 0.000000
0.698825 0.929425 0.000000
0.849108 0.926834 0.000000
0.983800 0.924511 0.000000
1.000000 0.922561 0.000000
0.060128 1.000000 0.000000
0.097998 1.000000 0.000000
0.232949 1.000000 0.000000
0.383521 1.000000 0.000000
0.541903 1.000000 0.000000
0.700286 1.000000 0.000000
0.850858 1.000000 0.000000
0.985808 1.000000 0.000000
1.000000 1.000000 0.000000
0.000000 0.010079 0.208438
0.071860 0.010306 0.202669
0.206784 0.010583 0.195658
0.357327 0.010892 0.187836
0.515679 0.011217 0.179608
0.674031 0.011541 0.171380
0.824574 0.011850 0.163558
0.959498 0.012127 0.156547
0.990658 0.012190 0.153407
0.000000 0.113332 0.189608
0.074445 0.111395 0.184328
0.209111 0.109070 0.177613
0.359365 0.106476 0.170120
0.517414 0.103748 0.162239
0.675462 0.101020 0.154358
0.825717 0.098427 0.146866
0.960382 0.096102 0.140151
0.998722 0.094031 0.137011
0.000000 0.239164 0.166723
0.077921 0.237208 0.161738
0.212587 0.234883 0.155023
0.362841 0.232290 0.147530
0.520889 0.229562 0.139649
0.678938 0.226833 0.131768
0.829192 0.224240 0.124275
0.963858 0.221915 0.117560
1.000000 0.219862 0.114125
0.000000 0.379561 0.141188
0.081798 0.377584 0.136533
0.216464 0.375260 0.129817
0.366719 0.372666 0.122325
0.524767 0.369938 0.114444
0.682815 0.367210 0.106563
0.833070 0.364617 0.099070
0.967736 0.362292 0.092355
1.000000 0.360260 0.088590
0.012165 0.527241 0.114328
0.085877 0.525243 0.110020
0.220543 0.522918 0.103305
0.370798 0.520325 0.095812
0.528846 0.517597 0.087931
0.686894 0.514869 0.080050
0.837149 0.512275 0.072558
0.971815 0.509951 0.065842
1.000000 0.507940 0.061731
0.026744 0.674921 0.087469
0.089956 0.672901 0.083507
0.224622 0.670577 0.076792
0.374876 0.667983 0.069300
0.532925 0.665255 0.061418
0.690973 0.662527 0.053537
0.841227 0.659933 0.046045
0.975893 0.657609 0.039330
1.000000 0.655620 0.034871
0.040605 0.815319 0.061934
0.093834 0.813278 0.058302
0.228500 0.810953 0.051587
0.378754 0.808360 0.044094
0.536803 0.805632 0.036213
0.694851 0.802904 0.028332
0.845105 0.800310 0.020840
0.979771 0.797986 0.014124
1.000000 0.796017 0.009336
0.053027 0.941150 0.039048
0.097309 0.939091 0.035712
0.231975 0.936767 0.028997
0.382230 0.934173 0.021504
0.540278 0.931445 0.013623
0.698326 0.928717 0.005742
0.848581 0.926123 0.000000
0.983247 0.923799 0.000000
1.000000 0.921849 0.000000
0.060514 1.000000 0.023312
0.097616 1.000000 0.019976
0.232540 1.000000 0.012965
0.383083 1.000000 0.005143
0.541435 1.000000 0.000000
0.699787 1.000000 0.000000
0.850330 1.000000 0.000000
0.985254 1.000000 0.000000
1.000000 1.000000 0.000000
0.000000 0.010175 0.339660
0.072298 0.010400 0.333921
0.207223 0.010677 0.326910
0.357766 0.010986 0.319088
0.516118 0.011311 0.310860
0.674469 0.011635 0.302632
0.825012 0.011944 0.294809
0.959937 0.012221 0.287799
0.992000 0.012286 0.284629
0.000000 0.112545 0.320931
0.074796 0.110605 0.315680
0.209462 0.108281 0.308965
0.359716 0.105687 0.301473
0.517765 0.102959 0.293592
0.675813 0.100231 0.285710
0.826067 0.097637 0.278218
0.960733 0.095313 0.271503
0.999976 0.093243 0.268333
0.000000 0.238376 0.298045
0.078272 0.236418 0.293090
0.212938 0.234094 0.286375
0.363192 0.231500 0.278883
0.521240 0.228772 0.271001
0.679289 0.226044 0.263120
0.829543 0.223450 0.255628
0.964209 0.221126 0.248913
1.000000 0.219075 0.245448
0.000000 0.378774 0.272510
0.082149 0.376795 0.267885
0.216815 0.374470 0.261170
0.367069 0.371877 0.253677
0.525118 0.369149 0.245796
0.683166 0.366421 0.237915
0.833421 0.363827 0.230423
0.968086 0.361503 0.223707
1.000000 0.359472 0.219913
0.013419 0.526454 0.245651
0.086228 0.524453 0.241372
0.220894 0.522129 0.234657
0.371148 0.519535 0.227165
0.529197 0.516807 0.219283
0.687245 0.514079 0.211402
0.837499 0.511486 0.203910
0.972165 0.509161 0.197195
1.000000 0.507152 0.193053
0.027998 0.674134 0.218791
0.090307 0.672112 0.214860
0.224973 0.669787 0.208144
0.375227 0.667194 0.200652
0.533276 0.664466 0.192771
0.691324 0.661738 0.184890
0.841578 0.659144 0.177397
0.976244 0.656820 0.170682
1.000000 0.654832 0.166193
0.041859 0.814531 0.193256
0.094185 0.812489 0.189654
0.228851 0.810164 0.182939
0.379105 0.807570 0.175447
0.537153 0.804842 0.167566
0.695202 0.802114 0.159684
0.845456 0.799521 0.152192
0.980122 0.797196 0.145477
1.000000 0.795230 0.140658
0.054281 0.940363 0.170370
0.097660 0.938302 0.167064
0.232326 0.935977 0.160349
0.382580 0.933384 0.152856
0.540629 0.930656 0.144975
0.698677 0.927927 0.137094
0.848931 0.925334 0.129602
0.983597 0.923009 0.122886
1.000000 0.921061 0.117773
0.061856 1.000000 0.154534
0.098055 1.000000 0.151228
0.232979 1.000000 0.144217
0.383522 1.000000 0.136395
0.541874 1.000000 0.128167
0.700226 1.000000 0.119939
0.850769 1.000000 0.112116
0.985693 1.000000 0.105106
1.000000 1.000000 0.099503
0.000000 0.010282 0.486071
0.072788 0.010505 0.480366
0.207712 0.010782 0.473355
0.358255 0.011091 0.465533
0.516607 0.011416 0.457305
0.674959 0.011740 0.449077
0.825502 0.012049 0.441255
0.960426 0.012326 0.434244
0.993497 0.012393 0.431041
0.000000 0.111666 0.467455
0.075188 0.109724 0.462238
0.209854 0.107400 0.455522
0.360108 0.104806 0.448030
0.518156 0.102078 0.440149
0.676205 0.099350 0.432268
0.826459 0.096757 0.424775
0.961125 0.094432 0.418060
1.000000 0.092365 0.414857
0.000000 0.237498 0.444569
0.078663 0.235537 0.439647
0.213329 0.233213 0.432932
0.363583 0.230619 0.425440
0.521632 0.227891 0.417558
0.679680 0.225163 0.409677
0.829934 0.222570 0.402185
0.964600 0.220245 0.395470
1.000000 0.218196 0.391971
0.000238 0.377895 0.419034
0.082541 0.375914 0.414442
0.217207 0.373590 0.407727
0.367461 0.370996 0.400234
0.525509 0.368268 0.392353
0.683558 0.365540 0.384472
0.833812 0.362946 0.376980
0.968478 0.360622 0.370264
1.000000 0.358593 0.366436
0.014818 0.525575 0.392174
0.086620 0.523573 0.387929
0.221286 0.521248 0.381214
0.371540 0.518655 0.373722
0.529588 0.515926 0.365841
0.687637 0.513198 0.357959
0.837891 0.510605 0.350467
0.972557 0.508280 0.343752
1.000000 0.506274 0.339577
0.029398 0.673255 0.365315
0.090699 0.671231 0.361417
0.225364 0.668907 0.354701
0.375619 0.666313 0.347209
0.533667 0.663585 0.339328
0.691716 0.660857 0.331447
0.841970 0.658263 0.323954
0.976636 0.655939 0.317239
1.000000 0.653954 0.312717
0.043258 0.813652 0.339780
0.094576 0.811608 0.336211
0.229242 0.809283 0.329496
0.379496 0.806690 0.322004
0.537545 0.803962 0.314123
0.695593 0.801234 0.306241
0.845848 0.798640 0.298749
0.980513 0.796315 0.292034
1.000000 0.794351 0.287182
0.055681 0.939484 0.316894
0.098052 0.937421 0.313621
0.232718 0.935096 0.306906
0.382972 0.932503 0.299414
0.541020 0.929775 0.291532
0.699069 0.927047 0.283651
0.849323 0.924453 0.276159
0.983989 0.922129 0.269444
1.000000 0.920183 0.264296
0.063353 1.000000 0.300946
0.098544 1.000000 0.297673
0.233469 1.000000 0.290662
0.384011 1.000000 0.282840
0.542363 1.000000 0.274612
0.700715 1.000000 0.266384
0.851258 1.000000 0.258562
0.986183 1.000000 0.251551
1.000000 1.000000 0.245915
0.000000 0.010394 0.640078
0.073303 0.010616 0.634407
0.208227 0.010892 0.627397
0.358770 0.011201 0.619575
0.517122 0.011526 0.611346
0.675474 0.011851 0.603118
0.826017 0.012159 0.595296
0.960941 0.012436 0.588286
0.995072 0.012505 0.585048
0.000000 0.110742 0.621579
0.075599 0.108798 0.616397
0.210265 0.106473 0.609682
0.360520 0.103880 0.602189
0.518568 0.101152 0.594308
0.676616 0.098424 0.586427
0.826871 0.095830 0.578935
0.961537 0.093506 0.572219
1.000000 0.091440 0.568982
0.000000 0.236573 0.598693
0.079075 0.234611 0.593807
0.213741 0.232286 0.587092
0.363995 0.229693 0.579599
0.522043 0.226965 0.571718
0.680092 0.224237 0.563837
0.830346 0.221643 0.556344
0.965012 0.219319 0.549629
1.000000 0.217272 0.546096
0.001710 0.376971 0.573158
0.082953 0.374988 0.568601
0.217618 0.372663 0.561886
0.367873 0.370070 0.554394
0.525921 0.367342 0.546513
0.683970 0.364613 0.538632
0.834224 0.362020 0.531139
0.968890 0.359695 0.524424
1.000000 0.357669 0.520561
0.016290 0.524651 0.546299
0.087031 0.522646 0.542089
0.221697 0.520322 0.535374
0.371952 0.517728 0.527881
0.530000 0.515000 0.520000
0.688048 0.512272 0.512119
0.838303 0.509678 0.504626
0.972969 0.507354 0.497911
1.000000 0.505349 0.493701
0.030869 0.672331 0.519439
0.091110 0.670305 0.515576
0.225776 0.667980 0.508861
0.376030 0.665387 0.501368
0.534079 0.662658 0.493487
0.692127 0.659930 0.485606
0.842382 0.657337 0.478114
0.977047 0.655012 0.471399
1.000000 0.653029 0.466842
0.044730 0.812728 0.493904
0.094988 0.810681 0.490371
0.229654 0.808357 0.483656
0.379908 0.805763 0.476163
0.537957 0.803035 0.468282
0.696005 0.800307 0.460401
0.846259 0.797714 0.452908
0.980925 0.795389 0.446193
1.000000 0.793427 0.441307
0.057153 0.938560 0.471018
0.098463 0.936494 0.467781
0.233129 0.934170 0.461065
0.383384 0.931576 0.453573
0.541432 0.928848 0.445692
0.699480 0.926120 0.437811
0.849735 0.923527 0.430318
0.984401 0.921202 0.423603
1.000000 0.919258 0.418421
0.064928 1.000000 0.454952
0.099059 1.000000 0.451714
0.233983 1.000000 0.444704
0.384526 1.000000 0.436882
0.542878 1.000000 0.428654
0.701230 1.000000 0.420425
0.851773 1.000000 0.412603
0.986697 1.000000 0.405593
1.000000 1.000000 0.399922
0.000000 0.010507 0.794085
0.073817 0.010726 0.788449
0.208742 0.011003 0.781438
0.359285 0.011311 0.773616
0.517637 0.011636 0.765388
0.675989 0.011961 0.757160
0.826531 0.012270 0.749338
0.961456 0.012546 0.742327
0.996647 0.012618 0.739054
0.000000 0.109817 0.775704
0.076011 0.107871 0.770556
0.210677 0.105547 0.763841
0.360931 0.102953 0.756349
0.518980 0.100225 0.748468
0.677028 0.097497 0.740586
0.827282 0.094904 0.733094
0.961948 0.092579 0.726379
1.000000 0.090516 0.723106
0.000000 0.235649 0.752818
0.079487 0.233685 0.747966
0.214152 0.231360 0.741251
0.364407 0.228766 0.733759
0.522455 0.226038 0.725877
0.680504 0.223310 0.717996
0.830758 0.220717 0.710504
0.965424 0.218392 0.703789
1.000000 0.216348 0.700220
0.003182 0.376046 0.727283
0.083364 0.374061 0.722761
0.218030 0.371737 0.716046
0.368284 0.369143 0.708553
0.526333 0.366415 0.700672
0.684381 0.363687 0.692791
0.834636 0.361093 0.685299
0.969301 0.358769 0.678583
1.000000 0.356745 0.674685
0.017762 0.523726 0.700423
0.087443 0.521720 0.696248
0.222109 0.519395 0.689533
0.372363 0.516802 0.682041
0.530412 0.514074 0.674159
0.688460 0.511345 0.666278
0.838714 0.508752 0.658786
0.973380 0.506427 0.652071
1.000000 0.504425 0.647826
0.032341 0.671407 0.673564
0.091522 0.669378 0.669736
0.226188 0.667054 0.663020
0.376442 0.664460 0.655528
0.534491 0.661732 0.647647
0.692539 0.659004 0.639766
0.842793 0.656410 0.632273
0.977459 0.654086 0.625558
1.000000 0.652105 0.620966
0.046202 0.811804 0.648029
0.095400 0.809755 0.644530
0.230066 0.807430 0.637815
0.380320 0.804837 0.630323
0.538368 0.802109 0.622442
0.696417 0.799381 0.614560
0.846671 0.796787 0.607068
0.981337 0.794463 0.600353
1.000000 0.792502 0.595431
0.058624 0.937635 0.625143
0.098875 0.935568 0.621940
0.233541 0.933243 0.615225
0.383795 0.930650 0.607732
0.541844 0.927922 0.599851
0.699892 0.925194 0.591970
0.850146 0.922600 0.584478
0.984812 0.920276 0.577762
1.000000 0.918334 0.572545
0.066503 1.000000 0.608959
0.099574 1.000000 0.605756
0.234498 1.000000 0.598745
0.385041 1.000000 0.590923
0.543393 1.000000 0.582695
0.701745 1.000000 0.574467
0.852288 1.000000 0.566645
0.987212 1.000000 0.559634
1.000000 1.000000 0.553929
0.000000 0.010614 0.940497
0.074307 0.010831 0.934894
0.209231 0.011107 0.927884
0.359774 0.011416 0.920061
0.518126 0.011741 0.911833
0.676478 0.012066 0.903605
0.827021 0.012375 0.895783
0.961945 0.012651 0.888772
0.998144 0.012725 0.885466
0.000000 0.108939 0.922227
0.076403 0.106991 0.917114
0.211069 0.104666 0.910398
0.361323 0.102073 0.902906
0.519371 0.099344 0.895025
0.677420 0.096616 0.887144
0.827674 0.094023 0.879651
0.962340 0.091698 0.872936
1.000000 0.089637 0.869630
0.000000 0.234770 0.899342
0.079878 0.232804 0.894523
0.214544 0.230479 0.887808
0.364798 0.227886 0.880316
0.522847 0.225158 0.872434
0.680895 0.222430 0.864553
0.831149 0.219836 0.857061
0.965815 0.217511 0.850346
1.000000 0.215469 0.846744
0.004581 0.375168 0.873807
0.083756 0.373180 0.869318
0.218422 0.370856 0.862603
0.368676 0.368262 0.855110
0.526724 0.365534 0.847229
0.684773 0.362806 0.839348
0.835027 0.360213 0.831856
0.969693 0.357888 0.825140
1.000000 0.355866 0.821209
0.019161 0.522848 0.846947
0.087835 0.520839 0.842805
0.222501 0.518514 0.836090
0.372755 0.515921 0.828598
0.530803 0.513193 0.820717
0.688852 0.510465 0.812835
0.839106 0.507871 0.805343
0.973772 0.505547 0.798628
1.000000 0.503546 0.794349
0.033740 0.670528 0.820087
0.091914 0.668497 0.816293
0.226579 0.666173 0.809577
0.376834 0.663579 0.802085
0.534882 0.660851 0.794204
0.692931 0.658123 0.786323
0.843185 0.655530 0.778830
0.977851 0.653205 0.772115
1.000000 0.651226 0.767490
0.047601 0.810925 0.794552
0.095791 0.808874 0.791087
0.230457 0.806550 0.784372
0.380711 0.803956 0.776880
0.538760 0.801228 0.768999
0.696808 0.798500 0.761117
0.847062 0.795906 0.753625
0.981728 0.793582 0.746910
1.000000 0.791624 0.741955
0.060024 0.936757 0.771667
0.099267 0.934687 0.768497
0.233933 0.932363 0.761782
0.384187 0.929769 0.754290
0.542235 0.927041 0.746408
0.700284 0.924313 0.738527
0.850538 0.921719 0.731035
0.985204 0.919395 0.724320
1.000000 0.917455 0.719069
0.068000 1.000000 0.755371
0.100063 1.000000 0.752201
0.234988 1.000000 0.745191
0.385531 1.000000 0.737368
0.543882 1.000000 0.729140
0.702234 1.000000 0.720912
0.852777 1.000000 0.713090
0.987702 1.000000 0.706079
1.000000 1.000000 0.700340
0.000000 0.010710 1.000000
0.074746 0.010925 1.000000
0.209670 0.011201 1.000000
0.360213 0.011510 1.000000
0.518565 0.011835 1.000000
0.676917 0.012160 1.000000
0.827460 0.012469 1.000000
0.962384 0.012745 1.000000
0.999486 0.012820 1.000000
0.000000 0.108151 1.000000
0.076753 0.106201 1.000000
0.211419 0.103877 1.000000
0.361674 0.101283 1.000000
0.519722 0.098555 1.000000
0.677770 0.095827 1.000000
0.828025 0.093233 1.000000
0.962691 0.090909 1.000000
1.000000 0.088850 1.000000
0.000000 0.233983 1.000000
0.080229 0.232014 1.000000
0.214895 0.229690 1.000000
0.365149 0.227096 1.000000
0.523197 0.224368 1.000000
0.681246 0.221640 0.995906
0.831500 0.219047 0.988413
0.966166 0.216722 0.981698
1.000000 0.214681 0.978066
0.005835 0.374380 1.000000
0.084107 0.372391 1.000000
0.218773 0.370067 0.993955
0.369027 0.367473 0.986463
0.527075 0.364745 0.978582
0.685124 0.362017 0.970700
0.835378 0.359423 0.963208
0.970044 0.357099 0.956493
1.000000 0.355079 0.952531
0.020415 0.522060 0.978269
0.088185 0.520049 0.974158
0.222851 0.517725 0.967442
0.373106 0.515131 0.959950
0.531154 0.512403 0.952069
0.689202 0.509675 0.944188
0.839457 0.507082 0.936695
0.974123 0.504757 0.929980
1.000000 0.502759 0.925672
0.034995 0.669740 0.951410
0.092264 0.667708 0.947645
0.226930 0.665383 0.940930
0.377185 0.662790 0.933437
0.535233 0.660062 0.925556
0.693281 0.657334 0.917675
0.843536 0.654740 0.910183
0.978202 0.652416 0.903467
1.000000 0.650439 0.898812
0.048855 0.810138 0.925875
0.096142 0.808085 0.922440
0.230808 0.805760 0.915725
0.381062 0.803167 0.908232
0.539111 0.800438 0.900351
0.697159 0.797710 0.892470
0.847413 0.795117 0.884977
0.982079 0.792792 0.878262
1.000000 0.790836 0.873277
0.061278 0.935969 0.902989
0.099618 0.933898 0.899849
0.234283 0.931573 0.893134
0.384538 0.928980 0.885642
0.542586 0.926252 0.877761
0.700635 0.923524 0.869880
0.850889 0.920930 0.862387
0.985555 0.918605 0.855672
1.000000 0.916668 0.850392
0.069342 1.000000 0.886593
0.100502 1.000000 0.883453
0.235426 1.000000 0.876442
0.385969 1.000000 0.868620
0.544321 1.000000 0.860392
0.702673 1.000000 0.852164
0.853216 1.000000 0.844342
0.988140 1.000000 0.837331
1.000000 1.000000 0.831562
0.000000 0.010722 1.000000
0.074192 0.010937 1.000000
0.209142 0.011215 1.000000
0.359714 0.011526 1.000000
0.518097 0.011853 1.000000
0.676479 0.012180 1.000000
0.827051 0.012491 1.000000
0.962002 0.012770 1.000000
0.999872 0.012848 1.000000
0.000000 0.107439 1.000000
0.076200 0.105489 1.000000
0.210892 0.103166 1.000000
0.361175 0.100575 1.000000
0.519254 0.097849 1.000000
0.677333 0.095123 1.000000
0.827617 0.092531 1.000000
0.962309 0.090209 1.000000
1.000000 0.088153 1.000000
0.000000 0.233276 1.000000
0.079763 0.231308 1.000000
0.214455 0.228985 1.000000
0.364738 0.226394 1.000000
0.522817 0.223668 1.000000
0.680896 0.220942 1.000000
0.831180 0.218351 1.000000
0.965872 0.216028 1.000000
1.000000 0.213990 1.000000
0.006192 0.373681 1.000000
0.083739 0.371692 1.000000
0.218431 0.369369 1.000000
0.368714 0.366778 1.000000
0.526793 0.364052 1.000000
0.684872 0.361326 1.000000
0.835156 0.358734 1.000000
0.969848 0.356412 1.000000
1.000000 0.354395 1.000000
0.020875 0.521368 1.000000
0.087921 0.519357 1.000000
0.222613 0.517035 1.000000
0.372896 0.514443 1.000000
0.530975 0.511718 1.000000
0.689054 0.508992 1.000000
0.839338 0.506400 1.000000
0.974030 0.504078 1.000000
1.000000 0.502082 0.998846
0.035558 0.669056 1.000000
0.092103 0.667023 1.000000
0.226795 0.664701 1.000000
0.377078 0.662109 1.000000
0.535157 0.659383 0.998327
0.693236 0.656657 0.993442
0.843519 0.654066 0.988798
0.978212 0.651743 0.984635
1.000000 0.649770 0.982065
0.049516 0.809460 0.997696
0.096078 0.807407 0.996395
0.230770 0.805084 0.992233
0.381054 0.802493 0.987589
0.539133 0.799767 0.982704
0.697212 0.797041 0.977819
0.847495 0.794450 0.973175
0.982187 0.792127 0.969012
1.000000 0.790174 0.966113
0.062027 0.935298 0.983398
0.099642 0.933226 0.982393
0.234334 0.930904 0.978231
0.384617 0.928312 0.973587
0.542696 0.925586 0.968702
0.700775 0.922860 0.963817
0.851058 0.920269 0.959173
0.985750 0.917946 0.955010
1.000000 0.916012 0.951815
0.070236 1.000000 0.974016
0.100671 1.000000 0.973011
0.235622 1.000000 0.968553
0.386194 1.000000 0.963579
0.544576 1.000000 0.958347
0.702959 1.000000 0.953115
0.853531 1.000000 0.948142
0.988481 1.000000 0.943684
1.000000 1.000000 0.940000
