assets/luts/vintage.cube
# Vintage — Studio filter "vintage"
# Generated by scripts/generate-filter-luts.mjs — do not edit by hand.
LUT_3D_SIZE 9
DOMAIN_MIN 0.0 0.0 0.0
DOMAIN_MAX 1.0 1.0 1.0
0.070000 0.070000 0.070000
0.140849 0.079772 0.078666
0.217843 0.090392 0.088084
0.298932 0.101577 0.098003
0.382069 0.113044 0.108172
0.465206 0.124511 0.118342
0.546295 0.135696 0.128260
0.623288 0.146316 0.137678
0.694138 0.156088 0.146344
0.105200 0.163261 0.099154
0.176050 0.173033 0.107820
0.253043 0.183653 0.117238
0.334132 0.194837 0.127157
0.417269 0.206304 0.137326
0.500406 0.217772 0.147495
0.581495 0.228956 0.157414
0.658489 0.239576 0.166832
0.729338 0.249348 0.175498
0.143453 0.264608 0.130836
0.214302 0.274381 0.139502
0.291296 0.285000 0.148920
0.372385 0.296185 0.158839
0.455522 0.307652 0.169008
0.538659 0.319119 0.179178
0.619748 0.330304 0.189096
0.696741 0.340924 0.198514
0.767591 0.350696 0.207180
0.183741 0.371348 0.164204
0.254590 0.381120 0.172870
0.331583 0.391740 0.182288
0.412672 0.402924 0.192206
0.495809 0.414392 0.202376
0.578947 0.425859 0.212545
0.660036 0.437043 0.222464
0.737029 0.447663 0.231882
0.807878 0.457436 0.240548
0.225046 0.480783 0.198414
0.295895 0.490555 0.207080
0.372888 0.501175 0.216498
0.453978 0.512359 0.226417
0.537115 0.523827 0.236586
0.620252 0.535294 0.246755
0.701341 0.546479 0.256674
0.778334 0.557098 0.266092
0.849183 0.566871 0.274758
0.266351 0.590218 0.232624
0.337200 0.599990 0.241290
0.414194 0.610610 0.250708
0.495283 0.621795 0.260627
0.578420 0.633262 0.270796
0.661557 0.644729 0.280965
0.742646 0.655914 0.290884
0.819639 0.666533 0.300302
0.890489 0.676306 0.308968
0.306639 0.696957 0.265991
0.377488 0.706729 0.274658
0.454481 0.717349 0.284076
0.535570 0.728534 0.293994
0.618707 0.740001 0.304164
0.701845 0.751468 0.314333
0.782934 0.762653 0.324252
0.859927 0.773273 0.333670
0.930776 0.783045 0.342336
0.344891 0.798305 0.297674
0.415741 0.808077 0.306340
0.492734 0.818697 0.315758
0.573823 0.829882 0.325676
0.656960 0.841349 0.335846
0.740097 0.852816 0.346015
0.821186 0.864001 0.355934
0.898180 0.874620 0.365352
0.969029 0.884393 0.374018
0.380092 0.891565 0.326827
0.450941 0.901338 0.335494
0.527934 0.911957 0.344912
0.609023 0.923142 0.354830
0.692160 0.934609 0.365000
0.775297 0.946077 0.375169
0.856387 0.957261 0.385088
0.933380 0.967881 0.394506
0.992694 0.977328 0.402847
0.073553 0.073319 0.133329
0.144403 0.083091 0.141995
0.221396 0.093711 0.151413
0.302485 0.104896 0.161332
0.385622 0.116363 0.171501
0.468759 0.127830 0.181670
0.549849 0.139015 0.191589
0.626842 0.149634 0.201007
0.697691 0.159407 0.209673
0.108754 0.166579 0.162483
0.179603 0.176352 0.171149
0.256596 0.186971 0.180567
0.337685 0.198156 0.190486
0.420823 0.209623 0.200655
0.503960 0.221090 0.210824
0.585049 0.232275 0.220743
0.662042 0.242895 0.230161
0.732891 0.252667 0.238827
0.147006 0.267927 0.194165
0.217856 0.277699 0.202831
0.294849 0.288319 0.212249
0.375938 0.299504 0.222168
0.459075 0.310971 0.232337
0.542212 0.322438 0.242506
0.623301 0.333623 0.252425
0.700295 0.344243 0.261843
0.771144 0.354015 0.270509
0.187294 0.374666 0.227532
0.258143 0.384439 0.236199
0.335137 0.395058 0.245616
0.416226 0.406243 0.255535
0.499363 0.417710 0.265705
0.582500 0.429177 0.275874
0.663589 0.440362 0.285793
0.740582 0.450982 0.295211
0.811432 0.460754 0.303877
0.228599 0.484101 0.261743
0.299449 0.493874 0.270409
0.376442 0.504493 0.279827
0.457531 0.515678 0.289746
0.540668 0.527145 0.299915
0.623805 0.538613 0.310084
0.704894 0.549797 0.320003
0.781888 0.560417 0.329421
0.852737 0.570189 0.338087
0.269904 0.593536 0.295953
0.340754 0.603309 0.304619
0.417747 0.613929 0.314037
0.498836 0.625113 0.323956
0.581973 0.636580 0.334125
0.665110 0.648048 0.344294
0.746199 0.659232 0.354213
0.823193 0.669852 0.363631
0.894042 0.679624 0.372297
0.310192 0.700276 0.329320
0.381041 0.710048 0.337987
0.458035 0.720668 0.347404
0.539124 0.731853 0.357323
0.622261 0.743320 0.367493
0.705398 0.754787 0.377662
0.786487 0.765972 0.387581
0.863480 0.776591 0.396998
0.934330 0.786364 0.405665
0.348445 0.801624 0.361002
0.419294 0.811396 0.369669
0.496287 0.822016 0.379086
0.577377 0.833200 0.389005
0.660514 0.844668 0.399175
0.743651 0.856135 0.409344
0.824740 0.867319 0.419263
0.901733 0.877939 0.428681
0.972582 0.887712 0.437347
0.383645 0.894884 0.390156
0.454494 0.904656 0.398823
0.531488 0.915276 0.408240
0.612577 0.926461 0.418159
0.695714 0.937928 0.428329
0.778851 0.949395 0.438498
0.859940 0.960580 0.448417
0.936933 0.971200 0.457834
0.993542 0.980571 0.466100
0.077415 0.076925 0.202149
0.148265 0.086698 0.210816
0.225258 0.097317 0.220234
0.306347 0.108502 0.230152
0.389484 0.119969 0.240322
0.472621 0.131436 0.250491
0.553710 0.142621 0.260410
0.630703 0.153241 0.269828
0.701553 0.163013 0.278494
0.112615 0.170186 0.231303
0.183465 0.179958 0.239970
0.260458 0.190578 0.249387
0.341547 0.201763 0.259306
0.424684 0.213230 0.269476
0.507821 0.224697 0.279645
0.588910 0.235882 0.289564
0.665904 0.246501 0.298982
0.736753 0.256274 0.307648
0.150868 0.271534 0.262985
0.221717 0.281306 0.271652
0.298711 0.291926 0.281070
0.379800 0.303110 0.290988
0.462937 0.314578 0.301158
0.546074 0.326045 0.311327
0.627163 0.337229 0.321246
0.704156 0.347849 0.330664
0.775006 0.357621 0.339330
0.191156 0.378273 0.296353
0.262005 0.388045 0.305019
0.338998 0.398665 0.314437
0.420087 0.409850 0.324356
0.503225 0.421317 0.334525
0.586362 0.432784 0.344694
0.667451 0.443969 0.354613
0.744444 0.454588 0.364031
0.815293 0.464361 0.372697
0.232461 0.487708 0.330563
0.303310 0.497480 0.339229
0.380304 0.508100 0.348647
0.461393 0.519285 0.358566
0.544530 0.530752 0.368735
0.627667 0.542219 0.378905
0.708756 0.553404 0.388824
0.785749 0.564024 0.398241
0.856599 0.573796 0.406908
0.273766 0.597143 0.364773
0.344615 0.606915 0.373440
0.421609 0.617535 0.382857
0.502698 0.628720 0.392776
0.585835 0.640187 0.402946
0.668972 0.651654 0.413115
0.750061 0.662839 0.423034
0.827054 0.673459 0.432452
0.897904 0.683231 0.441118
0.314054 0.703882 0.398141
0.384903 0.713655 0.406807
0.461896 0.724274 0.416225
0.542985 0.735459 0.426144
0.626123 0.746926 0.436313
0.709260 0.758393 0.446482
0.790349 0.769578 0.456401
0.867342 0.780198 0.465819
0.938191 0.789970 0.474485
0.352306 0.805230 0.429823
0.423156 0.815002 0.438489
0.500149 0.825622 0.447907
0.581238 0.836807 0.457826
0.664375 0.848274 0.467995
0.747512 0.859741 0.478165
0.828601 0.870926 0.488083
0.905595 0.881546 0.497501
0.976444 0.891318 0.506167
0.387507 0.898491 0.458977
0.458356 0.908263 0.467643
0.535349 0.918883 0.477061
0.616438 0.930067 0.486980
0.699576 0.941535 0.497149
0.782713 0.953002 0.507318
0.863802 0.964186 0.517237
0.940795 0.974806 0.526655
0.994464 0.984095 0.534837
0.081482 0.080724 0.274631
0.152332 0.090496 0.283297
0.229325 0.101116 0.292715
0.310414 0.112300 0.302634
0.393551 0.123768 0.312803
0.476688 0.135235 0.322973
0.557777 0.146419 0.332892
0.634770 0.157039 0.342309
0.705620 0.166812 0.350976
0.116682 0.173984 0.303785
0.187532 0.183756 0.312451
0.264525 0.194376 0.321869
0.345614 0.205561 0.331788
0.428751 0.217028 0.341957
0.511888 0.228495 0.352127
0.592977 0.239680 0.362045
0.669971 0.250300 0.371463
0.740820 0.260072 0.380130
0.154935 0.275332 0.335467
0.225785 0.285104 0.344133
0.302778 0.295724 0.353551
0.383867 0.306909 0.363470
0.467004 0.318376 0.373639
0.550141 0.329843 0.383809
0.631230 0.341028 0.393728
0.708223 0.351648 0.403145
0.779073 0.361420 0.411812
0.195223 0.382071 0.368835
0.266072 0.391844 0.377501
0.343065 0.402463 0.386919
0.424155 0.413648 0.396838
0.507292 0.425115 0.407007
0.590429 0.436582 0.417176
0.671518 0.447767 0.427095
0.748511 0.458387 0.436513
0.819360 0.468159 0.445179
0.236528 0.491506 0.403045
0.307377 0.501279 0.411711
0.384371 0.511898 0.421129
0.465460 0.523083 0.431048
0.548597 0.534550 0.441217
0.631734 0.546017 0.451386
0.712823 0.557202 0.461305
0.789816 0.567822 0.470723
0.860666 0.577594 0.479389
0.277833 0.600941 0.437255
0.348683 0.610714 0.445921
0.425676 0.621333 0.455339
0.506765 0.632518 0.465258
0.589902 0.643985 0.475427
0.673039 0.655453 0.485597
0.754128 0.666637 0.495515
0.831121 0.677257 0.504933
0.901971 0.687029 0.513600
0.318121 0.707681 0.470623
0.388970 0.717453 0.479289
0.465963 0.728073 0.488707
0.547053 0.739257 0.498626
0.630190 0.750725 0.508795
0.713327 0.762192 0.518964
0.794416 0.773377 0.528883
0.871409 0.783996 0.538301
0.942258 0.793769 0.546967
0.356374 0.809028 0.502305
0.427223 0.818801 0.510971
0.504216 0.829421 0.520389
0.585305 0.840605 0.530308
0.668442 0.852072 0.540477
0.751579 0.863540 0.550646
0.832669 0.874724 0.560565
0.909662 0.885344 0.569983
0.980511 0.895116 0.578649
0.391574 0.902289 0.531459
0.462423 0.912061 0.540125
0.539416 0.922681 0.549543
0.620505 0.933866 0.559462
0.703643 0.945333 0.569631
0.786780 0.956800 0.579800
0.867869 0.967985 0.589719
0.944862 0.978605 0.599137
0.995434 0.987806 0.607232
0.085652 0.084618 0.348943
0.156501 0.094390 0.357610
0.233495 0.105010 0.367028
0.314584 0.116195 0.376946
0.397721 0.127662 0.387116
0.480858 0.139129 0.397285
0.561947 0.150314 0.407204
0.638940 0.160934 0.416622
0.709790 0.170706 0.425288
0.120852 0.177878 0.378097
0.191702 0.187651 0.386764
0.268695 0.198271 0.396181
0.349784 0.209455 0.406100
0.432921 0.220922 0.416270
0.516058 0.232390 0.426439
0.597147 0.243574 0.436358
0.674141 0.254194 0.445776
0.744990 0.263966 0.454442
0.159105 0.279226 0.409779
0.229954 0.288999 0.418446
0.306948 0.299618 0.427864
0.388037 0.310803 0.437782
0.471174 0.322270 0.447952
0.554311 0.333737 0.458121
0.635400 0.344922 0.468040
0.712393 0.355542 0.477458
0.783243 0.365314 0.486124
0.199393 0.385966 0.443147
0.270242 0.395738 0.451813
0.347235 0.406358 0.461231
0.428324 0.417542 0.471150
0.511461 0.429010 0.481319
0.594599 0.440477 0.491488
0.675688 0.451661 0.501407
0.752681 0.462281 0.510825
0.823530 0.472053 0.519491
0.240698 0.495401 0.477357
0.311547 0.505173 0.486023
0.388540 0.515793 0.495441
0.469630 0.526977 0.505360
0.552767 0.538445 0.515529
0.635904 0.549912 0.525699
0.716993 0.561096 0.535618
0.793986 0.571716 0.545035
0.864835 0.581489 0.553702
0.282003 0.604836 0.511567
0.352852 0.614608 0.520234
0.429846 0.625228 0.529651
0.510935 0.636412 0.539570
0.594072 0.647880 0.549740
0.677209 0.659347 0.559909
0.758298 0.670532 0.569828
0.835291 0.681151 0.579246
0.906141 0.690924 0.587912
0.322291 0.711575 0.544935
0.393140 0.721347 0.553601
0.470133 0.731967 0.563019
0.551222 0.743152 0.572938
0.634359 0.754619 0.583107
0.717497 0.766086 0.593276
0.798586 0.777271 0.603195
0.875579 0.787891 0.612613
0.946428 0.797663 0.621279
0.360543 0.812923 0.576617
0.431393 0.822695 0.585283
0.508386 0.833315 0.594701
0.589475 0.844500 0.604620
0.672612 0.855967 0.614789
0.755749 0.867434 0.624959
0.836838 0.878619 0.634877
0.913832 0.889238 0.644295
0.984681 0.899011 0.652961
0.395744 0.906183 0.605771
0.466593 0.915956 0.614437
0.543586 0.926575 0.623855
0.624675 0.937760 0.633774
0.707812 0.949227 0.643943
0.790949 0.960694 0.654112
0.872039 0.971879 0.664031
0.949032 0.982499 0.673449
0.996429 0.991611 0.681455
0.089822 0.088512 0.423256
0.160671 0.098285 0.431922
0.237664 0.108904 0.441340
0.318754 0.120089 0.451259
0.401891 0.131556 0.461428
0.485028 0.143023 0.471597
0.566117 0.154208 0.481516
0.643110 0.164828 0.490934
0.713959 0.174600 0.499600
0.125022 0.181773 0.452410
0.195871 0.191545 0.461076
0.272865 0.202165 0.470494
0.353954 0.213350 0.480413
0.437091 0.224817 0.490582
0.520228 0.236284 0.500751
0.601317 0.247469 0.510670
0.678310 0.258088 0.520088
0.749160 0.267861 0.528754
0.163275 0.283121 0.484092
0.234124 0.292893 0.492758
0.311117 0.303513 0.502176
0.392206 0.314697 0.512095
0.475344 0.326165 0.522264
0.558481 0.337632 0.532433
0.639570 0.348816 0.542352
0.716563 0.359436 0.551770
0.787412 0.369208 0.560436
0.203562 0.389860 0.517459
0.274412 0.399632 0.526126
0.351405 0.410252 0.535543
0.432494 0.421437 0.545462
0.515631 0.432904 0.555631
0.598768 0.444371 0.565801
0.679857 0.455556 0.575720
0.756851 0.466175 0.585137
0.827700 0.475948 0.593804
0.244868 0.499295 0.551669
0.315717 0.509067 0.560336
0.392710 0.519687 0.569754
0.473799 0.530872 0.579672
0.556936 0.542339 0.589842
0.640073 0.553806 0.600011
0.721163 0.564991 0.609930
0.798156 0.575611 0.619348
0.869005 0.585383 0.628014
0.286173 0.608730 0.585880
0.357022 0.618502 0.594546
0.434015 0.629122 0.603964
0.515104 0.640307 0.613883
0.598242 0.651774 0.624052
0.681379 0.663241 0.634221
0.762468 0.674426 0.644140
0.839461 0.685046 0.653558
0.910310 0.694818 0.662224
0.326460 0.715469 0.619247
0.397310 0.725242 0.627913
0.474303 0.735861 0.637331
0.555392 0.747046 0.647250
0.638529 0.758513 0.657419
0.721666 0.769980 0.667589
0.802755 0.781165 0.677508
0.879749 0.791785 0.686925
0.950598 0.801557 0.695592
0.364713 0.816817 0.650929
0.435562 0.826589 0.659596
0.512556 0.837209 0.669013
0.593645 0.848394 0.678932
0.676782 0.859861 0.689101
0.759919 0.871328 0.699271
0.841008 0.882513 0.709190
0.918001 0.893133 0.718607
0.988851 0.902905 0.727274
0.399913 0.910078 0.680083
0.470763 0.919850 0.688749
0.547756 0.930470 0.698167
0.628845 0.941654 0.708086
0.711982 0.953122 0.718255
0.795119 0.964589 0.728425
0.876208 0.975773 0.738344
0.953202 0.986393 0.747761
0.997424 0.995415 0.755677
0.093889 0.092311 0.495737
0.164738 0.102083 0.504404
0.241731 0.112703 0.513822
0.322821 0.123887 0.523740
0.405958 0.135355 0.533910
0.489095 0.146822 0.544079
0.570184 0.158007 0.553998
0.647177 0.168626 0.563416
0.718027 0.178399 0.572082
0.129089 0.185571 0.524891
0.199938 0.195343 0.533558
0.276932 0.205963 0.542975
0.358021 0.217148 0.552894
0.441158 0.228615 0.563064
0.524295 0.240082 0.573233
0.605384 0.251267 0.583152
0.682377 0.261887 0.592570
0.753227 0.271659 0.601236
0.167342 0.286919 0.556573
0.238191 0.296691 0.565240
0.315184 0.307311 0.574658
0.396274 0.318496 0.584576
0.479411 0.329963 0.594746
0.562548 0.341430 0.604915
0.643637 0.352615 0.614834
0.720630 0.363235 0.624252
0.791479 0.373007 0.632918
0.207629 0.393658 0.589941
0.278479 0.403431 0.598607
0.355472 0.414050 0.608025
0.436561 0.425235 0.617944
0.519698 0.436702 0.628113
0.602835 0.448169 0.638282
0.683925 0.459354 0.648201
0.760918 0.469974 0.657619
0.831767 0.479746 0.666285
0.248935 0.503093 0.624151
0.319784 0.512866 0.632817
0.396777 0.523485 0.642235
0.477866 0.534670 0.652154
0.561003 0.546137 0.662323
0.644141 0.557604 0.672493
0.725230 0.568789 0.682412
0.802223 0.579409 0.691829
0.873072 0.589181 0.700496
0.290240 0.612528 0.658361
0.361089 0.622301 0.667028
0.438082 0.632920 0.676445
0.519172 0.644105 0.686364
0.602309 0.655572 0.696534
0.685446 0.667040 0.706703
0.766535 0.678224 0.716622
0.843528 0.688844 0.726040
0.914377 0.698616 0.734706
0.330527 0.719268 0.691729
0.401377 0.729040 0.700395
0.478370 0.739660 0.709813
0.559459 0.750844 0.719732
0.642596 0.762312 0.729901
0.725733 0.773779 0.740070
0.806823 0.784964 0.749989
0.883816 0.795583 0.759407
0.954665 0.805356 0.768073
0.368780 0.820615 0.723411
0.439630 0.830388 0.732077
0.516623 0.841008 0.741495
0.597712 0.852192 0.751414
0.680849 0.863659 0.761583
0.763986 0.875127 0.771753
0.845075 0.886311 0.781671
0.922068 0.896931 0.791089
0.989995 0.906621 0.799673
0.403980 0.913876 0.752565
0.474830 0.923648 0.761231
0.551823 0.934268 0.770649
0.632912 0.945453 0.780568
0.716049 0.956920 0.790737
0.799186 0.968387 0.800906
0.880275 0.979572 0.810825
0.957269 0.990192 0.820243
0.998323 0.998323 0.828000
0.097750 0.095917 0.564558
0.168600 0.105689 0.573224
0.245593 0.116309 0.582642
0.326682 0.127494 0.592561
0.409819 0.138961 0.602730
0.492956 0.150428 0.612900
0.574046 0.161613 0.622818
0.651039 0.172233 0.632236
0.721888 0.182005 0.640902
0.132951 0.189178 0.593712
0.203800 0.198950 0.602378
0.280793 0.209570 0.611796
0.361882 0.220754 0.621715
0.445020 0.232222 0.631884
0.528157 0.243689 0.642053
0.609246 0.254874 0.651972
0.686239 0.265493 0.661390
0.757088 0.275266 0.670056
0.171203 0.290525 0.625394
0.242053 0.300298 0.634060
0.319046 0.310918 0.643478
0.400135 0.322102 0.653397
0.483272 0.333569 0.663566
0.566409 0.345037 0.673736
0.647498 0.356221 0.683654
0.724492 0.366841 0.693072
0.795341 0.376613 0.701738
0.211491 0.397265 0.658762
0.282340 0.407037 0.667428
0.359334 0.417657 0.676846
0.440423 0.428842 0.686764
0.523560 0.440309 0.696934
0.606697 0.451776 0.707103
0.687786 0.462961 0.717022
0.764779 0.473580 0.726440
0.835629 0.483353 0.735106
0.252796 0.506700 0.692972
0.323646 0.516472 0.701638
0.400639 0.527092 0.711056
0.481728 0.538277 0.720975
0.564865 0.549744 0.731144
0.648002 0.561211 0.741313
0.729091 0.572396 0.751232
0.806085 0.583015 0.760650
0.876934 0.592788 0.769316
0.294101 0.616135 0.727182
0.364951 0.625907 0.735848
0.441944 0.636527 0.745266
0.523033 0.647712 0.755185
0.606170 0.659179 0.765354
0.689307 0.670646 0.775524
0.770396 0.681831 0.785442
0.847390 0.692451 0.794860
0.918239 0.702223 0.803526
0.334389 0.722874 0.760550
0.405238 0.732647 0.769216
0.482232 0.743266 0.778634
0.563321 0.754451 0.788552
0.646458 0.765918 0.798722
0.729595 0.777385 0.808891
0.810684 0.788570 0.818810
0.887677 0.799190 0.828228
0.958527 0.808962 0.836894
0.372642 0.824222 0.792232
0.443491 0.833994 0.800898
0.520484 0.844614 0.810316
0.601574 0.855799 0.820234
0.684711 0.867266 0.830404
0.767848 0.878733 0.840573
0.848937 0.889918 0.850492
0.925930 0.900538 0.859910
0.990916 0.910145 0.868411
0.407842 0.917483 0.821386
0.478691 0.927255 0.830052
0.555685 0.937875 0.839470
0.636774 0.949059 0.849388
0.719911 0.960526 0.859558
0.803048 0.971994 0.869727
0.884137 0.983178 0.879646
0.961130 0.993798 0.889064
0.998991 0.998991 0.896484
0.101304 0.099236 0.627887
0.172153 0.109008 0.636553
0.249147 0.119628 0.645971
0.330236 0.130813 0.655890
0.413373 0.142280 0.666059
0.496510 0.153747 0.676228
0.577599 0.164932 0.686147
0.654592 0.175552 0.695565
0.725442 0.185324 0.704231
0.136504 0.192496 0.657041
0.207354 0.202269 0.665707
0.284347 0.212888 0.675125
0.365436 0.224073 0.685044
0.448573 0.235540 0.695213
0.531710 0.247008 0.705382
0.612799 0.258192 0.715301
0.689793 0.268812 0.724719
0.760642 0.278584 0.733385
0.174757 0.293844 0.688723
0.245606 0.303617 0.697389
0.322600 0.314236 0.706807
0.403689 0.325421 0.716726
0.486826 0.336888 0.726895
0.569963 0.348355 0.737064
0.651052 0.359540 0.746983
0.728045 0.370160 0.756401
0.798895 0.379932 0.765067
0.215045 0.400583 0.722090
0.285894 0.410356 0.730757
0.362887 0.420976 0.740175
0.443976 0.432160 0.750093
0.527113 0.443627 0.760263
0.610251 0.455095 0.770432
0.691340 0.466279 0.780351
0.768333 0.476899 0.789769
0.839182 0.486671 0.798435
0.256350 0.510019 0.756301
0.327199 0.519791 0.764967
0.404192 0.530411 0.774385
0.485282 0.541595 0.784304
0.568419 0.553063 0.794473
0.651556 0.564530 0.804642
0.732645 0.575714 0.814561
0.809638 0.586334 0.823979
0.880487 0.596107 0.832645
0.297655 0.619454 0.790511
0.368504 0.629226 0.799177
0.445498 0.639846 0.808595
0.526587 0.651030 0.818514
0.609724 0.662498 0.828683
0.692861 0.673965 0.838852
0.773950 0.685150 0.848771
0.850943 0.695769 0.858189
0.921793 0.705542 0.866855
0.337943 0.726193 0.823878
0.408792 0.735965 0.832545
0.485785 0.746585 0.841962
0.566874 0.757770 0.851881
0.650011 0.769237 0.862051
0.733149 0.780704 0.872220
0.814238 0.791889 0.882139
0.891231 0.802509 0.891557
0.962080 0.812281 0.900223
0.376195 0.827541 0.855560
0.447045 0.837313 0.864227
0.524038 0.847933 0.873645
0.605127 0.859118 0.883563
0.688264 0.870585 0.893733
0.771401 0.882052 0.903902
0.852490 0.893237 0.913821
0.929484 0.903856 0.923239
0.991764 0.913387 0.931663
0.411396 0.920801 0.884714
0.482245 0.930574 0.893381
0.559238 0.941193 0.902798
0.640327 0.952378 0.912717
0.723464 0.963845 0.922887
0.806601 0.975312 0.933056
0.887691 0.986497 0.942975
0.964684 0.997117 0.952393
0.999605 0.999605 0.959504
