assets/luts/vintage.cube
# Vintage — Studio filter "vintage"
# Generated by scripts/generate-filter-luts.mjs — do not edit by hand.
LUT_3D_SIZE 5
DOMAIN_MIN 0.0 0.0 0.0
DOMAIN_MAX 1.0 1.0 1.0
0.070000 0.070000 0.070000
0.217843 0.090392 0.088084
0.382069 0.113044 0.108172
0.546295 0.135696 0.128260
0.694138 0.156088 0.146344
0.143453 0.264608 0.130836
0.291296 0.285000 0.148920
0.455522 0.307652 0.169008
0.619748 0.330304 0.189096
0.767591 0.350696 0.207180
0.225046 0.480783 0.198414
0.372888 0.501175 0.216498
0.537115 0.523827 0.236586
0.701341 0.546479 0.256674
0.849183 0.566871 0.274758
0.306639 0.696957 0.265991
0.454481 0.717349 0.284076
0.618707 0.740001 0.304164
0.782934 0.762653 0.324252
0.930776 0.783045 0.342336
0.380092 0.891565 0.326827
0.527934 0.911957 0.344912
0.692160 0.934609 0.365000
0.856387 0.957261 0.385088
0.992694 0.977328 0.402847
0.077415 0.076925 0.202149
0.225258 0.097317 0.220234
0.389484 0.119969 0.240322
0.553710 0.142621 0.260410
0.701553 0.163013 0.278494
0.150868 0.271534 0.262985
0.298711 0.291926 0.281070
0.462937 0.314578 0.301158
0.627163 0.337229 0.321246
0.775006 0.357621 0.339330
0.232461 0.487708 0.330563
0.380304 0.508100 0.348647
0.544530 0.530752 0.368735
0.708756 0.553404 0.388824
0.856599 0.573796 0.406908
0.314054 0.703882 0.398141
0.461896 0.724274 0.416225
0.626123 0.746926 0.436313
0.790349 0.769578 0.456401
0.938191 0.789970 0.474485
0.387507 0.898491 0.458977
0.535349 0.918883 0.477061
0.699576 0.941535 0.497149
0.863802 0.964186 0.517237
0.994464 0.984095 0.534837
0.085652 0.084618 0.348943
0.233495 0.105010 0.367028
0.397721 0.127662 0.387116
0.561947 0.150314 0.407204
0.709790 0.170706 0.425288
0.159105 0.279226 0.409779
0.306948 0.299618 0.427864
0.471174 0.322270 0.447952
0.635400 0.344922 0.468040
0.783243 0.365314 0.486124
0.240698 0.495401 0.477357
0.388540 0.515793 0.495441
0.552767 0.538445 0.515529
0.716993 0.561096 0.535618
0.864835 0.581489 0.553702
0.322291 0.711575 0.544935
0.470133 0.731967 0.563019
0.634359 0.754619 0.583107
0.798586 0.777271 0.603195
0.946428 0.797663 0.621279
0.395744 0.906183 0.605771
0.543586 0.926575 0.623855
0.707812 0.949227 0.643943
0.872039 0.971879 0.664031
0.996429 0.991611 0.681455
0.093889 0.092311 0.495737
0.241731 0.112703 0.513822
0.405958 0.135355 0.533910
0.570184 0.158007 0.553998
0.718027 0.178399 0.572082
0.167342 0.286919 0.556573
0.315184 0.307311 0.574658
0.479411 0.329963 0.594746
0.643637 0.352615 0.614834
0.791479 0.373007 0.632918
0.248935 0.503093 0.624151
0.396777 0.523485 0.642235
0.561003 0.546137 0.662323
0.725230 0.568789 0.682412
0.873072 0.589181 0.700496
0.330527 0.719268 0.691729
0.478370 0.739660 0.709813
0.642596 0.762312 0.729901
0.806823 0.784964 0.749989
0.954665 0.805356 0.768073
0.403980 0.913876 0.752565
0.551823 0.934268 0.770649
0.716049 0.956920 0.790737
0.880275 0.979572 0.810825
0.998323 0.998323 0.828000
0.101304 0.099236 0.627887
0.249147 0.119628 0.645971
0.413373 0.142280 0.666059
0.577599 0.164932 0.686147
0.725442 0.185324 0.704231
0.174757 0.293844 0.688723
0.322600 0.314236 0.706807
0.486826 0.336888 0.726895
0.651052 0.359540 0.746983
0.798895 0.379932 0.765067
0.256350 0.510019 0.756301
0.404192 0.530411 0.774385
0.568419 0.553063 0.794473
0.732645 0.575714 0.814561
0.880487 0.596107 0.832645
0.337943 0.726193 0.823878
0.485785 0.746585 0.841962
0.650011 0.769237 0.862051
0.814238 0.791889 0.882139
0.962080 0.812281 0.900223
0.411396 0.920801 0.884714
0.559238 0.941193 0.902798
0.723464 0.963845 0.922887
0.887691 0.986497 0.942975
0.999605 0.999605 0.959504
