assets/luts/vintage.cube
# Vintage — Studio filter "vintage"
# Generated by scripts/generate-filter-luts.mjs — do not edit by hand.
LUT_3D_SIZE 17
DOMAIN_MIN 0.0 0.0 0.0
DOMAIN_MAX 1.0 1.0 1.0
0.070000 0.070000 0.070000
0.104529 0.074763 0.074224
0.140849 0.079772 0.078666
0.178706 0.084994 0.083297
0.217843 0.090392 0.088084
0.258003 0.095931 0.092997
0.298932 0.101577 0.098003
0.340372 0.107293 0.103072
0.382069 0.113044 0.108172
0.423765 0.118795 0.113273
0.465206 0.124511 0.118342
0.506134 0.130156 0.123348
0.546295 0.135696 0.128260
0.585432 0.141094 0.133048
0.623288 0.146316 0.137678
0.659609 0.151325 0.142121
0.694138 0.156088 0.146344
0.087155 0.115451 0.084208
0.121684 0.120213 0.088432
0.158004 0.125223 0.092875
0.195861 0.130445 0.097505
0.234998 0.135843 0.102292
0.275158 0.141382 0.107205
0.316087 0.147028 0.112211
0.357527 0.152744 0.117280
0.399224 0.158495 0.122380
0.440920 0.164246 0.127481
0.482361 0.169962 0.132550
0.523289 0.175607 0.137556
0.563450 0.181147 0.142469
0.602587 0.186545 0.147256
0.640443 0.191766 0.151886
0.676764 0.196776 0.156329
0.711293 0.201539 0.160553
0.105200 0.163261 0.099154
0.139729 0.168023 0.103377
0.176050 0.173033 0.107820
0.213906 0.178254 0.112451
0.253043 0.183653 0.117238
0.293203 0.189192 0.122150
0.334132 0.194837 0.127157
0.375573 0.200553 0.132226
0.417269 0.206304 0.137326
0.458966 0.212056 0.142426
0.500406 0.217772 0.147495
0.541335 0.223417 0.152502
0.581495 0.228956 0.157414
0.620632 0.234355 0.162201
0.658489 0.239576 0.166832
0.694809 0.244586 0.171275
0.729338 0.249348 0.175498
0.124009 0.213092 0.114732
0.158537 0.217855 0.118955
0.194858 0.222864 0.123398
0.232715 0.228086 0.128029
0.271851 0.233484 0.132816
0.312012 0.239023 0.137728
0.352940 0.244669 0.142735
0.394381 0.250385 0.147804
0.436077 0.256136 0.152904
0.477774 0.261887 0.158004
0.519215 0.267603 0.163073
0.560143 0.273248 0.168080
0.600304 0.278788 0.172992
0.639440 0.284186 0.177779
0.677297 0.289408 0.182410
0.713618 0.294417 0.186852
0.748146 0.299180 0.191076
0.143453 0.264608 0.130836
0.177982 0.269371 0.135060
0.214302 0.274381 0.139502
0.252159 0.279602 0.144133
0.291296 0.285000 0.148920
0.331456 0.290540 0.153833
0.372385 0.296185 0.158839
0.413825 0.301901 0.163908
0.455522 0.307652 0.169008
0.497218 0.313404 0.174109
0.538659 0.319119 0.179178
0.579587 0.324765 0.184184
0.619748 0.330304 0.189096
0.658885 0.335702 0.193884
0.696741 0.340924 0.198514
0.733062 0.345934 0.202957
0.767591 0.350696 0.207180
0.163406 0.317472 0.147362
0.197935 0.322235 0.151585
0.234255 0.327245 0.156028
0.272112 0.332466 0.160659
0.311249 0.337865 0.165446
0.351409 0.343404 0.170358
0.392338 0.349049 0.175365
0.433778 0.354765 0.180434
0.475475 0.360516 0.185534
0.517171 0.366268 0.190634
0.558612 0.371984 0.195703
0.599540 0.377629 0.200710
0.639701 0.383168 0.205622
0.678838 0.388567 0.210409
0.716694 0.393788 0.215040
0.753015 0.398798 0.219483
0.787544 0.403560 0.223706
0.183741 0.371348 0.164204
0.218269 0.376110 0.168427
0.254590 0.381120 0.172870
0.292447 0.386342 0.177500
0.331583 0.391740 0.182288
0.371744 0.397279 0.187200
0.412672 0.402924 0.192206
0.454113 0.408640 0.197275
0.495809 0.414392 0.202376
0.537506 0.420143 0.207476
0.578947 0.425859 0.212545
0.619875 0.431504 0.217551
0.660036 0.437043 0.222464
0.699172 0.442442 0.227251
0.737029 0.447663 0.231882
0.773350 0.452673 0.236324
0.807878 0.457436 0.240548
0.204330 0.425897 0.181256
0.238858 0.430659 0.185479
0.275179 0.435669 0.189922
0.313036 0.440891 0.194553
0.352172 0.446289 0.199340
0.392333 0.451828 0.204252
0.433261 0.457473 0.209259
0.474702 0.463189 0.214328
0.516398 0.468941 0.219428
0.558095 0.474692 0.224528
0.599536 0.480408 0.229597
0.640464 0.486053 0.234604
0.680625 0.491593 0.239516
0.719761 0.496991 0.244303
0.757618 0.502212 0.248934
0.793939 0.507222 0.253377
0.828467 0.511985 0.257600
0.225046 0.480783 0.198414
0.259574 0.485545 0.202637
0.295895 0.490555 0.207080
0.333752 0.495777 0.211711
0.372888 0.501175 0.216498
0.413049 0.506714 0.221410
0.453978 0.512359 0.226417
0.495418 0.518075 0.231486
0.537115 0.523827 0.236586
0.578811 0.529578 0.241686
0.620252 0.535294 0.246755
0.661180 0.540939 0.251762
0.701341 0.546479 0.256674
0.740477 0.551877 0.261461
0.778334 0.557098 0.266092
0.814655 0.562108 0.270535
0.849183 0.566871 0.274758
0.245762 0.535669 0.215572
0.280291 0.540431 0.219795
0.316611 0.545441 0.224238
0.354468 0.550663 0.228868
0.393605 0.556061 0.233656
0.433765 0.561600 0.238568
0.474694 0.567245 0.243574
0.516134 0.572961 0.248643
0.557831 0.578713 0.253744
0.599527 0.584464 0.258844
0.640968 0.590180 0.263913
0.681896 0.595825 0.268919
0.722057 0.601365 0.273832
0.761194 0.606763 0.278619
0.799050 0.611984 0.283250
0.835371 0.616994 0.287692
0.869900 0.621757 0.291916
0.266351 0.590218 0.232624
0.300880 0.594980 0.236847
0.337200 0.599990 0.241290
0.375057 0.605212 0.245921
0.414194 0.610610 0.250708
0.454354 0.616149 0.255620
0.495283 0.621795 0.260627
0.536723 0.627510 0.265696
0.578420 0.633262 0.270796
0.620116 0.639013 0.275896
0.661557 0.644729 0.280965
0.702485 0.650374 0.285972
0.742646 0.655914 0.290884
0.781783 0.661312 0.295671
0.819639 0.666533 0.300302
0.855960 0.671543 0.304745
0.890489 0.676306 0.308968
0.286686 0.644093 0.249466
0.321214 0.648855 0.253689
0.357535 0.653865 0.258132
0.395392 0.659087 0.262763
0.434528 0.664485 0.267550
0.474689 0.670024 0.272462
0.515617 0.675670 0.277469
0.557058 0.681386 0.282538
0.598754 0.687137 0.287638
0.640451 0.692888 0.292738
0.681891 0.698604 0.297807
0.722820 0.704249 0.302814
0.762981 0.709789 0.307726
0.802117 0.715187 0.312513
0.839974 0.720408 0.317144
0.876295 0.725418 0.321587
0.910823 0.730181 0.325810
0.306639 0.696957 0.265991
0.341167 0.701720 0.270215
0.377488 0.706729 0.274658
0.415345 0.711951 0.279288
0.454481 0.717349 0.284076
0.494642 0.722889 0.288988
0.535570 0.728534 0.293994
0.577011 0.734250 0.299063
0.618707 0.740001 0.304164
0.660404 0.745752 0.309264
0.701845 0.751468 0.314333
0.742773 0.757114 0.319339
0.782934 0.762653 0.324252
0.822070 0.768051 0.329039
0.859927 0.773273 0.333670
0.896248 0.778282 0.338112
0.930776 0.783045 0.342336
0.326083 0.748473 0.282096
0.360612 0.753236 0.286319
0.396932 0.758246 0.290762
0.434789 0.763467 0.295393
0.473926 0.768865 0.300180
0.514086 0.774405 0.305092
0.555015 0.780050 0.310099
0.596455 0.785766 0.315168
0.638152 0.791517 0.320268
0.679848 0.797269 0.325368
0.721289 0.802985 0.330437
0.762217 0.808630 0.335444
0.802378 0.814169 0.340356
0.841515 0.819567 0.345143
0.879371 0.824789 0.349774
0.915692 0.829799 0.354217
0.950221 0.834561 0.358440
0.344891 0.798305 0.297674
0.379420 0.803067 0.301897
0.415741 0.808077 0.306340
0.453597 0.813299 0.310970
0.492734 0.818697 0.315758
0.532894 0.824236 0.320670
0.573823 0.829882 0.325676
0.615264 0.835598 0.330745
0.656960 0.841349 0.335846
0.698657 0.847100 0.340946
0.740097 0.852816 0.346015
0.781026 0.858461 0.351021
0.821186 0.864001 0.355934
0.860323 0.869399 0.360721
0.898180 0.874620 0.365352
0.934500 0.879630 0.369794
0.969029 0.884393 0.374018
0.362937 0.846115 0.312619
0.397465 0.850877 0.316843
0.433786 0.855887 0.321285
0.471643 0.861108 0.325916
0.510779 0.866507 0.330703
0.550940 0.872046 0.335616
0.591868 0.877691 0.340622
0.633309 0.883407 0.345691
0.675005 0.889158 0.350791
0.716702 0.894910 0.355892
0.758142 0.900626 0.360961
0.799071 0.906271 0.365967
0.839232 0.911810 0.370880
0.878368 0.917209 0.375667
0.916225 0.922430 0.380297
0.952546 0.927440 0.384740
0.987074 0.932202 0.388964
0.380092 0.891565 0.326827
0.414620 0.896328 0.331051
0.450941 0.901338 0.335494
0.488798 0.906559 0.340124
0.527934 0.911957 0.344912
0.568095 0.917497 0.349824
0.609023 0.923142 0.354830
0.650464 0.928858 0.359899
0.692160 0.934609 0.365000
0.733857 0.940361 0.370100
0.775297 0.946077 0.375169
0.816226 0.951722 0.380175
0.856387 0.957261 0.385088
0.895523 0.962659 0.389875
0.933380 0.967881 0.394506
0.969701 0.972891 0.398948
0.992694 0.977328 0.402847
0.071732 0.071617 0.100864
0.106261 0.076380 0.105087
0.142581 0.081390 0.109530
0.180438 0.086611 0.114160
0.219574 0.092009 0.118948
0.259735 0.097549 0.123860
0.300664 0.103194 0.128866
0.342104 0.108910 0.133935
0.383801 0.114661 0.139036
0.425497 0.120413 0.144136
0.466938 0.126129 0.149205
0.507866 0.131774 0.154211
0.548027 0.137313 0.159124
0.587163 0.142711 0.163911
0.625020 0.147933 0.168542
0.661341 0.152943 0.172984
0.695869 0.157705 0.177208
0.088887 0.117068 0.115072
0.123415 0.121831 0.119295
0.159736 0.126841 0.123738
0.197593 0.132062 0.128369
0.236729 0.137460 0.133156
0.276890 0.143000 0.138068
0.317819 0.148645 0.143075
0.359259 0.154361 0.148144
0.400956 0.160112 0.153244
0.442652 0.165863 0.158344
0.484093 0.171579 0.163413
0.525021 0.177225 0.168420
0.565182 0.182764 0.173332
0.604318 0.188162 0.178119
0.642175 0.193384 0.182750
0.678496 0.198394 0.187193
0.713024 0.203156 0.191416
0.106932 0.164878 0.130017
0.141461 0.169640 0.134241
0.177781 0.174650 0.138684
0.215638 0.179872 0.143314
0.254775 0.185270 0.148102
0.294935 0.190809 0.153014
0.335864 0.196455 0.158020
0.377304 0.202171 0.163089
0.419001 0.207922 0.168190
0.460697 0.213673 0.173290
0.502138 0.219389 0.178359
0.543067 0.225034 0.183365
0.583227 0.230574 0.188278
0.622364 0.235972 0.193065
0.660220 0.241194 0.197696
0.696541 0.246203 0.202138
0.731070 0.250966 0.206362
0.125740 0.214709 0.145595
0.160269 0.219472 0.149819
0.196590 0.224482 0.154261
0.234446 0.229703 0.158892
0.273583 0.235101 0.163679
0.313744 0.240641 0.168592
0.354672 0.246286 0.173598
0.396113 0.252002 0.178667
0.437809 0.257753 0.183767
0.479506 0.263505 0.188868
0.520946 0.269221 0.193937
0.561875 0.274866 0.198943
0.602035 0.280405 0.203856
0.641172 0.285803 0.208643
0.679029 0.291025 0.213273
0.715349 0.296035 0.217716
0.749878 0.300797 0.221940
0.145185 0.266226 0.161700
0.179713 0.270988 0.165923
0.216034 0.275998 0.170366
0.253891 0.281220 0.174996
0.293027 0.286618 0.179784
0.333188 0.292157 0.184696
0.374116 0.297802 0.189702
0.415557 0.303518 0.194771
0.457254 0.309270 0.199872
0.498950 0.315021 0.204972
0.540391 0.320737 0.210041
0.581319 0.326382 0.215047
0.621480 0.331922 0.219960
0.660616 0.337320 0.224747
0.698473 0.342541 0.229378
0.734794 0.347551 0.233820
0.769322 0.352314 0.238044
0.165138 0.319090 0.178225
0.199667 0.323852 0.182449
0.235987 0.328862 0.186892
0.273844 0.334084 0.191522
0.312980 0.339482 0.196309
0.353141 0.345021 0.201222
0.394070 0.350667 0.206228
0.435510 0.356383 0.211297
0.477207 0.362134 0.216398
0.518903 0.367885 0.221498
0.560344 0.373601 0.226567
0.601272 0.379246 0.231573
0.641433 0.384786 0.236486
0.680569 0.390184 0.241273
0.718426 0.395406 0.245903
0.754747 0.400415 0.250346
0.789275 0.405178 0.254570
0.185472 0.372965 0.195067
0.220001 0.377728 0.199291
0.256322 0.382737 0.203733
0.294178 0.387959 0.208364
0.333315 0.393357 0.213151
0.373476 0.398896 0.218064
0.414404 0.404542 0.223070
0.455845 0.410258 0.228139
0.497541 0.416009 0.233239
0.539238 0.421760 0.238340
0.580678 0.427476 0.243409
0.621607 0.433121 0.248415
0.661767 0.438661 0.253327
0.700904 0.444059 0.258115
0.738761 0.449281 0.262745
0.775081 0.454290 0.267188
0.809610 0.459053 0.271411
0.206061 0.427514 0.212120
0.240590 0.432277 0.216343
0.276911 0.437286 0.220786
0.314767 0.442508 0.225416
0.353904 0.447906 0.230204
0.394065 0.453446 0.235116
0.434993 0.459091 0.240122
0.476434 0.464807 0.245191
0.518130 0.470558 0.250292
0.559827 0.476309 0.255392
0.601267 0.482025 0.260461
0.642196 0.487671 0.265467
0.682356 0.493210 0.270380
0.721493 0.498608 0.275167
0.759350 0.503830 0.279798
0.795670 0.508839 0.284240
0.830199 0.513602 0.288464
0.226778 0.482400 0.229277
0.261306 0.487163 0.233501
0.297627 0.492172 0.237944
0.335484 0.497394 0.242574
0.374620 0.502792 0.247361
0.414781 0.508332 0.252274
0.455709 0.513977 0.257280
0.497150 0.519693 0.262349
0.538846 0.525444 0.267449
0.580543 0.531195 0.272550
0.621983 0.536911 0.277619
0.662912 0.542557 0.282625
0.703073 0.548096 0.287538
0.742209 0.553494 0.292325
0.780066 0.558716 0.296955
0.816387 0.563725 0.301398
0.850915 0.568488 0.305622
0.247494 0.537286 0.246435
0.282022 0.542049 0.250659
0.318343 0.547058 0.255101
0.356200 0.552280 0.259732
0.395336 0.557678 0.264519
0.435497 0.563218 0.269432
0.476426 0.568863 0.274438
0.517866 0.574579 0.279507
0.559563 0.580330 0.284607
0.601259 0.586081 0.289708
0.642700 0.591797 0.294777
0.683628 0.597443 0.299783
0.723789 0.602982 0.304695
0.762925 0.608380 0.309483
0.800782 0.613602 0.314113
0.837103 0.618611 0.318556
0.871631 0.623374 0.322779
0.268083 0.591835 0.263488
0.302611 0.596598 0.267711
0.338932 0.601607 0.272154
0.376789 0.606829 0.276784
0.415925 0.612227 0.281572
0.456086 0.617767 0.286484
0.497014 0.623412 0.291490
0.538455 0.629128 0.296559
0.580152 0.634879 0.301660
0.621848 0.640630 0.306760
0.663289 0.646346 0.311829
0.704217 0.651992 0.316835
0.744378 0.657531 0.321748
0.783514 0.662929 0.326535
0.821371 0.668151 0.331166
0.857692 0.673161 0.335608
0.892220 0.677923 0.339832
0.288417 0.645710 0.280329
0.322946 0.650473 0.284553
0.359267 0.655483 0.288996
0.397123 0.660704 0.293626
0.436260 0.666102 0.298413
0.476421 0.671642 0.303326
0.517349 0.677287 0.308332
0.558790 0.683003 0.313401
0.600486 0.688754 0.318501
0.642183 0.694505 0.323602
0.683623 0.700221 0.328671
0.724552 0.705867 0.333677
0.764712 0.711406 0.338590
0.803849 0.716804 0.343377
0.841706 0.722026 0.348007
0.878026 0.727036 0.352450
0.912555 0.731798 0.356674
0.308370 0.698574 0.296855
0.342899 0.703337 0.301079
0.379220 0.708347 0.305521
0.417076 0.713568 0.310152
0.456213 0.718967 0.314939
0.496374 0.724506 0.319852
0.537302 0.730151 0.324858
0.578743 0.735867 0.329927
0.620439 0.741618 0.335027
0.662136 0.747370 0.340128
0.703576 0.753086 0.345197
0.744505 0.758731 0.350203
0.784665 0.764270 0.355115
0.823802 0.769668 0.359903
0.861659 0.774890 0.364533
0.897979 0.779900 0.368976
0.932508 0.784662 0.373199
0.327815 0.750091 0.312959
0.362343 0.754853 0.317183
0.398664 0.759863 0.321626
0.436521 0.765085 0.326256
0.475657 0.770483 0.331043
0.515818 0.776022 0.335956
0.556746 0.781668 0.340962
0.598187 0.787384 0.346031
0.639884 0.793135 0.351132
0.681580 0.798886 0.356232
0.723021 0.804602 0.361301
0.763949 0.810247 0.366307
0.804110 0.815787 0.371220
0.843246 0.821185 0.376007
0.881103 0.826406 0.380638
0.917424 0.831416 0.385080
0.951952 0.836179 0.389304
0.346623 0.799922 0.328537
0.381152 0.804685 0.332761
0.417472 0.809695 0.337203
0.455329 0.814916 0.341834
0.494466 0.820314 0.346621
0.534626 0.825854 0.351534
0.575555 0.831499 0.356540
0.616995 0.837215 0.361609
0.658692 0.842966 0.366709
0.700388 0.848717 0.371810
0.741829 0.854433 0.376879
0.782758 0.860079 0.381885
0.822918 0.865618 0.386797
0.862055 0.871016 0.391585
0.899911 0.876238 0.396215
0.936232 0.881248 0.400658
0.970761 0.886010 0.404882
0.364668 0.847732 0.343483
0.399197 0.852494 0.347706
0.435518 0.857504 0.352149
0.473374 0.862726 0.356780
0.512511 0.868124 0.361567
0.552672 0.873663 0.366479
0.593600 0.879309 0.371486
0.635041 0.885025 0.376555
0.676737 0.890776 0.381655
0.718434 0.896527 0.386755
0.759874 0.902243 0.391824
0.800803 0.907888 0.396831
0.840963 0.913428 0.401743
0.880100 0.918826 0.406530
0.917957 0.924048 0.411161
0.954277 0.929057 0.415604
0.988806 0.933820 0.419827
0.381823 0.893183 0.357691
0.416352 0.897945 0.361915
0.452673 0.902955 0.366357
0.490529 0.908177 0.370988
0.529666 0.913575 0.375775
0.569827 0.919114 0.380688
0.610755 0.924760 0.385694
0.652196 0.930475 0.390763
0.693892 0.936227 0.395863
0.735589 0.941978 0.400964
0.777029 0.947694 0.406033
0.817958 0.953339 0.411039
0.858118 0.958879 0.415951
0.897255 0.964277 0.420739
0.935112 0.969498 0.425369
0.971432 0.974508 0.429812
0.993107 0.978909 0.433673
0.073553 0.073319 0.133329
0.108082 0.078081 0.137552
0.144403 0.083091 0.141995
0.182259 0.088313 0.146626
0.221396 0.093711 0.151413
0.261557 0.099250 0.156325
0.302485 0.104896 0.161332
0.343926 0.110611 0.166401
0.385622 0.116363 0.171501
0.427319 0.122114 0.176601
0.468759 0.127830 0.181670
0.509688 0.133475 0.186677
0.549849 0.139015 0.191589
0.588985 0.144413 0.196376
0.626842 0.149634 0.201007
0.663162 0.154644 0.205450
0.697691 0.159407 0.209673
0.090708 0.118770 0.147537
0.125237 0.123532 0.151761
0.161558 0.128542 0.156203
0.199414 0.133764 0.160834
0.238551 0.139162 0.165621
0.278712 0.144701 0.170534
0.319640 0.150346 0.175540
0.361081 0.156062 0.180609
0.402777 0.161814 0.185709
0.444474 0.167565 0.190810
0.485914 0.173281 0.195879
0.526843 0.178926 0.200885
0.567004 0.184465 0.205797
0.606140 0.189864 0.210585
0.643997 0.195085 0.215215
0.680317 0.200095 0.219658
0.714846 0.204858 0.223882
0.108754 0.166579 0.162483
0.143282 0.171342 0.166706
0.179603 0.176352 0.171149
0.217460 0.181573 0.175780
0.256596 0.186971 0.180567
0.296757 0.192511 0.185479
0.337685 0.198156 0.190486
0.379126 0.203872 0.195555
0.420823 0.209623 0.200655
0.462519 0.215374 0.205755
0.503960 0.221090 0.210824
0.544888 0.226736 0.215831
0.585049 0.232275 0.220743
0.624185 0.237673 0.225530
0.662042 0.242895 0.230161
0.698363 0.247905 0.234604
0.732891 0.252667 0.238827
0.127562 0.216411 0.178061
0.162091 0.221173 0.182284
0.198411 0.226183 0.186727
0.236268 0.231405 0.191357
0.275405 0.236803 0.196145
0.315565 0.242342 0.201057
0.356494 0.247987 0.206063
0.397934 0.253703 0.211132
0.439631 0.259455 0.216233
0.481327 0.265206 0.221333
0.522768 0.270922 0.226402
0.563697 0.276567 0.231408
0.603857 0.282107 0.236321
0.642994 0.287505 0.241108
0.680850 0.292726 0.245739
0.717171 0.297736 0.250181
0.751700 0.302499 0.254405
0.147006 0.267927 0.194165
0.181535 0.272690 0.198388
0.217856 0.277699 0.202831
0.255712 0.282921 0.207462
0.294849 0.288319 0.212249
0.335010 0.293858 0.217161
0.375938 0.299504 0.222168
0.417379 0.305220 0.227237
0.459075 0.310971 0.232337
0.500772 0.316722 0.237437
0.542212 0.322438 0.242506
0.583141 0.328083 0.247513
0.623301 0.333623 0.252425
0.662438 0.339021 0.257212
0.700295 0.344243 0.261843
0.736615 0.349252 0.266286
0.771144 0.354015 0.270509
0.166959 0.320791 0.210691
0.201488 0.325554 0.214914
0.237809 0.330564 0.219357
0.275665 0.335785 0.223988
0.314802 0.341183 0.228775
0.354963 0.346723 0.233687
0.395891 0.352368 0.238694
0.437332 0.358084 0.243763
0.479028 0.363835 0.248863
0.520725 0.369586 0.253963
0.562165 0.375302 0.259032
0.603094 0.380948 0.264039
0.643255 0.386487 0.268951
0.682391 0.391885 0.273738
0.720248 0.397107 0.278369
0.756568 0.402117 0.282811
0.791097 0.406879 0.287035
0.187294 0.374666 0.227532
0.221823 0.379429 0.231756
0.258143 0.384439 0.236199
0.296000 0.389660 0.240829
0.335137 0.395058 0.245616
0.375297 0.400598 0.250529
0.416226 0.406243 0.255535
0.457666 0.411959 0.260604
0.499363 0.417710 0.265705
0.541059 0.423462 0.270805
0.582500 0.429177 0.275874
0.623429 0.434823 0.280880
0.663589 0.440362 0.285793
0.702726 0.445760 0.290580
0.740582 0.450982 0.295211
0.776903 0.455992 0.299653
0.811432 0.460754 0.303877
0.207883 0.429215 0.244585
0.242412 0.433978 0.248808
0.278732 0.438988 0.253251
0.316589 0.444209 0.257882
0.355726 0.449607 0.262669
0.395886 0.455147 0.267581
0.436815 0.460792 0.272588
0.478255 0.466508 0.277657
0.519952 0.472259 0.282757
0.561648 0.478011 0.287857
0.603089 0.483727 0.292926
0.644018 0.489372 0.297933
0.684178 0.494911 0.302845
0.723315 0.500309 0.307632
0.761171 0.505531 0.312263
0.797492 0.510541 0.316706
0.832021 0.515303 0.320929
0.228599 0.484101 0.261743
0.263128 0.488864 0.265966
0.299449 0.493874 0.270409
0.337305 0.499095 0.275040
0.376442 0.504493 0.279827
0.416602 0.510033 0.284739
0.457531 0.515678 0.289746
0.498972 0.521394 0.294815
0.540668 0.527145 0.299915
0.582365 0.532897 0.305015
0.623805 0.538613 0.310084
0.664734 0.544258 0.315091
0.704894 0.549797 0.320003
0.744031 0.555195 0.324790
0.781888 0.560417 0.329421
0.818208 0.565427 0.333863
0.852737 0.570189 0.338087
0.249315 0.538987 0.278900
0.283844 0.543750 0.283124
0.320165 0.548760 0.287567
0.358021 0.553981 0.292197
0.397158 0.559380 0.296984
0.437319 0.564919 0.301897
0.478247 0.570564 0.306903
0.519688 0.576280 0.311972
0.561384 0.582031 0.317073
0.603081 0.587783 0.322173
0.644521 0.593499 0.327242
0.685450 0.599144 0.332248
0.725610 0.604683 0.337161
0.764747 0.610081 0.341948
0.802604 0.615303 0.346579
0.838924 0.620313 0.351021
0.873453 0.625075 0.355245
0.269904 0.593536 0.295953
0.304433 0.598299 0.300176
0.340754 0.603309 0.304619
0.378610 0.608530 0.309250
0.417747 0.613929 0.314037
0.457908 0.619468 0.318949
0.498836 0.625113 0.323956
0.540277 0.630829 0.329025
0.581973 0.636580 0.334125
0.623670 0.642332 0.339225
0.665110 0.648048 0.344294
0.706039 0.653693 0.349301
0.746199 0.659232 0.354213
0.785336 0.664630 0.359000
0.823193 0.669852 0.363631
0.859513 0.674862 0.368074
0.894042 0.679624 0.372297
0.290239 0.647412 0.312795
0.324768 0.652174 0.317018
0.361088 0.657184 0.321461
0.398945 0.662406 0.326091
0.438082 0.667804 0.330879
0.478242 0.673343 0.335791
0.519171 0.678988 0.340797
0.560611 0.684704 0.345866
0.602308 0.690456 0.350967
0.644004 0.696207 0.356067
0.685445 0.701923 0.361136
0.726374 0.707568 0.366142
0.766534 0.713107 0.371055
0.805671 0.718506 0.375842
0.843527 0.723727 0.380473
0.879848 0.728737 0.384915
0.914377 0.733500 0.389139
0.310192 0.700276 0.329320
0.344721 0.705038 0.333544
0.381041 0.710048 0.337987
0.418898 0.715270 0.342617
0.458035 0.720668 0.347404
0.498195 0.726207 0.352317
0.539124 0.731853 0.357323
0.580564 0.737569 0.362392
0.622261 0.743320 0.367493
0.663957 0.749071 0.372593
0.705398 0.754787 0.377662
0.746327 0.760432 0.382668
0.786487 0.765972 0.387581
0.825624 0.771370 0.392368
0.863480 0.776591 0.396998
0.899801 0.781601 0.401441
0.934330 0.786364 0.405665
0.329636 0.751792 0.345425
0.364165 0.756555 0.349648
0.400486 0.761564 0.354091
0.438342 0.766786 0.358722
0.477479 0.772184 0.363509
0.517640 0.777724 0.368421
0.558568 0.783369 0.373428
0.600009 0.789085 0.378497
0.641705 0.794836 0.383597
0.683402 0.800587 0.388697
0.724842 0.806303 0.393766
0.765771 0.811949 0.398773
0.805931 0.817488 0.403685
0.845068 0.822886 0.408472
0.882925 0.828108 0.413103
0.919245 0.833117 0.417546
0.953774 0.837880 0.421769
0.348445 0.801624 0.361002
0.382974 0.806386 0.365226
0.419294 0.811396 0.369669
0.457151 0.816618 0.374299
0.496287 0.822016 0.379086
0.536448 0.827555 0.383999
0.577377 0.833200 0.389005
0.618817 0.838916 0.394074
0.660514 0.844668 0.399175
0.702210 0.850419 0.404275
0.743651 0.856135 0.409344
0.784579 0.861780 0.414350
0.824740 0.867319 0.419263
0.863876 0.872718 0.424050
0.901733 0.877939 0.428681
0.938054 0.882949 0.433123
0.972582 0.887712 0.437347
0.366490 0.849433 0.375948
0.401019 0.854196 0.380172
0.437339 0.859206 0.384614
0.475196 0.864427 0.389245
0.514333 0.869825 0.394032
0.554493 0.875365 0.398945
0.595422 0.881010 0.403951
0.636862 0.886726 0.409020
0.678559 0.892477 0.414120
0.720255 0.898228 0.419221
0.761696 0.903944 0.424290
0.802625 0.909590 0.429296
0.842785 0.915129 0.434208
0.881922 0.920527 0.438996
0.919778 0.925749 0.443626
0.956099 0.930759 0.448069
0.989449 0.935488 0.452259
0.383645 0.894884 0.390156
0.418174 0.899647 0.394380
0.454494 0.904656 0.398823
0.492351 0.909878 0.403453
0.531488 0.915276 0.408240
0.571648 0.920816 0.413153
0.612577 0.926461 0.418159
0.654017 0.932177 0.423228
0.695714 0.937928 0.428329
0.737410 0.943679 0.433429
0.778851 0.949395 0.438498
0.819780 0.955041 0.443504
0.859940 0.960580 0.448417
0.899077 0.965978 0.453204
0.936933 0.971200 0.457834
0.973254 0.976209 0.462277
0.993542 0.980571 0.466100
0.075452 0.075092 0.167167
0.109981 0.079855 0.171391
0.146302 0.084864 0.175833
0.184158 0.090086 0.180464
0.223295 0.095484 0.185251
0.263455 0.101023 0.190164
0.304384 0.106669 0.195170
0.345825 0.112385 0.200239
0.387521 0.118136 0.205339
0.429218 0.123887 0.210440
0.470658 0.129603 0.215509
0.511587 0.135248 0.220515
0.551747 0.140788 0.225427
0.590884 0.146186 0.230215
0.628740 0.151408 0.234845
