assets/luts/vivid.cube
# Vivid — Studio filter "vivid"
# Generated by scripts/generate-filter-luts.mjs — do not edit by hand.
LUT_3D_SIZE 5
DOMAIN_MIN 0.0 0.0 0.0
DOMAIN_MAX 1.0 1.0 1.0
0.000000 0.000000 0.000000
0.247146 0.000000 0.000000
0.637795 0.000000 0.000000
1.000000 0.000000 0.000000
1.000000 0.000000 0.000000
0.000000 0.213063 0.000000
0.198646 0.198646 0.000000
0.589295 0.175858 0.000000
0.979945 0.153070 0.000000
1.000000 0.138653 0.000000
0.000000 0.549840 0.000000
0.121986 0.535423 0.000000
0.512635 0.512635 0.000000
0.903284 0.489847 0.000000
1.000000 0.475430 0.000000
0.000000 0.886617 0.000000
0.045325 0.872200 0.000000
0.435974 0.849412 0.000000
0.826624 0.826624 0.000000
1.000000 0.812207 0.000000
0.000000 1.000000 0.000000
0.000000 1.000000 0.000000
0.387475 1.000000 0.000000
0.778124 1.000000 0.000000
1.000000 1.000000 0.000000
0.000000 0.000000 0.256666
0.242249 0.000000 0.242249
0.632899 0.000000 0.219461
1.000000 0.000000 0.196673
1.000000 0.000000 0.182256
0.000000 0.208167 0.208167
0.193750 0.193750 0.193750
0.584399 0.170962 0.170962
0.975049 0.148174 0.148174
1.000000 0.133757 0.133757
0.000000 0.544944 0.131506
0.117089 0.530527 0.117089
0.507739 0.507739 0.094301
0.898388 0.484951 0.071513
1.000000 0.470534 0.057096
0.000000 0.881721 0.054846
0.040429 0.867304 0.040429
0.431078 0.844516 0.017641
0.821728 0.821728 0.000000
1.000000 0.807311 0.000000
0.000000 1.000000 0.006346
0.000000 1.000000 0.000000
0.382579 1.000000 0.000000
0.773228 1.000000 0.000000
1.000000 1.000000 0.000000
0.000000 0.000000 0.662365
0.234511 0.000000 0.647948
0.625160 0.000000 0.625160
1.000000 0.000000 0.602372
1.000000 0.000000 0.587955
0.000000 0.200428 0.613865
0.186011 0.186011 0.599449
0.576661 0.163223 0.576661
0.967310 0.140435 0.553872
1.000000 0.126018 0.539455
0.000000 0.537205 0.537205
0.109351 0.522788 0.522788
0.500000 0.500000 0.500000
0.890649 0.477212 0.477212
1.000000 0.462795 0.462795
0.000000 0.873982 0.460545
0.032690 0.859565 0.446128
0.423339 0.836777 0.423339
0.813989 0.813989 0.400551
1.000000 0.799572 0.386134
0.000000 1.000000 0.412045
0.000000 1.000000 0.397628
0.374840 1.000000 0.374840
0.765489 1.000000 0.352052
1.000000 1.000000 0.337635
0.000000 0.000000 1.000000
0.226772 0.000000 1.000000
0.617421 0.000000 1.000000
1.000000 0.000000 1.000000
1.000000 0.000000 0.993654
0.000000 0.192689 1.000000
0.178272 0.178272 1.000000
0.568922 0.155484 0.982359
0.959571 0.132696 0.959571
1.000000 0.118279 0.945154
0.000000 0.529466 0.942904
0.101612 0.515049 0.928487
0.492261 0.492261 0.905699
0.882911 0.469473 0.882911
1.000000 0.455056 0.868494
0.000000 0.866243 0.866243
0.024951 0.851826 0.851826
0.415601 0.829038 0.829038
0.806250 0.806250 0.806250
1.000000 0.791833 0.791833
0.000000 1.000000 0.817744
0.000000 1.000000 0.803327
0.367101 1.000000 0.780539
0.757750 1.000000 0.757750
1.000000 1.000000 0.743334
0.000000 0.000000 1.000000
0.221876 0.000000 1.000000
0.612525 0.000000 1.000000
1.000000 0.000000 1.000000
1.000000 0.000000 1.000000
0.000000 0.187793 1.000000
0.173376 0.173376 1.000000
0.564026 0.150588 1.000000
0.954675 0.127800 1.000000
1.000000 0.113383 1.000000
0.000000 0.524570 1.000000
0.096716 0.510153 1.000000
0.487365 0.487365 1.000000
0.878014 0.464577 1.000000
1.000000 0.450160 1.000000
0.000000 0.861347 1.000000
0.020055 0.846930 1.000000
0.410704 0.824142 1.000000
0.801354 0.801354 1.000000
1.000000 0.786937 1.000000
0.000000 1.000000 1.000000
0.000000 1.000000 1.000000
0.362205 1.000000 1.000000
0.752854 1.000000 1.000000
1.000000 1.000000 1.000000
