assets/luts/vivid.cube
# Vivid — Studio filter "vivid"
# Generated by scripts/generate-filter-luts.mjs — do not edit by hand.
LUT_3D_SIZE 9
DOMAIN_MIN 0.0 0.0 0.0
DOMAIN_MAX 1.0 1.0 1.0
0.000000 0.000000 0.000000
0.072748 0.000000 0.000000
0.247146 0.000000 0.000000
0.438285 0.000000 0.000000
0.637795 0.000000 0.000000
0.837305 0.000000 0.000000
1.000000 0.000000 0.000000
1.000000 0.000000 0.000000
1.000000 0.000000 0.000000
0.000000 0.062716 0.000000
0.058472 0.058472 0.000000
0.232869 0.048299 0.000000
0.424009 0.037149 0.000000
0.623519 0.025511 0.000000
0.823029 0.013873 0.000000
1.000000 0.002723 0.000000
1.000000 0.000000 0.000000
1.000000 0.000000 0.000000
0.000000 0.213063 0.000000
0.024249 0.208819 0.000000
0.198646 0.198646 0.000000
0.389785 0.187496 0.000000
0.589295 0.175858 0.000000
0.788806 0.164220 0.000000
0.979945 0.153070 0.000000
1.000000 0.142897 0.000000
1.000000 0.138653 0.000000
0.000000 0.377843 0.000000
0.000000 0.373599 0.000000
0.161137 0.363426 0.000000
0.352276 0.352276 0.000000
0.551787 0.340638 0.000000
0.751297 0.329000 0.000000
0.942436 0.317850 0.000000
1.000000 0.307677 0.000000
1.000000 0.303433 0.000000
0.000000 0.549840 0.000000
0.000000 0.545596 0.000000
0.121986 0.535423 0.000000
0.313125 0.524273 0.000000
0.512635 0.512635 0.000000
0.712145 0.500997 0.000000
0.903284 0.489847 0.000000
1.000000 0.479674 0.000000
1.000000 0.475430 0.000000
0.000000 0.721837 0.000000
0.000000 0.717593 0.000000
0.082834 0.707420 0.000000
0.273973 0.696270 0.000000
0.473483 0.684632 0.000000
0.672994 0.672994 0.000000
0.864133 0.661844 0.000000
1.000000 0.651671 0.000000
1.000000 0.647427 0.000000
0.000000 0.886617 0.000000
0.000000 0.882373 0.000000
0.045325 0.872200 0.000000
0.236464 0.861050 0.000000
0.435974 0.849412 0.000000
0.635485 0.837774 0.000000
0.826624 0.826624 0.000000
1.000000 0.816451 0.000000
1.000000 0.812207 0.000000
0.000000 1.000000 0.000000
0.000000 1.000000 0.000000
0.011102 1.000000 0.000000
0.202241 1.000000 0.000000
0.401751 0.999759 0.000000
0.601261 0.988121 0.000000
0.792401 0.976971 0.000000
0.966798 0.966798 0.000000
1.000000 0.962554 0.000000
0.000000 1.000000 0.000000
0.000000 1.000000 0.000000
0.000000 1.000000 0.000000
0.187965 1.000000 0.000000
0.387475 1.000000 0.000000
0.586985 1.000000 0.000000
0.778124 1.000000 0.000000
0.952522 1.000000 0.000000
1.000000 1.000000 0.000000
0.000000 0.000000 0.075551
0.071307 0.000000 0.071307
0.245704 0.000000 0.061134
0.436844 0.000000 0.049984
0.636354 0.000000 0.038346
0.835864 0.000000 0.026708
1.000000 0.000000 0.015558
1.000000 0.000000 0.005385
1.000000 0.000000 0.001141
0.000000 0.061275 0.061275
0.057031 0.057031 0.057031
0.231428 0.046858 0.046858
0.422568 0.035708 0.035708
0.622078 0.024070 0.024070
0.821588 0.012432 0.012432
1.000000 0.001282 0.001282
1.000000 0.000000 0.000000
1.000000 0.000000 0.000000
0.000000 0.211622 0.027052
0.022808 0.207378 0.022808
0.197205 0.197205 0.012635
0.388344 0.186055 0.001485
0.587854 0.174417 0.000000
0.787365 0.162779 0.000000
0.978504 0.151629 0.000000
1.000000 0.141456 0.000000
1.000000 0.137212 0.000000
0.000000 0.376402 0.000000
0.000000 0.372158 0.000000
0.159696 0.361985 0.000000
0.350835 0.350835 0.000000
0.550345 0.339197 0.000000
0.749856 0.327559 0.000000
0.940995 0.316409 0.000000
1.000000 0.306236 0.000000
1.000000 0.301992 0.000000
0.000000 0.548399 0.000000
0.000000 0.544155 0.000000
0.120544 0.533982 0.000000
0.311684 0.522832 0.000000
0.511194 0.511194 0.000000
0.710704 0.499556 0.000000
0.901843 0.488406 0.000000
1.000000 0.478233 0.000000
1.000000 0.473989 0.000000
0.000000 0.720396 0.000000
0.000000 0.716152 0.000000
0.081393 0.705979 0.000000
0.272532 0.694829 0.000000
0.472042 0.683191 0.000000
0.671552 0.671552 0.000000
0.862692 0.660403 0.000000
1.000000 0.650229 0.000000
1.000000 0.645986 0.000000
0.000000 0.885176 0.000000
0.000000 0.880932 0.000000
0.043884 0.870759 0.000000
0.235023 0.859609 0.000000
0.434533 0.847971 0.000000
0.634044 0.836333 0.000000
0.825183 0.825183 0.000000
0.999580 0.815010 0.000000
1.000000 0.810766 0.000000
0.000000 1.000000 0.000000
0.000000 1.000000 0.000000
0.009660 1.000000 0.000000
0.200800 1.000000 0.000000
0.400310 0.998318 0.000000
0.599820 0.986680 0.000000
0.790959 0.975530 0.000000
0.965356 0.965356 0.000000
1.000000 0.961113 0.000000
0.000000 1.000000 0.000000
0.000000 1.000000 0.000000
0.000000 1.000000 0.000000
0.186524 1.000000 0.000000
0.386034 1.000000 0.000000
0.585544 1.000000 0.000000
0.776683 1.000000 0.000000
0.951080 1.000000 0.000000
1.000000 1.000000 0.000000
0.000000 0.000000 0.256666
0.067852 0.000000 0.252423
0.242249 0.000000 0.242249
0.433389 0.000000 0.231100
0.632899 0.000000 0.219461
0.832409 0.000000 0.207823
1.000000 0.000000 0.196673
1.000000 0.000000 0.186500
1.000000 0.000000 0.182256
0.000000 0.057820 0.242390
0.053576 0.053576 0.238147
0.227973 0.043403 0.227973
0.419113 0.032253 0.216824
0.618623 0.020615 0.205185
0.818133 0.008977 0.193547
1.000000 0.000000 0.182397
1.000000 0.000000 0.172224
1.000000 0.000000 0.167980
0.000000 0.208167 0.208167
0.019353 0.203923 0.203923
0.193750 0.193750 0.193750
0.384889 0.182600 0.182600
0.584399 0.170962 0.170962
0.783910 0.159324 0.159324
0.975049 0.148174 0.148174
1.000000 0.138001 0.138001
1.000000 0.133757 0.133757
0.000000 0.372947 0.170658
0.000000 0.368703 0.166414
0.156241 0.358530 0.156241
0.347380 0.347380 0.145091
0.546891 0.335742 0.133453
0.746401 0.324104 0.121815
0.937540 0.312954 0.110665
1.000000 0.302781 0.100492
1.000000 0.298537 0.096248
0.000000 0.544944 0.131506
0.000000 0.540700 0.127263
0.117089 0.530527 0.117089
0.308229 0.519377 0.105940
0.507739 0.507739 0.094301
0.707249 0.496101 0.082663
0.898388 0.484951 0.071513
1.000000 0.474778 0.061340
1.000000 0.470534 0.057096
0.000000 0.716941 0.092355
0.000000 0.712697 0.088111
0.077938 0.702524 0.077938
0.269077 0.691374 0.066788
0.468587 0.679736 0.055150
0.668098 0.668098 0.043512
0.859237 0.656948 0.032362
1.000000 0.646774 0.022189
1.000000 0.642531 0.017945
0.000000 0.881721 0.054846
0.000000 0.877477 0.050602
0.040429 0.867304 0.040429
0.231568 0.856154 0.029279
0.431078 0.844516 0.017641
0.630589 0.832878 0.006003
0.821728 0.821728 0.000000
0.996125 0.811555 0.000000
1.000000 0.807311 0.000000
0.000000 1.000000 0.020622
0.000000 1.000000 0.016379
0.006206 1.000000 0.006206
0.197345 1.000000 0.000000
0.396855 0.994863 0.000000
0.596365 0.983225 0.000000
0.787504 0.972075 0.000000
0.961902 0.961902 0.000000
1.000000 0.957658 0.000000
0.000000 1.000000 0.006346
0.000000 1.000000 0.002103
0.000000 1.000000 0.000000
0.183069 1.000000 0.000000
0.382579 1.000000 0.000000
0.582089 1.000000 0.000000
0.773228 1.000000 0.000000
0.947625 1.000000 0.000000
1.000000 1.000000 0.000000
0.000000 0.000000 0.455169
0.064066 0.000000 0.450925
0.238463 0.000000 0.440752
0.429602 0.000000 0.429602
0.629112 0.000000 0.417964
0.828623 0.000000 0.406326
1.000000 0.000000 0.395176
1.000000 0.000000 0.385003
1.000000 0.000000 0.380759
0.000000 0.054034 0.440893
0.049790 0.049790 0.436649
0.224187 0.039617 0.426476
0.415326 0.028467 0.415326
0.614836 0.016829 0.403688
0.814347 0.005190 0.392050
1.000000 0.000000 0.380900
1.000000 0.000000 0.370727
1.000000 0.000000 0.366483
0.000000 0.204380 0.406669
0.015566 0.200137 0.402426
0.189963 0.189963 0.392253
0.381103 0.178814 0.381103
0.580613 0.167175 0.369464
0.780123 0.155537 0.357826
0.971262 0.144387 0.346676
1.000000 0.134214 0.336503
1.000000 0.129970 0.332259
0.000000 0.369161 0.369161
0.000000 0.364917 0.364917
0.152455 0.354744 0.354744
0.343594 0.343594 0.343594
0.543104 0.331956 0.331956
0.742614 0.320317 0.320317
0.933753 0.309167 0.309167
1.000000 0.298994 0.298994
1.000000 0.294751 0.294751
0.000000 0.541157 0.330009
0.000000 0.536914 0.325765
0.113303 0.526740 0.315592
0.304442 0.515591 0.304442
0.503952 0.503952 0.292804
0.703463 0.492314 0.281166
0.894602 0.481164 0.270016
1.000000 0.470991 0.259843
1.000000 0.466747 0.255599
0.000000 0.713154 0.290857
0.000000 0.708911 0.286614
0.074151 0.698737 0.276440
0.265291 0.687587 0.265291
0.464801 0.675949 0.253652
0.664311 0.664311 0.242014
0.855450 0.653161 0.230864
1.000000 0.642988 0.220691
1.000000 0.638744 0.216447
0.000000 0.877934 0.253348
0.000000 0.873691 0.249105
0.036642 0.863517 0.238932
0.227782 0.852368 0.227782
0.427292 0.840729 0.216143
0.626802 0.829091 0.204505
0.817941 0.817941 0.193355
0.992338 0.807768 0.183182
1.000000 0.803524 0.178938
0.000000 1.000000 0.219125
0.000000 1.000000 0.214881
0.002419 1.000000 0.204708
0.193558 1.000000 0.193558
0.393068 0.991076 0.181920
0.592579 0.979438 0.170282
0.783718 0.968288 0.159132
0.958115 0.958115 0.148959
1.000000 0.953871 0.144715
0.000000 1.000000 0.204849
0.000000 1.000000 0.200605
0.000000 1.000000 0.190432
0.179282 1.000000 0.179282
0.378792 1.000000 0.167644
0.578303 1.000000 0.156006
0.769442 1.000000 0.144856
0.943839 1.000000 0.134683
1.000000 1.000000 0.130439
0.000000 0.000000 0.662365
0.060113 0.000000 0.658121
0.234511 0.000000 0.647948
0.425650 0.000000 0.636798
0.625160 0.000000 0.625160
0.824670 0.000000 0.613522
1.000000 0.000000 0.602372
1.000000 0.000000 0.592199
1.000000 0.000000 0.587955
0.000000 0.050081 0.648089
0.045837 0.045837 0.643845
0.220234 0.035664 0.633672
0.411374 0.024514 0.622522
0.610884 0.012876 0.610884
0.810394 0.001238 0.599246
1.000000 0.000000 0.588096
1.000000 0.000000 0.577923
1.000000 0.000000 0.573679
0.000000 0.200428 0.613865
0.011614 0.196184 0.609622
0.186011 0.186011 0.599449
0.377150 0.174861 0.588299
0.576661 0.163223 0.576661
0.776171 0.151585 0.565022
0.967310 0.140435 0.553872
1.000000 0.130262 0.543699
1.000000 0.126018 0.539455
0.000000 0.365208 0.576357
0.000000 0.360964 0.572113
0.148502 0.350791 0.561940
0.339641 0.339641 0.550790
0.539152 0.328003 0.539152
0.738662 0.316365 0.527513
0.929801 0.305215 0.516364
1.000000 0.295042 0.506190
1.000000 0.290798 0.501947
0.000000 0.537205 0.537205
0.000000 0.532961 0.532961
0.109351 0.522788 0.522788
0.300490 0.511638 0.511638
0.500000 0.500000 0.500000
0.699510 0.488362 0.488362
0.890649 0.477212 0.477212
1.000000 0.467039 0.467039
1.000000 0.462795 0.462795
0.000000 0.709202 0.498053
0.000000 0.704958 0.493810
0.070199 0.694785 0.483636
0.261338 0.683635 0.472487
0.460848 0.671997 0.460848
0.660359 0.660359 0.449210
0.851498 0.649209 0.438060
1.000000 0.639036 0.427887
1.000000 0.634792 0.423643
0.000000 0.873982 0.460545
0.000000 0.869738 0.456301
0.032690 0.859565 0.446128
0.223829 0.848415 0.434978
0.423339 0.836777 0.423339
0.622850 0.825139 0.411701
0.813989 0.813989 0.400551
0.988386 0.803816 0.390378
1.000000 0.799572 0.386134
0.000000 1.000000 0.426321
0.000000 1.000000 0.422077
0.000000 1.000000 0.411904
0.189606 0.998762 0.400754
0.389116 0.987124 0.389116
0.588626 0.975486 0.377478
0.779766 0.964336 0.366328
0.954163 0.954163 0.356155
1.000000 0.949919 0.351911
0.000000 1.000000 0.412045
0.000000 1.000000 0.407801
0.000000 1.000000 0.397628
0.175330 1.000000 0.386478
0.374840 1.000000 0.374840
0.574350 1.000000 0.363202
0.765489 1.000000 0.352052
0.939887 1.000000 0.341879
1.000000 1.000000 0.337635
0.000000 0.000000 0.869561
0.056161 0.000000 0.865317
0.230558 0.000000 0.855144
0.421697 0.000000 0.843994
0.621208 0.000000 0.832356
0.820718 0.000000 0.820718
1.000000 0.000000 0.809568
1.000000 0.000000 0.799395
1.000000 0.000000 0.795151
0.000000 0.046129 0.855285
0.041885 0.041885 0.851041
0.216282 0.031712 0.840868
0.407421 0.020562 0.829718
0.606932 0.008924 0.818080
0.806442 0.000000 0.806442
0.997581 0.000000 0.795292
1.000000 0.000000 0.785119
1.000000 0.000000 0.780875
0.000000 0.196476 0.821062
0.007662 0.192232 0.816818
0.182059 0.182059 0.806645
0.373198 0.170909 0.795495
0.572708 0.159271 0.783857
0.772218 0.147632 0.772218
0.963358 0.136483 0.761068
1.000000 0.126309 0.750895
1.000000 0.122066 0.746652
0.000000 0.361256 0.783553
0.000000 0.357012 0.779309
0.144550 0.346839 0.769136
0.335689 0.335689 0.757986
0.535199 0.324051 0.746348
0.734709 0.312413 0.734709
0.925849 0.301263 0.723560
1.000000 0.291089 0.713386
1.000000 0.286846 0.709143
0.000000 0.533253 0.744401
0.000000 0.529009 0.740157
0.105398 0.518836 0.729984
0.296537 0.507686 0.718834
0.496048 0.496048 0.707196
0.695558 0.484409 0.695558
0.886697 0.473260 0.684408
1.000000 0.463086 0.674235
1.000000 0.458843 0.669991
0.000000 0.705249 0.705249
0.000000 0.701006 0.701006
0.066247 0.690833 0.690833
0.257386 0.679683 0.679683
0.456896 0.668044 0.668044
0.656406 0.656406 0.656406
0.847545 0.645256 0.645256
1.000000 0.635083 0.635083
1.000000 0.630839 0.630839
0.000000 0.870030 0.667741
0.000000 0.865786 0.663497
0.028738 0.855613 0.653324
0.219877 0.844463 0.642174
0.419387 0.832825 0.630536
0.618897 0.821186 0.618897
0.810037 0.810037 0.607747
0.984434 0.799863 0.597574
1.000000 0.795620 0.593331
0.000000 1.000000 0.633517
0.000000 1.000000 0.629273
0.000000 1.000000 0.619100
0.185653 0.994810 0.607950
0.385164 0.983171 0.596312
0.584674 0.971533 0.584674
0.775813 0.960383 0.573524
0.950210 0.950210 0.563351
1.000000 0.945966 0.559107
0.000000 1.000000 0.619241
0.000000 1.000000 0.614997
0.000000 1.000000 0.604824
0.171377 1.000000 0.593674
0.370888 1.000000 0.582036
0.570398 1.000000 0.570398
0.761537 1.000000 0.559248
0.935934 1.000000 0.549075
1.000000 1.000000 0.544831
0.000000 0.000000 1.000000
0.052375 0.000000 1.000000
0.226772 0.000000 1.000000
0.417911 0.000000 1.000000
0.617421 0.000000 1.000000
0.816931 0.000000 1.000000
1.000000 0.000000 1.000000
1.000000 0.000000 0.997897
1.000000 0.000000 0.993654
0.000000 0.042342 1.000000
0.038098 0.038098 1.000000
0.212496 0.027925 1.000000
0.403635 0.016775 1.000000
0.603145 0.005137 1.000000
0.802655 0.000000 1.000000
0.993794 0.000000 0.993794
1.000000 0.000000 0.983621
1.000000 0.000000 0.979378
0.000000 0.192689 1.000000
0.003875 0.188445 1.000000
0.178272 0.178272 1.000000
0.369411 0.167122 0.993997
0.568922 0.155484 0.982359
0.768432 0.143846 0.970721
0.959571 0.132696 0.959571
1.000000 0.122523 0.949398
1.000000 0.118279 0.945154
0.000000 0.357469 0.982055
0.000000 0.353226 0.977811
0.140763 0.343052 0.967638
0.331902 0.331902 0.956488
0.531413 0.320264 0.944850
0.730923 0.308626 0.933212
0.922062 0.297476 0.922062
1.000000 0.287303 0.911889
1.000000 0.283059 0.907645
0.000000 0.529466 0.942904
0.000000 0.525222 0.938660
0.101612 0.515049 0.928487
0.292751 0.503899 0.917337
0.492261 0.492261 0.905699
0.691771 0.480623 0.894060
0.882911 0.469473 0.882911
1.000000 0.459300 0.872737
1.000000 0.455056 0.868494
0.000000 0.701463 0.903752
0.000000 0.697219 0.899508
0.062460 0.687046 0.889335
0.253599 0.675896 0.878185
0.453109 0.664258 0.866547
0.652620 0.652620 0.854909
0.843759 0.641470 0.843759
1.000000 0.631297 0.833586
1.000000 0.627053 0.829342
0.000000 0.866243 0.866243
0.000000 0.861999 0.861999
0.024951 0.851826 0.851826
0.216090 0.840676 0.840676
0.415601 0.829038 0.829038
0.615111 0.817400 0.817400
0.806250 0.806250 0.806250
0.980647 0.796077 0.796077
1.000000 0.791833 0.791833
0.000000 1.000000 0.832020
0.000000 1.000000 0.827776
0.000000 1.000000 0.817603
0.181867 0.991023 0.806453
0.381377 0.979385 0.794815
0.580887 0.967747 0.783176
0.772027 0.956597 0.772027
0.946424 0.946424 0.761853
1.000000 0.942180 0.757610
0.000000 1.000000 0.817744
0.000000 1.000000 0.813500
0.000000 1.000000 0.803327
0.167591 1.000000 0.792177
0.367101 1.000000 0.780539
0.566611 1.000000 0.768900
0.757750 1.000000 0.757750
0.932148 1.000000 0.747577
1.000000 1.000000 0.743334
0.000000 0.000000 1.000000
0.048920 0.000000 1.000000
0.223317 0.000000 1.000000
0.414456 0.000000 1.000000
0.613966 0.000000 1.000000
0.813476 0.000000 1.000000
1.000000 0.000000 1.000000
1.000000 0.000000 1.000000
1.000000 0.000000 1.000000
0.000000 0.038887 1.000000
0.034644 0.034644 1.000000
0.209041 0.024470 1.000000
0.400180 0.013320 1.000000
0.599690 0.001682 1.000000
0.799200 0.000000 1.000000
0.990340 0.000000 1.000000
1.000000 0.000000 1.000000
1.000000 0.000000 1.000000
0.000000 0.189234 1.000000
0.000420 0.184990 1.000000
0.174817 0.174817 1.000000
0.365956 0.163667 1.000000
0.565467 0.152029 1.000000
0.764977 0.140391 1.000000
0.956116 0.129241 1.000000
1.000000 0.119068 1.000000
1.000000 0.114824 1.000000
0.000000 0.354014 1.000000
0.000000 0.349771 1.000000
0.137308 0.339597 1.000000
0.328448 0.328448 1.000000
0.527958 0.316809 1.000000
0.727468 0.305171 1.000000
0.918607 0.294021 1.000000
1.000000 0.283848 1.000000
1.000000 0.279604 1.000000
0.000000 0.526011 1.000000
0.000000 0.521767 1.000000
0.098157 0.511594 1.000000
0.289296 0.500444 1.000000
0.488806 0.488806 1.000000
0.688316 0.477168 1.000000
0.879456 0.466018 1.000000
1.000000 0.455845 1.000000
1.000000 0.451601 1.000000
0.000000 0.698008 1.000000
0.000000 0.693764 1.000000
0.059005 0.683591 1.000000
0.250144 0.672441 1.000000
0.449655 0.660803 1.000000
0.649165 0.649165 1.000000
0.840304 0.638015 1.000000
1.000000 0.627842 1.000000
1.000000 0.623598 1.000000
0.000000 0.862788 1.000000
0.000000 0.858544 1.000000
0.021496 0.848371 1.000000
0.212635 0.837221 1.000000
0.412146 0.825583 1.000000
0.611656 0.813945 0.998515
0.802795 0.802795 0.987365
0.977192 0.792622 0.977192
1.000000 0.788378 0.972948
0.000000 1.000000 1.000000
0.000000 1.000000 1.000000
0.000000 0.998718 0.998718
0.178412 0.987568 0.987568
0.377922 0.975930 0.975930
0.577432 0.964292 0.964292
0.768572 0.953142 0.953142
0.942969 0.942969 0.942969
1.000000 0.938725 0.938725
0.000000 1.000000 0.998859
0.000000 1.000000 0.994615
0.000000 1.000000 0.984442
0.164136 1.000000 0.973292
0.363646 1.000000 0.961654
0.563156 1.000000 0.950016
0.754296 1.000000 0.938866
0.928693 1.000000 0.928693
1.000000 1.000000 0.924449
0.000000 0.000000 1.000000
0.047478 0.000000 1.000000
0.221876 0.000000 1.000000
0.413015 0.000000 1.000000
0.612525 0.000000 1.000000
0.812035 0.000000 1.000000
1.000000 0.000000 1.000000
1.000000 0.000000 1.000000
1.000000 0.000000 1.000000
0.000000 0.037446 1.000000
0.033202 0.033202 1.000000
0.207599 0.023029 1.000000
0.398739 0.011879 1.000000
0.598249 0.000241 1.000000
0.797759 0.000000 1.000000
0.988898 0.000000 1.000000
1.000000 0.000000 1.000000
1.000000 0.000000 1.000000
0.000000 0.187793 1.000000
0.000000 0.183549 1.000000
0.173376 0.173376 1.000000
0.364515 0.162226 1.000000
0.564026 0.150588 1.000000
0.763536 0.138950 1.000000
0.954675 0.127800 1.000000
1.000000 0.117627 1.000000
1.000000 0.113383 1.000000
0.000000 0.352573 1.000000
0.000000 0.348329 1.000000
0.135867 0.338156 1.000000
0.327006 0.327006 1.000000
0.526517 0.315368 1.000000
0.726027 0.303730 1.000000
0.917166 0.292580 1.000000
1.000000 0.282407 1.000000
1.000000 0.278163 1.000000
0.000000 0.524570 1.000000
0.000000 0.520326 1.000000
0.096716 0.510153 1.000000
0.287855 0.499003 1.000000
0.487365 0.487365 1.000000
0.686875 0.475727 1.000000
0.878014 0.464577 1.000000
1.000000 0.454404 1.000000
1.000000 0.450160 1.000000
0.000000 0.696567 1.000000
0.000000 0.692323 1.000000
0.057564 0.682150 1.000000
0.248703 0.671000 1.000000
0.448213 0.659362 1.000000
0.647724 0.647724 1.000000
0.838863 0.636574 1.000000
1.000000 0.626401 1.000000
1.000000 0.622157 1.000000
0.000000 0.861347 1.000000
0.000000 0.857103 1.000000
0.020055 0.846930 1.000000
0.211194 0.835780 1.000000
0.410704 0.824142 1.000000
0.610215 0.812504 1.000000
0.801354 0.801354 1.000000
0.975751 0.791181 1.000000
1.000000 0.786937 1.000000
0.000000 1.000000 1.000000
0.000000 1.000000 1.000000
0.000000 0.997277 1.000000
0.176971 0.986127 1.000000
0.376481 0.974489 1.000000
0.575991 0.962851 1.000000
0.767130 0.951701 1.000000
0.941528 0.941528 1.000000
1.000000 0.937284 1.000000
0.000000 1.000000 1.000000
0.000000 1.000000 1.000000
0.000000 1.000000 1.000000
0.162695 1.000000 1.000000
0.362205 1.000000 1.000000
0.561715 1.000000 1.000000
0.752854 1.000000 1.000000
0.927252 1.000000 1.000000
1.000000 1.000000 1.000000
