assets/luts/vivid.cube
# Vivid — Studio filter "vivid"
# Generated by scripts/generate-filter-luts.mjs — do not edit by hand.
LUT_3D_SIZE 17
DOMAIN_MIN 0.0 0.0 0.0
DOMAIN_MAX 1.0 1.0 1.0
0.000000 0.000000 0.000000
0.000000 0.000000 0.000000
0.072748 0.000000 0.000000
0.157331 0.000000 0.000000
0.247146 0.000000 0.000000
0.341146 0.000000 0.000000
0.438285 0.000000 0.000000
0.537517 0.000000 0.000000
0.637795 0.000000 0.000000
0.738073 0.000000 0.000000
0.837305 0.000000 0.000000
0.934444 0.000000 0.000000
1.000000 0.000000 0.000000
1.000000 0.000000 0.000000
1.000000 0.000000 0.000000
1.000000 0.000000 0.000000
1.000000 0.000000 0.000000
0.000000 0.000000 0.000000
0.000000 0.000000 0.000000
0.072748 0.000000 0.000000
0.157331 0.000000 0.000000
0.247146 0.000000 0.000000
0.341146 0.000000 0.000000
0.438285 0.000000 0.000000
0.537517 0.000000 0.000000
0.637795 0.000000 0.000000
0.738073 0.000000 0.000000
0.837305 0.000000 0.000000
0.934444 0.000000 0.000000
1.000000 0.000000 0.000000
1.000000 0.000000 0.000000
1.000000 0.000000 0.000000
1.000000 0.000000 0.000000
1.000000 0.000000 0.000000
0.000000 0.062716 0.000000
0.000000 0.062716 0.000000
0.058472 0.058472 0.000000
0.143055 0.053538 0.000000
0.232869 0.048299 0.000000
0.326870 0.042816 0.000000
0.424009 0.037149 0.000000
0.523241 0.031361 0.000000
0.623519 0.025511 0.000000
0.723797 0.019662 0.000000
0.823029 0.013873 0.000000
0.920168 0.008206 0.000000
1.000000 0.002723 0.000000
1.000000 0.000000 0.000000
1.000000 0.000000 0.000000
1.000000 0.000000 0.000000
1.000000 0.000000 0.000000
0.000000 0.135634 0.000000
0.000000 0.135634 0.000000
0.041874 0.131391 0.000000
0.126457 0.126457 0.000000
0.216271 0.121217 0.000000
0.310271 0.115734 0.000000
0.407410 0.110068 0.000000
0.506642 0.104279 0.000000
0.606921 0.098429 0.000000
0.707199 0.092580 0.000000
0.806431 0.086791 0.000000
0.903570 0.081125 0.000000
0.997570 0.075641 0.000000
1.000000 0.070402 0.000000
1.000000 0.065468 0.000000
1.000000 0.061224 0.000000
1.000000 0.061224 0.000000
0.000000 0.213063 0.000000
0.000000 0.213063 0.000000
0.024249 0.208819 0.000000
0.108832 0.203885 0.000000
0.198646 0.198646 0.000000
0.292646 0.193163 0.000000
0.389785 0.187496 0.000000
0.489017 0.181708 0.000000
0.589295 0.175858 0.000000
0.689574 0.170008 0.000000
0.788806 0.164220 0.000000
0.885945 0.158553 0.000000
0.979945 0.153070 0.000000
1.000000 0.147831 0.000000
1.000000 0.142897 0.000000
1.000000 0.138653 0.000000
1.000000 0.138653 0.000000
0.000000 0.294100 0.000000
0.000000 0.294100 0.000000
0.005803 0.289856 0.000000
0.090385 0.284922 0.000000
0.180200 0.279683 0.000000
0.274200 0.274200 0.000000
0.371339 0.268533 0.000000
0.470571 0.262745 0.000000
0.570849 0.256895 0.000000
0.671127 0.251045 0.000000
0.770359 0.245257 0.000000
0.867498 0.239590 0.000000
0.961499 0.234107 0.000000
1.000000 0.228868 0.000000
1.000000 0.223934 0.000000
1.000000 0.219690 0.000000
1.000000 0.219690 0.000000
0.000000 0.377843 0.000000
0.000000 0.377843 0.000000
0.000000 0.373599 0.000000
0.071323 0.368665 0.000000
0.161137 0.363426 0.000000
0.255137 0.357943 0.000000
0.352276 0.352276 0.000000
0.451508 0.346488 0.000000
0.551787 0.340638 0.000000
0.652065 0.334789 0.000000
0.751297 0.329000 0.000000
0.848436 0.323333 0.000000
0.942436 0.317850 0.000000
1.000000 0.312611 0.000000
1.000000 0.307677 0.000000
1.000000 0.303433 0.000000
1.000000 0.303433 0.000000
0.000000 0.463391 0.000000
0.000000 0.463391 0.000000
0.000000 0.459147 0.000000
0.051850 0.454213 0.000000
0.141664 0.448974 0.000000
0.235664 0.443490 0.000000
0.332803 0.437824 0.000000
0.432035 0.432035 0.000000
0.532313 0.426186 0.000000
0.632592 0.420336 0.000000
0.731824 0.414547 0.000000
0.828963 0.408881 0.000000
0.922963 0.403397 0.000000
1.000000 0.398158 0.000000
1.000000 0.393224 0.000000
1.000000 0.388981 0.000000
1.000000 0.388981 0.000000
0.000000 0.549840 0.000000
0.000000 0.549840 0.000000
0.000000 0.545596 0.000000
0.032171 0.540662 0.000000
0.121986 0.535423 0.000000
0.215986 0.529940 0.000000
0.313125 0.524273 0.000000
0.412357 0.518485 0.000000
0.512635 0.512635 0.000000
0.612913 0.506785 0.000000
0.712145 0.500997 0.000000
0.809284 0.495330 0.000000
0.903284 0.489847 0.000000
0.993099 0.484608 0.000000
1.000000 0.479674 0.000000
1.000000 0.475430 0.000000
1.000000 0.475430 0.000000
0.000000 0.636289 0.000000
0.000000 0.636289 0.000000
0.000000 0.632046 0.000000
0.012493 0.627112 0.000000
0.102307 0.621873 0.000000
0.196307 0.616389 0.000000
0.293446 0.610723 0.000000
0.392678 0.604934 0.000000
0.492957 0.599084 0.000000
0.593235 0.593235 0.000000
0.692467 0.587446 0.000000
0.789606 0.581780 0.000000
0.883606 0.576296 0.000000
0.973420 0.571057 0.000000
1.000000 0.566123 0.000000
1.000000 0.561879 0.000000
1.000000 0.561879 0.000000
0.000000 0.721837 0.000000
0.000000 0.721837 0.000000
0.000000 0.717593 0.000000
0.000000 0.712659 0.000000
0.082834 0.707420 0.000000
0.176834 0.701937 0.000000
0.273973 0.696270 0.000000
0.373205 0.690481 0.000000
0.473483 0.684632 0.000000
0.573762 0.678782 0.000000
0.672994 0.672994 0.000000
0.770133 0.667327 0.000000
0.864133 0.661844 0.000000
0.953947 0.656605 0.000000
1.000000 0.651671 0.000000
1.000000 0.647427 0.000000
1.000000 0.647427 0.000000
0.000000 0.805580 0.000000
0.000000 0.805580 0.000000
0.000000 0.801336 0.000000
0.000000 0.796402 0.000000
0.063771 0.791163 0.000000
0.157772 0.785680 0.000000
0.254911 0.780013 0.000000
0.354143 0.774225 0.000000
0.454421 0.768375 0.000000
0.554699 0.762525 0.000000
0.653931 0.756737 0.000000
0.751070 0.751070 0.000000
0.845070 0.745587 0.000000
0.934885 0.740348 0.000000
1.000000 0.735414 0.000000
1.000000 0.731170 0.000000
1.000000 0.731170 0.000000
0.000000 0.886617 0.000000
0.000000 0.886617 0.000000
0.000000 0.882373 0.000000
0.000000 0.877439 0.000000
0.045325 0.872200 0.000000
0.139325 0.866717 0.000000
0.236464 0.861050 0.000000
0.335696 0.855262 0.000000
0.435974 0.849412 0.000000
0.536253 0.843562 0.000000
0.635485 0.837774 0.000000
0.732624 0.832107 0.000000
0.826624 0.826624 0.000000
0.916438 0.821385 0.000000
1.000000 0.816451 0.000000
1.000000 0.812207 0.000000
1.000000 0.812207 0.000000
0.000000 0.964046 0.000000
0.000000 0.964046 0.000000
0.000000 0.959802 0.000000
0.000000 0.954868 0.000000
0.027700 0.949629 0.000000
0.121700 0.944145 0.000000
0.218839 0.938479 0.000000
0.318071 0.932690 0.000000
0.418349 0.926841 0.000000
0.518628 0.920991 0.000000
0.617860 0.915202 0.000000
0.714999 0.909536 0.000000
0.808999 0.904053 0.000000
0.898813 0.898813 0.000000
0.983396 0.893879 0.000000
1.000000 0.889636 0.000000
1.000000 0.889636 0.000000
0.000000 1.000000 0.000000
0.000000 1.000000 0.000000
0.000000 1.000000 0.000000
0.000000 1.000000 0.000000
0.011102 1.000000 0.000000
0.105102 1.000000 0.000000
0.202241 1.000000 0.000000
0.301473 1.000000 0.000000
0.401751 0.999759 0.000000
0.502029 0.993909 0.000000
0.601261 0.988121 0.000000
0.698400 0.982454 0.000000
0.792401 0.976971 0.000000
0.882215 0.971732 0.000000
0.966798 0.966798 0.000000
1.000000 0.962554 0.000000
1.000000 0.962554 0.000000
0.000000 1.000000 0.000000
0.000000 1.000000 0.000000
0.000000 1.000000 0.000000
0.000000 1.000000 0.000000
0.000000 1.000000 0.000000
0.090826 1.000000 0.000000
0.187965 1.000000 0.000000
0.287197 1.000000 0.000000
0.387475 1.000000 0.000000
0.487753 1.000000 0.000000
0.586985 1.000000 0.000000
0.684124 1.000000 0.000000
0.778124 1.000000 0.000000
0.867939 1.000000 0.000000
0.952522 1.000000 0.000000
1.000000 1.000000 0.000000
1.000000 1.000000 0.000000
0.000000 1.000000 0.000000
0.000000 1.000000 0.000000
0.000000 1.000000 0.000000
0.000000 1.000000 0.000000
0.000000 1.000000 0.000000
0.090826 1.000000 0.000000
0.187965 1.000000 0.000000
0.287197 1.000000 0.000000
0.387475 1.000000 0.000000
0.487753 1.000000 0.000000
0.586985 1.000000 0.000000
0.684124 1.000000 0.000000
0.778124 1.000000 0.000000
0.867939 1.000000 0.000000
0.952522 1.000000 0.000000
1.000000 1.000000 0.000000
1.000000 1.000000 0.000000
0.000000 0.000000 0.000000
0.000000 0.000000 0.000000
0.072748 0.000000 0.000000
0.157331 0.000000 0.000000
0.247146 0.000000 0.000000
0.341146 0.000000 0.000000
0.438285 0.000000 0.000000
0.537517 0.000000 0.000000
0.637795 0.000000 0.000000
0.738073 0.000000 0.000000
0.837305 0.000000 0.000000
0.934444 0.000000 0.000000
1.000000 0.000000 0.000000
1.000000 0.000000 0.000000
1.000000 0.000000 0.000000
1.000000 0.000000 0.000000
1.000000 0.000000 0.000000
0.000000 0.000000 0.000000
0.000000 0.000000 0.000000
0.072748 0.000000 0.000000
0.157331 0.000000 0.000000
0.247146 0.000000 0.000000
0.341146 0.000000 0.000000
0.438285 0.000000 0.000000
0.537517 0.000000 0.000000
0.637795 0.000000 0.000000
0.738073 0.000000 0.000000
0.837305 0.000000 0.000000
0.934444 0.000000 0.000000
1.000000 0.000000 0.000000
1.000000 0.000000 0.000000
1.000000 0.000000 0.000000
1.000000 0.000000 0.000000
1.000000 0.000000 0.000000
0.000000 0.062716 0.000000
0.000000 0.062716 0.000000
0.058472 0.058472 0.000000
0.143055 0.053538 0.000000
0.232869 0.048299 0.000000
0.326870 0.042816 0.000000
0.424009 0.037149 0.000000
0.523241 0.031361 0.000000
0.623519 0.025511 0.000000
0.723797 0.019662 0.000000
0.823029 0.013873 0.000000
0.920168 0.008206 0.000000
1.000000 0.002723 0.000000
1.000000 0.000000 0.000000
1.000000 0.000000 0.000000
1.000000 0.000000 0.000000
1.000000 0.000000 0.000000
0.000000 0.135634 0.000000
0.000000 0.135634 0.000000
0.041874 0.131391 0.000000
0.126457 0.126457 0.000000
0.216271 0.121217 0.000000
0.310271 0.115734 0.000000
0.407410 0.110068 0.000000
0.506642 0.104279 0.000000
0.606921 0.098429 0.000000
0.707199 0.092580 0.000000
0.806431 0.086791 0.000000
0.903570 0.081125 0.000000
0.997570 0.075641 0.000000
1.000000 0.070402 0.000000
1.000000 0.065468 0.000000
1.000000 0.061224 0.000000
1.000000 0.061224 0.000000
0.000000 0.213063 0.000000
0.000000 0.213063 0.000000
0.024249 0.208819 0.000000
0.108832 0.203885 0.000000
0.198646 0.198646 0.000000
0.292646 0.193163 0.000000
0.389785 0.187496 0.000000
0.489017 0.181708 0.000000
0.589295 0.175858 0.000000
0.689574 0.170008 0.000000
0.788806 0.164220 0.000000
0.885945 0.158553 0.000000
0.979945 0.153070 0.000000
1.000000 0.147831 0.000000
1.000000 0.142897 0.000000
1.000000 0.138653 0.000000
1.000000 0.138653 0.000000
0.000000 0.294100 0.000000
0.000000 0.294100 0.000000
0.005803 0.289856 0.000000
0.090385 0.284922 0.000000
0.180200 0.279683 0.000000
0.274200 0.274200 0.000000
0.371339 0.268533 0.000000
0.470571 0.262745 0.000000
0.570849 0.256895 0.000000
0.671127 0.251045 0.000000
0.770359 0.245257 0.000000
0.867498 0.239590 0.000000
0.961499 0.234107 0.000000
1.000000 0.228868 0.000000
1.000000 0.223934 0.000000
1.000000 0.219690 0.000000
1.000000 0.219690 0.000000
0.000000 0.377843 0.000000
0.000000 0.377843 0.000000
0.000000 0.373599 0.000000
0.071323 0.368665 0.000000
0.161137 0.363426 0.000000
0.255137 0.357943 0.000000
0.352276 0.352276 0.000000
0.451508 0.346488 0.000000
0.551787 0.340638 0.000000
0.652065 0.334789 0.000000
0.751297 0.329000 0.000000
0.848436 0.323333 0.000000
0.942436 0.317850 0.000000
1.000000 0.312611 0.000000
1.000000 0.307677 0.000000
1.000000 0.303433 0.000000
1.000000 0.303433 0.000000
0.000000 0.463391 0.000000
0.000000 0.463391 0.000000
0.000000 0.459147 0.000000
0.051850 0.454213 0.000000
0.141664 0.448974 0.000000
0.235664 0.443490 0.000000
0.332803 0.437824 0.000000
0.432035 0.432035 0.000000
0.532313 0.426186 0.000000
0.632592 0.420336 0.000000
0.731824 0.414547 0.000000
0.828963 0.408881 0.000000
0.922963 0.403397 0.000000
1.000000 0.398158 0.000000
1.000000 0.393224 0.000000
1.000000 0.388981 0.000000
1.000000 0.388981 0.000000
0.000000 0.549840 0.000000
0.000000 0.549840 0.000000
0.000000 0.545596 0.000000
0.032171 0.540662 0.000000
0.121986 0.535423 0.000000
0.215986 0.529940 0.000000
0.313125 0.524273 0.000000
0.412357 0.518485 0.000000
0.512635 0.512635 0.000000
0.612913 0.506785 0.000000
0.712145 0.500997 0.000000
0.809284 0.495330 0.000000
0.903284 0.489847 0.000000
0.993099 0.484608 0.000000
1.000000 0.479674 0.000000
1.000000 0.475430 0.000000
1.000000 0.475430 0.000000
0.000000 0.636289 0.000000
0.000000 0.636289 0.000000
0.000000 0.632046 0.000000
0.012493 0.627112 0.000000
0.102307 0.621873 0.000000
0.196307 0.616389 0.000000
0.293446 0.610723 0.000000
0.392678 0.604934 0.000000
0.492957 0.599084 0.000000
0.593235 0.593235 0.000000
0.692467 0.587446 0.000000
0.789606 0.581780 0.000000
0.883606 0.576296 0.000000
0.973420 0.571057 0.000000
1.000000 0.566123 0.000000
1.000000 0.561879 0.000000
1.000000 0.561879 0.000000
0.000000 0.721837 0.000000
0.000000 0.721837 0.000000
0.000000 0.717593 0.000000
0.000000 0.712659 0.000000
0.082834 0.707420 0.000000
0.176834 0.701937 0.000000
0.273973 0.696270 0.000000
0.373205 0.690481 0.000000
0.473483 0.684632 0.000000
0.573762 0.678782 0.000000
0.672994 0.672994 0.000000
0.770133 0.667327 0.000000
0.864133 0.661844 0.000000
0.953947 0.656605 0.000000
1.000000 0.651671 0.000000
1.000000 0.647427 0.000000
1.000000 0.647427 0.000000
0.000000 0.805580 0.000000
0.000000 0.805580 0.000000
0.000000 0.801336 0.000000
0.000000 0.796402 0.000000
0.063771 0.791163 0.000000
0.157772 0.785680 0.000000
0.254911 0.780013 0.000000
0.354143 0.774225 0.000000
0.454421 0.768375 0.000000
0.554699 0.762525 0.000000
0.653931 0.756737 0.000000
0.751070 0.751070 0.000000
0.845070 0.745587 0.000000
0.934885 0.740348 0.000000
1.000000 0.735414 0.000000
1.000000 0.731170 0.000000
1.000000 0.731170 0.000000
0.000000 0.886617 0.000000
0.000000 0.886617 0.000000
0.000000 0.882373 0.000000
0.000000 0.877439 0.000000
0.045325 0.872200 0.000000
0.139325 0.866717 0.000000
0.236464 0.861050 0.000000
0.335696 0.855262 0.000000
0.435974 0.849412 0.000000
0.536253 0.843562 0.000000
0.635485 0.837774 0.000000
0.732624 0.832107 0.000000
0.826624 0.826624 0.000000
0.916438 0.821385 0.000000
1.000000 0.816451 0.000000
1.000000 0.812207 0.000000
1.000000 0.812207 0.000000
0.000000 0.964046 0.000000
0.000000 0.964046 0.000000
0.000000 0.959802 0.000000
0.000000 0.954868 0.000000
0.027700 0.949629 0.000000
0.121700 0.944145 0.000000
0.218839 0.938479 0.000000
0.318071 0.932690 0.000000
0.418349 0.926841 0.000000
0.518628 0.920991 0.000000
0.617860 0.915202 0.000000
0.714999 0.909536 0.000000
0.808999 0.904053 0.000000
0.898813 0.898813 0.000000
0.983396 0.893879 0.000000
1.000000 0.889636 0.000000
1.000000 0.889636 0.000000
0.000000 1.000000 0.000000
0.000000 1.000000 0.000000
0.000000 1.000000 0.000000
0.000000 1.000000 0.000000
0.011102 1.000000 0.000000
0.105102 1.000000 0.000000
0.202241 1.000000 0.000000
0.301473 1.000000 0.000000
0.401751 0.999759 0.000000
0.502029 0.993909 0.000000
0.601261 0.988121 0.000000
0.698400 0.982454 0.000000
0.792401 0.976971 0.000000
0.882215 0.971732 0.000000
0.966798 0.966798 0.000000
1.000000 0.962554 0.000000
1.000000 0.962554 0.000000
0.000000 1.000000 0.000000
0.000000 1.000000 0.000000
0.000000 1.000000 0.000000
0.000000 1.000000 0.000000
0.000000 1.000000 0.000000
0.090826 1.000000 0.000000
0.187965 1.000000 0.000000
0.287197 1.000000 0.000000
0.387475 1.000000 0.000000
0.487753 1.000000 0.000000
0.586985 1.000000 0.000000
0.684124 1.000000 0.000000
0.778124 1.000000 0.000000
0.867939 1.000000 0.000000
0.952522 1.000000 0.000000
1.000000 1.000000 0.000000
1.000000 1.000000 0.000000
0.000000 1.000000 0.000000
0.000000 1.000000 0.000000
0.000000 1.000000 0.000000
0.000000 1.000000 0.000000
0.000000 1.000000 0.000000
0.090826 1.000000 0.000000
0.187965 1.000000 0.000000
0.287197 1.000000 0.000000
0.387475 1.000000 0.000000
0.487753 1.000000 0.000000
0.586985 1.000000 0.000000
0.684124 1.000000 0.000000
0.778124 1.000000 0.000000
0.867939 1.000000 0.000000
0.952522 1.000000 0.000000
1.000000 1.000000 0.000000
1.000000 1.000000 0.000000
0.000000 0.000000 0.075551
0.000000 0.000000 0.075551
0.071307 0.000000 0.071307
0.155890 0.000000 0.066373
0.245704 0.000000 0.061134
0.339704 0.000000 0.055651
0.436844 0.000000 0.049984
0.536076 0.000000 0.044196
0.636354 0.000000 0.038346
0.736632 0.000000 0.032496
0.835864 0.000000 0.026708
0.933003 0.000000 0.021041
1.000000 0.000000 0.015558
1.000000 0.000000 0.010319
1.000000 0.000000 0.005385
1.000000 0.000000 0.001141
1.000000 0.000000 0.001141
0.000000 0.000000 0.075551
0.000000 0.000000 0.075551
0.071307 0.000000 0.071307
0.155890 0.000000 0.066373
0.245704 0.000000 0.061134
0.339704 0.000000 0.055651
0.436844 0.000000 0.049984
0.536076 0.000000 0.044196
0.636354 0.000000 0.038346
0.736632 0.000000 0.032496
0.835864 0.000000 0.026708
0.933003 0.000000 0.021041
1.000000 0.000000 0.015558
1.000000 0.000000 0.010319
1.000000 0.000000 0.005385
1.000000 0.000000 0.001141
1.000000 0.000000 0.001141
0.000000 0.061275 0.061275
0.000000 0.061275 0.061275
0.057031 0.057031 0.057031
0.141614 0.052097 0.052097
0.231428 0.046858 0.046858
0.325428 0.041375 0.041375
0.422568 0.035708 0.035708
0.521799 0.029920 0.029920
0.622078 0.024070 0.024070
0.722356 0.018220 0.018220
0.821588 0.012432 0.012432
0.918727 0.006765 0.006765
1.000000 0.001282 0.001282
1.000000 0.000000 0.000000
1.000000 0.000000 0.000000
1.000000 0.000000 0.000000
1.000000 0.000000 0.000000
0.000000 0.134193 0.044677
0.000000 0.134193 0.044677
0.040433 0.129949 0.040433
0.125015 0.125015 0.035499
0.214830 0.119776 0.030260
0.308830 0.114293 0.024776
0.405969 0.108626 0.019110
0.505201 0.102838 0.013321
0.605479 0.096988 0.007472
0.705758 0.091139 0.001622
0.804990 0.085350 0.000000
0.902129 0.079683 0.000000
0.996129 0.074200 0.000000
1.000000 0.068961 0.000000
1.000000 0.064027 0.000000
1.000000 0.059783 0.000000
1.000000 0.059783 0.000000
0.000000 0.211622 0.027052
0.000000 0.211622 0.027052
0.022808 0.207378 0.022808
0.107390 0.202444 0.017874
0.197205 0.197205 0.012635
0.291205 0.191722 0.007151
0.388344 0.186055 0.001485
0.487576 0.180266 0.000000
0.587854 0.174417 0.000000
0.688133 0.168567 0.000000
0.787365 0.162779 0.000000
0.884504 0.157112 0.000000
0.978504 0.151629 0.000000
1.000000 0.146390 0.000000
1.000000 0.141456 0.000000
1.000000 0.137212 0.000000
1.000000 0.137212 0.000000
0.000000 0.292659 0.008605
0.000000 0.292659 0.008605
0.004361 0.288415 0.004361
0.088944 0.283481 0.000000
0.178758 0.278242 0.000000
0.272758 0.272758 0.000000
0.369898 0.267092 0.000000
0.469130 0.261303 0.000000
0.569408 0.255454 0.000000
0.669686 0.249604 0.000000
0.768918 0.243816 0.000000
0.866057 0.238149 0.000000
0.960057 0.232666 0.000000
1.000000 0.227427 0.000000
1.000000 0.222492 0.000000
1.000000 0.218249 0.000000
1.000000 0.218249 0.000000
0.000000 0.376402 0.000000
0.000000 0.376402 0.000000
0.000000 0.372158 0.000000
0.069882 0.367224 0.000000
0.159696 0.361985 0.000000
0.253696 0.356502 0.000000
0.350835 0.350835 0.000000
0.450067 0.345047 0.000000
0.550345 0.339197 0.000000
0.650624 0.333347 0.000000
0.749856 0.327559 0.000000
0.846995 0.321892 0.000000
0.940995 0.316409 0.000000
1.000000 0.311170 0.000000
1.000000 0.306236 0.000000
1.000000 0.301992 0.000000
1.000000 0.301992 0.000000
0.000000 0.461949 0.000000
0.000000 0.461949 0.000000
0.000000 0.457706 0.000000
0.050408 0.452772 0.000000
0.140223 0.447532 0.000000
0.234223 0.442049 0.000000
0.331362 0.436383 0.000000
0.430594 0.430594 0.000000
0.530872 0.424744 0.000000
0.631151 0.418895 0.000000
0.730383 0.413106 0.000000
0.827522 0.407440 0.000000
0.921522 0.401956 0.000000
1.000000 0.396717 0.000000
1.000000 0.391783 0.000000
1.000000 0.387539 0.000000
1.000000 0.387539 0.000000
0.000000 0.548399 0.000000
0.000000 0.548399 0.000000
0.000000 0.544155 0.000000
0.030730 0.539221 0.000000
0.120544 0.533982 0.000000
0.214544 0.528499 0.000000
0.311684 0.522832 0.000000
0.410916 0.517043 0.000000
0.511194 0.511194 0.000000
0.611472 0.505344 0.000000
0.710704 0.499556 0.000000
0.807843 0.493889 0.000000
0.901843 0.488406 0.000000
0.991658 0.483167 0.000000
1.000000 0.478233 0.000000
1.000000 0.473989 0.000000
1.000000 0.473989 0.000000
0.000000 0.634848 0.000000
0.000000 0.634848 0.000000
0.000000 0.630605 0.000000
0.011051 0.625671 0.000000
0.100866 0.620431 0.000000
0.194866 0.614948 0.000000
0.292005 0.609281 0.000000
0.391237 0.603493 0.000000
0.491515 0.597643 0.000000
0.591794 0.591794 0.000000
0.691026 0.586005 0.000000
0.788165 0.580339 0.000000
0.882165 0.574855 0.000000
0.971979 0.569616 0.000000
1.000000 0.564682 0.000000
1.000000 0.560438 0.000000
1.000000 0.560438 0.000000
0.000000 0.720396 0.000000
0.000000 0.720396 0.000000
0.000000 0.716152 0.000000
0.000000 0.711218 0.000000
0.081393 0.705979 0.000000
0.175393 0.700495 0.000000
0.272532 0.694829 0.000000
0.371764 0.689040 0.000000
0.472042 0.683191 0.000000
0.572321 0.677341 0.000000
0.671552 0.671552 0.000000
0.768692 0.665886 0.000000
0.862692 0.660403 0.000000
0.952506 0.655163 0.000000
1.000000 0.650229 0.000000
1.000000 0.645986 0.000000
1.000000 0.645986 0.000000
0.000000 0.804139 0.000000
0.000000 0.804139 0.000000
0.000000 0.799895 0.000000
0.000000 0.794961 0.000000
0.062330 0.789722 0.000000
0.156330 0.784239 0.000000
0.253470 0.778572 0.000000
0.352701 0.772783 0.000000
0.452980 0.766934 0.000000
0.553258 0.761084 0.000000
0.652490 0.755296 0.000000
0.749629 0.749629 0.000000
0.843629 0.744146 0.000000
0.933444 0.738907 0.000000
1.000000 0.733973 0.000000
1.000000 0.729729 0.000000
1.000000 0.729729 0.000000
0.000000 0.885176 0.000000
0.000000 0.885176 0.000000
0.000000 0.880932 0.000000
0.000000 0.875998 0.000000
0.043884 0.870759 0.000000
0.137884 0.865276 0.000000
0.235023 0.859609 0.000000
0.334255 0.853820 0.000000
0.434533 0.847971 0.000000
0.534812 0.842121 0.000000
0.634044 0.836333 0.000000
0.731183 0.830666 0.000000
0.825183 0.825183 0.000000
0.914997 0.819944 0.000000
0.999580 0.815010 0.000000
1.000000 0.810766 0.000000
1.000000 0.810766 0.000000
0.000000 0.962604 0.000000
0.000000 0.962604 0.000000
0.000000 0.958361 0.000000
0.000000 0.953427 0.000000
0.026259 0.948188 0.000000
0.120259 0.942704 0.000000
0.217398 0.937038 0.000000
0.316630 0.931249 0.000000
0.416908 0.925399 0.000000
0.517187 0.919550 0.000000
0.616418 0.913761 0.000000
0.713558 0.908095 0.000000
0.807558 0.902611 0.000000
0.897372 0.897372 0.000000
0.981955 0.892438 0.000000
1.000000 0.888194 0.000000
1.000000 0.888194 0.000000
0.000000 1.000000 0.000000
0.000000 1.000000 0.000000
0.000000 1.000000 0.000000
0.000000 1.000000 0.000000
0.009660 1.000000 0.000000
0.103660 1.000000 0.000000
0.200800 1.000000 0.000000
0.300032 1.000000 0.000000
0.400310 0.998318 0.000000
0.500588 0.992468 0.000000
0.599820 0.986680 0.000000
0.696959 0.981013 0.000000
0.790959 0.975530 0.000000
0.880774 0.970290 0.000000
0.965356 0.965356 0.000000
1.000000 0.961113 0.000000
1.000000 0.961113 0.000000
0.000000 1.000000 0.000000
0.000000 1.000000 0.000000
0.000000 1.000000 0.000000
0.000000 1.000000 0.000000
0.000000 1.000000 0.000000
0.089384 1.000000 0.000000
0.186524 1.000000 0.000000
0.285756 1.000000 0.000000
0.386034 1.000000 0.000000
0.486312 1.000000 0.000000
0.585544 1.000000 0.000000
0.682683 1.000000 0.000000
0.776683 1.000000 0.000000
0.866498 1.000000 0.000000
0.951080 1.000000 0.000000
1.000000 1.000000 0.000000
1.000000 1.000000 0.000000
0.000000 1.000000 0.000000
0.000000 1.000000 0.000000
0.000000 1.000000 0.000000
0.000000 1.000000 0.000000
0.000000 1.000000 0.000000
0.089384 1.000000 0.000000
0.186524 1.000000 0.000000
0.285756 1.000000 0.000000
0.386034 1.000000 0.000000
0.486312 1.000000 0.000000
0.585544 1.000000 0.000000
0.682683 1.000000 0.000000
0.776683 1.000000 0.000000
0.866498 1.000000 0.000000
0.951080 1.000000 0.000000
1.000000 1.000000 0.000000
1.000000 1.000000 0.000000
0.000000 0.000000 0.163392
0.000000 0.000000 0.163392
0.069632 0.000000 0.159148
0.154214 0.000000 0.154214
0.244029 0.000000 0.148975
0.338029 0.000000 0.143492
0.435168 0.000000 0.137825
0.534400 0.000000 0.132037
0.634678 0.000000 0.126187
0.734957 0.000000 0.120337
0.834188 0.000000 0.114549
0.931328 0.000000 0.108882
1.000000 0.000000 0.103399
1.000000 0.000000 0.098160
1.000000 0.000000 0.093226
