assets/luts/warm.cube
# Warm — Studio filter "warm"
# Generated by scripts/generate-filter-luts.mjs — do not edit by hand.
LUT_3D_SIZE 9
DOMAIN_MIN 0.0 0.0 0.0
DOMAIN_MAX 1.0 1.0 1.0
0.000000 0.000000 0.000000
0.127461 0.000000 0.000000
0.266851 0.000000 0.000000
0.414193 0.000000 0.000000
0.565512 0.000000 0.000000
0.716830 0.000000 0.000000
0.864173 0.000000 0.000000
1.000000 0.000000 0.000000
1.000000 0.000000 0.000000
0.000000 0.115767 0.000000
0.122577 0.114215 0.000000
0.261967 0.112517 0.000000
0.409309 0.110722 0.000000
0.560627 0.108879 0.000000
0.711946 0.107036 0.000000
0.859288 0.105241 0.000000
0.998678 0.103543 0.000000
1.000000 0.101991 0.000000
0.000000 0.242369 0.000000
0.117235 0.240816 0.000000
0.256625 0.239119 0.000000
0.403967 0.237324 0.000000
0.555286 0.235481 0.000000
0.706605 0.233638 0.000000
0.853947 0.231843 0.000000
0.993337 0.230145 0.000000
1.000000 0.228592 0.000000
0.000000 0.376193 0.000000
0.111589 0.374641 0.000000
0.250979 0.372943 0.000000
0.398321 0.371148 0.000000
0.549640 0.369305 0.000000
0.700958 0.367462 0.000000
0.848301 0.365667 0.000000
0.987690 0.363970 0.000000
1.000000 0.362417 0.000000
0.000000 0.513629 0.000000
0.105790 0.512077 0.000000
0.245180 0.510379 0.000000
0.392523 0.508584 0.000000
0.543841 0.506741 0.000000
0.695160 0.504898 0.000000
0.842502 0.503103 0.000000
0.981892 0.501406 0.000000
1.000000 0.499853 0.000000
0.000000 0.651065 0.000000
0.099992 0.649513 0.000000
0.239382 0.647815 0.000000
0.386724 0.646020 0.000000
0.538043 0.644177 0.000000
0.689361 0.642334 0.000000
0.836704 0.640539 0.000000
0.976093 0.638842 0.000000
1.000000 0.637289 0.000000
0.000000 0.784890 0.000000
0.094346 0.783337 0.000000
0.233736 0.781640 0.000000
0.381078 0.779845 0.000000
0.532396 0.778002 0.000000
0.683715 0.776159 0.000000
0.831057 0.774364 0.000000
0.970447 0.772666 0.000000
1.000000 0.771114 0.000000
0.000000 0.911492 0.000000
0.089004 0.909939 0.000000
0.228394 0.908241 0.000000
0.375736 0.906447 0.000000
0.527055 0.904603 0.000000
0.678374 0.902760 0.000000
0.825716 0.900966 0.000000
0.965106 0.899268 0.000000
1.000000 0.897715 0.000000
0.000000 1.000000 0.000000
0.084120 1.000000 0.000000
0.223510 1.000000 0.000000
0.370852 1.000000 0.000000
0.522171 1.000000 0.000000
0.673489 1.000000 0.000000
0.820832 1.000000 0.000000
0.960221 1.000000 0.000000
1.000000 1.000000 0.000000
0.000000 0.000000 0.109451
0.127012 0.000000 0.107899
0.266402 0.000000 0.106201
0.413744 0.000000 0.104406
0.565063 0.000000 0.102563
0.716381 0.000000 0.100720
0.863724 0.000000 0.098925
1.000000 0.000000 0.097227
1.000000 0.000000 0.095675
0.000000 0.115318 0.104567
0.122128 0.113766 0.103014
0.261517 0.112068 0.101317
0.408860 0.110273 0.099522
0.560178 0.108430 0.097679
0.711497 0.106587 0.095836
0.858839 0.104792 0.094041
0.998229 0.103094 0.092343
1.000000 0.101542 0.090791
0.000000 0.241920 0.099226
0.116786 0.240367 0.097673
0.256176 0.238669 0.095975
0.403518 0.236875 0.094180
0.554837 0.235032 0.092337
0.706155 0.233188 0.090494
0.853498 0.231394 0.088699
0.992888 0.229696 0.087002
1.000000 0.228143 0.085449
0.000000 0.375744 0.093579
0.111140 0.374192 0.092027
0.250530 0.372494 0.090329
0.397872 0.370699 0.088534
0.549191 0.368856 0.086691
0.700509 0.367013 0.084848
0.847852 0.365218 0.083053
0.987241 0.363520 0.081355
1.000000 0.361968 0.079803
0.000000 0.513180 0.087781
0.105341 0.511628 0.086228
0.244731 0.509930 0.084530
0.392073 0.508135 0.082736
0.543392 0.506292 0.080893
0.694711 0.504449 0.079049
0.842053 0.502654 0.077255
0.981443 0.500956 0.075557
1.000000 0.499404 0.074004
0.000000 0.650616 0.081982
0.099543 0.649064 0.080430
0.238933 0.647366 0.078732
0.386275 0.645571 0.076937
0.537593 0.643728 0.075094
0.688912 0.641885 0.073251
0.836254 0.640090 0.071456
0.975644 0.638392 0.069758
1.000000 0.636840 0.068206
0.000000 0.784441 0.076336
0.093897 0.782888 0.074783
0.233286 0.781190 0.073086
0.380629 0.779396 0.071291
0.531947 0.777553 0.069448
0.683266 0.775709 0.067605
0.830608 0.773915 0.065810
0.969998 0.772217 0.064112
1.000000 0.770664 0.062560
0.000000 0.911042 0.070995
0.088555 0.909490 0.069442
0.227945 0.907792 0.067744
0.375287 0.905997 0.065949
0.526606 0.904154 0.064106
0.677924 0.902311 0.062263
0.825267 0.900516 0.060468
0.964657 0.898819 0.058771
1.000000 0.897266 0.057218
0.000000 1.000000 0.066110
0.083671 1.000000 0.064558
0.223061 1.000000 0.062860
0.370403 1.000000 0.061065
0.521721 1.000000 0.059222
0.673040 1.000000 0.057379
0.820382 1.000000 0.055584
0.959772 1.000000 0.053886
1.000000 1.000000 0.052334
0.000000 0.000000 0.229146
0.126521 0.000000 0.227593
0.265911 0.000000 0.225896
0.413253 0.000000 0.224101
0.564571 0.000000 0.222258
0.715890 0.000000 0.220415
0.863232 0.000000 0.218620
1.000000 0.000000 0.216922
1.000000 0.000000 0.215369
0.000000 0.114827 0.224262
0.121636 0.113274 0.222709
0.261026 0.111577 0.221011
0.408369 0.109782 0.219216
0.559687 0.107939 0.217373
0.711006 0.106096 0.215530
0.858348 0.104301 0.213736
0.997738 0.102603 0.212038
1.000000 0.101050 0.210485
0.000000 0.241429 0.218920
0.116295 0.239876 0.217368
0.255685 0.238178 0.215670
0.403027 0.236383 0.213875
0.554346 0.234540 0.212032
0.705664 0.232697 0.210189
0.853007 0.230902 0.208394
0.992396 0.229205 0.206696
1.000000 0.227652 0.205144
0.000000 0.375253 0.213274
0.110649 0.373701 0.211721
0.250039 0.372003 0.210024
0.397381 0.370208 0.208229
0.548699 0.368365 0.206386
0.700018 0.366522 0.204543
0.847360 0.364727 0.202748
0.986750 0.363029 0.201050
1.000000 0.361477 0.199497
0.000000 0.512689 0.207475
0.104850 0.511137 0.205923
0.244240 0.509439 0.204225
0.391582 0.507644 0.202430
0.542901 0.505801 0.200587
0.694219 0.503958 0.198744
0.841562 0.502163 0.196949
0.980952 0.500465 0.195251
1.000000 0.498913 0.193699
0.000000 0.650125 0.201677
0.099052 0.648573 0.200124
0.238441 0.646875 0.198426
0.385784 0.645080 0.196632
0.537102 0.643237 0.194789
0.688421 0.641394 0.192945
0.835763 0.639599 0.191151
0.975153 0.637901 0.189453
1.000000 0.636349 0.187900
0.000000 0.783950 0.196031
0.093405 0.782397 0.194478
0.232795 0.780699 0.192780
0.380138 0.778905 0.190986
0.531456 0.777061 0.189142
0.682775 0.775218 0.187299
0.830117 0.773424 0.185505
0.969507 0.771726 0.183807
1.000000 0.770173 0.182254
0.000000 0.910551 0.190689
0.088064 0.908999 0.189137
0.227454 0.907301 0.187439
0.374796 0.905506 0.185644
0.526115 0.903663 0.183801
0.677433 0.901820 0.181958
0.824776 0.900025 0.180163
0.964165 0.898327 0.178465
1.000000 0.896775 0.176913
0.000000 1.000000 0.185805
0.083180 1.000000 0.184252
0.222569 1.000000 0.182554
0.369912 1.000000 0.180760
0.521230 1.000000 0.178917
0.672549 1.000000 0.177073
0.819891 1.000000 0.175279
0.959281 1.000000 0.173581
1.000000 1.000000 0.172028
0.000000 0.000000 0.355669
0.126002 0.000000 0.354117
0.265391 0.000000 0.352419
0.412734 0.000000 0.350624
0.564052 0.000000 0.348781
0.715371 0.000000 0.346938
0.862713 0.000000 0.345143
1.000000 0.000000 0.343445
1.000000 0.000000 0.341893
0.000000 0.114308 0.350785
0.121117 0.112755 0.349233
0.260507 0.111057 0.347535
0.407849 0.109263 0.345740
0.559168 0.107420 0.343897
0.710486 0.105576 0.342054
0.857829 0.103782 0.340259
0.997219 0.102084 0.338561
1.000000 0.100531 0.337009
0.000000 0.240909 0.345444
0.115776 0.239357 0.343891
0.255166 0.237659 0.342193
0.402508 0.235864 0.340399
0.553826 0.234021 0.338555
0.705145 0.232178 0.336712
0.852487 0.230383 0.334918
0.991877 0.228685 0.333220
1.000000 0.227133 0.331667
0.000000 0.374734 0.339797
0.110130 0.373181 0.338245
0.249519 0.371484 0.336547
0.396862 0.369689 0.334752
0.548180 0.367846 0.332909
0.699499 0.366003 0.331066
0.846841 0.364208 0.329271
0.986231 0.362510 0.327573
1.000000 0.360957 0.326021
0.000000 0.512170 0.333999
0.104331 0.510617 0.332446
0.243721 0.508920 0.330748
0.391063 0.507125 0.328954
0.542382 0.505282 0.327111
0.693700 0.503439 0.325267
0.841043 0.501644 0.323473
0.980432 0.499946 0.321775
1.000000 0.498393 0.320222
0.000000 0.649606 0.328200
0.098532 0.648053 0.326648
0.237922 0.646356 0.324950
0.385265 0.644561 0.323155
0.536583 0.642718 0.321312
0.687902 0.640875 0.319469
0.835244 0.639080 0.317674
0.974634 0.637382 0.315976
1.000000 0.635829 0.314424
0.000000 0.783430 0.322554
0.092886 0.781878 0.321002
0.232276 0.780180 0.319304
0.379618 0.778385 0.317509
0.530937 0.776542 0.315666
0.682256 0.774699 0.313823
0.829598 0.772904 0.312028
0.968988 0.771207 0.310330
1.000000 0.769654 0.308778
0.000000 0.910032 0.317213
0.087545 0.908480 0.315660
0.226935 0.906782 0.313962
0.374277 0.904987 0.312168
0.525595 0.903144 0.310324
0.676914 0.901301 0.308481
0.824256 0.899506 0.306687
0.963646 0.897808 0.304989
1.000000 0.896256 0.303436
0.000000 1.000000 0.312328
0.082660 1.000000 0.310776
0.222050 1.000000 0.309078
0.369393 1.000000 0.307283
0.520711 1.000000 0.305440
0.672030 1.000000 0.303597
0.819372 1.000000 0.301802
0.958762 1.000000 0.300104
1.000000 1.000000 0.298552
0.000000 0.000000 0.485607
0.125468 0.000000 0.484055
0.264858 0.000000 0.482357
0.412200 0.000000 0.480562
0.563519 0.000000 0.478719
0.714838 0.000000 0.476876
0.862180 0.000000 0.475081
1.000000 0.000000 0.473383
1.000000 0.000000 0.471831
0.000000 0.113775 0.480723
0.120584 0.112222 0.479170
0.259974 0.110524 0.477473
0.407316 0.108729 0.475678
0.558635 0.106886 0.473835
0.709953 0.105043 0.471992
0.857296 0.103248 0.470197
0.996685 0.101551 0.468499
1.000000 0.099998 0.466946
0.000000 0.240376 0.475381
0.115243 0.238824 0.473829
0.254632 0.237126 0.472131
0.401975 0.235331 0.470336
0.553293 0.233488 0.468493
0.704612 0.231645 0.466650
0.851954 0.229850 0.464855
0.991344 0.228152 0.463158
1.000000 0.226600 0.461605
0.000000 0.374201 0.469735
0.109596 0.372648 0.468183
0.248986 0.370950 0.466485
0.396328 0.369156 0.464690
0.547647 0.367312 0.462847
0.698966 0.365469 0.461004
0.846308 0.363675 0.459209
0.985698 0.361977 0.457511
1.000000 0.360424 0.455959
0.000000 0.511637 0.463937
0.103798 0.510084 0.462384
0.243188 0.508386 0.460686
0.390530 0.506592 0.458892
0.541848 0.504748 0.457048
0.693167 0.502905 0.455205
0.840509 0.501111 0.453411
0.979899 0.499413 0.451713
1.000000 0.497860 0.450160
0.000000 0.649073 0.458138
0.097999 0.647520 0.456586
0.237389 0.645822 0.454888
0.384731 0.644028 0.453093
0.536050 0.642184 0.451250
0.687368 0.640341 0.449407
0.834711 0.638547 0.447612
0.974101 0.636849 0.445914
1.000000 0.635296 0.444362
0.000000 0.782897 0.452492
0.092353 0.781345 0.450939
0.231743 0.779647 0.449242
0.379085 0.777852 0.447447
0.530404 0.776009 0.445604
0.681722 0.774166 0.443761
0.829065 0.772371 0.441966
0.968454 0.770673 0.440268
1.000000 0.769121 0.438715
0.000000 0.909499 0.447151
0.087012 0.907946 0.445598
0.226401 0.906249 0.443900
0.373744 0.904454 0.442105
0.525062 0.902611 0.440262
0.676381 0.900768 0.438419
0.823723 0.898973 0.436624
0.963113 0.897275 0.434927
1.000000 0.895722 0.433374
0.000000 1.000000 0.442266
0.082127 1.000000 0.440714
0.221517 1.000000 0.439016
0.368859 1.000000 0.437221
0.520178 1.000000 0.435378
0.671496 1.000000 0.433535
0.818839 1.000000 0.431740
0.958229 1.000000 0.430042
1.000000 1.000000 0.428490
0.000000 0.000000 0.615545
0.124935 0.000000 0.613993
0.264325 0.000000 0.612295
0.411667 0.000000 0.610500
0.562986 0.000000 0.608657
0.714304 0.000000 0.606814
0.861647 0.000000 0.605019
1.000000 0.000000 0.603321
1.000000 0.000000 0.601769
0.000000 0.113241 0.610661
0.120051 0.111689 0.609108
0.259441 0.109991 0.607410
0.406783 0.108196 0.605616
0.558101 0.106353 0.603773
0.709420 0.104510 0.601929
0.856762 0.102715 0.600135
0.996152 0.101017 0.598437
1.000000 0.099465 0.596884
0.000000 0.239843 0.605319
0.114709 0.238290 0.603767
0.254099 0.236593 0.602069
0.401441 0.234798 0.600274
0.552760 0.232955 0.598431
0.704079 0.231112 0.596588
0.851421 0.229317 0.594793
0.990811 0.227619 0.593095
1.000000 0.226066 0.591543
0.000000 0.373668 0.599673
0.109063 0.372115 0.598121
0.248453 0.370417 0.596423
0.395795 0.368622 0.594628
0.547114 0.366779 0.592785
0.698432 0.364936 0.590942
0.845775 0.363141 0.589147
0.985165 0.361444 0.587449
1.000000 0.359891 0.585897
0.000000 0.511104 0.593875
0.103265 0.509551 0.592322
0.242654 0.507853 0.590624
0.389997 0.506058 0.588830
0.541315 0.504215 0.586986
0.692634 0.502372 0.585143
0.839976 0.500577 0.583349
0.979366 0.498880 0.581651
1.000000 0.497327 0.580098
0.000000 0.648540 0.588076
0.097466 0.646987 0.586523
0.236856 0.645289 0.584826
0.384198 0.643494 0.583031
0.535517 0.641651 0.581188
0.686835 0.639808 0.579345
0.834178 0.638013 0.577550
0.973567 0.636316 0.575852
1.000000 0.634763 0.574300
0.000000 0.782364 0.582430
0.091820 0.780812 0.580877
0.231210 0.779114 0.579179
0.378552 0.777319 0.577385
0.529871 0.775476 0.575542
0.681189 0.773633 0.573698
0.828531 0.771838 0.571904
0.967921 0.770140 0.570206
1.000000 0.768588 0.568653
0.000000 0.908966 0.577088
0.086478 0.907413 0.575536
0.225868 0.905715 0.573838
0.373210 0.903921 0.572043
0.524529 0.902077 0.570200
0.675848 0.900234 0.568357
0.823190 0.898440 0.566562
0.962580 0.896742 0.564864
1.000000 0.895189 0.563312
0.000000 1.000000 0.572204
0.081594 1.000000 0.570652
0.220984 1.000000 0.568954
0.368326 1.000000 0.567159
0.519645 1.000000 0.565316
0.670963 1.000000 0.563473
0.818306 1.000000 0.561678
0.957695 1.000000 0.559980
1.000000 1.000000 0.558428
0.000000 0.000000 0.742069
0.124416 0.000000 0.740516
0.263806 0.000000 0.738818
0.411148 0.000000 0.737024
0.562467 0.000000 0.735180
0.713785 0.000000 0.733337
0.861128 0.000000 0.731543
1.000000 0.000000 0.729845
1.000000 0.000000 0.728292
0.000000 0.112722 0.737184
0.119532 0.111170 0.735632
0.258921 0.109472 0.733934
0.406264 0.107677 0.732139
0.557582 0.105834 0.730296
0.708901 0.103991 0.728453
0.856243 0.102196 0.726658
0.995633 0.100498 0.724960
1.000000 0.098946 0.723408
0.000000 0.239324 0.731843
0.114190 0.237771 0.730290
0.253580 0.236073 0.728592
0.400922 0.234279 0.726798
0.552241 0.232436 0.724955
0.703559 0.230592 0.723111
0.850902 0.228798 0.721317
0.990292 0.227100 0.719619
1.000000 0.225547 0.718066
0.000000 0.373148 0.726197
0.108544 0.371596 0.724644
0.247934 0.369898 0.722946
0.395276 0.368103 0.721152
0.546595 0.366260 0.719308
0.697913 0.364417 0.717465
0.845256 0.362622 0.715671
0.984645 0.360924 0.713973
1.000000 0.359372 0.712420
0.000000 0.510584 0.720398
0.102745 0.509032 0.718846
0.242135 0.507334 0.717148
0.389477 0.505539 0.715353
0.540796 0.503696 0.713510
0.692115 0.501853 0.711667
0.839457 0.500058 0.709872
0.978847 0.498360 0.708174
1.000000 0.496808 0.706622
0.000000 0.648020 0.714599
0.096947 0.646468 0.713047
0.236337 0.644770 0.711349
0.383679 0.642975 0.709554
0.534998 0.641132 0.707711
0.686316 0.639289 0.705868
0.833658 0.637494 0.704073
0.973048 0.635796 0.702376
1.000000 0.634244 0.700823
0.000000 0.781845 0.708953
0.091301 0.780292 0.707401
0.230690 0.778594 0.705703
0.378033 0.776800 0.703908
0.529351 0.774957 0.702065
0.680670 0.773113 0.700222
0.828012 0.771319 0.698427
0.967402 0.769621 0.696729
1.000000 0.768068 0.695177
0.000000 0.908446 0.703612
0.085959 0.906894 0.702059
0.225349 0.905196 0.700361
0.372691 0.903401 0.698567
0.524010 0.901558 0.696724
0.675328 0.899715 0.694880
0.822671 0.897920 0.693086
0.962061 0.896223 0.691388
1.000000 0.894670 0.689835
0.000000 1.000000 0.698728
0.081075 1.000000 0.697175
0.220465 1.000000 0.695477
0.367807 1.000000 0.693682
0.519126 1.000000 0.691839
0.670444 1.000000 0.689996
0.817786 1.000000 0.688201
0.957176 1.000000 0.686504
1.000000 1.000000 0.684951
0.000000 0.000000 0.861763
0.123925 0.000000 0.860211
0.263315 0.000000 0.858513
0.410657 0.000000 0.856718
0.561975 0.000000 0.854875
0.713294 0.000000 0.853032
0.860636 0.000000 0.851237
1.000000 0.000000 0.849539
1.000000 0.000000 0.847987
0.000000 0.112231 0.856879
0.119040 0.110678 0.855326
0.258430 0.108981 0.853629
0.405773 0.107186 0.851834
0.557091 0.105343 0.849991
0.708410 0.103500 0.848148
0.855752 0.101705 0.846353
0.995142 0.100007 0.844655
1.000000 0.098454 0.843102
0.000000 0.238833 0.851537
0.113699 0.237280 0.849985
0.253089 0.235582 0.848287
0.400431 0.233787 0.846492
0.551750 0.231944 0.844649
0.703068 0.230101 0.842806
0.850411 0.228307 0.841011
0.989800 0.226609 0.839314
1.000000 0.225056 0.837761
0.000000 0.372657 0.845891
0.108053 0.371105 0.844339
0.247443 0.369407 0.842641
0.394785 0.367612 0.840846
0.546103 0.365769 0.839003
0.697422 0.363926 0.837160
0.844764 0.362131 0.835365
0.984154 0.360433 0.833667
1.000000 0.358881 0.832115
0.000000 0.510093 0.840093
0.102254 0.508541 0.838540
0.241644 0.506843 0.836842
0.388986 0.505048 0.835048
0.540305 0.503205 0.833204
0.691623 0.501362 0.831361
0.838966 0.499567 0.829567
0.978356 0.497869 0.827869
1.000000 0.496317 0.826316
0.000000 0.647529 0.834294
0.096456 0.645977 0.832742
0.235845 0.644279 0.831044
0.383188 0.642484 0.829249
0.534506 0.640641 0.827406
0.685825 0.638798 0.825563
0.833167 0.637003 0.823768
0.972557 0.635305 0.822070
1.000000 0.633753 0.820518
0.000000 0.781354 0.828648
0.090809 0.779801 0.827095
0.230199 0.778103 0.825398
0.377542 0.776309 0.823603
0.528860 0.774465 0.821760
0.680179 0.772622 0.819917
0.827521 0.770828 0.818122
0.966911 0.769130 0.816424
1.000000 0.767577 0.814871
0.000000 0.907955 0.823306
0.085468 0.906403 0.821754
0.224858 0.904705 0.820056
0.372200 0.902910 0.818261
0.523519 0.901067 0.816418
0.674837 0.899224 0.814575
0.822180 0.897429 0.812780
0.961569 0.895731 0.811083
1.000000 0.894179 0.809530
0.000000 1.000000 0.818422
0.080584 1.000000 0.816870
0.219973 1.000000 0.815172
0.367316 1.000000 0.813377
0.518634 1.000000 0.811534
0.669953 1.000000 0.809691
0.817295 1.000000 0.807896
0.956685 1.000000 0.806198
1.000000 1.000000 0.804646
0.000000 0.000000 0.971215
0.123476 0.000000 0.969662
0.262865 0.000000 0.967964
0.410208 0.000000 0.966169
0.561526 0.000000 0.964326
0.712845 0.000000 0.962483
0.860187 0.000000 0.960688
0.999577 0.000000 0.958991
1.000000 0.000000 0.957438
0.000000 0.111782 0.966330
0.118591 0.110229 0.964778
0.257981 0.108531 0.963080
0.405323 0.106737 0.961285
0.556642 0.104894 0.959442
0.707961 0.103050 0.957599
0.855303 0.101256 0.955804
0.994693 0.099558 0.954106
1.000000 0.098005 0.952554
0.000000 0.238383 0.960989
0.113250 0.236831 0.959436
0.252640 0.235133 0.957738
0.399982 0.233338 0.955944
0.551301 0.231495 0.954101
0.702619 0.229652 0.952257
0.849961 0.227857 0.950463
0.989351 0.226160 0.948765
1.000000 0.224607 0.947212
0.000000 0.372208 0.955343
0.107604 0.370655 0.953790
0.246993 0.368958 0.952092
0.394336 0.367163 0.950297
0.545654 0.365320 0.948454
0.696973 0.363477 0.946611
0.844315 0.361682 0.944816
0.983705 0.359984 0.943119
1.000000 0.358432 0.941566
0.000000 0.509644 0.949544
0.101805 0.508091 0.947991
0.241195 0.506394 0.946294
0.388537 0.504599 0.944499
0.539856 0.502756 0.942656
0.691174 0.500913 0.940813
0.838517 0.499118 0.939018
0.977906 0.497420 0.937320
1.000000 0.495868 0.935768
0.000000 0.647080 0.943745
0.096006 0.645527 0.942193
0.235396 0.643830 0.940495
0.382739 0.642035 0.938700
0.534057 0.640192 0.936857
0.685376 0.638349 0.935014
0.832718 0.636554 0.933219
0.972108 0.634856 0.931521
1.000000 0.633304 0.929969
0.000000 0.780905 0.938099
0.090360 0.779352 0.936547
0.229750 0.777654 0.934849
0.377092 0.775859 0.933054
0.528411 0.774016 0.931211
0.679730 0.772173 0.929368
0.827072 0.770378 0.927573
0.966462 0.768681 0.925875
1.000000 0.767128 0.924323
0.000000 0.907506 0.932758
0.085019 0.905954 0.931205
0.224409 0.904256 0.929507
0.371751 0.902461 0.927713
0.523070 0.900618 0.925870
0.674388 0.898775 0.924026
0.821730 0.896980 0.922232
0.961120 0.895282 0.920534
1.000000 0.893730 0.918981
0.000000 1.000000 0.927873
0.080134 1.000000 0.926321
0.219524 1.000000 0.924623
0.366867 1.000000 0.922828
0.518185 1.000000 0.920985
0.669504 1.000000 0.919142
0.816846 1.000000 0.917347
0.956236 1.000000 0.915650
1.000000 1.000000 0.914097
