assets/luts/warm.cube
# Warm — Studio filter "warm"
# Generated by scripts/generate-filter-luts.mjs — do not edit by hand.
LUT_3D_SIZE 5
DOMAIN_MIN 0.0 0.0 0.0
DOMAIN_MAX 1.0 1.0 1.0
0.000000 0.000000 0.000000
0.266851 0.000000 0.000000
0.565512 0.000000 0.000000
0.864173 0.000000 0.000000
1.000000 0.000000 0.000000
0.000000 0.242369 0.000000
0.256625 0.239119 0.000000
0.555286 0.235481 0.000000
0.853947 0.231843 0.000000
1.000000 0.228592 0.000000
0.000000 0.513629 0.000000
0.245180 0.510379 0.000000
0.543841 0.506741 0.000000
0.842502 0.503103 0.000000
1.000000 0.499853 0.000000
0.000000 0.784890 0.000000
0.233736 0.781640 0.000000
0.532396 0.778002 0.000000
0.831057 0.774364 0.000000
1.000000 0.771114 0.000000
0.000000 1.000000 0.000000
0.223510 1.000000 0.000000
0.522171 1.000000 0.000000
0.820832 1.000000 0.000000
1.000000 1.000000 0.000000
0.000000 0.000000 0.229146
0.265911 0.000000 0.225896
0.564571 0.000000 0.222258
0.863232 0.000000 0.218620
1.000000 0.000000 0.215369
0.000000 0.241429 0.218920
0.255685 0.238178 0.215670
0.554346 0.234540 0.212032
0.853007 0.230902 0.208394
1.000000 0.227652 0.205144
0.000000 0.512689 0.207475
0.244240 0.509439 0.204225
0.542901 0.505801 0.200587
0.841562 0.502163 0.196949
1.000000 0.498913 0.193699
0.000000 0.783950 0.196031
0.232795 0.780699 0.192780
0.531456 0.777061 0.189142
0.830117 0.773424 0.185505
1.000000 0.770173 0.182254
0.000000 1.000000 0.185805
0.222569 1.000000 0.182554
0.521230 1.000000 0.178917
0.819891 1.000000 0.175279
1.000000 1.000000 0.172028
0.000000 0.000000 0.485607
0.264858 0.000000 0.482357
0.563519 0.000000 0.478719
0.862180 0.000000 0.475081
1.000000 0.000000 0.471831
0.000000 0.240376 0.475381
0.254632 0.237126 0.472131
0.553293 0.233488 0.468493
0.851954 0.229850 0.464855
1.000000 0.226600 0.461605
0.000000 0.511637 0.463937
0.243188 0.508386 0.460686
0.541848 0.504748 0.457048
0.840509 0.501111 0.453411
1.000000 0.497860 0.450160
0.000000 0.782897 0.452492
0.231743 0.779647 0.449242
0.530404 0.776009 0.445604
0.829065 0.772371 0.441966
1.000000 0.769121 0.438715
0.000000 1.000000 0.442266
0.221517 1.000000 0.439016
0.520178 1.000000 0.435378
0.818839 1.000000 0.431740
1.000000 1.000000 0.428490
0.000000 0.000000 0.742069
0.263806 0.000000 0.738818
0.562467 0.000000 0.735180
0.861128 0.000000 0.731543
1.000000 0.000000 0.728292
0.000000 0.239324 0.731843
0.253580 0.236073 0.728592
0.552241 0.232436 0.724955
0.850902 0.228798 0.721317
1.000000 0.225547 0.718066
0.000000 0.510584 0.720398
0.242135 0.507334 0.717148
0.540796 0.503696 0.713510
0.839457 0.500058 0.709872
1.000000 0.496808 0.706622
0.000000 0.781845 0.708953
0.230690 0.778594 0.705703
0.529351 0.774957 0.702065
0.828012 0.771319 0.698427
1.000000 0.768068 0.695177
0.000000 1.000000 0.698728
0.220465 1.000000 0.695477
0.519126 1.000000 0.691839
0.817786 1.000000 0.688201
1.000000 1.000000 0.684951
0.000000 0.000000 0.971215
0.262865 0.000000 0.967964
0.561526 0.000000 0.964326
0.860187 0.000000 0.960688
1.000000 0.000000 0.957438
0.000000 0.238383 0.960989
0.252640 0.235133 0.957738
0.551301 0.231495 0.954101
0.849961 0.227857 0.950463
1.000000 0.224607 0.947212
0.000000 0.509644 0.949544
0.241195 0.506394 0.946294
0.539856 0.502756 0.942656
0.838517 0.499118 0.939018
1.000000 0.495868 0.935768
0.000000 0.780905 0.938099
0.229750 0.777654 0.934849
0.528411 0.774016 0.931211
0.827072 0.770378 0.927573
1.000000 0.767128 0.924323
0.000000 1.000000 0.927873
0.219524 1.000000 0.924623
0.518185 1.000000 0.920985
0.816846 1.000000 0.917347
1.000000 1.000000 0.914097
