assets/luts/warm.cube
# Warm — Studio filter "warm"
# Generated by scripts/generate-filter-luts.mjs — do not edit by hand.
LUT_3D_SIZE 17
DOMAIN_MIN 0.0 0.0 0.0
DOMAIN_MAX 1.0 1.0 1.0
0.000000 0.000000 0.000000
0.061991 0.000000 0.000000
0.127461 0.000000 0.000000
0.195913 0.000000 0.000000
0.266851 0.000000 0.000000
0.339776 0.000000 0.000000
0.414193 0.000000 0.000000
0.489604 0.000000 0.000000
0.565512 0.000000 0.000000
0.641420 0.000000 0.000000
0.716830 0.000000 0.000000
0.791247 0.000000 0.000000
0.864173 0.000000 0.000000
0.935110 0.000000 0.000000
1.000000 0.000000 0.000000
1.000000 0.000000 0.000000
1.000000 0.000000 0.000000
0.000000 0.056304 0.000000
0.059615 0.055549 0.000000
0.125086 0.054751 0.000000
0.193538 0.053917 0.000000
0.264475 0.053053 0.000000
0.337401 0.052165 0.000000
0.411818 0.051259 0.000000
0.487228 0.050340 0.000000
0.563136 0.049415 0.000000
0.639044 0.048491 0.000000
0.714455 0.047572 0.000000
0.788872 0.046666 0.000000
0.861797 0.045778 0.000000
0.932735 0.044913 0.000000
1.000000 0.044080 0.000000
1.000000 0.043282 0.000000
1.000000 0.042527 0.000000
0.000000 0.115767 0.000000
0.057107 0.115012 0.000000
0.122577 0.114215 0.000000
0.191029 0.113381 0.000000
0.261967 0.112517 0.000000
0.334892 0.111629 0.000000
0.409309 0.110722 0.000000
0.484720 0.109804 0.000000
0.560627 0.108879 0.000000
0.636535 0.107954 0.000000
0.711946 0.107036 0.000000
0.786363 0.106129 0.000000
0.859288 0.105241 0.000000
0.930226 0.104377 0.000000
0.998678 0.103543 0.000000
1.000000 0.102746 0.000000
1.000000 0.101991 0.000000
0.000000 0.177939 0.000000
0.054483 0.177184 0.000000
0.119954 0.176387 0.000000
0.188406 0.175553 0.000000
0.259343 0.174689 0.000000
0.332269 0.173801 0.000000
0.406686 0.172894 0.000000
0.482097 0.171976 0.000000
0.558004 0.171051 0.000000
0.633912 0.170127 0.000000
0.709323 0.169208 0.000000
0.783740 0.168302 0.000000
0.856665 0.167413 0.000000
0.927603 0.166549 0.000000
0.996055 0.165716 0.000000
1.000000 0.164918 0.000000
1.000000 0.164163 0.000000
0.000000 0.242369 0.000000
0.051765 0.241614 0.000000
0.117235 0.240816 0.000000
0.185688 0.239983 0.000000
0.256625 0.239119 0.000000
0.329551 0.238230 0.000000
0.403967 0.237324 0.000000
0.479378 0.236405 0.000000
0.555286 0.235481 0.000000
0.631194 0.234556 0.000000
0.706605 0.233638 0.000000
0.781021 0.232731 0.000000
0.853947 0.231843 0.000000
0.924884 0.230979 0.000000
0.993337 0.230145 0.000000
1.000000 0.229347 0.000000
1.000000 0.228592 0.000000
0.000000 0.308604 0.000000
0.048971 0.307849 0.000000
0.114441 0.307051 0.000000
0.182893 0.306218 0.000000
0.253831 0.305354 0.000000
0.326756 0.304465 0.000000
0.401173 0.303559 0.000000
0.476584 0.302640 0.000000
0.552491 0.301716 0.000000
0.628399 0.300791 0.000000
0.703810 0.299873 0.000000
0.778227 0.298966 0.000000
0.851152 0.298078 0.000000
0.922090 0.297214 0.000000
0.990542 0.296380 0.000000
1.000000 0.295583 0.000000
1.000000 0.294828 0.000000
0.000000 0.376193 0.000000
0.046119 0.375438 0.000000
0.111589 0.374641 0.000000
0.180041 0.373807 0.000000
0.250979 0.372943 0.000000
0.323904 0.372055 0.000000
0.398321 0.371148 0.000000
0.473732 0.370230 0.000000
0.549640 0.369305 0.000000
0.625548 0.368381 0.000000
0.700958 0.367462 0.000000
0.775375 0.366556 0.000000
0.848301 0.365667 0.000000
0.919238 0.364803 0.000000
0.987690 0.363970 0.000000
1.000000 0.363172 0.000000
1.000000 0.362417 0.000000
0.000000 0.444686 0.000000
0.043229 0.443931 0.000000
0.108699 0.443133 0.000000
0.177152 0.442299 0.000000
0.248089 0.441435 0.000000
0.321015 0.440547 0.000000
0.395431 0.439641 0.000000
0.470842 0.438722 0.000000
0.546750 0.437797 0.000000
0.622658 0.436873 0.000000
0.698069 0.435954 0.000000
0.772485 0.435048 0.000000
0.845411 0.434160 0.000000
0.916348 0.433296 0.000000
0.984801 0.432462 0.000000
1.000000 0.431664 0.000000
1.000000 0.430909 0.000000
0.000000 0.513629 0.000000
0.040320 0.512874 0.000000
0.105790 0.512077 0.000000
0.174243 0.511243 0.000000
0.245180 0.510379 0.000000
0.318106 0.509491 0.000000
0.392523 0.508584 0.000000
0.467933 0.507666 0.000000
0.543841 0.506741 0.000000
0.619749 0.505817 0.000000
0.695160 0.504898 0.000000
0.769576 0.503992 0.000000
0.842502 0.503103 0.000000
0.913440 0.502239 0.000000
0.981892 0.501406 0.000000
1.000000 0.500608 0.000000
1.000000 0.499853 0.000000
0.000000 0.582573 0.000000
0.037412 0.581818 0.000000
0.102882 0.581021 0.000000
0.171334 0.580187 0.000000
0.242271 0.579323 0.000000
0.315197 0.578434 0.000000
0.389614 0.577528 0.000000
0.465025 0.576610 0.000000
0.540932 0.575685 0.000000
0.616840 0.574760 0.000000
0.692251 0.573842 0.000000
0.766668 0.572935 0.000000
0.839593 0.572047 0.000000
0.910531 0.571183 0.000000
0.978983 0.570349 0.000000
1.000000 0.569552 0.000000
1.000000 0.568797 0.000000
0.000000 0.651065 0.000000
0.034522 0.650310 0.000000
0.099992 0.649513 0.000000
0.168444 0.648679 0.000000
0.239382 0.647815 0.000000
0.312307 0.646927 0.000000
0.386724 0.646020 0.000000
0.462135 0.645102 0.000000
0.538043 0.644177 0.000000
0.613950 0.643253 0.000000
0.689361 0.642334 0.000000
0.763778 0.641428 0.000000
0.836704 0.640539 0.000000
0.907641 0.639675 0.000000
0.976093 0.638842 0.000000
1.000000 0.638044 0.000000
1.000000 0.637289 0.000000
0.000000 0.718655 0.000000
0.031670 0.717900 0.000000
0.097140 0.717102 0.000000
0.165593 0.716269 0.000000
0.236530 0.715404 0.000000
0.309456 0.714516 0.000000
0.383872 0.713610 0.000000
0.459283 0.712691 0.000000
0.535191 0.711767 0.000000
0.611099 0.710842 0.000000
0.686510 0.709923 0.000000
0.760926 0.709017 0.000000
0.833852 0.708129 0.000000
0.904789 0.707265 0.000000
0.973242 0.706431 0.000000
1.000000 0.705633 0.000000
1.000000 0.704878 0.000000
0.000000 0.784890 0.000000
0.028876 0.784135 0.000000
0.094346 0.783337 0.000000
0.162798 0.782504 0.000000
0.233736 0.781640 0.000000
0.306661 0.780751 0.000000
0.381078 0.779845 0.000000
0.456489 0.778926 0.000000
0.532396 0.778002 0.000000
0.608304 0.777077 0.000000
0.683715 0.776159 0.000000
0.758132 0.775252 0.000000
0.831057 0.774364 0.000000
0.901995 0.773500 0.000000
0.970447 0.772666 0.000000
1.000000 0.771869 0.000000
1.000000 0.771114 0.000000
0.000000 0.849319 0.000000
0.026157 0.848564 0.000000
0.091627 0.847767 0.000000
0.160080 0.846933 0.000000
0.231017 0.846069 0.000000
0.303943 0.845181 0.000000
0.378360 0.844274 0.000000
0.453770 0.843356 0.000000
0.529678 0.842431 0.000000
0.605586 0.841507 0.000000
0.680997 0.840588 0.000000
0.755413 0.839682 0.000000
0.828339 0.838793 0.000000
0.899276 0.837929 0.000000
0.967729 0.837095 0.000000
1.000000 0.836298 0.000000
1.000000 0.835543 0.000000
0.000000 0.911492 0.000000
0.023534 0.910737 0.000000
0.089004 0.909939 0.000000
0.157457 0.909105 0.000000
0.228394 0.908241 0.000000
0.301320 0.907353 0.000000
0.375736 0.906447 0.000000
0.451147 0.905528 0.000000
0.527055 0.904603 0.000000
0.602963 0.903679 0.000000
0.678374 0.902760 0.000000
0.752790 0.901854 0.000000
0.825716 0.900966 0.000000
0.896653 0.900101 0.000000
0.965106 0.899268 0.000000
1.000000 0.898470 0.000000
1.000000 0.897715 0.000000
0.000000 0.970955 0.000000
0.021025 0.970200 0.000000
0.086495 0.969403 0.000000
0.154948 0.968569 0.000000
0.225885 0.967705 0.000000
0.298811 0.966817 0.000000
0.373228 0.965910 0.000000
0.448638 0.964992 0.000000
0.524546 0.964067 0.000000
0.600454 0.963142 0.000000
0.675865 0.962224 0.000000
0.750281 0.961317 0.000000
0.823207 0.960429 0.000000
0.894145 0.959565 0.000000
0.962597 0.958731 0.000000
1.000000 0.957934 0.000000
1.000000 0.957179 0.000000
0.000000 1.000000 0.000000
0.018650 1.000000 0.000000
0.084120 1.000000 0.000000
0.152572 1.000000 0.000000
0.223510 1.000000 0.000000
0.296435 1.000000 0.000000
0.370852 1.000000 0.000000
0.446263 1.000000 0.000000
0.522171 1.000000 0.000000
0.598078 1.000000 0.000000
0.673489 1.000000 0.000000
0.747906 1.000000 0.000000
0.820832 1.000000 0.000000
0.891769 1.000000 0.000000
0.960221 1.000000 0.000000
1.000000 1.000000 0.000000
1.000000 1.000000 0.000000
0.000000 0.000000 0.053232
0.061772 0.000000 0.052477
0.127243 0.000000 0.051679
0.195695 0.000000 0.050846
0.266632 0.000000 0.049981
0.339558 0.000000 0.049093
0.413975 0.000000 0.048187
0.489386 0.000000 0.047268
0.565293 0.000000 0.046344
0.641201 0.000000 0.045419
0.716612 0.000000 0.044500
0.791029 0.000000 0.043594
0.863954 0.000000 0.042706
0.934892 0.000000 0.041842
1.000000 0.000000 0.041008
1.000000 0.000000 0.040210
1.000000 0.000000 0.039455
0.000000 0.056085 0.050856
0.059397 0.055330 0.050101
0.124867 0.054533 0.049304
0.193319 0.053699 0.048470
0.264257 0.052835 0.047606
0.337183 0.051947 0.046718
0.411599 0.051040 0.045811
0.487010 0.050122 0.044893
0.562918 0.049197 0.043968
0.638826 0.048272 0.043044
0.714236 0.047354 0.042125
0.788653 0.046447 0.041219
0.861579 0.045559 0.040330
0.932516 0.044695 0.039466
1.000000 0.043861 0.038632
1.000000 0.043064 0.037835
1.000000 0.042309 0.037080
0.000000 0.115549 0.048348
0.056888 0.114794 0.047592
0.122358 0.113996 0.046795
0.190811 0.113162 0.045961
0.261748 0.112298 0.045097
0.334674 0.111410 0.044209
0.409090 0.110504 0.043302
0.484501 0.109585 0.042384
0.560409 0.108661 0.041459
0.636317 0.107736 0.040535
0.711728 0.106817 0.039616
0.786144 0.105911 0.038710
0.859070 0.105023 0.037821
0.930007 0.104159 0.036957
0.998460 0.103325 0.036124
1.000000 0.102527 0.035326
1.000000 0.101772 0.034571
0.000000 0.177721 0.045724
0.054265 0.176966 0.044969
0.119735 0.176169 0.044172
0.188187 0.175335 0.043338
0.259125 0.174471 0.042474
0.332051 0.173582 0.041586
0.406467 0.172676 0.040679
0.481878 0.171757 0.039761
0.557786 0.170833 0.038836
0.633694 0.169908 0.037912
0.709104 0.168990 0.036993
0.783521 0.168083 0.036087
0.856447 0.167195 0.035198
0.927384 0.166331 0.034334
0.995837 0.165497 0.033500
1.000000 0.164700 0.032703
1.000000 0.163945 0.031948
0.000000 0.242150 0.043006
0.051547 0.241395 0.042251
0.117017 0.240598 0.041454
0.185469 0.239764 0.040620
0.256407 0.238900 0.039756
0.329332 0.238012 0.038867
0.403749 0.237105 0.037961
0.479160 0.236187 0.037042
0.555068 0.235262 0.036118
0.630975 0.234338 0.035193
0.706386 0.233419 0.034275
0.780803 0.232513 0.033368
0.853728 0.231624 0.032480
0.924666 0.230760 0.031616
0.993118 0.229927 0.030782
1.000000 0.229129 0.029985
1.000000 0.228374 0.029230
0.000000 0.308386 0.040212
0.048752 0.307630 0.039456
0.114222 0.306833 0.038659
0.182675 0.305999 0.037825
0.253612 0.305135 0.036961
0.326538 0.304247 0.036073
0.400954 0.303340 0.035166
0.476365 0.302422 0.034248
0.552273 0.301497 0.033323
0.628181 0.300573 0.032399
0.703592 0.299654 0.031480
0.778008 0.298748 0.030574
0.850934 0.297859 0.029685
0.921871 0.296995 0.028821
0.990324 0.296162 0.027988
1.000000 0.295364 0.027190
1.000000 0.294609 0.026435
0.000000 0.375975 0.037360
0.045900 0.375220 0.036605
0.111371 0.374422 0.035807
0.179823 0.373589 0.034974
0.250760 0.372725 0.034109
0.323686 0.371836 0.033221
0.398103 0.370930 0.032315
0.473514 0.370011 0.031396
0.549421 0.369087 0.030472
0.625329 0.368162 0.029547
0.700740 0.367244 0.028628
0.775157 0.366337 0.027722
0.848082 0.365449 0.026834
0.919020 0.364585 0.025970
0.987472 0.363751 0.025136
1.000000 0.362954 0.024338
1.000000 0.362199 0.023583
0.000000 0.444467 0.034470
0.043011 0.443712 0.033715
0.108481 0.442915 0.032918
0.176933 0.442081 0.032084
0.247871 0.441217 0.031220
0.320796 0.440329 0.030331
0.395213 0.439422 0.029425
0.470624 0.438504 0.028506
0.546532 0.437579 0.027582
0.622439 0.436654 0.026657
0.697850 0.435736 0.025739
0.772267 0.434829 0.024832
0.845192 0.433941 0.023944
0.916130 0.433077 0.023080
0.984582 0.432243 0.022246
1.000000 0.431446 0.021449
1.000000 0.430691 0.020694
0.000000 0.513411 0.031561
0.040102 0.512656 0.030806
0.105572 0.511858 0.030009
0.174024 0.511025 0.029175
0.244962 0.510161 0.028311
0.317887 0.509272 0.027423
0.392304 0.508366 0.026516
0.467715 0.507447 0.025598
0.543623 0.506523 0.024673
0.619531 0.505598 0.023748
0.694941 0.504680 0.022830
0.769358 0.503773 0.021923
0.842284 0.502885 0.021035
0.913221 0.502021 0.020171
0.981673 0.501187 0.019337
1.000000 0.500390 0.018540
1.000000 0.499635 0.017785
0.000000 0.582355 0.028652
0.037193 0.581600 0.027897
0.102663 0.580802 0.027100
0.171116 0.579968 0.026266
0.242053 0.579104 0.025402
0.314979 0.578216 0.024514
0.389395 0.577310 0.023607
0.464806 0.576391 0.022689
0.540714 0.575466 0.021764
0.616622 0.574542 0.020840
0.692033 0.573623 0.019921
0.766449 0.572717 0.019015
0.839375 0.571829 0.018126
0.910312 0.570965 0.017262
0.978765 0.570131 0.016429
1.000000 0.569333 0.015631
1.000000 0.568578 0.014876
0.000000 0.650847 0.025763
0.034303 0.650092 0.025008
0.099773 0.649294 0.024210
0.168226 0.648461 0.023376
0.239163 0.647597 0.022512
0.312089 0.646708 0.021624
0.386506 0.645802 0.020718
0.461916 0.644883 0.019799
0.537824 0.643959 0.018874
0.613732 0.643034 0.017950
0.689143 0.642116 0.017031
0.763559 0.641209 0.016125
0.836485 0.640321 0.015237
0.907423 0.639457 0.014373
0.975875 0.638623 0.013539
1.000000 0.637826 0.012741
1.000000 0.637071 0.011986
0.000000 0.718436 0.022911
0.031452 0.717681 0.022156
0.096922 0.716884 0.021359
0.165374 0.716050 0.020525
0.236312 0.715186 0.019661
0.309237 0.714298 0.018772
0.383654 0.713391 0.017866
0.459065 0.712473 0.016947
0.534973 0.711548 0.016023
0.610880 0.710624 0.015098
0.686291 0.709705 0.014180
0.760708 0.708799 0.013273
0.833633 0.707910 0.012385
0.904571 0.707046 0.011521
0.973023 0.706212 0.010687
1.000000 0.705415 0.009890
1.000000 0.704660 0.009135
0.000000 0.784672 0.020117
0.028657 0.783916 0.019361
0.094127 0.783119 0.018564
0.162580 0.782285 0.017730
0.233517 0.781421 0.016866
0.306443 0.780533 0.015978
0.380859 0.779626 0.015071
0.456270 0.778708 0.014153
0.532178 0.777783 0.013228
0.608086 0.776859 0.012304
0.683497 0.775940 0.011385
0.757913 0.775034 0.010479
0.830839 0.774145 0.009590
0.901776 0.773281 0.008726
0.970229 0.772448 0.007893
1.000000 0.771650 0.007095
1.000000 0.770895 0.006340
0.000000 0.849101 0.017398
0.025939 0.848346 0.016643
0.091409 0.847548 0.015846
0.159861 0.846715 0.015012
0.230799 0.845851 0.014148
0.303724 0.844962 0.013260
0.378141 0.844056 0.012353
0.453552 0.843137 0.011435
0.529460 0.842213 0.010510
0.605367 0.841288 0.009585
0.680778 0.840370 0.008667
0.755195 0.839463 0.007760
0.828121 0.838575 0.006872
0.899058 0.837711 0.006008
0.967510 0.836877 0.005174
1.000000 0.836080 0.004377
1.000000 0.835324 0.003622
0.000000 0.911273 0.014775
0.023316 0.910518 0.014020
0.088786 0.909721 0.013223
0.157238 0.908887 0.012389
0.228176 0.908023 0.011525
0.301101 0.907135 0.010636
0.375518 0.906228 0.009730
0.450929 0.905310 0.008811
0.526837 0.904385 0.007887
0.602744 0.903460 0.006962
0.678155 0.902542 0.006044
0.752572 0.901635 0.005137
0.825497 0.900747 0.004249
0.896435 0.899883 0.003385
0.964887 0.899049 0.002551
1.000000 0.898252 0.001754
1.000000 0.897497 0.000999
0.000000 0.970737 0.012266
0.020807 0.969982 0.011511
0.086277 0.969184 0.010714
0.154729 0.968350 0.009880
0.225667 0.967486 0.009016
0.298592 0.966598 0.008128
0.373009 0.965692 0.007221
0.448420 0.964773 0.006303
0.524328 0.963849 0.005378
0.600236 0.962924 0.004453
0.675646 0.962005 0.003535
0.750063 0.961099 0.002628
0.822989 0.960211 0.001740
0.893926 0.959347 0.000876
0.962378 0.958513 0.000042
1.000000 0.957715 0.000000
1.000000 0.956960 0.000000
0.000000 1.000000 0.009891
0.018431 1.000000 0.009136
0.083901 1.000000 0.008338
0.152354 1.000000 0.007504
0.223291 1.000000 0.006640
0.296217 1.000000 0.005752
0.370634 1.000000 0.004846
0.446044 1.000000 0.003927
0.521952 1.000000 0.003002
0.597860 1.000000 0.002078
0.673271 1.000000 0.001159
0.747687 1.000000 0.000253
0.820613 1.000000 0.000000
0.891551 1.000000 0.000000
0.960003 1.000000 0.000000
1.000000 1.000000 0.000000
1.000000 1.000000 0.000000
0.000000 0.000000 0.109451
0.061542 0.000000 0.108696
0.127012 0.000000 0.107899
0.195464 0.000000 0.107065
0.266402 0.000000 0.106201
0.339327 0.000000 0.105313
0.413744 0.000000 0.104406
0.489155 0.000000 0.103488
0.565063 0.000000 0.102563
0.640970 0.000000 0.101638
0.716381 0.000000 0.100720
0.790798 0.000000 0.099814
0.863724 0.000000 0.098925
0.934661 0.000000 0.098061
1.000000 0.000000 0.097227
1.000000 0.000000 0.096430
1.000000 0.000000 0.095675
0.000000 0.055854 0.107076
0.059166 0.055099 0.106321
0.124636 0.054302 0.105523
0.193089 0.053468 0.104689
0.264026 0.052604 0.103825
0.336952 0.051716 0.102937
0.411369 0.050809 0.102031
0.486779 0.049891 0.101112
0.562687 0.048966 0.100188
0.638595 0.048042 0.099263
0.714006 0.047123 0.098344
0.788422 0.046217 0.097438
0.861348 0.045328 0.096550
0.932285 0.044464 0.095686
1.000000 0.043631 0.094852
1.000000 0.042833 0.094054
1.000000 0.042078 0.093299
0.000000 0.115318 0.104567
0.056657 0.114563 0.103812
0.122128 0.113766 0.103014
0.190580 0.112932 0.102181
0.261517 0.112068 0.101317
0.334443 0.111179 0.100428
0.408860 0.110273 0.099522
0.484270 0.109354 0.098603
0.560178 0.108430 0.097679
0.636086 0.107505 0.096754
0.711497 0.106587 0.095836
0.785914 0.105680 0.094929
0.858839 0.104792 0.094041
0.929777 0.103928 0.093177
0.998229 0.103094 0.092343
1.000000 0.102297 0.091546
1.000000 0.101542 0.090791
0.000000 0.177490 0.101944
0.054034 0.176735 0.101189
0.119504 0.175938 0.100391
0.187957 0.175104 0.099558
0.258894 0.174240 0.098693
0.331820 0.173352 0.097805
0.406237 0.172445 0.096899
0.481647 0.171527 0.095980
0.557555 0.170602 0.095056
0.633463 0.169678 0.094131
0.708874 0.168759 0.093212
0.783290 0.167853 0.092306
0.856216 0.166964 0.091418
0.927154 0.166100 0.090554
0.995606 0.165266 0.089720
1.000000 0.164469 0.088922
1.000000 0.163714 0.088167
0.000000 0.241920 0.099226
0.051316 0.241165 0.098470
0.116786 0.240367 0.097673
0.185238 0.239533 0.096839
0.256176 0.238669 0.095975
0.329102 0.237781 0.095087
0.403518 0.236875 0.094180
0.478929 0.235956 0.093262
0.554837 0.235032 0.092337
0.630745 0.234107 0.091413
0.706155 0.233188 0.090494
0.780572 0.232282 0.089588
0.853498 0.231394 0.088699
0.924435 0.230530 0.087835
0.992888 0.229696 0.087002
1.000000 0.228898 0.086204
1.000000 0.228143 0.085449
0.000000 0.308155 0.096431
0.048521 0.307400 0.095676
0.113992 0.306602 0.094878
0.182444 0.305769 0.094045
0.253381 0.304904 0.093181
0.326307 0.304016 0.092292
0.400724 0.303110 0.091386
0.476134 0.302191 0.090467
0.552042 0.301267 0.089543
0.627950 0.300342 0.088618
0.703361 0.299423 0.087700
0.777778 0.298517 0.086793
0.850703 0.297629 0.085905
0.921641 0.296765 0.085041
0.990093 0.295931 0.084207
1.000000 0.295133 0.083410
1.000000 0.294378 0.082655
0.000000 0.375744 0.093579
0.045670 0.374989 0.092824
0.111140 0.374192 0.092027
0.179592 0.373358 0.091193
0.250530 0.372494 0.090329
0.323455 0.371606 0.089441
0.397872 0.370699 0.088534
0.473283 0.369781 0.087616
0.549191 0.368856 0.086691
0.625098 0.367931 0.085766
0.700509 0.367013 0.084848
0.774926 0.366106 0.083942
0.847852 0.365218 0.083053
0.918789 0.364354 0.082189
0.987241 0.363520 0.081355
1.000000 0.362723 0.080558
1.000000 0.361968 0.079803
0.000000 0.444237 0.090690
0.042780 0.443481 0.089934
0.108250 0.442684 0.089137
0.176702 0.441850 0.088303
0.247640 0.440986 0.087439
0.320566 0.440098 0.086551
0.394982 0.439191 0.085644
0.470393 0.438273 0.084726
0.546301 0.437348 0.083801
0.622209 0.436424 0.082877
0.697619 0.435505 0.081958
0.772036 0.434599 0.081052
0.844962 0.433710 0.080163
0.915899 0.432846 0.079299
0.984352 0.432013 0.078466
1.000000 0.431215 0.077668
1.000000 0.430460 0.076913
0.000000 0.513180 0.087781
0.039871 0.512425 0.087026
0.105341 0.511628 0.086228
0.173794 0.510794 0.085394
0.244731 0.509930 0.084530
0.317657 0.509042 0.083642
0.392073 0.508135 0.082736
0.467484 0.507217 0.081817
0.543392 0.506292 0.080893
0.619300 0.505367 0.079968
0.694711 0.504449 0.079049
0.769127 0.503542 0.078143
0.842053 0.502654 0.077255
0.912990 0.501790 0.076391
0.981443 0.500956 0.075557
1.000000 0.500159 0.074759
1.000000 0.499404 0.074004
0.000000 0.582124 0.084872
0.036962 0.581369 0.084117
0.102433 0.580571 0.083319
0.170885 0.579738 0.082486
0.241822 0.578874 0.081622
0.314748 0.577985 0.080733
0.389165 0.577079 0.079827
0.464575 0.576160 0.078908
0.540483 0.575236 0.077984
0.616391 0.574311 0.077059
0.691802 0.573393 0.076141
0.766219 0.572486 0.075234
0.839144 0.571598 0.074346
0.910082 0.570734 0.073482
0.978534 0.569900 0.072648
1.000000 0.569103 0.071851
1.000000 0.568348 0.071095
0.000000 0.650616 0.081982
0.034073 0.649861 0.081227
0.099543 0.649064 0.080430
0.167995 0.648230 0.079596
0.238933 0.647366 0.078732
0.311858 0.646478 0.077844
0.386275 0.645571 0.076937
0.461686 0.644653 0.076019
0.537593 0.643728 0.075094
0.613501 0.642803 0.074169
0.688912 0.641885 0.073251
0.763329 0.640978 0.072344
0.836254 0.640090 0.071456
0.907192 0.639226 0.070592
0.975644 0.638392 0.069758
1.000000 0.637595 0.068961
1.000000 0.636840 0.068206
0.000000 0.718206 0.079131
0.031221 0.717451 0.078375
0.096691 0.716653 0.077578
0.165143 0.715819 0.076744
0.236081 0.714955 0.075880
0.309007 0.714067 0.074992
0.383423 0.713161 0.074085
0.458834 0.712242 0.073167
0.534742 0.711317 0.072242
0.610650 0.710393 0.071318
0.686060 0.709474 0.070399
0.760477 0.708568 0.069493
0.833403 0.707680 0.068604
0.904340 0.706816 0.067740
0.972793 0.705982 0.066907
1.000000 0.705184 0.066109
1.000000 0.704429 0.065354
0.000000 0.784441 0.076336
0.028426 0.783686 0.075581
0.093897 0.782888 0.074783
0.162349 0.782055 0.073950
0.233286 0.781190 0.073086
0.306212 0.780302 0.072197
0.380629 0.779396 0.071291
0.456039 0.778477 0.070372
0.531947 0.777553 0.069448
0.607855 0.776628 0.068523
0.683266 0.775709 0.067605
0.757683 0.774803 0.066698
0.830608 0.773915 0.065810
0.901546 0.773051 0.064946
0.969998 0.772217 0.064112
1.000000 0.771419 0.063315
1.000000 0.770664 0.062560
0.000000 0.848870 0.073618
0.025708 0.848115 0.072863
0.091178 0.847318 0.072065
0.159631 0.846484 0.071231
0.230568 0.845620 0.070367
0.303494 0.844732 0.069479
0.377910 0.843825 0.068573
0.453321 0.842907 0.067654
0.529229 0.841982 0.066729
0.605137 0.841057 0.065805
0.680548 0.840139 0.064886
0.754964 0.839232 0.063980
0.827890 0.838344 0.063092
0.898827 0.837480 0.062228
0.967280 0.836646 0.061394
1.000000 0.835849 0.060596
1.000000 0.835094 0.059841
0.000000 0.911042 0.070995
0.023085 0.910287 0.070239
0.088555 0.909490 0.069442
0.157007 0.908656 0.068608
0.227945 0.907792 0.067744
0.300871 0.906904 0.066856
0.375287 0.905997 0.065949
0.450698 0.905079 0.065031
0.526606 0.904154 0.064106
0.602514 0.903230 0.063182
0.677924 0.902311 0.062263
0.752341 0.901405 0.061357
0.825267 0.900516 0.060468
0.896204 0.899652 0.059604
0.964657 0.898819 0.058771
1.000000 0.898021 0.057973
1.000000 0.897266 0.057218
0.000000 0.970506 0.068486
0.020576 0.969751 0.067731
0.086046 0.968954 0.066933
0.154499 0.968120 0.066099
0.225436 0.967256 0.065235
0.298362 0.966367 0.064347
0.372778 0.965461 0.063441
0.448189 0.964542 0.062522
0.524097 0.963618 0.061597
0.600005 0.962693 0.060673
0.675416 0.961775 0.059754
0.749832 0.960868 0.058848
0.822758 0.959980 0.057960
0.893695 0.959116 0.057096
0.962148 0.958282 0.056262
1.000000 0.957485 0.055464
1.000000 0.956730 0.054709
0.000000 1.000000 0.066110
0.018201 1.000000 0.065355
0.083671 1.000000 0.064558
0.152123 1.000000 0.063724
0.223061 1.000000 0.062860
0.295986 1.000000 0.061972
0.370403 1.000000 0.061065
0.445814 1.000000 0.060147
0.521721 1.000000 0.059222
0.597629 1.000000 0.058297
0.673040 1.000000 0.057379
0.747457 1.000000 0.056472
0.820382 1.000000 0.055584
0.891320 1.000000 0.054720
0.959772 1.000000 0.053886
1.000000 1.000000 0.053089
1.000000 1.000000 0.052334
0.000000 0.000000 0.168232
0.061301 0.000000 0.167477
0.126771 0.000000 0.166679
0.195223 0.000000 0.165845
0.266161 0.000000 0.164981
0.339086 0.000000 0.164093
0.413503 0.000000 0.163187
0.488914 0.000000 0.162268
0.564821 0.000000 0.161343
0.640729 0.000000 0.160419
0.716140 0.000000 0.159500
0.790557 0.000000 0.158594
0.863482 0.000000 0.157706
0.934420 0.000000 0.156841
1.000000 0.000000 0.156008
